(1001)
(T1  D=0.396 CR=0. - ZMIN=-1.37 - FLAT END MILL)
G0 G90 G94 G17
G21
G53 G0 Z0.

(A 0.4MM  FLATEND  PARALLEL)
M5
M9
T1
S12000 M3
G4 P4.
G55
G0 X69.634 Y31.954
Z15.
Z4.27
G1 Z-1.22 F40.
X69.487
X69.478 Z-1.218
X69.469 Z-1.216
X69.408
X69.39 Y31.961
X69.383 Y31.979
X69.39 Y31.996
X69.408 Y32.004
X69.416 Z-1.218
X69.425 Z-1.22
X69.676
X69.682 Z-1.215
X69.684 Z-1.209
X69.682 Y32.002 Z-1.194
X69.678 Y31.997 Z-1.18
X69.673 Y31.99 Z-1.155
X69.676 Y31.995 Z-1.129
X69.688 Y32.009 Z-1.109
X69.705 Y32.029 Z-1.102
X69.721 Y32.048 Z-1.109
X69.733 Y32.062 Z-1.129
X69.737 Y32.067 Z-1.155
X69.731 Y32.06 Z-1.18
X69.727 Y32.055 Z-1.194
X69.726 Y32.054 Z-1.209
X69.724 Z-1.215
X69.718 Z-1.22
X69.363
X69.355 Z-1.218
X69.346 Z-1.216
X69.285
X69.267 Y32.061
X69.26 Y32.079
X69.267 Y32.096
X69.285 Y32.104
X69.293 Z-1.218
X69.302 Z-1.22
X69.76
X69.766 Z-1.215
X69.768 Z-1.209
X69.767 Y32.102 Z-1.194
X69.762 Y32.097 Z-1.18
X69.757 Y32.09 Z-1.155
X69.761 Y32.095 Z-1.129
X69.772 Y32.109 Z-1.109
X69.789 Y32.129 Z-1.102
X69.806 Y32.148 Z-1.109
X69.817 Y32.162 Z-1.129
X69.821 Y32.167 Z-1.155
X69.816 Y32.16 Z-1.18
X69.811 Y32.155 Z-1.194
X69.81 Y32.154 Z-1.209
X69.808 Z-1.215
X69.803 Z-1.22
X69.241
X69.232 Z-1.218
X69.224 Z-1.216
X69.163
X69.145 Y32.161
X69.138 Y32.179
X69.145 Y32.196
X69.163 Y32.204
X69.172 Z-1.218
X69.18 Z-1.22
X69.845
X69.85 Z-1.215
X69.852 Z-1.209
X69.851 Y32.202 Z-1.194
X69.847 Y32.197 Z-1.18
X69.841 Y32.19 Z-1.155
X69.845 Y32.195 Z-1.129
X69.857 Y32.209 Z-1.109
X69.873 Y32.229 Z-1.102
X69.89 Y32.248 Z-1.109
X69.902 Y32.262 Z-1.129
X69.905 Y32.267 Z-1.155
X69.9 Y32.26 Z-1.18
X69.896 Y32.255 Z-1.194
X69.894 Y32.254 Z-1.209
X69.892 Z-1.215
X69.887 Z-1.22
X69.12
X69.111 Z-1.218
X69.103 Z-1.216
X69.043
X69.025 Y32.261
X69.018 Y32.279
X69.025 Y32.296
X69.043 Y32.304
X69.051 Z-1.218
X69.06 Z-1.22
X69.929
X69.934 Z-1.215
X69.936 Z-1.209
X69.935 Y32.302 Z-1.194
X69.931 Y32.297 Z-1.18
X69.925 Y32.29 Z-1.155
X69.929 Y32.295 Z-1.129
X69.941 Y32.309 Z-1.109
X69.957 Y32.329 Z-1.102
X69.974 Y32.348 Z-1.109
X69.986 Y32.362 Z-1.129
X69.989 Y32.367 Z-1.155
X69.984 Y32.36 Z-1.18
X69.98 Y32.355 Z-1.194
X69.978 Y32.354 Z-1.209
X69.976 Z-1.215
X69.971 Z-1.22
X69.
X68.992 Z-1.218
X68.983 Z-1.216
X68.923
X68.906 Y32.361
X68.898 Y32.379
X68.906 Y32.396
X68.923 Y32.404
X68.932 Z-1.218
X68.941 Z-1.22
X70.013
X70.018 Z-1.215
X70.02 Z-1.208
X70.019 Y32.402 Z-1.193
X70.015 Y32.397 Z-1.18
X70.009 Y32.39 Z-1.155
X70.013 Y32.395 Z-1.128
X70.025 Y32.409 Z-1.109
X70.041 Y32.429 Z-1.102
X70.058 Y32.448 Z-1.109
X70.07 Y32.462 Z-1.128
X70.073 Y32.467 Z-1.155
X70.068 Y32.46 Z-1.18
X70.064 Y32.455 Z-1.193
X70.062 Y32.454 Z-1.208
Z-1.209
X70.06 Z-1.215
X70.055 Z-1.22
X68.882
X68.873 Z-1.218
X68.864 Z-1.216
X68.806
X68.788 Y32.461
X68.781 Y32.479
X68.788 Y32.496
X68.806 Y32.504
X68.814 Z-1.218
X68.823 Z-1.22
X70.096
X70.103 Z-1.21
Z-1.209
X70.101 Y32.502 Z-1.193
X70.097 Y32.496 Z-1.18
X70.091 Y32.489 Z-1.154
X70.095 Y32.493 Z-1.128
X70.106 Y32.508 Z-1.108
X70.121 Y32.529 Z-1.1
X70.137 Y32.549 Z-1.108
X70.148 Y32.564 Z-1.128
X70.151 Y32.568 Z-1.154
X70.146 Y32.561 Z-1.18
X70.141 Y32.555 Z-1.193
X70.14 Y32.554 Z-1.209
X70.138 Z-1.215
X70.133 Z-1.22
X68.764
X68.756 Z-1.218
X68.747 Z-1.216
X68.689
X68.671 Y32.561
X68.664 Y32.579
X68.671 Y32.596
X68.689 Y32.604
X68.698 Z-1.218
X68.706 Z-1.22
X70.17
X70.177 Z-1.209
X70.176 Y32.602 Z-1.194
X70.171 Y32.596 Z-1.18
X70.166 Y32.589 Z-1.154
X70.169 Y32.593 Z-1.128
X70.18 Y32.608 Z-1.108
X70.196 Y32.629 Z-1.101
X70.211 Y32.649 Z-1.108
X70.222 Y32.664 Z-1.128
X70.226 Y32.668 Z-1.154
X70.22 Y32.661 Z-1.18
X70.216 Y32.655 Z-1.194
X70.214 Y32.654 Z-1.209
X70.207 Z-1.22
X68.648
X68.64 Z-1.218
X68.631 Z-1.216
X68.573
X68.556 Y32.661
X68.548 Y32.679
X68.556 Y32.696
X68.573 Y32.704
X68.582 Z-1.218
X68.591 Z-1.22
X70.245
X70.252 Z-1.21
X70.25 Y32.702 Z-1.194
X70.246 Y32.696 Z-1.18
X70.241 Y32.689 Z-1.155
X70.244 Y32.693 Z-1.128
X70.255 Y32.708 Z-1.108
X70.27 Y32.729 Z-1.101
X70.286 Y32.749 Z-1.108
X70.297 Y32.764 Z-1.128
X70.3 Y32.769 Z-1.155
X70.295 Y32.761 Z-1.18
X70.29 Y32.755 Z-1.194
X70.289 Y32.754 Z-1.21
X70.283 Z-1.22
X68.534
X68.525 Z-1.218
X68.516 Z-1.216
X68.46
X68.442 Y32.761
X68.435 Y32.779
X68.442 Y32.796
X68.46 Y32.804
X68.469 Z-1.218
X68.477 Z-1.22
X70.319
X70.326 Z-1.209
X70.325 Y32.802 Z-1.193
X70.321 Y32.796 Z-1.18
X70.315 Y32.789 Z-1.154
X70.318 Y32.793 Z-1.128
X70.329 Y32.808 Z-1.108
X70.345 Y32.829 Z-1.1
X70.361 Y32.849 Z-1.108
X70.372 Y32.864 Z-1.128
X70.375 Y32.868 Z-1.154
X70.369 Y32.861 Z-1.18
X70.365 Y32.855 Z-1.193
X70.364 Y32.854 Z-1.209
X70.362 Z-1.215
X70.356 Z-1.22
X68.421
X68.413 Z-1.218
X68.404 Z-1.216
X68.349
X68.331 Y32.861
X68.324 Y32.879
X68.331 Y32.896
X68.349 Y32.904
X68.357 Z-1.218
X68.366 Z-1.22
X70.395
X70.401 Z-1.21
X70.399 Y32.902 Z-1.195
X70.395 Y32.896 Z-1.181
X70.39 Y32.888 Z-1.155
X70.393 Y32.893 Z-1.129
X70.404 Y32.907 Z-1.109
X70.419 Y32.929 Z-1.102
X70.435 Y32.95 Z-1.109
X70.446 Y32.964 Z-1.129
X70.449 Y32.969 Z-1.155
X70.443 Y32.961 Z-1.181
X70.439 Y32.955 Z-1.195
X70.438 Y32.954 Z-1.21
Z-1.211
X70.432 Z-1.22
X68.311
X68.303 Z-1.218
X68.294 Z-1.216
X68.24
X68.222 Y32.961
X68.215 Y32.979
X68.222 Y32.996
X68.24 Y33.004
X68.249 Z-1.218
X68.257 Z-1.22
X70.466
X70.473 Z-1.209
X70.471 Y33.001 Z-1.194
X70.467 Y32.996 Z-1.179
X70.462 Y32.988 Z-1.154
X70.465 Y32.992 Z-1.127
X70.475 Y33.007 Z-1.107
X70.49 Y33.029 Z-1.1
X70.506 Y33.05 Z-1.107
X70.516 Y33.065 Z-1.127
X70.519 Y33.069 Z-1.154
X70.514 Y33.061 Z-1.179
X70.509 Y33.056 Z-1.194
X70.508 Y33.054 Z-1.209
X70.501 Z-1.22
X68.205
X68.196 Z-1.218
X68.188 Z-1.216
X68.142
X68.124 Y33.061
X68.117 Y33.079
X68.124 Y33.096
X68.142 Y33.104
X68.15 Z-1.218
X68.159 Z-1.22
X70.536
X70.543 Z-1.21
X70.542 Y33.101 Z-1.194
X70.538 Y33.096 Z-1.18
X70.532 Y33.088 Z-1.155
X70.535 Y33.092 Z-1.128
X70.546 Y33.107 Z-1.108
X70.561 Y33.129 Z-1.1
X70.576 Y33.15 Z-1.108
X70.586 Y33.165 Z-1.128
X70.589 Y33.169 Z-1.155
X70.584 Y33.161 Z-1.18
X70.58 Y33.156 Z-1.194
X70.578 Y33.154 Z-1.21
Z-1.211
X70.572 Z-1.22
X68.123
X68.115 Z-1.218
X68.106 Z-1.216
X68.079
X68.062 Y33.161
X68.054 Y33.179
X68.062 Y33.196
X68.079 Y33.204
X68.088 Z-1.218
X68.097 Z-1.22
X70.607
X70.613 Z-1.21
X70.612 Y33.201 Z-1.194
X70.608 Y33.196 Z-1.18
X70.602 Y33.188 Z-1.155
X70.605 Y33.192 Z-1.128
X70.616 Y33.207 Z-1.108
X70.631 Y33.229 Z-1.1
X70.646 Y33.25 Z-1.108
X70.657 Y33.265 Z-1.128
X70.66 Y33.269 Z-1.155
X70.654 Y33.261 Z-1.18
X70.65 Y33.256 Z-1.194
X70.648 Y33.254 Z-1.21
Z-1.211
X70.642 Z-1.22
X68.08
X68.071 Z-1.218
X68.062 Z-1.216
X68.055
X68.037 Y33.261
X68.03 Y33.278
X68.037 Y33.296
X68.055 Y33.303
X68.063 Z-1.218
X68.072 Z-1.22
X70.677
X70.684 Z-1.21
X70.682 Y33.301 Z-1.195
X70.678 Y33.296 Z-1.181
X70.673 Y33.288 Z-1.155
X70.676 Y33.292 Z-1.128
X70.686 Y33.307 Z-1.108
X70.701 Y33.329 Z-1.101
X70.716 Y33.35 Z-1.108
X70.727 Y33.365 Z-1.128
X70.73 Y33.369 Z-1.155
X70.724 Y33.361 Z-1.181
X70.72 Y33.356 Z-1.195
X70.719 Y33.353 Z-1.21
X70.712 Z-1.22
X68.073
X68.064 Z-1.218
X68.056 Z-1.216
X68.038 Y33.361
X68.031 Y33.378
X68.038 Y33.396
X68.056 Y33.403
X68.066
X68.074 Z-1.218
X68.083 Z-1.22
X70.747
X70.754 Z-1.21
X70.752 Y33.401 Z-1.194
X70.748 Y33.395 Z-1.18
X70.743 Y33.387 Z-1.154
X70.746 Y33.391 Z-1.127
X70.756 Y33.407 Z-1.107
X70.771 Y33.428 Z-1.1
X70.785 Y33.45 Z-1.107
X70.795 Y33.466 Z-1.127
X70.798 Y33.47 Z-1.154
X70.793 Y33.462 Z-1.18
X70.789 Y33.456 Z-1.194
X70.787 Y33.453 Z-1.21
X70.781 Z-1.22
X68.101
X68.093 Z-1.218
X68.084 Z-1.216
X68.066 Y33.461
X68.059 Y33.478
X68.066 Y33.496
X68.084 Y33.503
X68.111
X68.12 Z-1.218
X68.128 Z-1.22
X70.814
X70.82 Z-1.21
X70.819 Y33.501 Z-1.194
X70.815 Y33.495 Z-1.18
X70.809 Y33.487 Z-1.155
X70.812 Y33.491 Z-1.128
X70.822 Y33.507 Z-1.108
X70.837 Y33.528 Z-1.1
X70.851 Y33.55 Z-1.108
X70.861 Y33.566 Z-1.128
X70.864 Y33.57 Z-1.155
X70.859 Y33.562 Z-1.18
X70.855 Y33.556 Z-1.194
X70.853 Y33.553 Z-1.21
X70.847 Z-1.22
X68.163
X68.155 Z-1.218
X68.146 Z-1.216
X68.128 Y33.561
X68.121 Y33.578
X68.128 Y33.596
X68.146 Y33.603
X68.189
X68.198 Z-1.218
X68.207 Z-1.22
X70.88
X70.886 Z-1.21
Z-1.209
X70.885 Y33.601 Z-1.194
X70.881 Y33.595 Z-1.179
X70.875 Y33.587 Z-1.154
X70.878 Y33.591 Z-1.127
X70.888 Y33.607 Z-1.107
X70.903 Y33.628 Z-1.099
X70.917 Y33.65 Z-1.107
X70.927 Y33.666 Z-1.127
X70.93 Y33.67 Z-1.154
X70.925 Y33.662 Z-1.179
X70.921 Y33.656 Z-1.194
X70.919 Y33.653 Z-1.209
X70.912 Z-1.22
X68.253
X68.245 Z-1.218
X68.236 Z-1.216
X68.218 Y33.661
X68.211 Y33.678
X68.218 Y33.696
X68.236 Y33.703
X68.283
X68.291 Z-1.218
X68.3 Z-1.22
X70.946
X70.952 Z-1.21
X70.951 Y33.701 Z-1.195
X70.947 Y33.695 Z-1.18
X70.941 Y33.687 Z-1.155
X70.944 Y33.691 Z-1.128
X70.954 Y33.707 Z-1.108
X70.969 Y33.728 Z-1.1
X70.983 Y33.75 Z-1.108
X70.993 Y33.766 Z-1.128
X70.996 Y33.77 Z-1.155
X70.99 Y33.762 Z-1.18
X70.986 Y33.756 Z-1.195
X70.985 Y33.753 Z-1.21
Z-1.211
X70.979 Z-1.22
X68.347
X68.338 Z-1.218
X68.329 Z-1.216
X68.312 Y33.761
X68.304 Y33.778
X68.312 Y33.796
X68.329 Y33.803
X68.376
X68.385 Z-1.218
X68.393 Z-1.22
X71.012
X71.018 Z-1.211
Z-1.21
X71.016 Y33.801 Z-1.195
X71.012 Y33.795 Z-1.18
X71.007 Y33.787 Z-1.155
X71.01 Y33.791 Z-1.128
X71.02 Y33.807 Z-1.108
X71.034 Y33.828 Z-1.1
X71.049 Y33.85 Z-1.108
X71.059 Y33.866 Z-1.128
X71.062 Y33.87 Z-1.155
X71.056 Y33.862 Z-1.18
X71.052 Y33.856 Z-1.195
X71.051 Y33.853 Z-1.21
X71.045 Z-1.22
X68.44
X68.431 Z-1.218
X68.423 Z-1.216
X68.405 Y33.861
X68.398 Y33.878
X68.405 Y33.896
X68.423 Y33.903
X68.469
X68.478 Z-1.218
X68.487 Z-1.22
X71.077
X71.083 Z-1.211
X71.082 Y33.901 Z-1.195
X71.078 Y33.895 Z-1.18
X71.072 Y33.886 Z-1.155
X71.075 Y33.89 Z-1.128
X71.085 Y33.906 Z-1.107
X71.099 Y33.928 Z-1.1
X71.113 Y33.951 Z-1.107
X71.122 Y33.967 Z-1.128
X71.125 Y33.971 Z-1.155
X71.12 Y33.962 Z-1.18
X71.116 Y33.956 Z-1.195
X71.114 Y33.953 Z-1.211
X71.108 Z-1.22
X68.533
X68.525 Z-1.218
X68.516 Z-1.216
X68.498 Y33.961
X68.491 Y33.978
X68.498 Y33.996
X68.516 Y34.003
X68.563
X68.571 Z-1.218
X68.58 Z-1.22
X71.138
X71.145 Z-1.21
X71.144 Y34.001 Z-1.194
X71.14 Y33.995 Z-1.18
X71.134 Y33.986 Z-1.154
X71.137 Y33.99 Z-1.127
X71.146 Y34.006 Z-1.107
X71.16 Y34.028 Z-1.099
X71.174 Y34.051 Z-1.107
X71.184 Y34.067 Z-1.127
X71.186 Y34.071 Z-1.154
X71.181 Y34.062 Z-1.18
X71.177 Y34.056 Z-1.194
X71.176 Y34.053 Z-1.21
X71.169 Z-1.22
X68.623
X68.615 Z-1.218
X68.606 Z-1.216
X68.588 Y34.061
X68.581 Y34.078
X68.588 Y34.096
X68.606 Y34.103
X68.647
X68.656 Z-1.218
X68.665 Z-1.22
X71.201
X71.206 Z-1.211
X71.205 Y34.101 Z-1.195
X71.201 Y34.095 Z-1.18
X71.196 Y34.086 Z-1.155
X71.198 Y34.09 Z-1.128
X71.208 Y34.106 Z-1.107
X71.222 Y34.128 Z-1.1
X71.236 Y34.151 Z-1.107
X71.245 Y34.167 Z-1.128
X71.248 Y34.171 Z-1.155
X71.243 Y34.162 Z-1.18
X71.239 Y34.156 Z-1.195
X71.237 Y34.153 Z-1.211
X71.231 Z-1.22
X68.706
X68.697 Z-1.218
X68.689 Z-1.216
X68.671 Y34.161
X68.664 Y34.178
X68.671 Y34.196
X68.689 Y34.203
X68.73
X68.739 Z-1.218
X68.747 Z-1.22
X71.262
X71.268 Z-1.211
X71.267 Y34.201 Z-1.195
X71.263 Y34.195 Z-1.181
X71.257 Y34.186 Z-1.155
X71.26 Y34.19 Z-1.128
X71.27 Y34.206 Z-1.108
X71.283 Y34.228 Z-1.1
X71.297 Y34.251 Z-1.108
X71.307 Y34.267 Z-1.128
X71.309 Y34.271 Z-1.155
X71.304 Y34.262 Z-1.181
X71.3 Y34.256 Z-1.195
X71.299 Y34.253 Z-1.211
X71.293 Z-1.22
X68.789
X68.78 Z-1.218
X68.771 Z-1.216
X68.754 Y34.261
X68.746 Y34.278
X68.754 Y34.296
X68.771 Y34.303
X68.813
X68.822 Z-1.218
X68.83 Z-1.22
X71.324
X71.33 Z-1.211
X71.328 Y34.301 Z-1.195
X71.324 Y34.295 Z-1.18
X71.319 Y34.286 Z-1.155
X71.321 Y34.29 Z-1.128
X71.331 Y34.306 Z-1.108
X71.345 Y34.328 Z-1.1
X71.359 Y34.351 Z-1.108
X71.368 Y34.367 Z-1.128
X71.371 Y34.371 Z-1.155
X71.366 Y34.362 Z-1.18
X71.362 Y34.356 Z-1.195
X71.36 Y34.353 Z-1.211
X71.354 Z-1.22
X68.872
X68.863 Z-1.218
X68.854 Z-1.216
X68.836 Y34.361
X68.829 Y34.378
X68.836 Y34.396
X68.854 Y34.403
X68.896
X68.904 Z-1.218
X68.913 Z-1.22
X71.385
X71.39 Z-1.212
X71.388 Y34.401 Z-1.196
X71.384 Y34.394 Z-1.181
X71.379 Y34.385 Z-1.156
X71.382 Y34.39 Z-1.129
X71.391 Y34.406 Z-1.108
X71.404 Y34.428 Z-1.101
X71.418 Y34.451 Z-1.108
X71.427 Y34.467 Z-1.129
X71.429 Y34.471 Z-1.156
X71.424 Y34.463 Z-1.181
X71.42 Y34.456 Z-1.196
X71.419 Y34.453 Z-1.212
X71.414 Z-1.22
X68.954
X68.946 Z-1.218
X68.937 Z-1.216
X68.919 Y34.461
X68.912 Y34.478
X68.919 Y34.496
X68.937 Y34.503
X68.976
X68.985 Z-1.218
X68.993 Z-1.22
X71.443
X71.448 Z-1.211
X71.447 Y34.501 Z-1.195
X71.443 Y34.494 Z-1.181
X71.438 Y34.485 Z-1.155
X71.44 Y34.49 Z-1.128
X71.449 Y34.506 Z-1.108
X71.463 Y34.528 Z-1.1
X71.476 Y34.551 Z-1.108
X71.485 Y34.567 Z-1.128
X71.488 Y34.571 Z-1.155
X71.482 Y34.563 Z-1.181
X71.479 Y34.556 Z-1.195
X71.477 Y34.553 Z-1.211
Z-1.212
X71.472 Z-1.22
X69.03
X69.022 Z-1.218
X69.013 Z-1.216
X68.995 Y34.561
X68.988 Y34.578
X68.995 Y34.596
X69.013 Y34.603
X69.05
X69.059 Z-1.218
X69.068 Z-1.22
X71.5
X71.506 Z-1.211
X71.505 Y34.601 Z-1.195
X71.501 Y34.594 Z-1.18
X71.496 Y34.585 Z-1.155
X71.498 Y34.59 Z-1.128
X71.507 Y34.606 Z-1.107
X71.521 Y34.628 Z-1.099
X71.534 Y34.651 Z-1.107
X71.543 Y34.667 Z-1.128
X71.546 Y34.672 Z-1.155
X71.54 Y34.663 Z-1.18
X71.537 Y34.656 Z-1.195
X71.535 Y34.653 Z-1.211
X71.53 Z-1.22
X69.105
X69.096 Z-1.218
X69.087 Z-1.216
X69.07 Y34.661
X69.062 Y34.678
X69.07 Y34.696
X69.087 Y34.703
X69.124
X69.133 Z-1.218
X69.142 Z-1.22
X71.557
X71.563 Z-1.211
Z-1.21
X71.562 Y34.701 Z-1.194
X71.558 Y34.694 Z-1.179
X71.553 Y34.685 Z-1.154
X71.555 Y34.689 Z-1.127
X71.564 Y34.705 Z-1.106
X71.577 Y34.728 Z-1.099
X71.59 Y34.752 Z-1.106
X71.599 Y34.768 Z-1.127
X71.602 Y34.772 Z-1.154
X71.597 Y34.763 Z-1.179
X71.593 Y34.756 Z-1.194
X71.591 Y34.753 Z-1.21
X71.585 Z-1.22
X69.179
X69.17 Z-1.218
X69.162 Z-1.216
X69.144 Y34.761
X69.137 Y34.778
X69.144 Y34.796
X69.162 Y34.803
X69.199
X69.207 Z-1.218
X69.216 Z-1.22
X71.614
X71.619 Z-1.211
X71.618 Y34.801 Z-1.195
X71.614 Y34.794 Z-1.18
X71.609 Y34.785 Z-1.155
X71.611 Y34.789 Z-1.127
X71.62 Y34.805 Z-1.107
X71.633 Y34.828 Z-1.099
X71.646 Y34.852 Z-1.107
X71.655 Y34.868 Z-1.127
X71.657 Y34.872 Z-1.155
X71.652 Y34.863 Z-1.18
X71.649 Y34.856 Z-1.195
X71.647 Y34.853 Z-1.211
Z-1.212
X71.642 Z-1.22
X69.253
X69.245 Z-1.218
X69.236 Z-1.216
X69.218 Y34.861
X69.211 Y34.878
X69.218 Y34.896
X69.236 Y34.903
X69.273
X69.282 Z-1.218
X69.29 Z-1.22
X71.669
X71.674 Z-1.212
Z-1.211
X71.673 Y34.901 Z-1.195
X71.669 Y34.894 Z-1.18
X71.664 Y34.885 Z-1.155
X71.666 Y34.889 Z-1.127
X71.675 Y34.905 Z-1.107
X71.688 Y34.928 Z-1.099
X71.7 Y34.952 Z-1.107
X71.709 Y34.968 Z-1.127
X71.711 Y34.972 Z-1.155
X71.706 Y34.963 Z-1.18
X71.703 Y34.956 Z-1.195
X71.701 Y34.953 Z-1.211
X71.696 Z-1.22
X69.327
X69.319 Z-1.218
X69.31 Z-1.216
X69.292 Y34.961
X69.285 Y34.978
X69.292 Y34.996
X69.31 Y35.003
X69.344
X69.352 Z-1.218
X69.361 Z-1.22
X71.723
X71.728 Z-1.212
Z-1.211
X71.727 Y35.001 Z-1.194
X71.723 Y34.994 Z-1.18
X71.718 Y34.985 Z-1.154
X71.721 Y34.989 Z-1.127
X71.729 Y35.005 Z-1.106
X71.742 Y35.028 Z-1.099
X71.754 Y35.052 Z-1.106
X71.763 Y35.068 Z-1.127
X71.765 Y35.072 Z-1.154
X71.76 Y35.063 Z-1.18
X71.757 Y35.056 Z-1.194
X71.755 Y35.053 Z-1.211
X71.749 Z-1.22
X69.395
X69.386 Z-1.218
X69.377 Z-1.216
X69.36 Y35.061
X69.352 Y35.078
X69.36 Y35.096
X69.377 Y35.103
X69.411
X69.42 Z-1.218
X69.429 Z-1.22
X71.776
X71.782 Z-1.212
Z-1.211
X71.78 Y35.101 Z-1.195
X71.776 Y35.094 Z-1.18
X71.772 Y35.084 Z-1.155
X71.774 Y35.089 Z-1.127
X71.782 Y35.105 Z-1.107
X71.795 Y35.128 Z-1.099
X71.807 Y35.152 Z-1.107
X71.815 Y35.168 Z-1.127
X71.818 Y35.172 Z-1.155
X71.813 Y35.163 Z-1.18
X71.809 Y35.156 Z-1.195
X71.808 Y35.153 Z-1.211
X71.802 Z-1.22
X69.462
X69.454 Z-1.218
X69.445 Z-1.216
X69.427 Y35.161
X69.42 Y35.178
X69.427 Y35.196
X69.445 Y35.203
X69.479
X69.487 Z-1.218
X69.496 Z-1.22
X71.828
X71.834 Z-1.211
X71.832 Y35.201 Z-1.194
X71.829 Y35.194 Z-1.18
X71.824 Y35.184 Z-1.154
X71.826 Y35.188 Z-1.127
X71.834 Y35.205 Z-1.106
X71.847 Y35.228 Z-1.098
X71.859 Y35.252 Z-1.106
X71.867 Y35.268 Z-1.127
X71.87 Y35.273 Z-1.154
X71.865 Y35.263 Z-1.18
X71.861 Y35.256 Z-1.194
X71.86 Y35.253 Z-1.211
X71.854 Z-1.22
X69.53
X69.521 Z-1.218
X69.512 Z-1.216
X69.495 Y35.261
X69.487 Y35.278
X69.495 Y35.296
X69.512 Y35.303
X69.546
X69.555 Z-1.218
X69.563 Z-1.22
X71.879
X71.885 Z-1.211
X71.883 Y35.301 Z-1.194
X71.88 Y35.294 Z-1.18
X71.875 Y35.284 Z-1.154
X71.877 Y35.288 Z-1.127
X71.885 Y35.305 Z-1.106
X71.897 Y35.328 Z-1.098
X71.909 Y35.352 Z-1.106
X71.918 Y35.369 Z-1.127
X71.92 Y35.373 Z-1.154
X71.915 Y35.363 Z-1.18
X71.911 Y35.356 Z-1.194
X71.91 Y35.353 Z-1.211
Z-1.212
X71.905 Z-1.22
X69.597
X69.588 Z-1.218
X69.58 Z-1.216
X69.562 Y35.361
X69.555 Y35.378
X69.562 Y35.396
X69.58 Y35.403
X69.613
X69.622 Z-1.218
X69.631 Z-1.22
X71.929
X71.935 Z-1.211
X71.934 Y35.401 Z-1.195
X71.93 Y35.394 Z-1.18
X71.925 Y35.384 Z-1.154
X71.927 Y35.388 Z-1.127
X71.936 Y35.405 Z-1.106
X71.947 Y35.428 Z-1.099
X71.959 Y35.452 Z-1.106
X71.968 Y35.469 Z-1.127
X71.97 Y35.473 Z-1.154
X71.965 Y35.463 Z-1.18
X71.961 Y35.456 Z-1.195
X71.96 Y35.453 Z-1.211
Z-1.212
X71.955 Z-1.22
X69.664
X69.655 Z-1.218
X69.647 Z-1.216
X69.629 Y35.461
X69.622 Y35.478
X69.629 Y35.496
X69.647 Y35.503
X69.677
X69.686 Z-1.218
X69.695 Z-1.22
X71.979
X71.984 Z-1.212
Z-1.211
X71.983 Y35.501 Z-1.194
X71.979 Y35.493 Z-1.179
X71.975 Y35.484 Z-1.154
X71.977 Y35.488 Z-1.126
X71.985 Y35.504 Z-1.106
X71.996 Y35.528 Z-1.098
X72.008 Y35.552 Z-1.106
X72.016 Y35.569 Z-1.126
X72.018 Y35.573 Z-1.154
X72.013 Y35.563 Z-1.179
X72.009 Y35.556 Z-1.194
X72.008 Y35.553 Z-1.211
X72.002 Z-1.22
X69.726
X69.717 Z-1.218
X69.708 Z-1.216
X69.691 Y35.561
X69.683 Y35.578
X69.691 Y35.596
X69.708 Y35.603
X69.739
X69.748 Z-1.218
X69.757 Z-1.22
X72.027
X72.032 Z-1.212
X72.031 Y35.601 Z-1.195
X72.027 Y35.593 Z-1.18
X72.023 Y35.584 Z-1.154
X72.025 Y35.588 Z-1.127
X72.033 Y35.604 Z-1.106
X72.044 Y35.628 Z-1.099
X72.055 Y35.653 Z-1.106
X72.063 Y35.669 Z-1.127
X72.065 Y35.673 Z-1.154
X72.061 Y35.664 Z-1.18
X72.057 Y35.656 Z-1.195
X72.056 Y35.653 Z-1.212
X72.051 Z-1.22
X69.788
X69.779 Z-1.218
X69.77 Z-1.216
X69.752 Y35.661
X69.745 Y35.678
X69.752 Y35.696
X69.77 Y35.703
X69.801
X69.81 Z-1.218
X69.818 Z-1.22
X72.074
X72.079 Z-1.212
Z-1.211
X72.078 Y35.701 Z-1.195
X72.074 Y35.693 Z-1.18
X72.07 Y35.683 Z-1.154
X72.072 Y35.687 Z-1.127
X72.079 Y35.704 Z-1.106
X72.091 Y35.728 Z-1.098
X72.102 Y35.753 Z-1.106
X72.109 Y35.769 Z-1.127
X72.111 Y35.774 Z-1.154
X72.107 Y35.764 Z-1.18
X72.103 Y35.756 Z-1.195
X72.102 Y35.753 Z-1.211
X72.096 Z-1.22
X69.849
X69.841 Z-1.218
X69.832 Z-1.216
X69.814 Y35.761
X69.807 Y35.778
X69.814 Y35.796
X69.832 Y35.803
X69.863
X69.871 Z-1.218
X69.88 Z-1.22
X72.12
X72.125 Z-1.211
X72.124 Y35.801 Z-1.194
X72.121 Y35.793 Z-1.179
X72.116 Y35.783 Z-1.154
X72.118 Y35.787 Z-1.126
X72.125 Y35.804 Z-1.106
X72.136 Y35.828 Z-1.098
X72.147 Y35.853 Z-1.106
X72.155 Y35.87 Z-1.126
X72.156 Y35.874 Z-1.154
X72.152 Y35.864 Z-1.179
X72.149 Y35.856 Z-1.194
X72.147 Y35.853 Z-1.211
X72.142 Z-1.22
X69.911
X69.902 Z-1.218
X69.894 Z-1.216
X69.876 Y35.861
X69.869 Y35.878
X69.876 Y35.896
X69.894 Y35.903
X69.925
X69.933 Z-1.218
X69.942 Z-1.22
X72.164
X72.169 Z-1.212
X72.168 Y35.901 Z-1.195
X72.165 Y35.893 Z-1.18
X72.16 Y35.883 Z-1.154
X72.162 Y35.887 Z-1.127
X72.17 Y35.904 Z-1.106
X72.181 Y35.928 Z-1.098
X72.191 Y35.953 Z-1.106
X72.199 Y35.97 Z-1.127
X72.201 Y35.974 Z-1.154
X72.196 Y35.964 Z-1.18
X72.193 Y35.956 Z-1.195
X72.192 Y35.953 Z-1.212
X72.187 Z-1.22
X69.973
X69.964 Z-1.218
X69.955 Z-1.216
X69.937 Y35.961
X69.93 Y35.978
X69.937 Y35.996
X69.955 Y36.003
X69.984
X69.992 Z-1.218
X70.001 Z-1.22
X72.207
X72.212 Z-1.212
X72.211 Y36.001 Z-1.195
X72.208 Y35.993 Z-1.18
X72.204 Y35.982 Z-1.154
X72.205 Y35.987 Z-1.127
X72.212 Y36.004 Z-1.106
X72.222 Y36.028 Z-1.098
X72.233 Y36.053 Z-1.106
X72.24 Y36.07 Z-1.127
X72.241 Y36.074 Z-1.154
X72.237 Y36.064 Z-1.18
X72.234 Y36.056 Z-1.195
X72.233 Y36.053 Z-1.212
X72.227 Z-1.22
X70.03
X70.021 Z-1.218
X70.012 Z-1.216
X69.994 Y36.061
X69.987 Y36.078
X69.994 Y36.096
X70.012 Y36.103
X70.041
X70.049 Z-1.218
X70.058 Z-1.22
X72.248
X72.253 Z-1.212
X72.252 Y36.101 Z-1.195
X72.249 Y36.093 Z-1.18
X72.245 Y36.082 Z-1.154
X72.246 Y36.087 Z-1.127
X72.253 Y36.104 Z-1.106
X72.263 Y36.128 Z-1.098
X72.273 Y36.153 Z-1.106
X72.28 Y36.17 Z-1.127
X72.282 Y36.174 Z-1.154
X72.278 Y36.164 Z-1.18
X72.275 Y36.156 Z-1.195
X72.274 Y36.153 Z-1.212
X72.268 Z-1.22
X70.087
X70.078 Z-1.218
X70.069 Z-1.216
X70.052 Y36.161
X70.044 Y36.178
X70.052 Y36.196
X70.069 Y36.203
X70.098
X70.106 Z-1.218
X70.115 Z-1.22
X72.289
X72.294 Z-1.212
Z-1.211
X72.293 Y36.201 Z-1.195
X72.29 Y36.193 Z-1.18
X72.285 Y36.182 Z-1.154
X72.287 Y36.187 Z-1.126
X72.294 Y36.204 Z-1.105
X72.304 Y36.228 Z-1.098
X72.314 Y36.253 Z-1.105
X72.321 Y36.27 Z-1.126
X72.323 Y36.274 Z-1.154
X72.319 Y36.264 Z-1.18
X72.316 Y36.256 Z-1.195
X72.314 Y36.253 Z-1.211
X72.309 Z-1.22
X70.144
X70.135 Z-1.218
X70.126 Z-1.216
X70.109 Y36.261
X70.101 Y36.278
X70.109 Y36.296
X70.126 Y36.303
X70.155
X70.163 Z-1.218
X70.172 Z-1.22
X72.333
X72.339 Z-1.211
Z-1.21
X72.338 Y36.301 Z-1.195
X72.333 Y36.296 Z-1.181
X72.328 Y36.289 Z-1.155
X72.331 Y36.293 Z-1.129
X72.342 Y36.308 Z-1.109
X72.358 Y36.328 Z-1.102
X72.373 Y36.349 Z-1.109
X72.385 Y36.364 Z-1.129
X72.388 Y36.368 Z-1.155
X72.382 Y36.361 Z-1.181
X72.378 Y36.355 Z-1.195
X72.377 Y36.353 Z-1.21
X72.37 Z-1.22
X70.201
X70.192 Z-1.218
X70.183 Z-1.216
X70.166 Y36.361
X70.158 Y36.378
X70.166 Y36.396
X70.183 Y36.403
X70.212
X70.22 Z-1.218
X70.229 Z-1.22
X72.408
X72.415 Z-1.21
X72.413 Y36.402 Z-1.195
X72.409 Y36.396 Z-1.181
X72.404 Y36.389 Z-1.155
X72.407 Y36.393 Z-1.129
X72.418 Y36.408 Z-1.109
X72.434 Y36.428 Z-1.102
X72.45 Y36.449 Z-1.109
X72.461 Y36.464 Z-1.129
X72.464 Y36.468 Z-1.155
X72.458 Y36.461 Z-1.181
X72.454 Y36.455 Z-1.195
X72.453 Y36.453 Z-1.21
X72.446 Z-1.22
X70.258
X70.249 Z-1.218
X70.24 Z-1.216
X70.223 Y36.461
X70.215 Y36.478
X70.223 Y36.496
X70.24 Y36.503
X70.267
X70.276 Z-1.218
X70.284 Z-1.22
X72.484
X72.491 Z-1.21
X72.49 Y36.501 Z-1.195
X72.485 Y36.496 Z-1.181
X72.48 Y36.489 Z-1.155
X72.483 Y36.493 Z-1.129
X72.494 Y36.508 Z-1.109
X72.51 Y36.528 Z-1.102
X72.526 Y36.549 Z-1.109
X72.537 Y36.564 Z-1.129
X72.54 Y36.568 Z-1.155
X72.535 Y36.561 Z-1.181
X72.53 Y36.555 Z-1.195
X72.529 Y36.553 Z-1.21
X72.522 Z-1.22
X70.311
X70.302 Z-1.218
X70.293 Z-1.216
X70.276 Y36.561
X70.268 Y36.578
X70.276 Y36.596
X70.293 Y36.603
X70.32
X70.329 Z-1.218
X70.337 Z-1.22
X72.561
X72.567 Z-1.21
X72.566 Y36.601 Z-1.195
X72.562 Y36.596 Z-1.181
X72.556 Y36.589 Z-1.155
X72.559 Y36.593 Z-1.129
X72.57 Y36.608 Z-1.109
X72.586 Y36.628 Z-1.102
X72.602 Y36.649 Z-1.109
X72.613 Y36.664 Z-1.129
X72.616 Y36.668 Z-1.155
X72.611 Y36.661 Z-1.181
X72.607 Y36.655 Z-1.195
X72.605 Y36.653 Z-1.21
X72.599 Z-1.22
X70.364
X70.355 Z-1.218
X70.346 Z-1.216
X70.329 Y36.661
X70.321 Y36.678
X70.329 Y36.696
X70.346 Y36.703
X70.373
X70.382 Z-1.218
X70.39 Z-1.22
X72.637
X72.643 Z-1.21
X72.642 Y36.702 Z-1.195
X72.638 Y36.696 Z-1.181
X72.632 Y36.689 Z-1.155
X72.635 Y36.693 Z-1.129
X72.647 Y36.708 Z-1.109
X72.662 Y36.728 Z-1.102
X72.678 Y36.749 Z-1.109
X72.689 Y36.764 Z-1.129
X72.693 Y36.768 Z-1.155
X72.687 Y36.761 Z-1.181
X72.683 Y36.755 Z-1.195
X72.681 Y36.753 Z-1.21
X72.675 Z-1.22
X70.417
X70.408 Z-1.218
X70.399 Z-1.216
X70.382 Y36.761
X70.374 Y36.778
X70.382 Y36.796
X70.399 Y36.803
X70.426
X70.435 Z-1.218
X70.443 Z-1.22
X72.713
X72.72 Z-1.21
Z-1.209
X72.718 Y36.801 Z-1.194
X72.714 Y36.796 Z-1.18
X72.708 Y36.789 Z-1.155
X72.712 Y36.793 Z-1.128
X72.723 Y36.808 Z-1.109
X72.739 Y36.828 Z-1.101
X72.754 Y36.849 Z-1.109
X72.765 Y36.864 Z-1.128
X72.769 Y36.868 Z-1.155
X72.763 Y36.861 Z-1.18
X72.759 Y36.855 Z-1.194
X72.758 Y36.853 Z-1.209
X72.751 Z-1.22
X70.47
X70.461 Z-1.218
X70.452 Z-1.216
X70.435 Y36.861
X70.427 Y36.878
X70.435 Y36.896
X70.452 Y36.903
X70.479
X70.488 Z-1.218
X70.496 Z-1.22
X72.788
X72.794 Z-1.215
X72.796 Z-1.209
Z-1.208
X72.794 Y36.901 Z-1.193
X72.79 Y36.896 Z-1.179
X72.785 Y36.889 Z-1.154
X72.788 Y36.893 Z-1.127
X72.799 Y36.908 Z-1.108
X72.815 Y36.928 Z-1.1
X72.831 Y36.949 Z-1.108
X72.842 Y36.964 Z-1.127
X72.845 Y36.968 Z-1.154
X72.84 Y36.961 Z-1.179
X72.835 Y36.955 Z-1.193
X72.834 Y36.953 Z-1.208
X72.832 Z-1.215
X72.826 Z-1.22
X70.523
G18 G3 X70.023 Z-0.72 I0. K0.5
G0 Z5.
X76.538 Y34.603
Z4.011
G1 Z-1.181 F40.
X76.542 Z-1.202
X76.554 Z-1.22
X76.661
X76.67 Z-1.218
X76.679 Z-1.216
X76.703
X76.721 Y34.611
X76.728 Y34.628
X76.721 Y34.646
X76.703 Y34.653
X76.694 Z-1.218
X76.686 Z-1.22
X76.477
X76.472 Z-1.217
X76.469 Z-1.211
X76.471 Y34.652 Z-1.196
X76.472 Z-1.17
X76.461 Y34.659 Z-1.147
X76.442 Y34.671 Z-1.133
X76.42 Y34.686
X76.401 Y34.698 Z-1.147
X76.39 Y34.705 Z-1.17
X76.391 Z-1.196
X76.393 Y34.703 Z-1.211
X76.396 Z-1.217
X76.402 Z-1.22
X76.71
X76.719 Z-1.218
X76.727 Z-1.216
X76.752
X76.769 Y34.711
X76.777 Y34.728
X76.769 Y34.746
X76.752 Y34.753
X76.743 Z-1.218
X76.734 Z-1.22
X76.325
X76.32 Z-1.217
X76.317 Z-1.212
Z-1.211
X76.319 Y34.752 Z-1.196
X76.32 Z-1.17
X76.309 Y34.759 Z-1.147
X76.29 Y34.771 Z-1.133
X76.268 Y34.786
X76.249 Y34.798 Z-1.147
X76.238 Y34.805 Z-1.17
X76.239 Z-1.196
X76.241 Y34.803 Z-1.211
X76.244 Z-1.217
X76.25 Z-1.22
X76.759
X76.767 Z-1.218
X76.776 Z-1.216
X76.8
X76.818 Y34.811
X76.825 Y34.828
X76.818 Y34.846
X76.8 Y34.853
X76.791 Z-1.218
X76.783 Z-1.22
X76.174
X76.168 Z-1.217
X76.165 Z-1.211
X76.167 Y34.852 Z-1.196
X76.168 Z-1.169
X76.157 Y34.859 Z-1.146
X76.138 Y34.871 Z-1.133
X76.116 Y34.886
X76.097 Y34.898 Z-1.146
X76.086 Y34.905 Z-1.169
X76.087 Z-1.196
X76.089 Y34.903 Z-1.211
X76.091 Z-1.217
X76.098 Z-1.22
X76.806
X76.815 Z-1.218
X76.823 Z-1.216
X76.847
X76.864 Y34.911
X76.872 Y34.928
X76.864 Y34.946
X76.847 Y34.953
X76.838 Z-1.218
X76.829 Z-1.22
X76.022
X76.016 Z-1.217
X76.013 Z-1.211
X76.015 Y34.952 Z-1.196
X76.016 Z-1.169
X76.005 Y34.959 Z-1.146
X75.986 Y34.971 Z-1.132
X75.964 Y34.986
X75.945 Y34.998 Z-1.146
X75.935 Y35.005 Z-1.169
X75.936 Z-1.196
X75.938 Y35.003 Z-1.211
X75.94 Z-1.217
X75.946 Z-1.22
X76.852
X76.861 Z-1.218
X76.87 Z-1.216
X76.893
X76.911 Y35.011
X76.918 Y35.028
X76.911 Y35.046
X76.893 Y35.053
X76.884 Z-1.218
X76.875 Z-1.22
X75.871
X75.864 Z-1.217
X75.862 Z-1.211
X75.864 Y35.052 Z-1.196
X75.865 Z-1.169
X75.854 Y35.059 Z-1.146
X75.835 Y35.071 Z-1.132
X75.813 Y35.086
X75.794 Y35.098 Z-1.146
X75.783 Y35.105 Z-1.169
X75.784 Z-1.196
X75.786 Y35.103 Z-1.211
X75.789 Z-1.217
X75.795 Z-1.22
X76.899
X76.907 Z-1.218
X76.916 Z-1.216
X76.939
X76.957 Y35.111
X76.964 Y35.128
X76.957 Y35.146
X76.939 Y35.153
X76.93 Z-1.218
X76.922 Z-1.22
X75.72
X75.713 Z-1.217
X75.711 Z-1.211
X75.713 Y35.152 Z-1.196
Z-1.169
X75.703 Y35.159 Z-1.146
X75.684 Y35.171 Z-1.132
X75.662 Y35.186
X75.643 Y35.198 Z-1.146
X75.632 Y35.205 Z-1.169
X75.633 Z-1.196
X75.635 Y35.203 Z-1.211
X75.638 Z-1.217
X75.644 Z-1.22
X76.945
X76.954 Z-1.218
X76.962 Z-1.216
X76.986
X77.003 Y35.211
X77.011 Y35.228
X77.003 Y35.246
X76.986 Y35.253
X76.977 Z-1.218
X76.968 Z-1.22
X75.568
X75.562 Z-1.217
X75.559 Z-1.211
X75.561 Y35.252 Z-1.196
X75.562 Z-1.169
X75.552 Y35.259 Z-1.146
X75.533 Y35.271 Z-1.132
X75.511 Y35.286
X75.491 Y35.298 Z-1.146
X75.481 Y35.305 Z-1.169
X75.482 Z-1.196
X75.484 Y35.303 Z-1.211
X75.486 Z-1.217
X75.493 Z-1.22
X76.991
X77. Z-1.218
X77.009 Z-1.216
X77.032
X77.05 Y35.311
X77.057 Y35.328
X77.049 Y35.346
X77.032 Y35.353
X77.023 Z-1.218
X77.014 Z-1.22
X75.417
X75.411 Z-1.217
X75.408 Z-1.211
X75.41 Y35.352 Z-1.196
X75.411 Z-1.169
X75.4 Y35.359 Z-1.146
X75.381 Y35.371 Z-1.132
X75.359 Y35.386
X75.34 Y35.398 Z-1.146
X75.33 Y35.405 Z-1.169
X75.331 Z-1.196
X75.333 Y35.403 Z-1.211
Z-1.212
X75.335 Z-1.217
X75.341 Z-1.22
X77.037
X77.045 Z-1.218
X77.054 Z-1.216
X77.076
X77.094 Y35.411
X77.101 Y35.428
X77.094 Y35.446
X77.076 Y35.453
X77.068 Z-1.218
X77.059 Z-1.22
X75.265
X75.259 Z-1.217
X75.257 Z-1.211
X75.259 Y35.452 Z-1.196
X75.26 Z-1.17
X75.249 Y35.459 Z-1.146
X75.23 Y35.471 Z-1.133
X75.208 Y35.486
X75.189 Y35.498 Z-1.146
X75.178 Y35.505 Z-1.17
X75.179 Z-1.196
X75.181 Y35.503 Z-1.211
X75.184 Z-1.217
X75.19 Z-1.22
X77.081
X77.09 Z-1.218
X77.098 Z-1.216
X77.121
X77.138 Y35.511
X77.146 Y35.528
X77.138 Y35.546
X77.121 Y35.553
X77.112 Z-1.218
X77.103 Z-1.22
X75.114
X75.109 Z-1.217
X75.107 Z-1.212
X75.109 Y35.552 Z-1.196
X75.11 Y35.551 Z-1.169
X75.1 Y35.558 Z-1.145
X75.081 Y35.571 Z-1.131
X75.059 Y35.586
X75.04 Y35.599 Z-1.145
X75.029 Y35.606 Z-1.169
X75.031 Y35.605 Z-1.196
X75.033 Y35.603 Z-1.212
X75.035 Z-1.217
X75.041 Z-1.22
X77.125
X77.134 Z-1.218
X77.143 Z-1.216
X77.165
X77.183 Y35.611
X77.19 Y35.628
X77.183 Y35.646
X77.165 Y35.653
X77.156 Z-1.218
X77.147 Z-1.22
X74.967
X74.962 Z-1.217
X74.96 Z-1.212
X74.962 Y35.652 Z-1.195
X74.963 Y35.651 Z-1.169
X74.953 Y35.658 Z-1.145
X74.934 Y35.671 Z-1.131
X74.912 Y35.686
X74.893 Y35.699 Z-1.145
X74.883 Y35.706 Z-1.169
X74.884 Y35.705 Z-1.195
X74.886 Y35.703 Z-1.212
X74.889 Z-1.217
X74.894 Z-1.22
X77.17
X77.178 Z-1.218
X77.187 Z-1.216
X77.209
X77.227 Y35.711
X77.234 Y35.728
X77.227 Y35.746
X77.209 Y35.753
X77.201 Z-1.218
X77.192 Z-1.22
X74.821
X74.815 Z-1.217
X74.813 Z-1.212
X74.816 Y35.752 Z-1.195
X74.817 Y35.751 Z-1.168
X74.807 Y35.758 Z-1.144
X74.788 Y35.771 Z-1.13
X74.766 Y35.786
X74.747 Y35.799 Z-1.144
X74.736 Y35.806 Z-1.168
X74.738 Y35.805 Z-1.195
X74.74 Y35.803 Z-1.212
Z-1.213
X74.742 Z-1.218
X74.747 Z-1.22
X77.214
X77.223 Z-1.218
X77.231 Z-1.216
X77.254
X77.271 Y35.811
X77.279 Y35.828
X77.271 Y35.846
X77.254 Y35.853
X77.245 Z-1.218
X77.236 Z-1.22
X74.674
X74.667 Z-1.213
Z-1.212
X74.67 Y35.852 Z-1.195
X74.671 Y35.851 Z-1.168
X74.661 Y35.858 Z-1.144
X74.642 Y35.871 Z-1.13
X74.62 Y35.886
X74.601 Y35.899 Z-1.144
X74.591 Y35.906 Z-1.168
X74.592 Y35.905 Z-1.195
X74.594 Y35.903 Z-1.212
X74.597 Z-1.217
X74.602 Z-1.22
X77.258
X77.266 Z-1.218
X77.275 Z-1.216
X77.296
X77.314 Y35.911
X77.321 Y35.928
X77.314 Y35.946
X77.296 Y35.953
X77.288 Z-1.218
X77.279 Z-1.22
X74.53
X74.525 Z-1.217
X74.522 Z-1.212
Z-1.211
X74.525 Y35.952 Z-1.194
X74.527 Y35.95 Z-1.167
X74.517 Y35.957 Z-1.143
X74.498 Y35.971 Z-1.128
X74.475 Y35.986
X74.456 Y35.999 Z-1.143
X74.446 Y36.006 Z-1.167
X74.448 Y36.005 Z-1.194
X74.451 Y36.003 Z-1.211
X74.453 Z-1.217
X74.459 Z-1.22
X77.3
X77.309 Z-1.218
X77.318 Z-1.216
X77.339
X77.357 Y36.011
X77.364 Y36.028
X77.357 Y36.046
X77.339 Y36.053
X77.33 Z-1.218
X77.321 Z-1.22
X74.387
X74.381 Z-1.217
X74.379 Z-1.211
X74.381 Y36.052 Z-1.194
X74.383 Y36.05 Z-1.167
X74.373 Y36.057 Z-1.143
X74.354 Y36.071 Z-1.128
X74.331 Y36.086
X74.312 Y36.099 Z-1.143
X74.302 Y36.106 Z-1.167
X74.304 Y36.105 Z-1.194
X74.307 Y36.103 Z-1.211
Z-1.212
X74.309 Z-1.217
X74.315 Z-1.22
X77.343
X77.351 Z-1.218
X77.36 Z-1.216
X77.381
X77.399 Y36.111
X77.406 Y36.128
X77.399 Y36.146
X77.381 Y36.153
X77.373 Z-1.218
X77.364 Z-1.22
X74.243
X74.237 Z-1.217
X74.235 Z-1.212
X74.238 Y36.152 Z-1.194
X74.24 Y36.15 Z-1.167
X74.23 Y36.157 Z-1.143
X74.211 Y36.171 Z-1.128
X74.188 Y36.186
X74.169 Y36.2 Z-1.143
X74.159 Y36.207 Z-1.167
X74.161 Y36.205 Z-1.194
X74.164 Y36.203 Z-1.212
X74.166 Z-1.218
X74.172 Z-1.22
X77.385
X77.394 Z-1.218
X77.403 Z-1.216
X77.424
X77.442 Y36.211
X77.449 Y36.228
X77.442 Y36.246
X77.424 Y36.253
X77.415 Z-1.218
X77.406 Z-1.22
X74.101
X74.095 Z-1.218
X74.093 Z-1.212
X74.096 Y36.251 Z-1.194
X74.098 Y36.25 Z-1.167
X74.088 Y36.257 Z-1.143
X74.069 Y36.271 Z-1.128
X74.047 Y36.286
X74.028 Y36.3 Z-1.143
X74.018 Y36.307 Z-1.167
X74.02 Y36.305 Z-1.194
X74.022 Y36.303 Z-1.212
Z-1.213
X74.024 Z-1.218
X74.03 Z-1.22
X77.428
X77.436 Z-1.218
X77.445 Z-1.216
X77.466
X77.484 Y36.311
X77.491 Y36.328
X77.484 Y36.346
X77.466 Y36.353
X77.458 Z-1.218
X77.449 Z-1.22
X73.96
X73.954 Z-1.218
X73.952 Z-1.212
X73.955 Y36.351 Z-1.194
X73.957 Y36.35 Z-1.167
X73.947 Y36.357 Z-1.142
X73.928 Y36.37 Z-1.128
X73.906 Y36.386
X73.887 Y36.4 Z-1.142
X73.877 Y36.407 Z-1.167
X73.879 Y36.405 Z-1.194
X73.882 Y36.403 Z-1.212
X73.884 Z-1.218
X73.889 Z-1.22
X77.47
X77.479 Z-1.218
X77.487 Z-1.216
X77.508
X77.526 Y36.411
X77.533 Y36.428
X77.526 Y36.446
X77.508 Y36.453
X77.499 Z-1.218
X77.49 Z-1.22
X73.82
X73.814 Z-1.217
X73.812 Z-1.212
X73.815 Y36.451 Z-1.193
X73.817 Y36.45 Z-1.166
X73.807 Y36.457 Z-1.141
X73.788 Y36.47 Z-1.127
X73.766 Y36.486
X73.747 Y36.5 Z-1.141
X73.737 Y36.507 Z-1.166
X73.739 Y36.505 Z-1.193
X73.742 Y36.503 Z-1.212
X73.744 Z-1.217
X73.75 Z-1.22
X77.511
X77.52 Z-1.218
X77.528 Z-1.216
X77.549
X77.566 Y36.511
X77.574 Y36.528
X77.566 Y36.546
X77.549 Y36.553
X77.54 Z-1.218
X77.531 Z-1.22
X73.68
X73.675 Z-1.218
X73.673 Z-1.213
Z-1.212
X73.676 Y36.551 Z-1.193
X73.678 Y36.55 Z-1.166
X73.668 Y36.557 Z-1.141
X73.65 Y36.57 Z-1.126
X73.627 Y36.586
X73.608 Y36.6 Z-1.141
X73.598 Y36.607 Z-1.166
X73.601 Y36.606 Z-1.193
X73.604 Y36.603 Z-1.212
X73.606 Z-1.217
X73.611 Z-1.22
X77.552
X77.56 Z-1.218
X77.569 Z-1.216
X77.59
X77.607 Y36.611
X77.615 Y36.628
X77.607 Y36.646
X77.59 Y36.653
X77.581 Z-1.218
X77.572 Z-1.22
X73.543
X73.537 Z-1.217
X73.535 Z-1.212
X73.538 Y36.651 Z-1.193
X73.541 Y36.649 Z-1.165
X73.531 Y36.656 Z-1.14
X73.512 Y36.67 Z-1.126
X73.49 Y36.687
X73.471 Y36.7 Z-1.14
X73.461 Y36.707 Z-1.165
X73.463 Y36.706 Z-1.193
X73.467 Y36.703 Z-1.212
X73.469 Z-1.218
X73.474 Z-1.22
X77.592
X77.601 Z-1.218
X77.61 Z-1.216
X77.63
X77.648 Y36.711
X77.655 Y36.728
X77.648 Y36.746
X77.63 Y36.753
X77.622 Z-1.218
X77.613 Z-1.22
X73.406
X73.401 Z-1.217
X73.399 Z-1.212
X73.402 Y36.751 Z-1.192
X73.405 Y36.749 Z-1.165
X73.395 Y36.756 Z-1.139
X73.376 Y36.77 Z-1.125
X73.354 Y36.787
X73.335 Y36.801 Z-1.139
X73.325 Y36.808 Z-1.165
X73.328 Y36.806 Z-1.192
X73.331 Y36.803 Z-1.212
X73.333 Z-1.217
X73.339 Z-1.22
X77.633
X77.642 Z-1.218
X77.651 Z-1.216
X77.671
X77.689 Y36.811
X77.696 Y36.828
X77.689 Y36.846
X77.671 Y36.853
X77.662 Z-1.218
X77.654 Z-1.22
X73.281
X73.276 Z-1.215
Z-1.214
X73.281 Y36.848 Z-1.188
X73.287 Y36.843 Z-1.163
X73.282 Y36.848 Z-1.138
X73.269 Y36.861 Z-1.119
X73.251 Y36.878 Z-1.112
X73.233 Y36.896 Z-1.119
X73.22 Y36.909 Z-1.138
X73.216 Y36.914 Z-1.163
X73.221 Y36.909 Z-1.188
X73.226 Y36.903 Z-1.214
X73.232 Z-1.22
X77.674
X77.683 Z-1.218
X77.692 Z-1.216
X77.711
X77.729 Y36.911
X77.736 Y36.928
X77.729 Y36.946
X77.711 Y36.953
X77.703 Z-1.218
X77.694 Z-1.22
X73.17
X73.163 Z-1.213
Z-1.209
X73.166 Y36.951 Z-1.191
X73.169 Y36.95 Z-1.163
X73.159 Y36.957 Z-1.138
X73.14 Y36.97 Z-1.124
X73.118 Y36.986
X73.099 Y37. Z-1.138
X73.089 Y37.007 Z-1.163
X73.091 Y37.006 Z-1.191
X73.094 Y37.003 Z-1.209
X73.097 Z-1.217
X73.105 Z-1.22
X77.714
G2 X78.214 Z-0.72 I0. K0.5
G0 Z5.
X72.899
Z3.869
G1 Z-1.177 F40.
X72.895 Z-1.2
X72.881 Z-1.22
X70.548
X70.539 Z-1.218
X70.531 Z-1.216
X70.513 Y37.011
X70.506 Y37.028
X70.513 Y37.046
X70.531 Y37.053
X70.555
X70.564 Z-1.218
X70.573 Z-1.22
X77.733
X77.742 Z-1.218
X77.751 Z-1.216
X77.77
X77.788 Y37.061
X77.795 Y37.078
X77.788 Y37.096
X77.77 Y37.103
X77.762 Z-1.218
X77.753 Z-1.22
X70.597
X70.589 Z-1.218
X70.58 Z-1.216
X70.562 Y37.111
X70.555 Y37.128
X70.562 Y37.146
X70.58 Y37.153
X70.605
X70.614 Z-1.218
X70.622 Z-1.22
X77.773
X77.781 Z-1.218
X77.79 Z-1.216
X77.81
X77.827 Y37.161
X77.835 Y37.178
X77.827 Y37.196
X77.81 Y37.203
X77.801 Z-1.218
X77.792 Z-1.22
X70.647
X70.638 Z-1.218
X70.63 Z-1.216
X70.612 Y37.211
X70.605 Y37.228
X70.612 Y37.246
X70.63 Y37.253
X70.654
X70.663 Z-1.218
X70.672 Z-1.22
X77.812
X77.821 Z-1.218
X77.829 Z-1.216
X77.849
X77.867 Y37.261
X77.874 Y37.278
X77.867 Y37.296
X77.849 Y37.303
X77.84 Z-1.218
X77.831 Z-1.22
X70.696
X70.688 Z-1.218
X70.679 Z-1.216
X70.661 Y37.311
X70.654 Y37.328
X70.661 Y37.346
X70.679 Y37.353
X70.704
X70.712 Z-1.218
X70.721 Z-1.22
X77.851
X77.86 Z-1.218
X77.869 Z-1.216
X77.888
X77.906 Y37.361
X77.913 Y37.378
X77.906 Y37.396
X77.888 Y37.403
X77.88 Z-1.218
X77.871 Z-1.22
X70.746
X70.737 Z-1.218
X70.728 Z-1.216
X70.711 Y37.411
X70.703 Y37.428
X70.711 Y37.446
X70.728 Y37.453
X70.753
X70.762 Z-1.218
X70.771 Z-1.22
X77.89
X77.899 Z-1.218
X77.908 Z-1.216
X77.927
X77.944 Y37.461
X77.952 Y37.478
X77.944 Y37.496
X77.927 Y37.503
X77.918 Z-1.218
X77.909 Z-1.22
X70.795
X70.786 Z-1.218
X70.778 Z-1.216
X70.76 Y37.511
X70.753 Y37.528
X70.76 Y37.546
X70.778 Y37.553
X70.801
X70.809 Z-1.218
X70.818 Z-1.22
X77.928
X77.937 Z-1.218
X77.946 Z-1.216
X77.965
X77.982 Y37.561
X77.99 Y37.578
X77.982 Y37.596
X77.965 Y37.603
X77.956 Z-1.218
X77.947 Z-1.22
X70.841
X70.833 Z-1.218
X70.824 Z-1.216
X70.806 Y37.611
X70.799 Y37.628
X70.806 Y37.646
X70.824 Y37.653
X70.847
X70.856 Z-1.218
X70.865 Z-1.22
X77.966
X77.975 Z-1.218
X77.983 Z-1.216
X78.002
X78.02 Y37.661
X78.027 Y37.678
X78.02 Y37.696
X78.002 Y37.703
X77.994 Z-1.218
X77.985 Z-1.22
X70.888
X70.879 Z-1.218
X70.87 Z-1.216
X70.853 Y37.711
X70.845 Y37.728
X70.853 Y37.746
X70.87 Y37.753
X70.894
X70.902 Z-1.218
X70.911 Z-1.22
X78.004
X78.013 Z-1.218
X78.021 Z-1.216
X78.04
X78.058 Y37.761
X78.065 Y37.778
X78.058 Y37.796
X78.04 Y37.803
X78.032 Z-1.218
X78.023 Z-1.22
X70.934
X70.925 Z-1.218
X70.917 Z-1.216
X70.899 Y37.811
X70.892 Y37.828
X70.899 Y37.846
X70.917 Y37.853
X70.94
X70.949 Z-1.218
X70.957 Z-1.22
X78.042
X78.05 Z-1.218
X78.059 Z-1.216
X78.078
X78.096 Y37.861
X78.103 Y37.878
X78.096 Y37.896
X78.078 Y37.903
X78.069 Z-1.218
X78.061 Z-1.22
X70.981
X70.972 Z-1.218
X70.963 Z-1.216
X70.945 Y37.911
X70.938 Y37.928
X70.945 Y37.946
X70.963 Y37.953
X70.986
X70.995 Z-1.218
X71.004 Z-1.22
X78.08
X78.088 Z-1.218
X78.097 Z-1.216
X78.116
X78.133 Y37.961
X78.141 Y37.978
X78.133 Y37.996
X78.116 Y38.003
X78.107 Z-1.218
X78.098 Z-1.22
X71.027
X71.018 Z-1.218
X71.009 Z-1.216
X70.992 Y38.011
X70.984 Y38.028
X70.992 Y38.046
X71.009 Y38.053
X71.032
X71.04 Z-1.218
X71.049 Z-1.22
X78.116
X78.125 Z-1.218
X78.134 Z-1.216
X78.152
X78.17 Y38.061
X78.177 Y38.078
X78.17 Y38.096
X78.152 Y38.103
X78.143 Z-1.218
X78.135 Z-1.22
X71.071
X71.062 Z-1.218
X71.054 Z-1.216
X71.036 Y38.111
X71.029 Y38.128
X71.036 Y38.146
X71.054 Y38.153
X71.075
X71.084 Z-1.218
X71.093 Z-1.22
X78.153
X78.162 Z-1.218
X78.17 Z-1.216
X78.189
X78.206 Y38.161
X78.214 Y38.178
X78.206 Y38.196
X78.189 Y38.203
X78.18 Z-1.218
X78.171 Z-1.22
X71.115
X71.106 Z-1.218
X71.097 Z-1.216
X71.079 Y38.211
X71.072 Y38.228
X71.079 Y38.246
X71.097 Y38.253
X71.119
X71.128 Z-1.218
X71.136 Z-1.22
X78.19
X78.198 Z-1.218
X78.207 Z-1.216
X78.225
X78.243 Y38.261
X78.25 Y38.278
X78.243 Y38.296
X78.225 Y38.303
X78.217 Z-1.218
X78.208 Z-1.22
X71.158
X71.149 Z-1.218
X71.141 Z-1.216
X71.123 Y38.311
X71.116 Y38.328
X71.123 Y38.346
X71.141 Y38.353
X71.162
X71.171 Z-1.218
X71.18 Z-1.22
X78.226
X78.235 Z-1.218
X78.244 Z-1.216
X78.262
X78.279 Y38.361
X78.287 Y38.378
X78.279 Y38.396
X78.262 Y38.403
X78.253 Z-1.218
X78.244 Z-1.22
X71.202
X71.193 Z-1.218
X71.184 Z-1.216
X71.167 Y38.411
X71.159 Y38.428
X71.167 Y38.446
X71.184 Y38.453
X71.206
X71.215 Z-1.218
X71.224 Z-1.22
X78.263
X78.271 Z-1.218
X78.28 Z-1.216
X78.298
X78.316 Y38.461
X78.323 Y38.478
X78.316 Y38.496
X78.298 Y38.503
X78.29 Z-1.218
X78.281 Z-1.22
X71.245
X71.237 Z-1.218
X71.228 Z-1.216
X71.21 Y38.511
X71.203 Y38.528
X71.21 Y38.546
X71.228 Y38.553
X71.25
X71.258 Z-1.218
X71.267 Z-1.22
X78.299
X78.307 Z-1.218
X78.316 Z-1.216
X78.334
X78.351 Y38.561
X78.359 Y38.578
X78.351 Y38.596
X78.334 Y38.603
X78.325 Z-1.218
X78.316 Z-1.22
X71.288
X71.279 Z-1.218
X71.27 Z-1.216
X71.253 Y38.611
X71.245 Y38.628
X71.253 Y38.646
X71.27 Y38.653
X71.291
X71.3 Z-1.218
X71.308 Z-1.22
X78.334
X78.343 Z-1.218
X78.351 Z-1.216
X78.369
X78.387 Y38.661
X78.394 Y38.678
X78.387 Y38.696
X78.369 Y38.703
X78.36 Z-1.218
X78.352 Z-1.22
X71.329
X71.32 Z-1.218
X71.311 Z-1.216
X71.294 Y38.711
X71.286 Y38.728
X71.294 Y38.746
X71.311 Y38.753
X71.332
X71.341 Z-1.218
X71.349 Z-1.22
X78.369
X78.378 Z-1.218
X78.387 Z-1.216
X78.404
X78.422 Y38.761
X78.429 Y38.778
X78.422 Y38.796
X78.404 Y38.803
X78.396 Z-1.218
X78.387 Z-1.22
X71.37
X71.361 Z-1.218
X71.353 Z-1.216
X71.335 Y38.811
X71.328 Y38.828
X71.335 Y38.846
X71.353 Y38.853
X71.373
X71.382 Z-1.218
X71.391 Z-1.22
X78.405
X78.413 Z-1.218
X78.422 Z-1.216
X78.44
X78.457 Y38.861
X78.465 Y38.878
X78.457 Y38.896
X78.44 Y38.903
X78.431 Z-1.218
X78.422 Z-1.22
X71.411
X71.402 Z-1.218
X71.394 Z-1.216
X71.376 Y38.911
X71.369 Y38.928
X71.376 Y38.946
X71.394 Y38.953
X71.414
X71.423 Z-1.218
X71.432 Z-1.22
X78.44
X78.449 Z-1.218
X78.457 Z-1.216
X78.475
X78.493 Y38.961
X78.5 Y38.978
X78.493 Y38.996
X78.475 Y39.003
X78.466 Z-1.218
X78.458 Z-1.22
X71.452
X71.443 Z-1.218
X71.435 Z-1.216
X71.417 Y39.011
X71.41 Y39.028
X71.417 Y39.046
X71.435 Y39.053
X71.455
X71.464 Z-1.218
X71.473 Z-1.22
X78.475
X78.484 Z-1.218
X78.492 Z-1.216
X78.51
X78.527 Y39.061
X78.535 Y39.078
X78.527 Y39.096
X78.51 Y39.103
X78.501 Z-1.218
X78.492 Z-1.22
X71.493
X71.484 Z-1.218
X71.476 Z-1.216
X71.458 Y39.111
X71.451 Y39.128
X71.458 Y39.146
X71.476 Y39.153
X71.495
X71.504 Z-1.218
X71.513 Z-1.22
X78.509
X78.518 Z-1.218
X78.527 Z-1.216
X78.544
X78.561 Y39.161
X78.569 Y39.178
X78.561 Y39.196
X78.544 Y39.203
X78.535 Z-1.218
X78.526 Z-1.22
X71.532
X71.523 Z-1.218
X71.515 Z-1.216
X71.497 Y39.211
X71.49 Y39.228
X71.497 Y39.246
X71.515 Y39.253
X71.534
X71.543 Z-1.218
X71.551 Z-1.22
X78.543
X78.552 Z-1.218
X78.561 Z-1.216
X78.578
X78.596 Y39.261
X78.603 Y39.278
X78.596 Y39.296
X78.578 Y39.303
X78.569 Z-1.218
X78.56 Z-1.22
X71.571
X71.562 Z-1.218
X71.553 Z-1.216
X71.536 Y39.311
X71.528 Y39.328
X71.536 Y39.346
X71.553 Y39.353
X71.573
X71.581 Z-1.218
X71.59 Z-1.22
X78.578
X78.586 Z-1.218
X78.595 Z-1.216
X78.612
X78.63 Y39.361
X78.637 Y39.378
X78.63 Y39.396
X78.612 Y39.403
X78.603 Z-1.218
X78.595 Z-1.22
X71.61
X71.601 Z-1.218
X71.592 Z-1.216
X71.574 Y39.411
X71.567 Y39.428
X71.574 Y39.446
X71.592 Y39.453
X71.612
X71.62 Z-1.218
X71.629 Z-1.22
X78.612
X78.62 Z-1.218
X78.629 Z-1.216
X78.646
X78.664 Y39.461
X78.671 Y39.478
X78.664 Y39.496
X78.646 Y39.503
X78.637 Z-1.218
X78.629 Z-1.22
X71.648
X71.64 Z-1.218
X71.631 Z-1.216
X71.613 Y39.511
X71.606 Y39.528
X71.613 Y39.546
X71.631 Y39.553
X71.65
X71.659 Z-1.218
X71.668 Z-1.22
X78.646
X78.655 Z-1.218
X78.663 Z-1.216
X78.68
X78.698 Y39.561
X78.705 Y39.578
X78.698 Y39.596
X78.68 Y39.603
X78.671 Z-1.218
X78.663 Z-1.22
X71.687
X71.679 Z-1.218
X71.67 Z-1.216
X71.652 Y39.611
X71.645 Y39.628
X71.652 Y39.646
X71.67 Y39.653
X71.689
X71.698 Z-1.218
X71.706 Z-1.22
X78.679
X78.688 Z-1.218
X78.696 Z-1.216
X78.713
X78.731 Y39.661
X78.738 Y39.678
X78.731 Y39.696
X78.713 Y39.703
X78.704 Z-1.218
X78.696 Z-1.22
X71.725
X71.716 Z-1.218
X71.707 Z-1.216
X71.69 Y39.711
X71.682 Y39.728
X71.69 Y39.746
X71.707 Y39.753
X71.726
X71.734 Z-1.218
X71.743 Z-1.22
X78.712
X78.721 Z-1.218
X78.73 Z-1.216
X78.746
X78.764 Y39.761
X78.771 Y39.778
X78.764 Y39.796
X78.746 Y39.803
X78.737 Z-1.218
X78.729 Z-1.22
X71.762
X71.753 Z-1.218
X71.744 Z-1.216
X71.726 Y39.811
X71.719 Y39.828
X71.726 Y39.846
X71.744 Y39.853
X71.762
X71.771 Z-1.218
X71.78 Z-1.22
X78.745
X78.754 Z-1.218
X78.763 Z-1.216
X78.779
X78.797 Y39.861
X78.804 Y39.878
X78.797 Y39.896
X78.779 Y39.903
X78.77 Z-1.218
X78.762 Z-1.22
X71.798
X71.79 Z-1.218
X71.781 Z-1.216
X71.763 Y39.911
X71.756 Y39.928
X71.763 Y39.946
X71.781 Y39.953
X71.799
X71.808 Z-1.218
X71.817 Z-1.22
X78.778
X78.787 Z-1.218
X78.796 Z-1.216
X78.812
X78.83 Y39.961
X78.837 Y39.978
X78.83 Y39.996
X78.812 Y40.003
X78.804 Z-1.218
X78.795 Z-1.22
X71.835
X71.826 Z-1.218
X71.818 Z-1.216
X71.8 Y40.011
X71.793 Y40.028
X71.8 Y40.046
X71.818 Y40.053
X71.836
X71.845 Z-1.218
X71.853 Z-1.22
X78.811
X78.82 Z-1.218
X78.829 Z-1.216
X78.845
X78.863 Y40.061
X78.87 Y40.078
X78.863 Y40.096
X78.845 Y40.103
X78.837 Z-1.218
X78.828 Z-1.22
X71.872
X71.863 Z-1.218
X71.854 Z-1.216
X71.837 Y40.111
X71.829 Y40.128
X71.837 Y40.146
X71.854 Y40.153
X71.873
X71.881 Z-1.218
X71.89 Z-1.22
X78.844
X78.853 Z-1.218
X78.861 Z-1.216
X78.877
X78.895 Y40.161
X78.902 Y40.178
X78.895 Y40.196
X78.877 Y40.203
X78.869 Z-1.218
X78.86 Z-1.22
X71.908
X71.9 Z-1.218
X71.891 Z-1.216
X71.873 Y40.211
X71.866 Y40.228
X71.873 Y40.246
X71.891 Y40.253
X71.908
X71.917 Z-1.218
X71.926 Z-1.22
X78.876
X78.885 Z-1.218
X78.893 Z-1.216
X78.909
X78.927 Y40.261
X78.934 Y40.278
X78.927 Y40.296
X78.909 Y40.303
X78.901 Z-1.218
X78.892 Z-1.22
X71.943
X71.934 Z-1.218
X71.926 Z-1.216
X71.908 Y40.311
X71.901 Y40.328
X71.908 Y40.346
X71.926 Y40.353
X71.943
X71.952 Z-1.218
X71.96 Z-1.22
X78.908
X78.917 Z-1.218
X78.925 Z-1.216
X78.941
X78.959 Y40.361
X78.966 Y40.378
X78.959 Y40.396
X78.941 Y40.403
X78.933 Z-1.218
X78.924 Z-1.22
X71.978
X71.969 Z-1.218
X71.96 Z-1.216
X71.943 Y40.411
X71.935 Y40.428
X71.943 Y40.446
X71.96 Y40.453
X71.978
X71.987 Z-1.218
X71.995 Z-1.22
X78.94
X78.949 Z-1.218
X78.957 Z-1.216
X78.973
X78.991 Y40.461
X78.998 Y40.478
X78.991 Y40.496
X78.973 Y40.503
X78.965 Z-1.218
X78.956 Z-1.22
X72.013
X72.004 Z-1.218
X71.995 Z-1.216
X71.978 Y40.511
X71.97 Y40.528
X71.978 Y40.546
X71.995 Y40.553
X72.013
X72.021 Z-1.218
X72.03 Z-1.22
X78.972
X78.981 Z-1.218
X78.989 Z-1.216
X79.006
X79.023 Y40.561
X79.031 Y40.578
X79.023 Y40.596
X79.006 Y40.603
X78.997 Z-1.218
X78.988 Z-1.22
X72.048
X72.039 Z-1.218
X72.03 Z-1.216
X72.012 Y40.611
X72.005 Y40.628
X72.012 Y40.646
X72.03 Y40.653
X72.048
X72.056 Z-1.218
X72.065 Z-1.22
X79.004
X79.012 Z-1.218
X79.021 Z-1.216
X79.037
X79.054 Y40.661
X79.062 Y40.678
X79.054 Y40.696
X79.037 Y40.703
X79.028 Z-1.218
X79.019 Z-1.22
X72.082
X72.074 Z-1.218
X72.065 Z-1.216
X72.047 Y40.711
X72.04 Y40.728
X72.047 Y40.746
X72.065 Y40.753
X72.082
X72.091 Z-1.218
X72.099 Z-1.22
X79.035
X79.043 Z-1.218
X79.052 Z-1.216
X79.068
X79.085 Y40.761
X79.093 Y40.778
X79.085 Y40.796
X79.068 Y40.803
X79.059 Z-1.218
X79.05 Z-1.22
X72.116
X72.107 Z-1.218
X72.098 Z-1.216
X72.081 Y40.811
X72.073 Y40.828
X72.081 Y40.846
X72.098 Y40.853
X72.115
X72.124 Z-1.218
X72.132 Z-1.22
X79.066
X79.075 Z-1.218
X79.083 Z-1.216
X79.099
X79.116 Y40.861
X79.124 Y40.878
X79.116 Y40.896
X79.099 Y40.903
X79.09 Z-1.218
X79.081 Z-1.22
X72.149
X72.14 Z-1.218
X72.132 Z-1.216
X72.114 Y40.911
X72.107 Y40.928
X72.114 Y40.946
X72.132 Y40.953
X72.148
X72.157 Z-1.218
X72.166 Z-1.22
X79.097
X79.106 Z-1.218
X79.114 Z-1.216
X79.13
X79.148 Y40.961
X79.155 Y40.978
X79.148 Y40.996
X79.13 Y41.003
X79.121 Z-1.218
X79.112 Z-1.22
X72.182
X72.173 Z-1.218
X72.165 Z-1.216
X72.147 Y41.011
X72.14 Y41.028
X72.147 Y41.046
X72.165 Y41.053
X72.181
X72.19 Z-1.218
X72.199 Z-1.22
X79.128
X79.137 Z-1.218
X79.145 Z-1.216
X79.161
X79.179 Y41.061
X79.186 Y41.078
X79.179 Y41.096
X79.161 Y41.103
X79.152 Z-1.218
X79.144 Z-1.22
X72.215
X72.206 Z-1.218
X72.198 Z-1.216
X72.18 Y41.111
X72.173 Y41.128
X72.18 Y41.146
X72.198 Y41.153
X72.214
X72.223 Z-1.218
X72.232 Z-1.22
X79.159
X79.167 Z-1.218
X79.176 Z-1.216
X79.191
X79.209 Y41.161
X79.216 Y41.178
X79.209 Y41.196
X79.191 Y41.203
X79.183 Z-1.218
X79.174 Z-1.22
X72.248
X72.24 Z-1.218
X72.231 Z-1.216
X72.213 Y41.211
X72.206 Y41.228
X72.213 Y41.246
X72.231 Y41.253
X72.247
X72.256 Z-1.218
X72.265 Z-1.22
X79.189
X79.198 Z-1.218
X79.206 Z-1.216
X79.221
X79.239 Y41.261
X79.246 Y41.278
X79.239 Y41.296
X79.221 Y41.303
X79.213 Z-1.218
X79.204 Z-1.22
X72.281
X72.272 Z-1.218
X72.263 Z-1.216
X72.246 Y41.311
X72.238 Y41.328
X72.246 Y41.346
X72.263 Y41.353
X72.279
X72.288 Z-1.218
X72.296 Z-1.22
X79.219
X79.228 Z-1.218
X79.237 Z-1.216
X79.252
X79.269 Y41.361
X79.277 Y41.378
X79.269 Y41.396
X79.252 Y41.403
X79.243 Z-1.218
X79.234 Z-1.22
X72.312
X72.303 Z-1.218
X72.295 Z-1.216
X72.277 Y41.411
X72.27 Y41.428
X72.277 Y41.446
X72.295 Y41.453
X72.31
X72.319 Z-1.218
X72.328 Z-1.22
X79.249
X79.258 Z-1.218
X79.267 Z-1.216
X79.282
X79.3 Y41.461
X79.307 Y41.478
X79.3 Y41.496
X79.282 Y41.503
X79.273 Z-1.218
X79.264 Z-1.22
X75.887
X75.82
X72.344
X72.335 Z-1.218
X72.326 Z-1.216
X72.309 Y41.511
X72.301 Y41.528
X72.309 Y41.546
X72.326 Y41.553
X72.342
X72.351 Z-1.218
X72.359 Z-1.22
X75.8
X75.942
X79.28
X79.288 Z-1.218
X79.297 Z-1.216
X79.312
X79.33 Y41.561
X79.337 Y41.578
X79.33 Y41.596
X79.312 Y41.603
X79.303 Z-1.218
X79.295 Z-1.22
X75.996
X75.78
X72.375
X72.367 Z-1.218
X72.358 Z-1.216
X72.34 Y41.611
X72.333 Y41.628
X72.34 Y41.646
X72.358 Y41.653
X72.374
X72.382 Z-1.218
X72.391 Z-1.22
X75.76
X76.051
X79.309
X79.318 Z-1.218
X79.327 Z-1.216
X79.341
X79.359 Y41.661
X79.366 Y41.678
X79.359 Y41.696
X79.341 Y41.703
X79.333 Z-1.218
X79.324 Z-1.22
X76.106
X76.097 Z-1.218
X76.088 Z-1.216
X76.071 Y41.711
X76.063 Y41.728
X76.071 Y41.746
X76.088 Y41.753
X76.143
X76.152 Z-1.218
X76.161 Z-1.22
X79.339
X79.347 Z-1.218
X79.356 Z-1.216
X79.371
X79.388 Y41.761
X79.396 Y41.778
X79.388 Y41.796
X79.371 Y41.803
X79.362 Z-1.218
X79.353 Z-1.22
X76.215
X76.207 Z-1.218
X76.198 Z-1.216
X76.18 Y41.811
X76.173 Y41.828
X76.18 Y41.846
X76.198 Y41.853
X76.253
X76.261 Z-1.218
X76.27 Z-1.22
X79.368
X79.377 Z-1.218
X79.385 Z-1.216
X79.4
X79.418 Y41.861
X79.425 Y41.878
X79.418 Y41.896
X79.4 Y41.903
X79.391 Z-1.218
X79.383 Z-1.22
X76.325
X76.316 Z-1.218
X76.307 Z-1.216
X76.29 Y41.911
X76.282 Y41.928
X76.29 Y41.946
X76.307 Y41.953
X76.362
X76.371 Z-1.218
X76.38 Z-1.22
X79.397
X79.406 Z-1.218
X79.415 Z-1.216
X79.429
X79.447 Y41.961
X79.454 Y41.978
X79.447 Y41.996
X79.429 Y42.003
X79.421 Z-1.218
X79.412 Z-1.22
X76.434
X76.426 Z-1.218
X76.417 Z-1.216
X76.399 Y42.011
X76.392 Y42.028
X76.399 Y42.046
X76.417 Y42.053
X76.472
X76.48 Z-1.218
X76.489 Z-1.22
X79.426
X79.435 Z-1.218
X79.444 Z-1.216
X79.458
X79.476 Y42.061
X79.483 Y42.078
X79.476 Y42.096
X79.458 Y42.103
X79.449 Z-1.218
X79.441 Z-1.22
X76.544
X76.535 Z-1.218
X76.526 Z-1.216
X76.509 Y42.111
X76.501 Y42.128
X76.509 Y42.146
X76.526 Y42.153
X76.581
X76.59 Z-1.218
X76.598 Z-1.22
X79.455
X79.464 Z-1.218
X79.472 Z-1.216
X79.487
X79.504 Y42.161
X79.512 Y42.178
X79.504 Y42.196
X79.487 Y42.203
X79.478 Z-1.218
X79.469 Z-1.22
X76.653
X76.644 Z-1.218
X76.636 Z-1.216
X76.618 Y42.211
X76.611 Y42.228
X76.618 Y42.246
X76.636 Y42.253
X76.69
X76.699 Z-1.218
X76.708 Z-1.22
X79.484
X79.492 Z-1.218
X79.501 Z-1.216
X79.515
X79.533 Y42.261
X79.54 Y42.278
X79.533 Y42.296
X79.515 Y42.303
X79.507 Z-1.218
X79.498 Z-1.22
X76.763
X76.754 Z-1.218
X76.745 Z-1.216
X76.728 Y42.311
X76.72 Y42.328
X76.728 Y42.346
X76.745 Y42.353
X76.8
X76.809 Z-1.218
X76.817 Z-1.22
X79.512
X79.521 Z-1.218
X79.53 Z-1.216
X79.544
X79.562 Y42.361
X79.569 Y42.378
X79.562 Y42.396
X79.544 Y42.403
X79.535 Z-1.218
X79.526 Z-1.22
X76.872
X76.863 Z-1.218
X76.855 Z-1.216
X76.837 Y42.411
X76.83 Y42.428
X76.837 Y42.446
X76.855 Y42.453
X76.909
X76.918 Z-1.218
X76.927 Z-1.22
X79.541
X79.549 Z-1.218
X79.558 Z-1.216
X79.572
X79.59 Y42.461
X79.597 Y42.478
X79.59 Y42.496
X79.572 Y42.503
X79.563 Z-1.218
X79.555 Z-1.22
X76.982
X76.973 Z-1.218
X76.964 Z-1.216
X76.946 Y42.511
X76.939 Y42.528
X76.946 Y42.546
X76.964 Y42.553
X77.019
X77.028 Z-1.218
X77.036 Z-1.22
X79.569
X79.577 Z-1.218
X79.586 Z-1.216
X79.6
X79.618 Y42.561
X79.625 Y42.578
X79.618 Y42.596
X79.6 Y42.603
X79.591 Z-1.218
X79.583 Z-1.22
X77.091
X77.082 Z-1.218
X77.074 Z-1.216
X77.056 Y42.611
X77.049 Y42.628
X77.056 Y42.646
X77.074 Y42.653
X77.128
X77.137 Z-1.218
X77.146 Z-1.22
X79.597
X79.605 Z-1.218
X79.614 Z-1.216
X79.628
X79.646 Y42.661
X79.653 Y42.678
X79.646 Y42.696
X79.628 Y42.703
X79.619 Z-1.218
X79.61 Z-1.22
X77.2
X77.192 Z-1.218
X77.183 Z-1.216
X77.165 Y42.711
X77.158 Y42.728
X77.165 Y42.746
X77.183 Y42.753
X77.238
X77.246 Z-1.218
X77.255 Z-1.22
X79.624
X79.633 Z-1.218
X79.642 Z-1.216
X79.656
X79.673 Y42.761
X79.681 Y42.778
X79.673 Y42.796
X79.656 Y42.803
X79.647 Z-1.218
X79.638 Z-1.22
X77.31
X77.301 Z-1.218
X77.292 Z-1.216
X77.275 Y42.811
X77.267 Y42.828
X77.275 Y42.846
X77.292 Y42.853
X77.347
X77.356 Z-1.218
X77.365 Z-1.22
X79.652
X79.661 Z-1.218
X79.67 Z-1.216
X79.683
X79.701 Y42.861
X79.708 Y42.878
X79.701 Y42.896
X79.683 Y42.903
X79.675 Z-1.218
X79.666 Z-1.22
X77.419
X77.411 Z-1.218
X77.402 Z-1.216
X77.384 Y42.911
X77.377 Y42.928
X77.384 Y42.946
X77.402 Y42.953
X77.457
X77.465 Z-1.218
X77.474 Z-1.22
X79.679
X79.688 Z-1.218
X79.697 Z-1.216
X79.71
X79.728 Y42.961
X79.735 Y42.978
X79.728 Y42.996
X79.71 Y43.003
X79.702 Z-1.218
X79.693 Z-1.22
X77.529
X77.52 Z-1.218
X77.511 Z-1.216
X77.494 Y43.011
X77.486 Y43.028
X77.494 Y43.046
X77.511 Y43.053
X77.566
X77.575 Z-1.218
X77.583 Z-1.22
X79.707
X79.715 Z-1.218
X79.724 Z-1.216
X79.738
X79.755 Y43.061
X79.763 Y43.078
X79.755 Y43.096
X79.738 Y43.103
X79.729 Z-1.218
X79.72 Z-1.22
X77.638
X77.63 Z-1.218
X77.621 Z-1.216
X77.603 Y43.11
X77.596 Y43.128
X77.603 Y43.146
X77.621 Y43.153
X77.676
X77.684 Z-1.218
X77.693 Z-1.22
X79.734
X79.742 Z-1.218
X79.751 Z-1.216
X79.765
X79.782 Y43.16
X79.79 Y43.178
X79.782 Y43.196
X79.765 Y43.203
X79.756 Z-1.218
X79.747 Z-1.22
X77.748
X77.739 Z-1.218
X77.73 Z-1.216
X77.713 Y43.21
X77.705 Y43.228
X77.713 Y43.246
X77.73 Y43.253
X77.785
X77.794 Z-1.218
X77.802 Z-1.22
X79.76
X79.769 Z-1.218
X79.778 Z-1.216
X79.791
X79.809 Y43.26
X79.816 Y43.278
X79.809 Y43.296
X79.791 Y43.303
X79.782 Z-1.218
X79.774 Z-1.22
X77.857
X77.848 Z-1.218
X77.84 Z-1.216
X77.822 Y43.31
X77.815 Y43.328
X77.822 Y43.346
X77.84 Y43.353
X77.894
X77.903 Z-1.218
X77.912 Z-1.22
X79.787
X79.796 Z-1.218
X79.804 Z-1.216
X79.818
X79.835 Y43.36
X79.843 Y43.378
X79.835 Y43.396
X79.818 Y43.403
X79.809 Z-1.218
X79.8 Z-1.22
X77.967
X77.958 Z-1.218
X77.949 Z-1.216
X77.931 Y43.41
X77.924 Y43.428
X77.931 Y43.446
X77.949 Y43.453
X78.004
X78.013 Z-1.218
X78.021 Z-1.22
X79.813
X79.822 Z-1.218
X79.831 Z-1.216
X79.844
X79.862 Y43.46
X79.869 Y43.478
X79.862 Y43.496
X79.844 Y43.503
X79.835 Z-1.218
X79.827 Z-1.22
X78.076
X78.067 Z-1.218
X78.059 Z-1.216
X78.041 Y43.51
X78.034 Y43.528
X78.041 Y43.546
X78.059 Y43.553
X78.113
X78.122 Z-1.218
X78.131 Z-1.22
X79.84
X79.848 Z-1.218
X79.857 Z-1.216
X79.87
X79.888 Y43.56
X79.895 Y43.578
X79.888 Y43.596
X79.87 Y43.603
X79.861 Z-1.218
X79.853 Z-1.22
X78.185
X78.177 Z-1.218
X78.168 Z-1.216
X78.15 Y43.61
X78.143 Y43.628
X78.15 Y43.646
X78.168 Y43.653
X78.223
X78.231 Z-1.218
X78.24 Z-1.22
X79.866
X79.874 Z-1.218
X79.883 Z-1.216
X79.896
X79.914 Y43.66
X79.921 Y43.678
X79.914 Y43.696
X79.896 Y43.703
X79.887 Z-1.218
X79.879 Z-1.22
X78.295
X78.286 Z-1.218
X78.277 Z-1.216
X78.26 Y43.71
X78.252 Y43.728
X78.26 Y43.746
X78.277 Y43.753
X78.332
X78.341 Z-1.218
X78.35 Z-1.22
X79.892
X79.9 Z-1.218
X79.909 Z-1.216
X79.922
X79.94 Y43.76
X79.947 Y43.778
X79.94 Y43.796
X79.922 Y43.803
X79.913 Z-1.218
X79.905 Z-1.22
X78.404
X78.396 Z-1.218
X78.387 Z-1.216
X78.369 Y43.81
X78.362 Y43.828
X78.369 Y43.846
X78.387 Y43.853
X78.442
X78.45 Z-1.218
X78.459 Z-1.22
X79.917
X79.926 Z-1.218
X79.935 Z-1.216
X79.947
X79.965 Y43.86
X79.972 Y43.878
X79.965 Y43.896
X79.947 Y43.903
X79.939 Z-1.218
X79.93 Z-1.22
X78.514
X78.505 Z-1.218
X78.496 Z-1.216
X78.479 Y43.91
X78.471 Y43.928
X78.479 Y43.946
X78.496 Y43.953
X78.551
X78.56 Z-1.218
X78.568 Z-1.22
X79.943
X79.951 Z-1.218
X79.96 Z-1.216
X79.973
X79.99 Y43.96
X79.998 Y43.978
X79.99 Y43.996
X79.973 Y44.003
X79.964 Z-1.218
X79.955 Z-1.22
X78.623
X78.614 Z-1.218
X78.606 Z-1.216
X78.588 Y44.01
X78.581 Y44.028
X78.588 Y44.046
X78.606 Y44.053
X78.66
X78.669 Z-1.218
X78.678 Z-1.22
X79.968
X79.976 Z-1.218
X79.985 Z-1.216
X79.997
X80.015 Y44.06
X80.022 Y44.078
X80.015 Y44.096
X79.997 Y44.103
X79.989 Z-1.218
X79.98 Z-1.22
X78.733
X78.724 Z-1.218
X78.715 Z-1.216
X78.697 Y44.11
X78.69 Y44.128
X78.697 Y44.146
X78.715 Y44.153
X78.77
X78.779 Z-1.218
X78.787 Z-1.22
X79.992
X80.001 Z-1.218
X80.01 Z-1.216
X80.022
X80.04 Y44.16
X80.047 Y44.178
X80.04 Y44.196
X80.022 Y44.203
X80.013 Z-1.218
X80.005 Z-1.22
X78.842
X78.833 Z-1.218
X78.825 Z-1.216
X78.807 Y44.21
X78.8 Y44.228
X78.807 Y44.246
X78.825 Y44.253
X78.879
X78.888 Z-1.218
X78.897 Z-1.22
X80.017
X80.026 Z-1.218
X80.034 Z-1.216
X80.046
X80.064 Y44.26
X80.071 Y44.278
X80.064 Y44.296
X80.046 Y44.303
X80.038 Z-1.218
X80.029 Z-1.22
X78.951
X78.943 Z-1.218
X78.934 Z-1.216
X78.916 Y44.31
X78.909 Y44.328
X78.916 Y44.346
X78.934 Y44.353
X78.989
X78.997 Z-1.218
X79.006 Z-1.22
X80.041
X80.05 Z-1.218
X80.058 Z-1.216
X80.07
X80.088 Y44.36
X80.095 Y44.378
X80.088 Y44.396
X80.07 Y44.403
X80.061 Z-1.218
X80.053 Z-1.22
X79.061
X79.052 Z-1.218
X79.044 Z-1.216
X79.026 Y44.41
X79.019 Y44.428
X79.026 Y44.446
X79.044 Y44.453
X79.098
X79.107 Z-1.218
X79.116 Z-1.22
X80.064
X80.073 Z-1.218
X80.082 Z-1.216
X80.093
X80.111 Y44.46
X80.118 Y44.478
X80.111 Y44.496
X80.093 Y44.503
X80.085 Z-1.218
X80.076 Z-1.22
X79.17
X79.162 Z-1.218
X79.153 Z-1.216
X79.135 Y44.51
X79.128 Y44.528
X79.135 Y44.546
X79.153 Y44.553
X79.208
X79.216 Z-1.218
X79.225 Z-1.22
X80.088
X80.096 Z-1.218
X80.105 Z-1.216
X80.117
X80.134 Y44.56
X80.142 Y44.578
X80.134 Y44.596
X80.117 Y44.603
X80.108 Z-1.218
X80.099 Z-1.22
X79.28
X79.271 Z-1.218
X79.262 Z-1.216
X79.245 Y44.61
X79.237 Y44.628
X79.245 Y44.646
X79.262 Y44.653
X79.317
X79.326 Z-1.218
X79.335 Z-1.22
X80.111
X80.12 Z-1.218
X80.128 Z-1.216
X80.14
X80.158 Y44.66
X80.165 Y44.678
X80.158 Y44.696
X80.14 Y44.703
X80.131 Z-1.218
X80.123 Z-1.22
X79.389
X79.381 Z-1.218
X79.372 Z-1.216
X79.354 Y44.71
X79.347 Y44.728
X79.354 Y44.746
X79.372 Y44.753
X79.427
X79.435 Z-1.218
X79.444 Z-1.22
X80.134
X80.143 Z-1.218
X80.152 Z-1.216
X80.163
X80.181 Y44.76
X80.188 Y44.778
X80.181 Y44.796
X80.163 Y44.803
X80.155 Z-1.218
X80.146 Z-1.22
X79.499
X79.49 Z-1.218
X79.481 Z-1.216
X79.464 Y44.81
X79.456 Y44.828
X79.464 Y44.846
X79.481 Y44.853
X79.536
X79.545 Z-1.218
X79.553 Z-1.22
X80.158
X80.166 Z-1.218
X80.175 Z-1.216
X80.187
X80.204 Y44.86
X80.212 Y44.878
X80.204 Y44.896
X80.187 Y44.903
X80.178 Z-1.218
X80.169 Z-1.22
X79.608
X79.599 Z-1.218
X79.591 Z-1.216
X79.573 Y44.91
X79.566 Y44.928
X79.573 Y44.946
X79.591 Y44.953
X79.645
X79.654 Z-1.218
X79.663 Z-1.22
X80.181
X80.19 Z-1.218
X80.198 Z-1.216
X80.21
X80.228 Y44.96
X80.235 Y44.978
X80.228 Y44.996
X80.21 Y45.003
X80.201 Z-1.218
X80.193 Z-1.22
X79.718
X79.709 Z-1.218
X79.7 Z-1.216
X79.682 Y45.01
X79.675 Y45.028
X79.682 Y45.046
X79.7 Y45.053
X79.755
X79.764 Z-1.218
X79.772 Z-1.22
X80.204
X80.213 Z-1.218
X80.222 Z-1.216
X80.233
X80.251 Y45.06
X80.258 Y45.078
X80.251 Y45.096
X80.233 Y45.103
X80.225 Z-1.218
X80.216 Z-1.22
X79.827
X79.818 Z-1.218
X79.81 Z-1.216
X79.792 Y45.11
X79.785 Y45.128
X79.792 Y45.146
X79.81 Y45.153
X79.864
X79.873 Z-1.218
X79.882 Z-1.22
X80.227
X80.236 Z-1.218
X80.245 Z-1.216
X80.257
X80.274 Y45.16
X80.282 Y45.178
X80.274 Y45.196
X80.257 Y45.203
X80.248 Z-1.218
X80.239 Z-1.22
X79.936
X79.928 Z-1.218
X79.919 Z-1.216
X79.901 Y45.21
X79.894 Y45.228
X79.901 Y45.246
X79.919 Y45.253
X79.974
X79.982 Z-1.218
X79.991 Z-1.22
X80.251
X80.26 Z-1.218
X80.268 Z-1.216
X80.28
X80.298 Y45.26
X80.305 Y45.278
X80.298 Y45.296
X80.28 Y45.303
X80.271 Z-1.218
X80.262 Z-1.22
X80.046
X80.037 Z-1.218
X80.028 Z-1.216
X80.011 Y45.31
X80.003 Y45.328
X80.011 Y45.346
X80.028 Y45.353
X80.083
X80.092 Z-1.218
X80.101 Z-1.22
X80.274
X80.283 Z-1.218
X80.292 Z-1.216
X80.303
X80.321 Y45.36
X80.328 Y45.378
X80.321 Y45.396
X80.303 Y45.403
X80.294 Z-1.218
X80.286 Z-1.22
X80.155
X80.147 Z-1.218
X80.138 Z-1.216
X80.12 Y45.41
X80.113 Y45.428
X80.12 Y45.446
X80.138 Y45.453
X80.193
X80.201 Z-1.218
X80.21 Z-1.22
X80.297
X80.32 Y45.449
X80.339 Y45.436
X80.352 Y45.416
X80.357 Y45.394
Y41.763
X80.352 Y41.74
X80.339 Y41.721
X80.32 Y41.708
X80.297 Y41.703
X75.74
X72.407
X72.398 Z-1.218
X72.389 Z-1.216
X72.372 Y41.711
X72.364 Y41.728
X72.372 Y41.746
X72.389 Y41.753
X72.405
X72.414 Z-1.218
X72.423 Z-1.22
X75.72
X75.729 Z-1.218
X75.738 Z-1.216
X75.756 Y41.761
X75.763 Y41.778
X75.756 Y41.796
X75.738 Y41.803
X75.718
X75.709 Z-1.218
X75.701 Z-1.22
X72.438
X72.429 Z-1.218
X72.42 Z-1.216
X72.403 Y41.811
X72.395 Y41.828
X72.403 Y41.846
X72.42 Y41.853
X72.435
X72.444 Z-1.218
X72.453 Z-1.22
X75.681
X75.689 Z-1.218
X75.698 Z-1.216
X75.716 Y41.861
X75.723 Y41.878
X75.716 Y41.896
X75.698 Y41.903
X75.678
X75.67 Z-1.218
X75.661 Z-1.22
X72.468
X72.459 Z-1.218
X72.45 Z-1.216
X72.433 Y41.911
X72.425 Y41.928
X72.433 Y41.946
X72.45 Y41.953
X72.465
X72.474 Z-1.218
X72.483 Z-1.22
X75.641
X75.65 Z-1.218
X75.658 Z-1.216
X75.676 Y41.961
X75.683 Y41.978
X75.676 Y41.996
X75.658 Y42.003
X75.639
X75.63 Z-1.218
X75.621 Z-1.22
X72.498
X72.489 Z-1.218
X72.48 Z-1.216
X72.463 Y42.011
X72.455 Y42.028
X72.463 Y42.046
X72.48 Y42.053
X72.495
X72.504 Z-1.218
X72.513 Z-1.22
X75.601
X75.61 Z-1.218
X75.619 Z-1.216
X75.636 Y42.061
X75.644 Y42.078
X75.636 Y42.096
X75.619 Y42.103
X75.599
X75.59 Z-1.218
X75.582 Z-1.22
X72.528
X72.519 Z-1.218
X72.51 Z-1.216
X72.493 Y42.111
X72.485 Y42.128
X72.493 Y42.146
X72.51 Y42.153
X72.525
X72.534 Z-1.218
X72.543 Z-1.22
X75.562
X75.57 Z-1.218
X75.579 Z-1.216
X75.597 Y42.161
X75.604 Y42.178
X75.597 Y42.196
X75.579 Y42.203
X75.559
X75.551 Z-1.218
X75.542 Z-1.22
X72.558
X72.549 Z-1.218
X72.541 Z-1.216
X72.523 Y42.211
X72.516 Y42.228
X72.523 Y42.246
X72.541 Y42.253
X72.556
X72.564 Z-1.218
X72.573 Z-1.22
X75.522
X75.531 Z-1.218
X75.539 Z-1.216
X75.557 Y42.261
X75.564 Y42.278
X75.557 Y42.296
X75.539 Y42.303
X75.52
X75.511 Z-1.218
X75.502 Z-1.22
X72.588
X72.579 Z-1.218
X72.57 Z-1.216
X72.552 Y42.311
X72.545 Y42.328
X72.552 Y42.346
X72.57 Y42.353
X72.584
X72.593 Z-1.218
X72.602 Z-1.22
X75.482
X75.491 Z-1.218
X75.5 Z-1.216
X75.517 Y42.361
X75.525 Y42.378
X75.517 Y42.396
X75.5 Y42.403
X75.48
X75.471 Z-1.218
X75.462 Z-1.22
X72.616
X72.607 Z-1.218
X72.599 Z-1.216
X72.581 Y42.411
X72.574 Y42.428
X72.581 Y42.446
X72.599 Y42.453
X72.613
X72.622 Z-1.218
X72.631 Z-1.22
X75.443
X75.451 Z-1.218
X75.46 Z-1.216
X75.478 Y42.461
X75.485 Y42.478
X75.478 Y42.496
X75.46 Y42.503
X75.44
X75.431 Z-1.218
X75.423 Z-1.22
X72.645
X72.636 Z-1.218
X72.627 Z-1.216
X72.61 Y42.511
X72.602 Y42.528
X72.61 Y42.546
X72.627 Y42.553
X72.642
X72.651 Z-1.218
X72.659 Z-1.22
X75.403
X75.412 Z-1.218
X75.42 Z-1.216
X75.438 Y42.561
X75.445 Y42.578
X75.438 Y42.596
X75.42 Y42.603
X75.401
X75.392 Z-1.218
X75.383 Z-1.22
X72.674
X72.665 Z-1.218
X72.656 Z-1.216
X72.638 Y42.611
X72.631 Y42.628
X72.638 Y42.646
X72.656 Y42.653
X72.671
X72.679 Z-1.218
X72.688 Z-1.22
X75.363
X75.372 Z-1.218
X75.381 Z-1.216
X75.398 Y42.661
X75.406 Y42.678
X75.398 Y42.696
X75.381 Y42.703
X75.361
X75.352 Z-1.218
X75.343 Z-1.22
X72.702
X72.694 Z-1.218
X72.685 Z-1.216
X72.667 Y42.711
X72.66 Y42.728
X72.667 Y42.746
X72.685 Y42.753
X72.699
X72.708 Z-1.218
X72.717 Z-1.22
X75.324
X75.332 Z-1.218
X75.341 Z-1.216
X75.359 Y42.761
X75.366 Y42.778
X75.359 Y42.796
X75.341 Y42.803
X75.321
X75.312 Z-1.218
X75.304 Z-1.22
X72.73
X72.722 Z-1.218
X72.713 Z-1.216
X72.695 Y42.811
X72.688 Y42.828
X72.695 Y42.846
X72.713 Y42.853
X72.727
X72.735 Z-1.218
X72.744 Z-1.22
X75.284
X75.293 Z-1.218
X75.301 Z-1.216
X75.319 Y42.861
X75.326 Y42.878
X75.319 Y42.896
X75.301 Y42.903
X75.281
X75.273 Z-1.218
X75.264 Z-1.22
X72.758
X72.749 Z-1.218
X72.74 Z-1.216
X72.723 Y42.911
X72.715 Y42.928
X72.723 Y42.946
X72.74 Y42.953
X72.754
X72.763 Z-1.218
X72.771 Z-1.22
X75.244
X75.253 Z-1.218
X75.262 Z-1.216
X75.279 Y42.961
X75.287 Y42.978
X75.279 Y42.996
X75.262 Y43.003
X75.242
X75.233 Z-1.218
X75.224 Z-1.22
X72.785
X72.776 Z-1.218
X72.768 Z-1.216
X72.75 Y43.011
X72.743 Y43.028
X72.75 Y43.046
X72.768 Y43.053
X72.781
X72.79 Z-1.218
X72.799 Z-1.22
X75.205
X75.213 Z-1.218
X75.222 Z-1.216
X75.24 Y43.061
X75.247 Y43.078
X75.24 Y43.096
X75.222 Y43.103
X75.202
X75.193 Z-1.218
X75.185 Z-1.22
X72.813
X72.804 Z-1.218
X72.795 Z-1.216
X72.778 Y43.11
X72.77 Y43.128
X72.778 Y43.146
X72.795 Y43.153
X72.809
X72.818 Z-1.218
X72.826 Z-1.22
X75.165
X75.174 Z-1.218
X75.182 Z-1.216
X75.2 Y43.16
X75.207 Y43.178
X75.2 Y43.196
X75.182 Y43.203
X75.162
X75.154 Z-1.218
X75.145 Z-1.22
X72.84
X72.831 Z-1.218
X72.823 Z-1.216
X72.805 Y43.21
X72.798 Y43.228
X72.805 Y43.246
X72.823 Y43.253
X72.836
X72.844 Z-1.218
X72.853 Z-1.22
X75.125
X75.134 Z-1.218
X75.143 Z-1.216
X75.16 Y43.26
X75.168 Y43.278
X75.16 Y43.296
X75.143 Y43.303
X75.123
X75.114 Z-1.218
X75.105 Z-1.22
X72.866
X72.858 Z-1.218
X72.849 Z-1.216
X72.831 Y43.31
X72.824 Y43.328
X72.831 Y43.346
X72.849 Y43.353
X72.862
X72.871 Z-1.218
X72.879 Z-1.22
X75.086
X75.094 Z-1.218
X75.103 Z-1.216
X75.121 Y43.36
X75.128 Y43.378
X75.121 Y43.396
X75.103 Y43.403
X75.083
X75.074 Z-1.218
X75.066 Z-1.22
X72.893
X72.884 Z-1.218
X72.875 Z-1.216
X72.857 Y43.41
X72.85 Y43.428
X72.857 Y43.446
X72.875 Y43.453
X72.888
X72.897 Z-1.218
X72.906 Z-1.22
X75.046
X75.055 Z-1.218
X75.063 Z-1.216
X75.081 Y43.46
X75.088 Y43.478
X75.081 Y43.496
X75.063 Y43.503
X75.043
X75.035 Z-1.218
X75.026 Z-1.22
X72.919
X72.91 Z-1.218
X72.901 Z-1.216
X72.884 Y43.51
X72.876 Y43.528
X72.884 Y43.546
X72.901 Y43.553
X72.914
X72.923 Z-1.218
X72.932 Z-1.22
X75.006
X75.015 Z-1.218
X75.024 Z-1.216
X75.041 Y43.56
X75.049 Y43.578
X75.041 Y43.596
X75.024 Y43.603
X75.004
X74.995 Z-1.218
X74.986 Z-1.22
X72.945
X72.936 Z-1.218
X72.928 Z-1.216
X72.91 Y43.61
X72.903 Y43.628
X72.91 Y43.646
X72.928 Y43.653
X72.94
X72.949 Z-1.218
X72.958 Z-1.22
X74.967
X74.975 Z-1.218
X74.984 Z-1.216
X75.002 Y43.66
X75.009 Y43.678
X75.002 Y43.696
X74.984 Y43.703
X74.964
X74.955 Z-1.218
X74.947 Z-1.22
X72.97
X72.962 Z-1.218
X72.953 Z-1.216
X72.935 Y43.71
X72.928 Y43.728
X72.935 Y43.746
X72.953 Y43.753
X72.966
X72.974 Z-1.218
X72.983 Z-1.22
X74.927
X74.936 Z-1.218
X74.944 Z-1.216
X74.962 Y43.76
X74.969 Y43.778
X74.962 Y43.796
X74.944 Y43.803
X74.924
X74.916 Z-1.218
X74.907 Z-1.22
X72.996
X72.987 Z-1.218
X72.978 Z-1.216
X72.961 Y43.81
X72.953 Y43.828
X72.961 Y43.846
X72.978 Y43.853
X72.991
X73. Z-1.218
X73.008 Z-1.22
X74.887
X74.896 Z-1.218
X74.905 Z-1.216
X74.922 Y43.86
X74.93 Y43.878
X74.922 Y43.896
X74.905 Y43.903
X74.885
X74.876 Z-1.218
X74.867 Z-1.22
X73.021
X73.012 Z-1.218
X73.003 Z-1.216
X72.986 Y43.91
X72.978 Y43.928
X72.986 Y43.946
X73.003 Y43.953
X73.016
X73.025 Z-1.218
X73.033 Z-1.22
X74.847
X74.856 Z-1.218
X74.865 Z-1.216
X74.883 Y43.96
X74.89 Y43.978
X74.883 Y43.996
X74.865 Y44.003
X74.845
X74.836 Z-1.218
X74.828 Z-1.22
X73.046
X73.037 Z-1.218
X73.029 Z-1.216
X73.011 Y44.01
X73.004 Y44.028
X73.011 Y44.046
X73.029 Y44.053
X73.041
X73.05 Z-1.218
X73.058 Z-1.22
X74.808
X74.817 Z-1.218
X74.825 Z-1.216
X74.843 Y44.06
X74.85 Y44.078
X74.843 Y44.096
X74.825 Y44.103
X74.805
X74.797 Z-1.218
X74.788 Z-1.22
X73.07
X73.062 Z-1.218
X73.053 Z-1.216
X73.035 Y44.11
X73.028 Y44.128
X73.035 Y44.146
X73.053 Y44.153
X73.065
X73.074 Z-1.218
X73.082 Z-1.22
X74.768
X74.777 Z-1.218
X74.786 Z-1.216
X74.803 Y44.16
X74.811 Y44.178
X74.803 Y44.196
X74.786 Y44.203
X74.766
X74.757 Z-1.218
X74.748 Z-1.22
X73.095
X73.086 Z-1.218
X73.077 Z-1.216
X73.059 Y44.21
X73.052 Y44.228
X73.059 Y44.246
X73.077 Y44.253
X73.089
X73.098 Z-1.218
X73.107 Z-1.22
X74.728
X74.737 Z-1.218
X74.746 Z-1.216
X74.764 Y44.26
X74.771 Y44.278
X74.764 Y44.296
X74.746 Y44.303
X74.726
X74.717 Z-1.218
X74.709 Z-1.22
X73.119
X73.11 Z-1.218
X73.101 Z-1.216
X73.084 Y44.31
X73.076 Y44.328
X73.084 Y44.346
X73.101 Y44.353
X73.113
X73.122 Z-1.218
X73.131 Z-1.22
X74.689
X74.698 Z-1.218
X74.706 Z-1.216
X74.724 Y44.36
X74.731 Y44.378
X74.724 Y44.396
X74.706 Y44.403
X74.686
X74.678 Z-1.218
X74.669 Z-1.22
X73.143
X73.134 Z-1.218
X73.125 Z-1.216
X73.108 Y44.41
X73.1 Y44.428
X73.108 Y44.446
X73.125 Y44.453
X73.137
X73.146 Z-1.218
X73.154 Z-1.22
X74.649
X74.658 Z-1.218
X74.667 Z-1.216
X74.684 Y44.46
X74.692 Y44.478
X74.684 Y44.496
X74.667 Y44.503
X74.647
X74.638 Z-1.218
X74.629 Z-1.22
X73.166
X73.157 Z-1.218
X73.149 Z-1.216
X73.131 Y44.51
X73.124 Y44.528
X73.131 Y44.546
X73.149 Y44.553
X73.16
X73.169 Z-1.218
X73.178 Z-1.22
X74.609
X74.618 Z-1.218
X74.627 Z-1.216
X74.645 Y44.56
X74.652 Y44.578
X74.645 Y44.596
X74.627 Y44.603
X74.607
X74.598 Z-1.218
X74.59 Z-1.22
X73.189
X73.18 Z-1.218
X73.172 Z-1.216
X73.154 Y44.61
X73.147 Y44.628
X73.154 Y44.646
X73.172 Y44.653
X73.183
X73.192 Z-1.218
X73.201 Z-1.22
X74.57
X74.579 Z-1.218
X74.587 Z-1.216
X74.605 Y44.66
X74.612 Y44.678
X74.605 Y44.696
X74.587 Y44.703
X74.567
X74.559 Z-1.218
X74.55 Z-1.22
X73.212
X73.204 Z-1.218
X73.195 Z-1.216
X73.177 Y44.71
X73.17 Y44.728
X73.177 Y44.746
X73.195 Y44.753
X73.206
X73.215 Z-1.218
X73.224 Z-1.22
X74.53
X74.539 Z-1.218
X74.548 Z-1.216
X74.565 Y44.76
X74.573 Y44.778
X74.565 Y44.796
X74.548 Y44.803
X74.528
X74.519 Z-1.218
X74.51 Z-1.22
X73.235
X73.226 Z-1.218
X73.217 Z-1.216
X73.2 Y44.81
X73.192 Y44.828
X73.2 Y44.846
X73.217 Y44.853
X73.229
X73.237 Z-1.218
X73.246 Z-1.22
X74.49
X74.499 Z-1.218
X74.508 Z-1.216
X74.526 Y44.86
X74.533 Y44.878
X74.526 Y44.896
X74.508 Y44.903
X74.488
X74.479 Z-1.218
X74.471 Z-1.22
X73.257
X73.248 Z-1.218
X73.24 Z-1.216
X73.222 Y44.91
X73.215 Y44.928
X73.222 Y44.946
X73.24 Y44.953
X73.251
X73.259 Z-1.218
X73.268 Z-1.22
X74.451
X74.46 Z-1.218
X74.468 Z-1.216
X74.486 Y44.96
X74.493 Y44.978
X74.486 Y44.996
X74.468 Y45.003
X74.448
X74.44 Z-1.218
X74.431 Z-1.22
X73.279
X73.271 Z-1.218
X73.262 Z-1.216
X73.244 Y45.01
X73.237 Y45.028
X73.244 Y45.046
X73.262 Y45.053
X73.273
X73.281 Z-1.218
X73.29 Z-1.22
X74.411
X74.42 Z-1.218
X74.429 Z-1.216
X74.446 Y45.06
X74.454 Y45.078
X74.446 Y45.096
X74.429 Y45.103
X74.409
X74.4 Z-1.218
X74.391 Z-1.22
X73.301
X73.292 Z-1.218
X73.283 Z-1.216
X73.266 Y45.11
X73.258 Y45.128
X73.266 Y45.146
X73.283 Y45.153
X73.294
X73.303 Z-1.218
X73.312 Z-1.22
X74.371
X74.38 Z-1.218
X74.389 Z-1.216
X74.407 Y45.16
X74.414 Y45.178
X74.407 Y45.196
X74.389 Y45.203
X74.369
X74.36 Z-1.218
X74.352 Z-1.22
X73.322
X73.314 Z-1.218
X73.305 Z-1.216
X73.287 Y45.21
X73.28 Y45.228
X73.287 Y45.246
X73.305 Y45.253
X73.315
X73.324 Z-1.218
X73.333 Z-1.22
X74.332
X74.341 Z-1.218
X74.349 Z-1.216
X74.367 Y45.26
X74.374 Y45.278
X74.367 Y45.296
X74.349 Y45.303
X74.329
X74.321 Z-1.218
X74.312 Z-1.22
X73.343
X73.335 Z-1.218
X73.326 Z-1.216
X73.308 Y45.31
X73.301 Y45.328
X73.308 Y45.346
X73.326 Y45.353
X73.336
X73.345 Z-1.218
X73.354 Z-1.22
X74.292
X74.301 Z-1.218
X74.31 Z-1.216
X74.327 Y45.36
X74.335 Y45.378
X74.327 Y45.396
X74.31 Y45.403
X74.29
X74.281 Z-1.218
X74.272 Z-1.22
X73.364
X73.355 Z-1.218
X73.346 Z-1.216
X73.329 Y45.41
X73.321 Y45.428
X73.329 Y45.446
X73.346 Y45.453
X73.357
X73.365 Z-1.218
X73.374 Z-1.22
X74.252
X74.261 Z-1.218
X74.27 Z-1.216
X74.288 Y45.46
X74.295 Y45.478
X74.288 Y45.496
X74.27 Y45.503
X74.25
X74.241 Z-1.218
X74.233 Z-1.22
X73.384
X73.375 Z-1.218
X73.367 Z-1.216
X73.349 Y45.51
X73.342 Y45.528
X73.349 Y45.546
X73.367 Y45.553
X73.377
X73.385 Z-1.218
X73.394 Z-1.22
X74.213
X74.222 Z-1.218
X74.23 Z-1.216
X74.248 Y45.56
X74.255 Y45.578
X74.248 Y45.596
X74.23 Y45.603
X74.21
X74.202 Z-1.218
X74.193 Z-1.22
X73.404
X73.395 Z-1.218
X73.386 Z-1.216
X73.369 Y45.61
X73.361 Y45.628
X73.369 Y45.646
X73.386 Y45.653
X73.396
X73.405 Z-1.218
X73.413 Z-1.22
X74.173
X74.182 Z-1.218
X74.191 Z-1.216
X74.208 Y45.66
X74.216 Y45.678
X74.208 Y45.696
X74.191 Y45.703
X74.171
X74.162 Z-1.218
X74.153 Z-1.22
X73.423
X73.414 Z-1.218
X73.405 Z-1.216
X73.387 Y45.71
X73.38 Y45.728
X73.387 Y45.746
X73.405 Y45.753
X73.414
X73.423 Z-1.218
X73.432 Z-1.22
X74.134
X74.142 Z-1.218
X74.151 Z-1.216
X74.169 Y45.76
X74.176 Y45.778
X74.169 Y45.796
X74.151 Y45.803
X74.131
X74.122 Z-1.218
X74.114 Z-1.22
X73.441
X73.432 Z-1.218
X73.423 Z-1.216
X73.406 Y45.81
X73.398 Y45.828
X73.406 Y45.846
X73.423 Y45.853
X73.432
X73.441 Z-1.218
X73.45 Z-1.22
X74.094
X74.103 Z-1.218
X74.111 Z-1.216
X74.129 Y45.86
X74.136 Y45.878
X74.129 Y45.896
X74.111 Y45.903
X74.091
X74.083 Z-1.218
X74.074 Z-1.22
X73.459
X73.45 Z-1.218
X73.441 Z-1.216
X73.424 Y45.91
X73.416 Y45.928
X73.424 Y45.946
X73.441 Y45.953
X73.45
X73.459 Z-1.218
X73.468 Z-1.22
X74.054
X74.063 Z-1.218
X74.072 Z-1.216
X74.089 Y45.96
X74.097 Y45.978
X74.089 Y45.996
X74.072 Y46.003
X74.052
X74.043 Z-1.218
X74.034 Z-1.22
X73.477
X73.468 Z-1.218
X73.459 Z-1.216
X73.442 Y46.01
X73.434 Y46.028
X73.442 Y46.046
X73.459 Y46.053
X73.469
X73.477 Z-1.218
X73.486 Z-1.22
X74.014
X74.023 Z-1.218
X74.032 Z-1.216
X74.05 Y46.06
X74.057 Y46.078
X74.05 Y46.096
X74.032 Y46.103
X74.012
X74.003 Z-1.218
X73.995 Z-1.22
X73.495
X73.486 Z-1.218
X73.478 Z-1.216
X73.46 Y46.11
X73.453 Y46.128
X73.46 Y46.146
X73.478 Y46.153
X73.487
X73.495 Z-1.218
X73.504 Z-1.22
X73.975
X73.984 Z-1.218
X73.992 Z-1.216
X74.01 Y46.16
X74.017 Y46.178
X74.01 Y46.196
X73.992 Y46.203
X73.972
X73.964 Z-1.218
X73.955 Z-1.22
X73.513
X73.504 Z-1.218
X73.496 Z-1.216
X73.478 Y46.21
X73.471 Y46.228
X73.478 Y46.246
X73.496 Y46.253
X73.505
X73.513 Z-1.218
X73.522 Z-1.22
X73.935
X73.944 Z-1.218
X73.953 Z-1.216
X73.97 Y46.26
X73.978 Y46.278
X73.97 Y46.296
X73.953 Y46.303
X73.933
X73.924 Z-1.218
X73.915 Z-1.22
X73.531
X73.523 Z-1.218
X73.514 Z-1.216
X73.496 Y46.31
X73.489 Y46.328
X73.496 Y46.346
X73.514 Y46.353
X73.523
X73.532 Z-1.218
X73.54 Z-1.22
X73.895
X73.904 Z-1.218
X73.913 Z-1.216
X73.931 Y46.36
X73.938 Y46.378
X73.931 Y46.396
X73.913 Y46.403
X73.893
X73.884 Z-1.218
X73.876 Z-1.22
X73.549
X73.541 Z-1.218
X73.532 Z-1.216
X73.514 Y46.41
X73.507 Y46.428
X73.514 Y46.446
X73.532 Y46.453
X73.541
X73.55 Z-1.218
X73.558 Z-1.22
X73.856
X73.865 Z-1.218
X73.873 Z-1.216
X73.891 Y46.46
X73.898 Y46.478
X73.891 Y46.496
X73.873 Y46.503
X73.853
X73.845 Z-1.218
X73.836 Z-1.22
X73.567
X73.559 Z-1.218
X73.55 Z-1.216
X73.532 Y46.51
X73.525 Y46.528
X73.532 Y46.546
X73.55 Y46.553
X73.559
X73.568 Z-1.218
X73.577 Z-1.22
X73.816
X73.825 Z-1.218
X73.834 Z-1.216
X73.851 Y46.56
X73.859 Y46.578
X73.851 Y46.596
X73.834 Y46.603
X73.814
X73.805 Z-1.218
X73.796 Z-1.22
X73.586
X73.577 Z-1.218
X73.568 Z-1.216
X73.55 Y46.61
X73.543 Y46.628
X73.55 Y46.646
X73.568 Y46.653
X73.577
X73.586 Z-1.218
X73.595 Z-1.22
X73.777
X73.785 Z-1.218
X73.794 Z-1.216
X73.812 Y46.66
X73.819 Y46.678
X73.812 Y46.696
X73.794 Y46.703
X73.774
X73.765 Z-1.218
X73.757 Z-1.22
X73.604
X73.595 Z-1.218
X73.586 Z-1.216
X73.569 Y46.71
X73.561 Y46.728
X73.569 Y46.746
X73.586 Y46.753
X73.595
X73.604 Z-1.218
X73.613 Z-1.22
X73.737
X73.746 Z-1.218
X73.754 Z-1.216
X73.772 Y46.76
X73.779 Y46.778
X73.772 Y46.796
X73.754 Y46.803
X73.734
X73.726 Z-1.218
X73.717 Z-1.22
X73.622
X73.613 Z-1.218
X73.604 Z-1.216
X73.587 Y46.81
X73.579 Y46.828
X73.587 Y46.846
X73.604 Y46.853
X73.613
X73.622 Z-1.218
X73.631 Z-1.22
X73.697
G2 X74.197 Z-0.72 I0. K0.5
G0 Z5.
X32.974 Y31.954
Z4.139
G1 Z-0.72 F40.
G3 X32.474 Z-1.22 I-0.5 K0.
G1 X32.334
X32.327 Z-1.209
X32.328 Y31.952 Z-1.194
X32.332 Y31.946 Z-1.18
X32.338 Y31.939 Z-1.155
X32.334 Y31.943 Z-1.128
X32.323 Y31.958 Z-1.108
X32.308 Y31.979 Z-1.101
X32.292 Y31.999 Z-1.108
X32.281 Y32.014 Z-1.128
X32.277 Y32.018 Z-1.155
X32.283 Y32.011 Z-1.18
X32.287 Y32.005 Z-1.194
X32.289 Y32.004 Z-1.209
X32.295 Z-1.22
X32.536
X32.545 Z-1.218
X32.553 Z-1.216
X32.615
X32.632 Y32.011
X32.64 Y32.029
X32.632 Y32.046
X32.615 Y32.054
X32.606 Z-1.218
X32.597 Z-1.22
X32.258
X32.251 Z-1.209
X32.252 Y32.052 Z-1.193
X32.256 Y32.046 Z-1.18
X32.262 Y32.039 Z-1.154
X32.259 Y32.043 Z-1.128
X32.248 Y32.058 Z-1.108
X32.232 Y32.079 Z-1.1
X32.216 Y32.099 Z-1.108
X32.205 Y32.114 Z-1.128
X32.202 Y32.118 Z-1.154
X32.207 Y32.111 Z-1.18
X32.211 Y32.105 Z-1.193
X32.213 Y32.104 Z-1.209
X32.215 Z-1.215
X32.22 Z-1.22
X32.658
X32.667 Z-1.218
X32.676 Z-1.216
X32.736
X32.754 Y32.111
X32.761 Y32.129
X32.754 Y32.146
X32.736 Y32.154
X32.728 Z-1.218
X32.719 Z-1.22
X32.182
X32.175 Z-1.209
X32.177 Y32.152 Z-1.194
X32.181 Y32.146 Z-1.18
X32.186 Y32.139 Z-1.155
X32.183 Y32.143 Z-1.128
X32.172 Y32.158 Z-1.108
X32.156 Y32.179 Z-1.101
X32.14 Y32.199 Z-1.108
X32.129 Y32.214 Z-1.128
X32.126 Y32.218 Z-1.155
X32.132 Y32.211 Z-1.18
X32.136 Y32.205 Z-1.194
X32.137 Y32.204 Z-1.209
Z-1.21
X32.144 Z-1.22
X32.779
X32.788 Z-1.218
X32.797 Z-1.216
X32.856
X32.874 Y32.211
X32.881 Y32.229
X32.874 Y32.246
X32.856 Y32.254
X32.848 Z-1.218
X32.839 Z-1.22
X32.106
X32.099 Z-1.21
X32.101 Y32.252 Z-1.194
X32.105 Y32.246 Z-1.181
X32.11 Y32.239 Z-1.155
X32.107 Y32.243 Z-1.129
X32.096 Y32.258 Z-1.109
X32.08 Y32.279 Z-1.102
X32.065 Y32.299 Z-1.109
X32.053 Y32.314 Z-1.129
X32.05 Y32.318 Z-1.155
X32.056 Y32.311 Z-1.181
X32.06 Y32.305 Z-1.194
X32.061 Y32.304 Z-1.21
X32.068 Z-1.22
X32.899
X32.907 Z-1.218
X32.916 Z-1.216
X32.975
X32.993 Y32.311
X33. Y32.329
X32.993 Y32.346
X32.975 Y32.354
X32.967 Z-1.218
X32.958 Z-1.22
X32.031
X32.024 Z-1.209
X32.025 Y32.352 Z-1.193
X32.029 Y32.346 Z-1.18
X32.035 Y32.339 Z-1.154
X32.031 Y32.343 Z-1.128
X32.02 Y32.358 Z-1.108
X32.005 Y32.379 Z-1.1
X31.989 Y32.399 Z-1.108
X31.978 Y32.414 Z-1.128
X31.974 Y32.418 Z-1.154
X31.98 Y32.411 Z-1.18
X31.984 Y32.405 Z-1.193
X31.986 Y32.404 Z-1.209
X31.988 Z-1.215
X31.993 Z-1.22
X33.017
X33.026 Z-1.218
X33.034 Z-1.216
X33.093
X33.111 Y32.411
X33.118 Y32.429
X33.111 Y32.446
X33.093 Y32.454
X33.084 Z-1.218
X33.076 Z-1.22
X31.955
X31.95 Z-1.215
X31.948 Z-1.209
X31.949 Y32.452 Z-1.193
X31.953 Y32.446 Z-1.179
X31.959 Y32.439 Z-1.154
X31.956 Y32.443 Z-1.127
X31.945 Y32.458 Z-1.108
X31.929 Y32.479 Z-1.1
X31.913 Y32.499 Z-1.108
X31.902 Y32.514 Z-1.127
X31.899 Y32.518 Z-1.154
X31.904 Y32.511 Z-1.179
X31.909 Y32.505 Z-1.193
X31.91 Y32.504 Z-1.209
Z-1.21
X31.917 Z-1.22
X33.134
X33.143 Z-1.218
X33.151 Z-1.216
X33.21
X33.227 Y32.511
X33.235 Y32.529
X33.227 Y32.546
X33.21 Y32.554
X33.201 Z-1.218
X33.192 Z-1.22
X31.879
X31.873 Z-1.21
Z-1.209
X31.875 Y32.552 Z-1.194
X31.879 Y32.546 Z-1.18
X31.884 Y32.539 Z-1.155
X31.881 Y32.543 Z-1.128
X31.87 Y32.558 Z-1.108
X31.854 Y32.579 Z-1.101
X31.839 Y32.599 Z-1.108
X31.828 Y32.614 Z-1.128
X31.825 Y32.619 Z-1.155
X31.83 Y32.611 Z-1.18
X31.834 Y32.605 Z-1.194
X31.836 Y32.604 Z-1.209
X31.843 Z-1.22
X33.25
X33.259 Z-1.218
X33.267 Z-1.216
X33.325
X33.343 Y32.611
X33.35 Y32.629
X33.343 Y32.646
X33.325 Y32.654
X33.316 Z-1.218
X33.308 Z-1.22
X31.806
X31.799 Z-1.209
X31.8 Y32.652 Z-1.194
X31.804 Y32.646 Z-1.18
X31.81 Y32.639 Z-1.154
X31.807 Y32.643 Z-1.128
X31.796 Y32.658 Z-1.108
X31.78 Y32.679 Z-1.1
X31.765 Y32.699 Z-1.108
X31.754 Y32.714 Z-1.128
X31.75 Y32.719 Z-1.154
X31.756 Y32.711 Z-1.18
X31.76 Y32.705 Z-1.194
X31.762 Y32.704 Z-1.209
X31.769 Z-1.22
X33.365
X33.373 Z-1.218
X33.382 Z-1.216
X33.439
X33.457 Y32.711
X33.464 Y32.729
X33.457 Y32.746
X33.439 Y32.754
X33.43 Z-1.218
X33.422 Z-1.22
X31.731
X31.724 Z-1.209
X31.726 Y32.752 Z-1.194
X31.73 Y32.746 Z-1.18
X31.736 Y32.738 Z-1.154
X31.732 Y32.743 Z-1.128
X31.721 Y32.758 Z-1.108
X31.706 Y32.779 Z-1.1
X31.69 Y32.799 Z-1.108
X31.679 Y32.814 Z-1.128
X31.676 Y32.819 Z-1.154
X31.682 Y32.811 Z-1.18
X31.686 Y32.805 Z-1.194
X31.687 Y32.804 Z-1.209
X31.694 Z-1.22
X33.478
X33.487 Z-1.218
X33.496 Z-1.216
X33.552
X33.57 Y32.811
X33.577 Y32.829
X33.57 Y32.846
X33.552 Y32.854
X33.543 Z-1.218
X33.535 Z-1.22
X31.656
X31.65 Z-1.21
Z-1.209
X31.651 Y32.852 Z-1.193
X31.656 Y32.846 Z-1.179
X31.661 Y32.839 Z-1.154
X31.658 Y32.843 Z-1.127
X31.647 Y32.858 Z-1.108
X31.631 Y32.879 Z-1.1
X31.616 Y32.899 Z-1.108
X31.605 Y32.914 Z-1.127
X31.602 Y32.919 Z-1.154
X31.607 Y32.911 Z-1.179
X31.611 Y32.905 Z-1.193
X31.613 Y32.904 Z-1.209
X31.615 Z-1.215
X31.62 Z-1.22
X33.591
X33.6 Z-1.218
X33.608 Z-1.216
X33.664
X33.682 Y32.911
X33.689 Y32.929
X33.682 Y32.946
X33.664 Y32.954
X33.655 Z-1.218
X33.647 Z-1.22
X31.583
X31.576 Z-1.209
X31.577 Y32.952 Z-1.194
X31.581 Y32.946 Z-1.18
X31.587 Y32.939 Z-1.155
X31.584 Y32.943 Z-1.128
X31.573 Y32.958 Z-1.108
X31.557 Y32.979 Z-1.101
X31.542 Y32.999 Z-1.108
X31.531 Y33.014 Z-1.128
X31.527 Y33.019 Z-1.155
X31.533 Y33.011 Z-1.18
X31.537 Y33.005 Z-1.194
X31.539 Y33.004 Z-1.209
Z-1.21
X31.545 Z-1.22
X33.702
X33.711 Z-1.218
X33.72 Z-1.216
X33.778
X33.796 Y33.011
X33.803 Y33.029
X33.796 Y33.046
X33.778 Y33.054
X33.769 Z-1.218
X33.761 Z-1.22
X31.509
X31.503 Z-1.211
Z-1.21
X31.504 Y33.051 Z-1.194
X31.508 Y33.045 Z-1.18
X31.514 Y33.038 Z-1.155
X31.511 Y33.042 Z-1.128
X31.5 Y33.057 Z-1.108
X31.485 Y33.079 Z-1.101
X31.471 Y33.1 Z-1.108
X31.46 Y33.115 Z-1.128
X31.457 Y33.119 Z-1.155
X31.463 Y33.112 Z-1.18
X31.467 Y33.106 Z-1.194
X31.468 Y33.104 Z-1.21
X31.475 Z-1.22
X33.813
X33.822 Z-1.218
X33.831 Z-1.216
X33.862
X33.88 Y33.111
X33.887 Y33.129
X33.88 Y33.146
X33.862 Y33.154
X33.854 Z-1.218
X33.845 Z-1.22
X31.44
X31.433 Z-1.211
Z-1.209
X31.435 Y33.151 Z-1.194
X31.439 Y33.145 Z-1.18
X31.445 Y33.138 Z-1.154
X31.442 Y33.142 Z-1.127
X31.431 Y33.157 Z-1.107
X31.416 Y33.179 Z-1.1
X31.401 Y33.2 Z-1.107
X31.391 Y33.215 Z-1.127
X31.388 Y33.219 Z-1.154
X31.393 Y33.212 Z-1.18
X31.397 Y33.206 Z-1.194
X31.399 Y33.204 Z-1.209
X31.406 Z-1.22
X33.864
X33.872 Z-1.218
X33.881 Z-1.216
X33.891
X33.909 Y33.211
X33.916 Y33.229
X33.909 Y33.246
X33.891 Y33.254
X33.882 Z-1.218
X33.874 Z-1.22
X31.371
X31.364 Z-1.21
X31.366 Y33.251 Z-1.194
X31.37 Y33.245 Z-1.18
X31.375 Y33.238 Z-1.155
X31.372 Y33.242 Z-1.128
X31.362 Y33.257 Z-1.108
X31.347 Y33.278 Z-1.101
X31.332 Y33.3 Z-1.108
X31.322 Y33.315 Z-1.128
X31.319 Y33.319 Z-1.155
X31.324 Y33.312 Z-1.18
X31.328 Y33.306 Z-1.194
X31.33 Y33.303 Z-1.21
X31.336 Z-1.22
X33.878
X33.886 Z-1.218
X33.895 Z-1.216
X33.913 Y33.311
X33.92 Y33.328
X33.913 Y33.346
X33.895 Y33.353
X33.894
X33.885 Z-1.218
X33.876 Z-1.22
X31.301
X31.295 Z-1.21
X31.296 Y33.351 Z-1.194
X31.301 Y33.345 Z-1.18
X31.306 Y33.338 Z-1.155
X31.303 Y33.342 Z-1.128
X31.293 Y33.357 Z-1.108
X31.278 Y33.378 Z-1.1
X31.263 Y33.4 Z-1.108
X31.252 Y33.415 Z-1.128
X31.249 Y33.419 Z-1.155
X31.255 Y33.412 Z-1.18
X31.259 Y33.406 Z-1.194
X31.26 Y33.403 Z-1.21
X31.267 Z-1.22
X33.87
X33.879 Z-1.218
X33.887 Z-1.216
X33.905 Y33.411
X33.912 Y33.428
X33.905 Y33.446
X33.887 Y33.453
X33.875
X33.866 Z-1.218
X33.857 Z-1.22
X31.232
X31.226 Z-1.211
Z-1.209
X31.227 Y33.451 Z-1.194
X31.231 Y33.445 Z-1.18
X31.237 Y33.438 Z-1.154
X31.234 Y33.442 Z-1.127
X31.223 Y33.457 Z-1.107
X31.208 Y33.478 Z-1.1
X31.194 Y33.5 Z-1.107
X31.183 Y33.515 Z-1.127
X31.18 Y33.519 Z-1.154
X31.186 Y33.512 Z-1.18
X31.19 Y33.506 Z-1.194
X31.191 Y33.503 Z-1.209
X31.198 Z-1.22
X33.836
X33.845 Z-1.218
X33.854 Z-1.216
X33.871 Y33.511
X33.879 Y33.528
X33.871 Y33.546
X33.854 Y33.553
X33.821
X33.813 Z-1.218
X33.804 Z-1.22
X31.163
X31.156 Z-1.209
X31.158 Y33.551 Z-1.194
X31.162 Y33.545 Z-1.179
X31.167 Y33.537 Z-1.154
X31.165 Y33.541 Z-1.127
X31.154 Y33.557 Z-1.107
X31.14 Y33.578 Z-1.1
X31.125 Y33.6 Z-1.107
X31.115 Y33.616 Z-1.127
X31.112 Y33.62 Z-1.154
X31.117 Y33.612 Z-1.179
X31.121 Y33.606 Z-1.194
X31.123 Y33.603 Z-1.209
Z-1.211
X31.129 Z-1.22
X33.755
X33.764 Z-1.218
X33.772 Z-1.216
X33.79 Y33.611
X33.797 Y33.628
X33.79 Y33.646
X33.772 Y33.653
X33.724
X33.715 Z-1.218
X33.707 Z-1.22
X31.096
X31.09 Z-1.211
X31.092 Y33.651 Z-1.195
X31.096 Y33.645 Z-1.181
X31.101 Y33.637 Z-1.155
X31.099 Y33.641 Z-1.128
X31.089 Y33.656 Z-1.108
X31.074 Y33.678 Z-1.1
X31.06 Y33.701 Z-1.108
X31.05 Y33.716 Z-1.128
X31.048 Y33.72 Z-1.155
X31.053 Y33.712 Z-1.181
X31.057 Y33.706 Z-1.195
X31.058 Y33.703 Z-1.211
X31.064 Z-1.22
X33.659
X33.667 Z-1.218
X33.676 Z-1.216
X33.694 Y33.711
X33.701 Y33.728
X33.694 Y33.746
X33.676 Y33.753
X33.628
X33.619 Z-1.218
X33.61 Z-1.22
X31.033
X31.026 Z-1.21
X31.028 Y33.751 Z-1.194
X31.032 Y33.745 Z-1.18
X31.037 Y33.737 Z-1.154
X31.035 Y33.741 Z-1.127
X31.025 Y33.756 Z-1.107
X31.01 Y33.778 Z-1.099
X30.996 Y33.801 Z-1.107
X30.986 Y33.816 Z-1.127
X30.984 Y33.82 Z-1.154
X30.989 Y33.812 Z-1.18
X30.993 Y33.806 Z-1.194
X30.994 Y33.803 Z-1.21
Z-1.211
X31. Z-1.22
X33.562
X33.571 Z-1.218
X33.58 Z-1.216
X33.598 Y33.811
X33.605 Y33.828
X33.598 Y33.846
X33.58 Y33.853
X33.534
X33.526 Z-1.218
X33.517 Z-1.22
X30.969
X30.962 Z-1.21
X30.964 Y33.851 Z-1.194
X30.968 Y33.845 Z-1.18
X30.973 Y33.837 Z-1.154
X30.971 Y33.841 Z-1.127
X30.961 Y33.856 Z-1.107
X30.946 Y33.878 Z-1.1
X30.932 Y33.901 Z-1.107
X30.922 Y33.916 Z-1.127
X30.92 Y33.92 Z-1.154
X30.925 Y33.912 Z-1.18
X30.929 Y33.906 Z-1.194
X30.93 Y33.903 Z-1.21
Z-1.211
X30.936 Z-1.22
X33.472
X33.48 Z-1.218
X33.489 Z-1.216
X33.507 Y33.911
X33.514 Y33.928
X33.507 Y33.946
X33.489 Y33.953
X33.444
X33.435 Z-1.218
X33.426 Z-1.22
X30.905
X30.898 Z-1.21
X30.9 Y33.951 Z-1.194
X30.904 Y33.945 Z-1.18
X30.909 Y33.937 Z-1.154
X30.907 Y33.941 Z-1.127
X30.897 Y33.956 Z-1.107
X30.882 Y33.978 Z-1.099
X30.868 Y34.001 Z-1.107
X30.858 Y34.016 Z-1.127
X30.856 Y34.02 Z-1.154
X30.861 Y34.012 Z-1.18
X30.865 Y34.006 Z-1.194
X30.866 Y34.003 Z-1.21
X30.873 Z-1.22
X33.381
X33.39 Z-1.218
X33.398 Z-1.216
X33.416 Y34.011
X33.423 Y34.028
X33.416 Y34.046
X33.398 Y34.053
X33.356
X33.347 Z-1.218
X33.338 Z-1.22
X30.84
X30.834 Z-1.211
X30.836 Y34.051 Z-1.195
X30.84 Y34.045 Z-1.18
X30.845 Y34.037 Z-1.155
X30.842 Y34.041 Z-1.128
X30.833 Y34.056 Z-1.108
X30.818 Y34.078 Z-1.1
X30.804 Y34.101 Z-1.108
X30.794 Y34.116 Z-1.128
X30.791 Y34.12 Z-1.155
X30.797 Y34.112 Z-1.18
X30.801 Y34.106 Z-1.195
X30.802 Y34.103 Z-1.211
X30.808 Z-1.22
X33.295
X33.304 Z-1.218
X33.313 Z-1.216
X33.33 Y34.111
X33.338 Y34.128
X33.33 Y34.146
X33.313 Y34.153
X33.27
X33.261 Z-1.218
X33.252 Z-1.22
X30.776
X30.77 Z-1.211
X30.772 Y34.151 Z-1.195
X30.776 Y34.145 Z-1.18
X30.781 Y34.136 Z-1.155
X30.778 Y34.14 Z-1.128
X30.769 Y34.156 Z-1.107
X30.755 Y34.178 Z-1.1
X30.742 Y34.201 Z-1.107
X30.732 Y34.217 Z-1.128
X30.73 Y34.221 Z-1.155
X30.735 Y34.212 Z-1.18
X30.739 Y34.206 Z-1.195
X30.74 Y34.203 Z-1.211
X30.746 Z-1.22
X33.21
X33.218 Z-1.218
X33.227 Z-1.216
X33.245 Y34.211
X33.252 Y34.228
X33.245 Y34.246
X33.227 Y34.253
X33.186
X33.177 Z-1.218
X33.169 Z-1.22
X30.717
X30.711 Z-1.211
X30.712 Y34.251 Z-1.194
X30.716 Y34.244 Z-1.18
X30.721 Y34.236 Z-1.154
X30.719 Y34.24 Z-1.127
X30.71 Y34.256 Z-1.107
X30.696 Y34.278 Z-1.099
X30.683 Y34.301 Z-1.107
X30.674 Y34.317 Z-1.127
X30.671 Y34.321 Z-1.154
X30.676 Y34.313 Z-1.18
X30.68 Y34.306 Z-1.194
X30.682 Y34.303 Z-1.211
X30.687 Z-1.22
X33.128
X33.137 Z-1.218
X33.145 Z-1.216
X33.163 Y34.311
X33.17 Y34.328
X33.163 Y34.346
X33.145 Y34.353
X33.105
X33.096 Z-1.218
X33.087 Z-1.22
X30.658
X30.652 Z-1.21
X30.654 Y34.351 Z-1.194
X30.658 Y34.344 Z-1.18
X30.663 Y34.336 Z-1.154
X30.66 Y34.34 Z-1.127
X30.651 Y34.356 Z-1.107
X30.638 Y34.378 Z-1.099
X30.624 Y34.401 Z-1.107
X30.615 Y34.417 Z-1.127
X30.612 Y34.421 Z-1.154
X30.618 Y34.413 Z-1.18
X30.622 Y34.406 Z-1.194
X30.623 Y34.403 Z-1.21
Z-1.211
X30.629 Z-1.22
X33.047
X33.056 Z-1.218
X33.064 Z-1.216
X33.082 Y34.411
X33.089 Y34.428
X33.082 Y34.446
X33.064 Y34.453
X33.025
X33.016 Z-1.218
X33.007 Z-1.22
X30.6
X30.594 Z-1.211
X30.595 Y34.451 Z-1.194
X30.599 Y34.444 Z-1.18
X30.604 Y34.436 Z-1.154
X30.602 Y34.44 Z-1.127
X30.592 Y34.456 Z-1.107
X30.579 Y34.478 Z-1.099
X30.565 Y34.501 Z-1.107
X30.556 Y34.517 Z-1.127
X30.554 Y34.521 Z-1.154
X30.559 Y34.513 Z-1.18
X30.563 Y34.506 Z-1.194
X30.564 Y34.503 Z-1.211
X30.57 Z-1.22
X32.969
X32.977 Z-1.218
X32.986 Z-1.216
X33.004 Y34.511
X33.011 Y34.528
X33.004 Y34.546
X32.986 Y34.553
X32.948
X32.939 Z-1.218
X32.93 Z-1.22
X30.541
X30.535 Z-1.211
X30.536 Y34.551 Z-1.195
X30.54 Y34.544 Z-1.18
X30.545 Y34.536 Z-1.155
X30.543 Y34.54 Z-1.127
X30.534 Y34.556 Z-1.107
X30.52 Y34.578 Z-1.099
X30.507 Y34.601 Z-1.107
X30.497 Y34.617 Z-1.127
X30.495 Y34.621 Z-1.155
X30.5 Y34.613 Z-1.18
X30.504 Y34.606 Z-1.195
X30.505 Y34.603 Z-1.211
Z-1.212
X30.511 Z-1.22
X32.892
X32.9 Z-1.218
X32.909 Z-1.216
X32.927 Y34.611
X32.934 Y34.628
X32.927 Y34.646
X32.909 Y34.653
X32.87
X32.862 Z-1.218
X32.853 Z-1.22
X30.482
X30.476 Z-1.211
X30.478 Y34.651 Z-1.195
X30.481 Y34.644 Z-1.18
X30.487 Y34.636 Z-1.155
X30.484 Y34.64 Z-1.127
X30.475 Y34.656 Z-1.107
X30.462 Y34.678 Z-1.099
X30.448 Y34.701 Z-1.107
X30.439 Y34.717 Z-1.127
X30.436 Y34.721 Z-1.155
X30.442 Y34.713 Z-1.18
X30.446 Y34.706 Z-1.195
X30.447 Y34.703 Z-1.211
X30.453 Z-1.22
X32.816
X32.825 Z-1.218
X32.834 Z-1.216
X32.851 Y34.711
X32.859 Y34.728
X32.851 Y34.746
X32.834 Y34.753
X32.797
X32.788 Z-1.218
X32.78 Z-1.22
X30.424
X30.418 Z-1.211
X30.419 Y34.751 Z-1.195
X30.423 Y34.744 Z-1.18
X30.428 Y34.735 Z-1.154
X30.426 Y34.739 Z-1.127
X30.417 Y34.755 Z-1.107
X30.404 Y34.778 Z-1.099
X30.391 Y34.802 Z-1.107
X30.382 Y34.818 Z-1.127
X30.38 Y34.822 Z-1.154
X30.385 Y34.813 Z-1.18
X30.389 Y34.806 Z-1.195
X30.39 Y34.803 Z-1.211
Z-1.212
X30.396 Z-1.22
X32.743
X32.752 Z-1.218
X32.76 Z-1.216
X32.778 Y34.811
X32.785 Y34.828
X32.778 Y34.846
X32.76 Y34.853
X32.724
X32.715 Z-1.218
X32.706 Z-1.22
X30.369
X30.363 Z-1.211
X30.364 Y34.851 Z-1.195
X30.368 Y34.844 Z-1.18
X30.373 Y34.835 Z-1.155
X30.371 Y34.839 Z-1.128
X30.362 Y34.855 Z-1.107
X30.349 Y34.878 Z-1.099
X30.337 Y34.902 Z-1.107
X30.328 Y34.918 Z-1.128
X30.326 Y34.922 Z-1.155
X30.331 Y34.913 Z-1.18
X30.334 Y34.906 Z-1.195
X30.336 Y34.903 Z-1.211
Z-1.212
X30.341 Z-1.22
X32.67
X32.679 Z-1.218
X32.688 Z-1.216
X32.705 Y34.911
X32.713 Y34.928
X32.705 Y34.946
X32.688 Y34.953
X32.653
X32.644 Z-1.218
X32.635 Z-1.22
X30.314
X30.308 Z-1.212
Z-1.21
X30.31 Y34.951 Z-1.194
X30.314 Y34.944 Z-1.179
X30.319 Y34.935 Z-1.154
X30.316 Y34.939 Z-1.127
X30.308 Y34.955 Z-1.106
X30.295 Y34.978 Z-1.099
X30.282 Y35.002 Z-1.106
X30.273 Y35.018 Z-1.127
X30.271 Y35.022 Z-1.154
X30.276 Y35.013 Z-1.179
X30.28 Y35.006 Z-1.194
X30.281 Y35.003 Z-1.21
X30.287 Z-1.22
X32.6
X32.609 Z-1.218
X32.618 Z-1.216
X32.635 Y35.011
X32.643 Y35.028
X32.635 Y35.046
X32.618 Y35.053
X32.583
X32.574 Z-1.218
X32.565 Z-1.22
X30.26
X30.255 Z-1.212
Z-1.211
X30.256 Y35.051 Z-1.195
X30.26 Y35.044 Z-1.18
X30.264 Y35.034 Z-1.154
X30.262 Y35.038 Z-1.127
X30.254 Y35.055 Z-1.106
X30.242 Y35.078 Z-1.099
X30.229 Y35.102 Z-1.106
X30.221 Y35.118 Z-1.127
X30.219 Y35.123 Z-1.154
X30.224 Y35.113 Z-1.18
X30.227 Y35.106 Z-1.195
X30.229 Y35.103 Z-1.211
X30.234 Z-1.22
X32.53
X32.539 Z-1.218
X32.548 Z-1.216
X32.565 Y35.111
X32.573 Y35.128
X32.565 Y35.146
X32.548 Y35.153
X32.514
X32.505 Z-1.218
X32.497 Z-1.22
X30.208
X30.203 Z-1.211
X30.204 Y35.151 Z-1.195
X30.208 Y35.144 Z-1.18
X30.213 Y35.134 Z-1.155
X30.21 Y35.138 Z-1.127
X30.202 Y35.155 Z-1.107
X30.19 Y35.178 Z-1.099
X30.177 Y35.202 Z-1.107
X30.169 Y35.218 Z-1.127
X30.167 Y35.223 Z-1.155
X30.172 Y35.213 Z-1.18
X30.175 Y35.206 Z-1.195
X30.177 Y35.203 Z-1.211
Z-1.212
X30.182 Z-1.22
X32.463
X32.472 Z-1.218
X32.48 Z-1.216
X32.498 Y35.211
X32.505 Y35.228
X32.498 Y35.246
X32.48 Y35.253
X32.447
X32.438 Z-1.218
X32.43 Z-1.22
X30.156
X30.151 Z-1.212
Z-1.211
X30.152 Y35.251 Z-1.194
X30.156 Y35.244 Z-1.18
X30.161 Y35.234 Z-1.154
X30.158 Y35.238 Z-1.127
X30.15 Y35.255 Z-1.106
X30.138 Y35.278 Z-1.098
X30.126 Y35.302 Z-1.106
X30.118 Y35.319 Z-1.127
X30.116 Y35.323 Z-1.154
X30.12 Y35.313 Z-1.18
X30.124 Y35.306 Z-1.194
X30.125 Y35.303 Z-1.211
X30.131 Z-1.22
X32.396
X32.405 Z-1.218
X32.413 Z-1.216
X32.431 Y35.311
X32.438 Y35.328
X32.431 Y35.346
X32.413 Y35.353
X32.38
X32.371 Z-1.218
X32.363 Z-1.22
X30.107
X30.101 Z-1.211
X30.102 Y35.351 Z-1.194
X30.106 Y35.343 Z-1.179
X30.11 Y35.334 Z-1.154
X30.108 Y35.338 Z-1.127
X30.1 Y35.355 Z-1.106
X30.088 Y35.378 Z-1.098
X30.077 Y35.402 Z-1.106
X30.068 Y35.419 Z-1.126
X30.066 Y35.423 Z-1.154
X30.071 Y35.413 Z-1.179
X30.075 Y35.406 Z-1.194
X30.076 Y35.403 Z-1.211
X30.082 Z-1.22
X32.331
X32.339 Z-1.218
X32.348 Z-1.216
X32.366 Y35.411
X32.373 Y35.428
X32.366 Y35.446
X32.348 Y35.453
X32.316
X32.307 Z-1.218
X32.299 Z-1.22
X30.056
X30.051 Z-1.212
X30.052 Y35.451 Z-1.195
X30.056 Y35.443 Z-1.181
X30.061 Y35.434 Z-1.155
X30.059 Y35.438 Z-1.128
X30.051 Y35.455 Z-1.107
X30.039 Y35.478 Z-1.099
X30.027 Y35.502 Z-1.107
X30.019 Y35.519 Z-1.128
X30.017 Y35.523 Z-1.155
X30.022 Y35.513 Z-1.181
X30.025 Y35.506 Z-1.195
X30.027 Y35.503 Z-1.212
X30.032 Z-1.22
X32.266
X32.275 Z-1.218
X32.284 Z-1.216
X32.302 Y35.511
X32.309 Y35.528
X32.302 Y35.546
X32.284 Y35.553
X32.252
X32.243 Z-1.218
X32.234 Z-1.22
X30.008
X30.003 Z-1.212
Z-1.211
X30.004 Y35.551 Z-1.195
X30.008 Y35.543 Z-1.18
X30.012 Y35.533 Z-1.154
X30.01 Y35.538 Z-1.127
X30.003 Y35.554 Z-1.106
X29.991 Y35.578 Z-1.098
X29.98 Y35.603 Z-1.106
X29.972 Y35.619 Z-1.127
X29.97 Y35.623 Z-1.154
X29.975 Y35.614 Z-1.18
X29.978 Y35.606 Z-1.195
X29.98 Y35.603 Z-1.211
X29.985 Z-1.22
X32.203
X32.211 Z-1.218
X32.22 Z-1.216
X32.238 Y35.611
X32.245 Y35.628
X32.238 Y35.646
X32.22 Y35.653
X32.189
X32.181 Z-1.218
X32.172 Z-1.22
X29.962
X29.956 Z-1.211
X29.957 Y35.651 Z-1.194
X29.961 Y35.643 Z-1.179
X29.965 Y35.633 Z-1.154
X29.964 Y35.638 Z-1.126
X29.956 Y35.654 Z-1.106
X29.944 Y35.678 Z-1.098
X29.933 Y35.703 Z-1.106
X29.925 Y35.719 Z-1.126
X29.923 Y35.723 Z-1.154
X29.928 Y35.714 Z-1.179
X29.931 Y35.706 Z-1.194
X29.933 Y35.703 Z-1.211
X29.939 Z-1.22
X32.141
X32.15 Z-1.218
X32.158 Z-1.216
X32.176 Y35.711
X32.183 Y35.728
X32.176 Y35.746
X32.158 Y35.753
X32.128
X32.119 Z-1.218
X32.11 Z-1.22
X29.915
X29.91 Z-1.212
X29.911 Y35.751 Z-1.195
X29.915 Y35.743 Z-1.18
X29.919 Y35.733 Z-1.155
X29.917 Y35.737 Z-1.127
X29.91 Y35.754 Z-1.107
X29.899 Y35.778 Z-1.099
X29.888 Y35.803 Z-1.107
X29.881 Y35.82 Z-1.127
X29.879 Y35.824 Z-1.155
X29.883 Y35.814 Z-1.18
X29.887 Y35.806 Z-1.195
X29.888 Y35.803 Z-1.212
X29.893 Z-1.22
X32.079
X32.088 Z-1.218
X32.097 Z-1.216
X32.114 Y35.811
X32.122 Y35.828
X32.114 Y35.846
X32.097 Y35.853
X32.067
X32.058 Z-1.218
X32.049 Z-1.22
X29.871
X29.866 Z-1.211
X29.867 Y35.851 Z-1.194
X29.87 Y35.843 Z-1.179
X29.875 Y35.833 Z-1.154
X29.873 Y35.837 Z-1.126
X29.866 Y35.854 Z-1.105
X29.855 Y35.878 Z-1.098
X29.844 Y35.903 Z-1.105
X29.837 Y35.92 Z-1.126
X29.835 Y35.924 Z-1.154
X29.839 Y35.914 Z-1.179
X29.843 Y35.906 Z-1.194
X29.844 Y35.903 Z-1.211
X29.849 Z-1.22
X32.02
X32.028 Z-1.218
X32.037 Z-1.216
X32.055 Y35.911
X32.062 Y35.928
X32.055 Y35.946
X32.037 Y35.953
X32.007
X31.999 Z-1.218
X31.99 Z-1.22
X29.828
X29.823 Z-1.211
X29.824 Y35.951 Z-1.195
X29.827 Y35.943 Z-1.18
X29.831 Y35.933 Z-1.154
X29.83 Y35.937 Z-1.126
X29.823 Y35.954 Z-1.106
X29.812 Y35.978 Z-1.098
X29.802 Y36.003 Z-1.106
X29.795 Y36.02 Z-1.126
X29.793 Y36.024 Z-1.154
X29.797 Y36.014 Z-1.18
X29.801 Y36.006 Z-1.195
X29.802 Y36.003 Z-1.211
X29.807 Z-1.22
X31.96
X31.969 Z-1.218
X31.978 Z-1.216
X31.995 Y36.011
X32.003 Y36.028
X31.995 Y36.046
X31.978 Y36.053
X31.948
X31.939 Z-1.218
X31.931 Z-1.22
X29.786
X29.781 Z-1.212
X29.782 Y36.051 Z-1.195
X29.785 Y36.043 Z-1.18
X29.789 Y36.032 Z-1.154
X29.788 Y36.036 Z-1.127
X29.781 Y36.054 Z-1.106
X29.771 Y36.078 Z-1.098
X29.761 Y36.103 Z-1.106
X29.754 Y36.12 Z-1.127
X29.752 Y36.124 Z-1.154
X29.757 Y36.114 Z-1.18
X29.76 Y36.106 Z-1.195
X29.761 Y36.103 Z-1.212
X29.766 Z-1.22
X31.902
X31.911 Z-1.218
X31.919 Z-1.216
X31.937 Y36.111
X31.944 Y36.128
X31.937 Y36.146
X31.919 Y36.153
X31.891
X31.882 Z-1.218
X31.873 Z-1.22
X29.746
X29.741 Z-1.212
X29.742 Y36.151 Z-1.195
X29.745 Y36.143 Z-1.18
X29.749 Y36.132 Z-1.155
X29.748 Y36.136 Z-1.127
X29.741 Y36.153 Z-1.106
X29.732 Y36.178 Z-1.098
X29.722 Y36.203 Z-1.106
X29.715 Y36.221 Z-1.127
X29.714 Y36.225 Z-1.155
X29.718 Y36.214 Z-1.18
X29.721 Y36.206 Z-1.195
X29.722 Y36.203 Z-1.212
X29.727 Z-1.22
X31.845
X31.853 Z-1.218
X31.862 Z-1.216
X31.88 Y36.211
X31.887 Y36.228
X31.88 Y36.246
X31.862 Y36.253
X31.834
X31.825 Z-1.218
X31.816 Z-1.22
X29.708
X29.703 Z-1.213
Z-1.212
X29.704 Y36.251 Z-1.195
X29.707 Y36.242 Z-1.18
X29.711 Y36.232 Z-1.154
X29.71 Y36.236 Z-1.126
X29.703 Y36.253 Z-1.105
X29.694 Y36.278 Z-1.098
X29.685 Y36.304 Z-1.105
X29.679 Y36.321 Z-1.126
X29.677 Y36.325 Z-1.154
X29.681 Y36.314 Z-1.18
X29.684 Y36.306 Z-1.195
X29.685 Y36.303 Z-1.212
X29.69 Z-1.22
X31.788
X31.796 Z-1.218
X31.805 Z-1.216
X31.823 Y36.311
X31.83 Y36.328
X31.823 Y36.346
X31.805 Y36.353
X31.777
X31.769 Z-1.218
X31.76 Z-1.22
X29.671
X29.667 Z-1.213
Z-1.212
X29.668 Y36.351 Z-1.195
X29.671 Y36.342 Z-1.18
X29.675 Y36.332 Z-1.154
X29.673 Y36.336 Z-1.127
X29.667 Y36.353 Z-1.106
X29.657 Y36.378 Z-1.098
X29.648 Y36.404 Z-1.106
X29.642 Y36.421 Z-1.127
X29.64 Y36.425 Z-1.154
X29.644 Y36.414 Z-1.18
X29.647 Y36.406 Z-1.195
X29.648 Y36.403 Z-1.212
X29.653 Z-1.22
X31.732
X31.741 Z-1.218
X31.75 Z-1.216
X31.768 Y36.411
X31.775 Y36.428
X31.768 Y36.446
X31.75 Y36.453
X31.722
X31.714 Z-1.218
X31.705 Z-1.22
X29.635
X29.63 Z-1.212
X29.631 Y36.451 Z-1.194
X29.634 Y36.442 Z-1.179
X29.638 Y36.432 Z-1.154
X29.636 Y36.436 Z-1.126
X29.63 Y36.453 Z-1.105
X29.621 Y36.478 Z-1.097
X29.612 Y36.504 Z-1.105
X29.605 Y36.521 Z-1.126
X29.604 Y36.525 Z-1.154
X29.608 Y36.514 Z-1.179
X29.611 Y36.506 Z-1.194
X29.612 Y36.503 Z-1.212
Z-1.213
X29.616 Z-1.22
X31.677
X31.686 Z-1.218
X31.695 Z-1.216
X31.712 Y36.511
