(1001)
(T1  D=0.396 CR=0. - ZMIN=-0.781 - FLAT END MILL)
G0 G90 G94 G17
G21
G53 G0 Z0.

(B 0.4MM  FLATEND  PARALLEL)
M5
M9
T1
S12000 M3
G4 P4.
G55
G0 X51.14 Y14.342
Z15.
Z1.701
G1 Z-0.259 F40.
X51.135 Z-0.279
X51.121 Z-0.294
X51.101 Z-0.299
X50.889
X48.589
X48.571 Y14.338
X48.555 Y14.329
X48.533 Y14.318
X48.508 Y14.319
X48.486 Y14.332
X48.474 Y14.354
Y14.379
X48.486 Y14.401
X48.508 Y14.414
X48.533 Y14.416
X48.555 Y14.404
X48.571 Y14.395
X48.589 Y14.392
X53.379
X54.147
X54.165 Y14.388
X54.18 Y14.379
X54.203 Y14.368
X54.228 Y14.369
X54.249 Y14.382
X54.262 Y14.404
Y14.429
X54.249 Y14.451
X54.228 Y14.464
X54.203 Y14.466
X54.18 Y14.454
X54.165 Y14.445
X54.147 Y14.442
X47.817
X47.808 Z-0.297
X47.799 Z-0.295
X47.283
X47.266 Y14.449
X47.258 Y14.467
X47.266 Y14.484
X47.283 Y14.492
X47.292 Z-0.297
X47.301 Z-0.299
X54.66
X54.668 Z-0.297
X54.677 Z-0.295
X55.056
X55.073 Y14.499
X55.081 Y14.517
X55.073 Y14.534
X55.056 Y14.542
X55.047 Z-0.297
X55.038 Z-0.299
X46.922
X46.913 Z-0.297
X46.904 Z-0.295
X46.608
X46.59 Y14.549
X46.583 Y14.567
X46.59 Y14.584
X46.608 Y14.592
X46.617 Z-0.297
X46.625 Z-0.299
X55.337
X55.346 Z-0.297
X55.355 Z-0.295
X55.592
X55.61 Y14.599
X55.617 Y14.617
X55.61 Y14.634
X55.592 Y14.642
X55.584 Z-0.297
X55.575 Z-0.299
X46.383
X46.375 Z-0.297
X46.366 Z-0.295
X46.171
X46.154 Y14.649
X46.146 Y14.667
X46.154 Y14.684
X46.171 Y14.692
X46.18 Z-0.297
X46.189 Z-0.299
X55.772
X55.781 Z-0.297
X55.79 Z-0.295
X55.954
X55.972 Y14.699
X55.979 Y14.717
X55.972 Y14.734
X55.954 Y14.742
X55.945 Z-0.297
X55.937 Z-0.299
X46.025
X46.016 Z-0.297
X46.007 Z-0.295
X45.87
X45.852 Y14.749
X45.845 Y14.767
X45.852 Y14.784
X45.87 Y14.792
X45.879 Z-0.297
X45.887 Z-0.299
X56.074
X56.082 Z-0.297
X56.091 Z-0.295
X56.205
X56.223 Y14.799
X56.23 Y14.817
X56.223 Y14.834
X56.205 Y14.842
X56.196 Z-0.297
X56.188 Z-0.299
X45.774
X45.765 Z-0.297
X45.756 Z-0.295
X45.66
X45.643 Y14.849
X45.635 Y14.867
X45.643 Y14.884
X45.66 Y14.892
X45.669 Z-0.297
X45.678 Z-0.299
X56.284
X56.293 Z-0.297
X56.301 Z-0.295
X56.382
X56.399 Y14.899
X56.407 Y14.917
X56.399 Y14.934
X56.382 Y14.942
X56.373 Z-0.297
X56.364 Z-0.299
X45.597
X45.588 Z-0.297
X45.579 Z-0.295
X45.512
X45.494 Y14.949
X45.487 Y14.967
X45.494 Y14.984
X45.512 Y14.992
X45.52 Z-0.297
X45.529 Z-0.299
X56.431
X56.44 Z-0.297
X56.449 Z-0.295
X56.505
X56.523 Y14.999
X56.53 Y15.017
X56.523 Y15.034
X56.505 Y15.042
X56.496 Z-0.297
X56.488 Z-0.299
X45.472
X45.463 Z-0.297
X45.455 Z-0.295
X45.407
X45.389 Y15.049
X45.382 Y15.067
X45.389 Y15.084
X45.407 Y15.092
X45.416 Z-0.297
X45.424 Z-0.299
X56.534
X56.543 Z-0.297
X56.552 Z-0.295
X56.591
X56.608 Y15.099
X56.616 Y15.117
X56.608 Y15.134
X56.591 Y15.142
X56.582 Z-0.297
X56.573 Z-0.299
X45.387
X45.378 Z-0.297
X45.369 Z-0.295
X45.339
X45.321 Y15.149
X45.314 Y15.167
X45.321 Y15.184
X45.339 Y15.192
X45.348 Z-0.297
X45.356 Z-0.299
X56.605
X56.614 Z-0.297
X56.622 Z-0.295
X56.646
X56.664 Y15.199
X56.671 Y15.217
X56.664 Y15.234
X56.646 Y15.242
X56.637 Z-0.297
X56.628 Z-0.299
X45.331
X45.322 Z-0.297
X45.313 Z-0.295
X45.295
X45.278 Y15.249
X45.27 Y15.267
X45.278 Y15.284
X45.295 Y15.292
X45.304 Z-0.297
X45.313 Z-0.299
X56.647
X56.655 Z-0.297
X56.664 Z-0.295
X56.678
X56.696 Y15.299
X56.703 Y15.317
X56.696 Y15.334
X56.678 Y15.342
X56.67 Z-0.297
X56.661 Z-0.299
X45.299
X45.291 Z-0.297
X45.282 Z-0.295
X45.272
X45.255 Y15.349
X45.247 Y15.367
X45.255 Y15.384
X45.272 Y15.392
X45.281 Z-0.297
X45.29 Z-0.299
X56.669
X56.678 Z-0.297
X56.687 Z-0.295
X56.692
X56.709 Y15.399
X56.717 Y15.417
X56.709 Y15.434
X56.692 Y15.442
X56.683 Z-0.297
X56.674 Z-0.299
X45.286
X45.277 Z-0.297
X45.268 Z-0.295
X45.265
X45.248 Y15.449
X45.24 Y15.467
X45.248 Y15.484
X45.265 Y15.492
X45.274 Z-0.297
X45.283 Z-0.299
X56.677
X56.685 Z-0.297
X56.694 Z-0.295
X56.712 Y15.499
X56.719 Y15.517
X56.712 Y15.534
X56.694 Y15.542
X56.686 Z-0.297
X56.677 Z-0.299
X45.283
X45.274 Z-0.297
X45.265 Z-0.295
X45.247 Y15.549
X45.24 Y15.567
X45.247 Y15.584
X45.265 Y15.592
X45.273 Z-0.297
X45.282 Z-0.299
X56.677
X56.686 Z-0.297
X56.695 Z-0.295
X56.696
X56.714 Y15.599
X56.721 Y15.617
X56.714 Y15.634
X56.696 Y15.642
X56.687 Z-0.297
X56.678 Z-0.299
X45.281
X45.273 Z-0.297
X45.264 Z-0.295
X45.263
X45.245 Y15.649
X45.238 Y15.667
X45.245 Y15.684
X45.263 Y15.692
X45.271 Z-0.297
X45.28 Z-0.299
X56.68
X56.688 Z-0.297
X56.697 Z-0.295
X56.699
X56.716 Y15.699
X56.724 Y15.717
X56.716 Y15.734
X56.699 Y15.742
X56.69 Z-0.297
X56.681 Z-0.299
X45.279
X45.27 Z-0.297
X45.261 Z-0.295
X45.26
X45.242 Y15.749
X45.235 Y15.767
X45.242 Y15.784
X45.26 Y15.792
X45.268 Z-0.297
X45.277 Z-0.299
X56.683
X56.692 Z-0.297
X56.7 Z-0.295
X56.702
X56.72 Y15.799
X56.727 Y15.817
X56.72 Y15.834
X56.702 Y15.842
X56.694 Z-0.297
X56.685 Z-0.299
X45.275
X45.266 Z-0.297
X45.258 Z-0.295
X45.256
X45.238 Y15.849
X45.231 Y15.867
X45.238 Y15.884
X45.256 Y15.892
X45.264 Z-0.297
X45.273 Z-0.299
X56.687
X56.696 Z-0.297
X56.705 Z-0.295
X56.707
X56.725 Y15.899
X56.732 Y15.917
X56.725 Y15.934
X56.707 Y15.942
X56.698 Z-0.297
X56.69 Z-0.299
X45.271
X45.262 Z-0.297
X45.253 Z-0.295
X45.251
X45.233 Y15.949
X45.226 Y15.967
X45.233 Y15.984
X45.251 Y15.992
X45.26 Z-0.297
X45.269 Z-0.299
X56.692
X56.701 Z-0.297
X56.71 Z-0.295
X56.712
X56.73 Y15.999
X56.737 Y16.017
X56.73 Y16.034
X56.712 Y16.042
X56.704 Z-0.297
X56.695 Z-0.299
X52.239
X52.126
X45.266
X45.257 Z-0.297
X45.249 Z-0.295
X45.246
X45.228 Y16.049
X45.221 Y16.067
X45.228 Y16.084
X45.246 Y16.092
X45.255 Z-0.297
X45.263 Z-0.299
X49.291
X49.298 Z-0.296
X49.3 Z-0.289
X49.305 Y16.087 Z-0.265
X49.31 Y16.083 Z-0.24
X49.305 Y16.088 Z-0.215
X49.291 Y16.1 Z-0.197
X49.273 Y16.117 Z-0.19
X49.254 Y16.133 Z-0.197
X49.241 Y16.145 Z-0.215
X49.235 Y16.15 Z-0.24
X49.24 Y16.146 Z-0.265
X49.245 Y16.142 Z-0.289
X49.238 Z-0.299
X45.261
X45.252 Z-0.297
X45.243 Z-0.295
X45.24
X45.223 Y16.149
X45.215 Y16.167
X45.223 Y16.184
X45.24 Y16.192
X45.249 Z-0.297
X45.258 Z-0.299
X48.009
X48.029 Z-0.294
X48.043 Z-0.279
X48.048 Z-0.259
G0 Z5.
X48.186
Z1.935
G1 Z-0.273 F40.
X48.193 Z-0.291
X48.212 Z-0.299
X49.211
X49.216 Z-0.292
Y16.189 Z-0.275
X49.219 Y16.18 Z-0.259
X49.221 Y16.169 Z-0.237
Y16.17 Z-0.212
X49.218 Y16.183 Z-0.191
X49.212 Y16.204 Z-0.178
X49.206 Y16.229
X49.201 Y16.25 Z-0.191
X49.197 Y16.263 Z-0.212
Y16.264 Z-0.237
X49.2 Y16.253 Z-0.259
X49.202 Y16.245 Z-0.275
X49.203 Y16.242 Z-0.292
X49.198 Z-0.299
X48.287
X48.282 Z-0.294
Z-0.291
X48.28 Y16.24 Z-0.275
X48.276 Y16.234 Z-0.261
X48.271 Y16.226 Z-0.236
X48.274 Y16.23 Z-0.209
X48.284 Y16.245 Z-0.189
X48.299 Y16.267 Z-0.181
X48.314 Y16.288 Z-0.189
X48.325 Y16.303 Z-0.209
X48.328 Y16.308 Z-0.236
X48.322 Y16.3 Z-0.261
X48.318 Y16.294 Z-0.275
X48.316 Y16.292 Z-0.291
X48.322 Z-0.299
X49.199
X49.203 Z-0.293
Z-0.291
X49.202 Y16.289 Z-0.274
X49.2 Y16.28 Z-0.259
X49.197 Y16.269 Z-0.236
X49.198 Y16.271 Z-0.211
X49.201 Y16.283 Z-0.19
X49.207 Y16.304 Z-0.178
X49.213 Y16.329
X49.219 Y16.35 Z-0.19
X49.222 Y16.363 Z-0.211
X49.223 Y16.364 Z-0.236
X49.22 Y16.353 Z-0.259
X49.217 Y16.345 Z-0.274
Y16.342 Z-0.291
X49.211 Z-0.299
X48.34
X48.335 Z-0.292
Y16.338 Z-0.275
X48.333 Y16.329 Z-0.259
X48.332 Y16.318 Z-0.237
Y16.319 Z-0.212
X48.334 Y16.332 Z-0.19
X48.337 Y16.354 Z-0.178
X48.341 Y16.379
X48.344 Y16.401 Z-0.19
X48.346 Y16.414 Z-0.212
Y16.415 Z-0.237
X48.345 Y16.404 Z-0.259
X48.343 Y16.395 Z-0.275
Y16.392 Z-0.292
Z-0.293
X48.347 Z-0.299
X49.23
X49.235 Z-0.292
X49.234 Y16.389 Z-0.275
X49.231 Y16.381 Z-0.259
X49.227 Y16.37 Z-0.234
X49.228 Y16.374 Z-0.206
X49.235 Y16.391 Z-0.185
X49.244 Y16.417 Z-0.177
X49.253 Y16.442 Z-0.185
X49.26 Y16.459 Z-0.206
X49.261 Y16.463 Z-0.234
X49.257 Y16.453 Z-0.259
X49.254 Y16.444 Z-0.275
X49.253 Y16.442 Z-0.292
X49.248 Z-0.299
X48.353
X48.349 Z-0.293
Z-0.292
Y16.438 Z-0.275
X48.35 Y16.429 Z-0.259
X48.351 Y16.418 Z-0.237
Y16.419 Z-0.212
X48.35 Y16.432 Z-0.19
X48.348 Y16.454 Z-0.178
X48.346 Y16.479
X48.344 Y16.501 Z-0.19
X48.343 Y16.514 Z-0.212
Y16.515 Z-0.237
X48.344 Y16.504 Z-0.259
X48.345 Y16.495 Z-0.275
Y16.492 Z-0.292
X48.349 Z-0.299
X49.266
X49.272 Z-0.291
X49.27 Y16.489 Z-0.274
X49.267 Y16.481 Z-0.259
X49.264 Y16.47 Z-0.233
X49.265 Y16.474 Z-0.206
X49.271 Y16.491 Z-0.185
X49.281 Y16.517 Z-0.177
X49.29 Y16.542 Z-0.185
X49.296 Y16.559 Z-0.206
X49.298 Y16.563 Z-0.233
X49.294 Y16.553 Z-0.259
X49.291 Y16.544 Z-0.274
X49.29 Y16.542 Z-0.291
X49.285 Z-0.299
X48.333
X48.327 Z-0.291
Z-0.288
X48.329 Y16.54 Z-0.272
X48.333 Y16.534 Z-0.258
X48.338 Y16.526 Z-0.233
X48.335 Y16.531 Z-0.206
X48.324 Y16.546 Z-0.186
X48.309 Y16.567 Z-0.179
X48.294 Y16.588 Z-0.186
X48.283 Y16.603 Z-0.206
X48.28 Y16.607 Z-0.233
X48.285 Y16.599 Z-0.258
X48.289 Y16.594 Z-0.272
X48.291 Y16.592 Z-0.288
X48.293 Z-0.294
X48.298 Z-0.299
X49.303
X49.308 Z-0.292
X49.307 Y16.589 Z-0.274
X49.304 Y16.581 Z-0.259
X49.3 Y16.57 Z-0.234
X49.302 Y16.574 Z-0.206
X49.308 Y16.591 Z-0.185
X49.317 Y16.617 Z-0.177
X49.327 Y16.642 Z-0.185
X49.333 Y16.659 Z-0.206
X49.334 Y16.663 Z-0.234
X49.33 Y16.653 Z-0.259
X49.327 Y16.644 Z-0.274
X49.326 Y16.642 Z-0.292
X49.322 Z-0.299
X48.229
X48.215 Z-0.293
X48.209 Z-0.279
X48.204 Y16.643 Z-0.265
X48.19 Y16.646 Z-0.26
X47.986 Y16.688
X47.973 Y16.69 Z-0.265
X47.967 Y16.692 Z-0.279
Z-0.281
X47.972 Z-0.294
X47.985 Z-0.299
X49.34
X49.345 Z-0.292
X49.344 Y16.689 Z-0.275
X49.341 Y16.681 Z-0.26
X49.337 Y16.67 Z-0.234
X49.338 Y16.674 Z-0.206
X49.345 Y16.691 Z-0.185
X49.354 Y16.717 Z-0.177
X49.363 Y16.742 Z-0.185
X49.37 Y16.759 Z-0.206
X49.371 Y16.763 Z-0.234
X49.367 Y16.753 Z-0.26
X49.364 Y16.744 Z-0.275
X49.363 Y16.742 Z-0.292
X49.358 Z-0.299
X47.94
X47.936 Z-0.292
X47.935 Y16.738 Z-0.274
Y16.729 Z-0.259
X47.934 Y16.718 Z-0.236
Y16.719 Z-0.211
X47.935 Y16.732 Z-0.19
X47.937 Y16.754 Z-0.177
X47.939 Y16.779
X47.94 Y16.801 Z-0.19
X47.942 Y16.814 Z-0.211
Y16.815 Z-0.236
X47.941 Y16.804 Z-0.259
X47.94 Y16.795 Z-0.274
Y16.792 Z-0.292
Z-0.293
X47.944 Z-0.299
X49.377
X49.381 Z-0.292
Z-0.291
X49.38 Y16.789 Z-0.274
X49.377 Y16.781 Z-0.259
X49.373 Y16.77 Z-0.233
X49.375 Y16.774 Z-0.206
X49.381 Y16.791 Z-0.185
X49.391 Y16.817 Z-0.177
X49.4 Y16.842 Z-0.185
X49.406 Y16.859 Z-0.206
X49.408 Y16.863 Z-0.233
X49.404 Y16.853 Z-0.259
X49.401 Y16.844 Z-0.274
X49.4 Y16.842 Z-0.291
X49.394 Z-0.299
X47.95
X47.946 Z-0.293
X47.945 Y16.838 Z-0.276
X47.944 Y16.829 Z-0.26
X47.943 Y16.818 Z-0.238
Y16.819 Z-0.213
X47.945 Y16.832 Z-0.191
X47.947 Y16.854 Z-0.179
X47.95 Y16.879
X47.953 Y16.901 Z-0.191
X47.954 Y16.914 Z-0.213
Y16.915 Z-0.238
X47.953 Y16.904 Z-0.26
X47.952 Y16.895 Z-0.276
Y16.892 Z-0.293
X47.956 Z-0.299
X49.413
X49.418 Z-0.292
Z-0.291
X49.417 Y16.889 Z-0.274
X49.414 Y16.881 Z-0.259
X49.41 Y16.87 Z-0.233
X49.412 Y16.874 Z-0.206
X49.418 Y16.891 Z-0.185
X49.427 Y16.917 Z-0.177
X49.436 Y16.942 Z-0.185
X49.443 Y16.959 Z-0.206
X49.444 Y16.963 Z-0.233
X49.44 Y16.953 Z-0.259
X49.437 Y16.944 Z-0.274
X49.436 Y16.942 Z-0.291
X49.431 Z-0.299
X47.963
X47.958 Z-0.292
X47.957 Y16.938 Z-0.274
X47.956 Y16.929 Z-0.259
X47.955 Y16.918 Z-0.236
Y16.919 Z-0.211
X47.957 Y16.932 Z-0.19
X47.959 Y16.954 Z-0.178
X47.962 Y16.979
X47.965 Y17.001 Z-0.19
X47.967 Y17.014 Z-0.211
Y17.015 Z-0.236
X47.965 Y17.004 Z-0.259
X47.964 Y16.995 Z-0.274
Y16.992 Z-0.292
X47.969 Z-0.299
X49.45
X49.455 Z-0.292
Z-0.291
X49.454 Y16.989 Z-0.274
X49.451 Y16.981 Z-0.259
X49.447 Y16.97 Z-0.233
X49.448 Y16.974 Z-0.206
X49.455 Y16.991 Z-0.185
X49.464 Y17.017 Z-0.177
X49.473 Y17.042 Z-0.185
X49.479 Y17.059 Z-0.206
X49.481 Y17.063 Z-0.233
X49.477 Y17.053 Z-0.259
X49.474 Y17.044 Z-0.274
X49.473 Y17.042 Z-0.291
X49.468 Z-0.299
X47.975
X47.97 Z-0.292
X47.969 Y17.038 Z-0.274
X47.968 Y17.029 Z-0.259
X47.967 Y17.018 Z-0.237
Y17.019 Z-0.211
X47.969 Y17.032 Z-0.19
X47.971 Y17.054 Z-0.178
X47.974 Y17.079
X47.977 Y17.101 Z-0.19
X47.979 Y17.114 Z-0.211
Y17.115 Z-0.237
X47.977 Y17.104 Z-0.259
X47.976 Y17.095 Z-0.274
Y17.092 Z-0.292
X47.98 Z-0.299
X49.486
X49.491 Z-0.292
Z-0.291
X49.49 Y17.089 Z-0.274
X49.487 Y17.081 Z-0.259
X49.483 Y17.07 Z-0.234
X49.485 Y17.074 Z-0.206
X49.491 Y17.091 Z-0.185
X49.5 Y17.117 Z-0.177
X49.51 Y17.142 Z-0.185
X49.516 Y17.159 Z-0.206
X49.517 Y17.163 Z-0.234
X49.514 Y17.153 Z-0.259
X49.511 Y17.144 Z-0.274
X49.51 Y17.142 Z-0.291
X49.504 Z-0.299
X47.987
X47.982 Z-0.292
X47.981 Y17.138 Z-0.274
X47.98 Y17.129 Z-0.259
X47.979 Y17.118 Z-0.236
Y17.119 Z-0.211
X47.981 Y17.132 Z-0.19
X47.983 Y17.154 Z-0.177
X47.986 Y17.179
X47.989 Y17.201 Z-0.19
X47.991 Y17.214 Z-0.211
Y17.215 Z-0.236
X47.989 Y17.204 Z-0.259
X47.988 Y17.195 Z-0.274
Y17.192 Z-0.292
X47.993 Z-0.299
X49.523
X49.528 Z-0.292
Z-0.291
X49.527 Y17.189 Z-0.274
X49.524 Y17.181 Z-0.259
X49.52 Y17.17 Z-0.233
X49.521 Y17.174 Z-0.205
X49.528 Y17.191 Z-0.184
X49.537 Y17.217 Z-0.177
X49.546 Y17.242 Z-0.184
X49.553 Y17.259 Z-0.205
X49.554 Y17.263 Z-0.233
X49.55 Y17.253 Z-0.259
X49.547 Y17.244 Z-0.274
X49.546 Y17.242 Z-0.291
X49.541 Z-0.299
X47.998
X47.994 Z-0.293
Y17.238 Z-0.275
X47.992 Y17.229 Z-0.26
X47.991 Y17.218 Z-0.237
Y17.219 Z-0.212
X47.993 Y17.232 Z-0.191
X47.995 Y17.254 Z-0.178
X47.998 Y17.279
X48.001 Y17.301 Z-0.191
X48.003 Y17.314 Z-0.212
Y17.315 Z-0.237
X48.001 Y17.304 Z-0.26
X48. Y17.295 Z-0.275
Y17.292 Z-0.293
X48.004 Z-0.299
X49.559
X49.565 Z-0.291
X49.563 Y17.289 Z-0.274
X49.56 Y17.281 Z-0.259
X49.557 Y17.27 Z-0.234
X49.558 Y17.274 Z-0.206
X49.564 Y17.291 Z-0.185
X49.574 Y17.317 Z-0.177
X49.583 Y17.342 Z-0.185
X49.589 Y17.359 Z-0.206
X49.591 Y17.363 Z-0.234
X49.587 Y17.353 Z-0.259
X49.584 Y17.344 Z-0.274
X49.583 Y17.342 Z-0.291
Z-0.292
X49.578 Z-0.299
X48.01
X48.006 Z-0.293
Y17.338 Z-0.276
X48.005 Y17.329 Z-0.26
X48.003 Y17.318 Z-0.238
Y17.319 Z-0.213
X48.005 Y17.332 Z-0.191
X48.008 Y17.354 Z-0.179
X48.011 Y17.379
X48.013 Y17.401 Z-0.191
X48.015 Y17.414 Z-0.213
Y17.415 Z-0.238
X48.014 Y17.404 Z-0.26
X48.012 Y17.395 Z-0.276
Y17.392 Z-0.293
X48.016 Z-0.299
X49.596
X49.601 Z-0.291
X49.6 Y17.389 Z-0.274
X49.597 Y17.381 Z-0.259
X49.593 Y17.37 Z-0.234
X49.595 Y17.374 Z-0.206
X49.601 Y17.391 Z-0.185
X49.61 Y17.417 Z-0.177
X49.62 Y17.442 Z-0.185
X49.626 Y17.459 Z-0.206
X49.627 Y17.463 Z-0.234
X49.623 Y17.453 Z-0.259
X49.62 Y17.444 Z-0.274
X49.619 Y17.442 Z-0.291
Z-0.292
X49.615 Z-0.299
X48.023
X48.018 Z-0.292
Y17.438 Z-0.274
X48.017 Y17.429 Z-0.259
X48.015 Y17.418 Z-0.236
Y17.419 Z-0.211
X48.017 Y17.432 Z-0.19
X48.02 Y17.454 Z-0.177
X48.023 Y17.479
X48.025 Y17.501 Z-0.19
X48.027 Y17.514 Z-0.211
Y17.515 Z-0.236
X48.026 Y17.504 Z-0.259
X48.024 Y17.495 Z-0.274
Y17.492 Z-0.292
X48.029 Z-0.299
X49.633
X49.638 Z-0.291
X49.637 Y17.489 Z-0.274
X49.634 Y17.481 Z-0.259
X49.63 Y17.47 Z-0.234
X49.631 Y17.474 Z-0.206
X49.638 Y17.491 Z-0.185
X49.647 Y17.517 Z-0.177
X49.656 Y17.542 Z-0.185
X49.662 Y17.559 Z-0.206
X49.664 Y17.563 Z-0.234
X49.66 Y17.553 Z-0.259
X49.657 Y17.544 Z-0.274
X49.656 Y17.542 Z-0.291
Z-0.292
X49.652 Z-0.299
X48.035
X48.03 Z-0.292
Y17.538 Z-0.274
X48.029 Y17.529 Z-0.259
X48.027 Y17.518 Z-0.236
Y17.519 Z-0.211
X48.029 Y17.532 Z-0.19
X48.032 Y17.554 Z-0.177
X48.035 Y17.579
X48.037 Y17.601 Z-0.19
X48.039 Y17.614 Z-0.211
Y17.615 Z-0.236
X48.038 Y17.604 Z-0.259
X48.037 Y17.595 Z-0.274
X48.036 Y17.592 Z-0.292
Z-0.293
X48.04 Z-0.299
X49.67
X49.674 Z-0.292
Z-0.291
X49.673 Y17.589 Z-0.274
X49.67 Y17.581 Z-0.259
X49.666 Y17.57 Z-0.234
X49.668 Y17.574 Z-0.206
X49.674 Y17.591 Z-0.185
X49.684 Y17.617 Z-0.177
X49.693 Y17.642 Z-0.185
X49.699 Y17.659 Z-0.206
X49.701 Y17.663 Z-0.234
X49.697 Y17.653 Z-0.259
X49.694 Y17.644 Z-0.274
X49.693 Y17.642 Z-0.291
X49.688 Z-0.299
X48.046
X48.042 Z-0.293
Y17.638 Z-0.275
X48.041 Y17.629 Z-0.26
X48.039 Y17.618 Z-0.237
X48.04 Y17.619 Z-0.212
X48.041 Y17.632 Z-0.191
X48.044 Y17.654 Z-0.178
X48.047 Y17.679
X48.049 Y17.701 Z-0.191
X48.051 Y17.714 Z-0.212
Y17.715 Z-0.237
X48.05 Y17.704 Z-0.26
X48.049 Y17.695 Z-0.275
X48.048 Y17.692 Z-0.293
X48.053 Z-0.299
X49.706
X49.711 Z-0.291
X49.71 Y17.689 Z-0.274
X49.707 Y17.681 Z-0.259
X49.703 Y17.67 Z-0.233
X49.705 Y17.674 Z-0.205
X49.711 Y17.691 Z-0.184
X49.72 Y17.717 Z-0.177
X49.729 Y17.742 Z-0.184
X49.736 Y17.759 Z-0.205
X49.737 Y17.763 Z-0.233
X49.733 Y17.753 Z-0.259
X49.73 Y17.744 Z-0.274
X49.729 Y17.742 Z-0.291
Z-0.292
X49.724 Z-0.299
X48.058
X48.054 Z-0.293
Z-0.292
Y17.738 Z-0.274
X48.053 Y17.729 Z-0.259
X48.051 Y17.718 Z-0.237
X48.052 Y17.719 Z-0.211
X48.053 Y17.732 Z-0.19
X48.056 Y17.754 Z-0.178
X48.059 Y17.779
X48.061 Y17.801 Z-0.19
X48.063 Y17.814 Z-0.211
Y17.815 Z-0.237
X48.062 Y17.804 Z-0.259
X48.061 Y17.795 Z-0.274
X48.06 Y17.792 Z-0.292
X48.065 Z-0.299
X49.743
X49.748 Z-0.292
Z-0.291
X49.747 Y17.789 Z-0.274
X49.744 Y17.781 Z-0.259
X49.74 Y17.77 Z-0.234
X49.741 Y17.774 Z-0.206
X49.748 Y17.791 Z-0.185
X49.757 Y17.817 Z-0.177
X49.766 Y17.842 Z-0.185
X49.772 Y17.859 Z-0.206
X49.774 Y17.863 Z-0.234
X49.77 Y17.853 Z-0.259
X49.767 Y17.844 Z-0.274
X49.766 Y17.842 Z-0.291
X49.761 Z-0.299
X48.07
X48.066 Z-0.293
Y17.838 Z-0.275
X48.065 Y17.829 Z-0.26
X48.064 Y17.818 Z-0.237
Y17.819 Z-0.212
X48.065 Y17.832 Z-0.191
X48.068 Y17.854 Z-0.178
X48.071 Y17.879
X48.074 Y17.901 Z-0.191
X48.075 Y17.914 Z-0.212
Y17.915 Z-0.237
X48.074 Y17.904 Z-0.26
X48.073 Y17.895 Z-0.275
X48.072 Y17.892 Z-0.293
X48.077 Z-0.299
X49.779
X49.784 Z-0.291
X49.783 Y17.889 Z-0.274
X49.78 Y17.881 Z-0.259
X49.776 Y17.87 Z-0.233
X49.778 Y17.874 Z-0.206
X49.784 Y17.891 Z-0.185
X49.793 Y17.917 Z-0.177
X49.803 Y17.942 Z-0.185
X49.809 Y17.959 Z-0.206
X49.81 Y17.963 Z-0.233
X49.807 Y17.953 Z-0.259
X49.804 Y17.944 Z-0.274
X49.803 Y17.942 Z-0.291
X49.797 Z-0.299
X48.083
X48.078 Z-0.292
Y17.938 Z-0.274
X48.077 Y17.929 Z-0.259
X48.076 Y17.918 Z-0.236
Y17.919 Z-0.211
X48.077 Y17.932 Z-0.19
X48.08 Y17.954 Z-0.178
X48.083 Y17.979
X48.086 Y18.001 Z-0.19
X48.087 Y18.014 Z-0.211
Y18.015 Z-0.236
X48.086 Y18.004 Z-0.259
X48.085 Y17.995 Z-0.274
X48.084 Y17.992 Z-0.292
X48.089 Z-0.299
X49.816
X49.821 Z-0.292
X49.82 Y17.989 Z-0.275
X49.817 Y17.981 Z-0.26
X49.813 Y17.97 Z-0.235
X49.814 Y17.974 Z-0.207
X49.821 Y17.991 Z-0.186
X49.83 Y18.017 Z-0.178
X49.839 Y18.042 Z-0.186
X49.846 Y18.059 Z-0.207
X49.847 Y18.063 Z-0.235
X49.843 Y18.053 Z-0.26
X49.84 Y18.044 Z-0.275
X49.839 Y18.042 Z-0.292
X49.835 Z-0.299
X48.095
X48.091 Z-0.293
Z-0.292
X48.09 Y18.038 Z-0.274
X48.089 Y18.029 Z-0.259
X48.088 Y18.018 Z-0.237
Y18.019 Z-0.211
X48.089 Y18.032 Z-0.19
X48.092 Y18.054 Z-0.178
X48.095 Y18.079
X48.098 Y18.101 Z-0.19
X48.099 Y18.114 Z-0.211
Y18.115 Z-0.237
X48.098 Y18.104 Z-0.259
X48.097 Y18.095 Z-0.274
Y18.092 Z-0.292
X48.101 Z-0.299
X49.853
X49.858 Z-0.292
X49.856 Y18.089 Z-0.275
X49.853 Y18.081 Z-0.26
X49.85 Y18.07 Z-0.235
X49.851 Y18.074 Z-0.207
X49.857 Y18.091 Z-0.186
X49.867 Y18.117 Z-0.178
X49.876 Y18.142 Z-0.186
X49.882 Y18.159 Z-0.207
X49.884 Y18.163 Z-0.235
X49.88 Y18.153 Z-0.26
X49.877 Y18.144 Z-0.275
X49.876 Y18.142 Z-0.292
X49.871 Z-0.299
X48.107
X48.103 Z-0.293
Z-0.292
X48.102 Y18.138 Z-0.275
X48.101 Y18.129 Z-0.259
X48.1 Y18.118 Z-0.237
Y18.119 Z-0.212
X48.101 Y18.132 Z-0.19
X48.104 Y18.154 Z-0.178
X48.107 Y18.179
X48.11 Y18.201 Z-0.19
X48.111 Y18.214 Z-0.212
Y18.215 Z-0.237
X48.11 Y18.204 Z-0.259
X48.109 Y18.195 Z-0.275
Y18.192 Z-0.292
X48.113 Z-0.299
X49.89
X49.894 Z-0.292
Z-0.291
X49.893 Y18.189 Z-0.274
X49.89 Y18.181 Z-0.259
X49.886 Y18.17 Z-0.233
X49.888 Y18.174 Z-0.205
X49.894 Y18.191 Z-0.184
X49.903 Y18.217 Z-0.177
X49.913 Y18.242 Z-0.184
X49.919 Y18.259 Z-0.205
X49.92 Y18.263 Z-0.233
X49.916 Y18.253 Z-0.259
X49.913 Y18.244 Z-0.274
X49.912 Y18.242 Z-0.291
X49.907 Z-0.299
X48.119
X48.115 Z-0.293
Z-0.292
X48.114 Y18.238 Z-0.274
X48.113 Y18.229 Z-0.259
X48.112 Y18.218 Z-0.237
Y18.219 Z-0.211
X48.114 Y18.232 Z-0.19
X48.116 Y18.254 Z-0.178
X48.119 Y18.279
X48.122 Y18.301 Z-0.19
X48.123 Y18.314 Z-0.211
X48.124 Y18.315 Z-0.237
X48.122 Y18.304 Z-0.259
X48.121 Y18.295 Z-0.274
Y18.292 Z-0.292
X48.125 Z-0.299
X49.925
X49.931 Z-0.291
X49.93 Y18.289 Z-0.274
X49.927 Y18.281 Z-0.259
X49.923 Y18.27 Z-0.233
X49.924 Y18.274 Z-0.206
X49.931 Y18.291 Z-0.185
X49.94 Y18.317 Z-0.177
X49.949 Y18.342 Z-0.185
X49.955 Y18.359 Z-0.206
X49.957 Y18.363 Z-0.233
X49.953 Y18.353 Z-0.259
X49.95 Y18.344 Z-0.274
X49.949 Y18.342 Z-0.291
X49.944 Z-0.299
X48.131
X48.127 Z-0.293
Z-0.292
X48.126 Y18.338 Z-0.274
X48.125 Y18.329 Z-0.259
X48.124 Y18.318 Z-0.236
Y18.319 Z-0.211
X48.126 Y18.332 Z-0.19
X48.128 Y18.354 Z-0.177
X48.131 Y18.379
X48.134 Y18.401 Z-0.19
X48.135 Y18.414 Z-0.211
X48.136 Y18.415 Z-0.236
X48.134 Y18.404 Z-0.259
X48.133 Y18.395 Z-0.274
Y18.392 Z-0.292
X48.138 Z-0.299
X49.962
X49.967 Z-0.291
X49.966 Y18.389 Z-0.274
X49.963 Y18.381 Z-0.259
X49.959 Y18.37 Z-0.234
X49.961 Y18.374 Z-0.206
X49.967 Y18.391 Z-0.185
X49.977 Y18.417 Z-0.177
X49.986 Y18.442 Z-0.185
X49.992 Y18.459 Z-0.206
X49.994 Y18.463 Z-0.234
X49.99 Y18.453 Z-0.259
X49.987 Y18.444 Z-0.274
X49.986 Y18.442 Z-0.291
Z-0.292
X49.981 Z-0.299
X48.143
X48.139 Z-0.292
X48.138 Y18.438 Z-0.275
X48.137 Y18.429 Z-0.26
X48.136 Y18.418 Z-0.237
Y18.419 Z-0.212
X48.138 Y18.432 Z-0.19
X48.14 Y18.454 Z-0.178
X48.143 Y18.479
X48.146 Y18.501 Z-0.19
X48.148 Y18.514 Z-0.212
Y18.515 Z-0.237
X48.146 Y18.504 Z-0.26
X48.145 Y18.495 Z-0.275
Y18.492 Z-0.292
Z-0.293
X48.149 Z-0.299
X49.999
X50.004 Z-0.292
Z-0.291
X50.003 Y18.489 Z-0.274
X50. Y18.481 Z-0.259
X49.996 Y18.47 Z-0.233
X49.998 Y18.474 Z-0.206
X50.004 Y18.491 Z-0.185
X50.013 Y18.517 Z-0.177
X50.022 Y18.542 Z-0.185
X50.029 Y18.559 Z-0.206
X50.03 Y18.563 Z-0.233
X50.026 Y18.553 Z-0.259
X50.023 Y18.544 Z-0.274
X50.022 Y18.542 Z-0.291
X50.017 Z-0.299
X48.156
X48.151 Z-0.292
X48.15 Y18.538 Z-0.274
X48.149 Y18.529 Z-0.259
X48.148 Y18.518 Z-0.236
Y18.519 Z-0.211
X48.15 Y18.532 Z-0.19
X48.152 Y18.554 Z-0.178
X48.155 Y18.579
X48.158 Y18.601 Z-0.19
X48.16 Y18.614 Z-0.211
Y18.615 Z-0.236
X48.158 Y18.604 Z-0.259
X48.157 Y18.595 Z-0.274
Y18.592 Z-0.292
X48.161 Z-0.299
X48.702
X48.712 Z-0.295
X48.716 Z-0.286
G0 Z5.
X48.974
Z1.935
G1 Z-0.292 F40.
X48.976 Z-0.297
X48.981 Z-0.299
X50.035
X50.041 Z-0.291
X50.04 Y18.589 Z-0.274
X50.037 Y18.581 Z-0.259
X50.033 Y18.57 Z-0.234
X50.034 Y18.574 Z-0.206
X50.041 Y18.591 Z-0.185
X50.05 Y18.617 Z-0.177
X50.059 Y18.642 Z-0.185
X50.065 Y18.659 Z-0.206
X50.067 Y18.663 Z-0.234
X50.063 Y18.653 Z-0.259
X50.06 Y18.644 Z-0.274
X50.059 Y18.642 Z-0.291
Z-0.292
X50.054 Z-0.299
X49.026
X49.019 Z-0.289
X49.018 Y18.64 Z-0.273
X49.013 Y18.634 Z-0.259
X49.008 Y18.626 Z-0.234
X49.011 Y18.63 Z-0.207
X49.022 Y18.645 Z-0.187
X49.037 Y18.667 Z-0.18
X49.052 Y18.688 Z-0.187
X49.063 Y18.703 Z-0.207
X49.066 Y18.707 Z-0.234
X49.06 Y18.699 Z-0.259
X49.056 Y18.694 Z-0.273
X49.055 Y18.692 Z-0.289
X49.062 Z-0.299
X50.073
X50.077 Z-0.292
Z-0.291
X50.076 Y18.689 Z-0.274
X50.073 Y18.681 Z-0.259
X50.069 Y18.67 Z-0.233
X50.071 Y18.674 Z-0.206
X50.077 Y18.691 Z-0.185
X50.086 Y18.717 Z-0.177
X50.096 Y18.742 Z-0.185
X50.102 Y18.759 Z-0.206
X50.103 Y18.763 Z-0.233
X50.1 Y18.753 Z-0.259
X50.097 Y18.744 Z-0.274
X50.096 Y18.742 Z-0.291
X50.09 Z-0.299
X49.097
X49.091 Z-0.289
Z-0.287
X49.089 Y18.74 Z-0.272
X49.085 Y18.735 Z-0.259
X49.08 Y18.728 Z-0.233
X49.083 Y18.732 Z-0.207
X49.095 Y18.746 Z-0.187
X49.111 Y18.767 Z-0.18
X49.127 Y18.787 Z-0.187
X49.139 Y18.801 Z-0.207
X49.142 Y18.805 Z-0.233
X49.136 Y18.799 Z-0.259
X49.132 Y18.793 Z-0.272
X49.131 Y18.792 Z-0.287
X49.133 Z-0.294
X49.139 Z-0.299
X50.109
X50.114 Z-0.292
X50.113 Y18.789 Z-0.275
X50.11 Y18.781 Z-0.26
X50.106 Y18.77 Z-0.234
X50.107 Y18.774 Z-0.206
X50.114 Y18.791 Z-0.185
X50.123 Y18.817 Z-0.178
X50.132 Y18.842 Z-0.185
X50.139 Y18.859 Z-0.206
X50.14 Y18.863 Z-0.234
X50.136 Y18.853 Z-0.26
X50.133 Y18.844 Z-0.275
X50.132 Y18.842 Z-0.292
X50.128 Z-0.299
X49.183
X49.178 Z-0.293
Z-0.285
X49.173 Y18.837 Z-0.26
X49.168 Y18.833 Z-0.235
X49.173 Y18.837 Z-0.21
X49.186 Y18.85 Z-0.192
X49.204 Y18.867 Z-0.185
X49.223 Y18.884 Z-0.192
X49.236 Y18.896 Z-0.21
X49.241 Y18.901 Z-0.235
X49.236 Y18.896 Z-0.26
X49.231 Y18.892 Z-0.285
X49.236 Z-0.295
X49.246 Z-0.299
X49.945
X49.964 Z-0.294
X49.979 Z-0.279
X49.984 Z-0.259
G0 Z5.
X48.629 Y18.642
Z1.935
G1 Z-0.294 F40.
X48.623 Z-0.299
X48.167
X48.163 Z-0.293
Z-0.292
Y18.638 Z-0.274
X48.161 Y18.629 Z-0.259
X48.16 Y18.618 Z-0.236
Y18.619 Z-0.211
X48.162 Y18.632 Z-0.19
X48.164 Y18.654 Z-0.177
X48.168 Y18.679
X48.17 Y18.701 Z-0.19
X48.172 Y18.714 Z-0.211
Y18.715 Z-0.236
X48.171 Y18.704 Z-0.259
X48.169 Y18.695 Z-0.274
Y18.692 Z-0.292
X48.174 Z-0.299
X48.585
X48.591 Z-0.29
X48.592 Y18.689 Z-0.273
X48.596 Y18.681 Z-0.258
X48.6 Y18.671 Z-0.232
X48.598 Y18.675 Z-0.205
X48.591 Y18.692 Z-0.184
X48.581 Y18.717 Z-0.176
X48.571 Y18.741 Z-0.184
X48.564 Y18.758 Z-0.205
X48.562 Y18.762 Z-0.232
X48.567 Y18.752 Z-0.258
X48.57 Y18.744 Z-0.273
X48.571 Y18.742 Z-0.29
Z-0.292
X48.566 Z-0.299
X48.18
X48.175 Z-0.292
Y18.738 Z-0.275
X48.174 Y18.729 Z-0.259
X48.172 Y18.718 Z-0.237
Y18.719 Z-0.212
X48.174 Y18.732 Z-0.19
X48.177 Y18.754 Z-0.178
X48.18 Y18.779
X48.182 Y18.801 Z-0.19
X48.184 Y18.814 Z-0.212
Y18.815 Z-0.237
X48.183 Y18.804 Z-0.259
X48.181 Y18.795 Z-0.275
Y18.792 Z-0.292
X48.186 Z-0.299
X48.56
X48.565 Z-0.292
X48.564 Y18.788 Z-0.275
X48.563 Y18.779 Z-0.259
X48.562 Y18.768 Z-0.237
Y18.769 Z-0.212
X48.563 Y18.782 Z-0.19
X48.566 Y18.804 Z-0.178
X48.57 Y18.829
X48.573 Y18.851 Z-0.19
X48.574 Y18.864 Z-0.212
Y18.865 Z-0.237
X48.573 Y18.854 Z-0.259
X48.572 Y18.845 Z-0.275
X48.571 Y18.842 Z-0.292
Z-0.293
X48.567 Z-0.299
X48.191
X48.187 Z-0.293
Y18.838 Z-0.275
X48.186 Y18.829 Z-0.26
X48.184 Y18.818 Z-0.237
Y18.819 Z-0.212
X48.186 Y18.832 Z-0.191
X48.189 Y18.854 Z-0.178
X48.192 Y18.879
X48.194 Y18.901 Z-0.191
X48.196 Y18.914 Z-0.212
Y18.915 Z-0.237
X48.195 Y18.904 Z-0.26
X48.194 Y18.895 Z-0.275
X48.193 Y18.892 Z-0.293
X48.197 Z-0.299
X48.586
X48.591 Z-0.292
X48.589 Y18.889 Z-0.275
X48.586 Y18.881 Z-0.26
X48.582 Y18.871 Z-0.234
X48.583 Y18.875 Z-0.207
X48.591 Y18.892 Z-0.186
X48.602 Y18.917 Z-0.178
X48.613 Y18.941 Z-0.186
X48.62 Y18.958 Z-0.207
X48.622 Y18.962 Z-0.234
X48.617 Y18.952 Z-0.26
X48.614 Y18.944 Z-0.275
X48.613 Y18.942 Z-0.292
X48.608 Z-0.299
X48.203
X48.199 Z-0.293
Z-0.292
Y18.938 Z-0.274
X48.198 Y18.929 Z-0.259
X48.196 Y18.918 Z-0.236
X48.197 Y18.919 Z-0.211
X48.198 Y18.932 Z-0.19
X48.201 Y18.954 Z-0.178
X48.204 Y18.979
X48.206 Y19.001 Z-0.19
X48.208 Y19.014 Z-0.211
Y19.015 Z-0.236
X48.207 Y19.004 Z-0.259
X48.206 Y18.995 Z-0.274
X48.205 Y18.992 Z-0.292
X48.21 Z-0.299
X48.63
X48.635 Z-0.292
X48.634 Y18.989 Z-0.275
X48.63 Y18.981 Z-0.26
X48.626 Y18.971 Z-0.234
X48.628 Y18.975 Z-0.207
X48.635 Y18.992 Z-0.186
X48.646 Y19.017 Z-0.178
X48.657 Y19.041 Z-0.186
X48.664 Y19.058 Z-0.207
X48.666 Y19.062 Z-0.234
X48.661 Y19.052 Z-0.26
X48.658 Y19.044 Z-0.275
X48.657 Y19.042 Z-0.292
X48.652 Z-0.299
X48.216
X48.211 Z-0.292
Y19.038 Z-0.274
X48.21 Y19.029 Z-0.259
X48.209 Y19.018 Z-0.237
Y19.019 Z-0.211
X48.21 Y19.032 Z-0.19
X48.213 Y19.054 Z-0.178
X48.216 Y19.079
X48.218 Y19.101 Z-0.19
X48.22 Y19.114 Z-0.211
Y19.115 Z-0.237
X48.219 Y19.104 Z-0.259
X48.218 Y19.095 Z-0.274
X48.217 Y19.092 Z-0.292
X48.222 Z-0.299
X48.674
X48.679 Z-0.292
Z-0.291
X48.678 Y19.089 Z-0.275
X48.674 Y19.081 Z-0.26
X48.67 Y19.071 Z-0.234
X48.672 Y19.075 Z-0.207
X48.679 Y19.092 Z-0.186
X48.69 Y19.117 Z-0.178
X48.701 Y19.141 Z-0.186
X48.708 Y19.158 Z-0.207
X48.71 Y19.162 Z-0.234
X48.706 Y19.152 Z-0.26
X48.702 Y19.144 Z-0.275
X48.701 Y19.142 Z-0.291
X48.696 Z-0.299
X48.228
X48.223 Z-0.292
Y19.138 Z-0.275
X48.222 Y19.129 Z-0.259
X48.22 Y19.118 Z-0.237
X48.221 Y19.119 Z-0.212
X48.222 Y19.132 Z-0.19
X48.225 Y19.154 Z-0.178
X48.228 Y19.179
X48.23 Y19.201 Z-0.19
X48.232 Y19.214 Z-0.212
Y19.215 Z-0.237
X48.231 Y19.204 Z-0.259
X48.23 Y19.195 Z-0.275
X48.229 Y19.192 Z-0.292
X48.234 Z-0.299
X48.718
X48.723 Z-0.291
X48.722 Y19.189 Z-0.275
X48.719 Y19.181 Z-0.26
X48.714 Y19.171 Z-0.234
X48.716 Y19.175 Z-0.207
X48.723 Y19.192 Z-0.186
X48.734 Y19.217 Z-0.178
X48.745 Y19.241 Z-0.186
X48.752 Y19.258 Z-0.207
X48.754 Y19.262 Z-0.234
X48.75 Y19.252 Z-0.26
X48.746 Y19.244 Z-0.275
X48.745 Y19.242 Z-0.291
X48.74 Z-0.299
X48.24
X48.235 Z-0.292
Y19.238 Z-0.275
X48.234 Y19.229 Z-0.259
X48.233 Y19.218 Z-0.237
Y19.219 Z-0.212
X48.234 Y19.232 Z-0.19
X48.237 Y19.254 Z-0.178
X48.24 Y19.279
X48.243 Y19.301 Z-0.19
X48.244 Y19.314 Z-0.212
Y19.315 Z-0.237
X48.243 Y19.304 Z-0.259
X48.242 Y19.295 Z-0.275
X48.241 Y19.292 Z-0.292
X48.246 Z-0.299
X48.762
X48.767 Z-0.291
X48.766 Y19.289 Z-0.275
X48.763 Y19.281 Z-0.26
X48.758 Y19.271 Z-0.234
X48.76 Y19.275 Z-0.207
X48.768 Y19.292 Z-0.186
X48.778 Y19.317 Z-0.178
X48.789 Y19.341 Z-0.186
X48.797 Y19.358 Z-0.207
X48.798 Y19.362 Z-0.234
X48.794 Y19.352 Z-0.26
X48.791 Y19.344 Z-0.275
X48.789 Y19.342 Z-0.291
Z-0.292
X48.784 Z-0.299
X48.252
X48.247 Z-0.292
Y19.338 Z-0.275
X48.246 Y19.329 Z-0.259
X48.245 Y19.318 Z-0.237
Y19.319 Z-0.212
X48.246 Y19.332 Z-0.19
X48.249 Y19.354 Z-0.178
X48.252 Y19.379
X48.255 Y19.401 Z-0.19
X48.256 Y19.414 Z-0.212
Y19.415 Z-0.237
X48.255 Y19.404 Z-0.259
X48.254 Y19.395 Z-0.275
X48.253 Y19.392 Z-0.292
X48.258 Z-0.299
X48.805
X48.811 Z-0.291
X48.81 Y19.389 Z-0.274
X48.806 Y19.381 Z-0.259
X48.802 Y19.371 Z-0.234
X48.804 Y19.375 Z-0.206
X48.811 Y19.392 Z-0.185
X48.822 Y19.417 Z-0.177
X48.832 Y19.441 Z-0.185
X48.84 Y19.458 Z-0.206
X48.841 Y19.462 Z-0.234
X48.837 Y19.452 Z-0.259
X48.834 Y19.444 Z-0.274
X48.832 Y19.442 Z-0.291
Z-0.292
X48.828 Z-0.299
X48.264
X48.26 Z-0.292
X48.259 Y19.438 Z-0.274
X48.258 Y19.429 Z-0.259
X48.257 Y19.418 Z-0.237
Y19.419 Z-0.211
X48.258 Y19.432 Z-0.19
X48.261 Y19.454 Z-0.178
X48.264 Y19.479
X48.267 Y19.501 Z-0.19
X48.268 Y19.514 Z-0.211
Y19.515 Z-0.237
X48.267 Y19.504 Z-0.259
X48.266 Y19.495 Z-0.274
Y19.492 Z-0.292
X48.27 Z-0.299
X48.849
X48.854 Z-0.292
Z-0.291
X48.853 Y19.489 Z-0.274
X48.849 Y19.481 Z-0.259
X48.845 Y19.471 Z-0.234
X48.847 Y19.475 Z-0.206
X48.854 Y19.492 Z-0.185
X48.865 Y19.517 Z-0.178
X48.875 Y19.541 Z-0.185
X48.882 Y19.558 Z-0.206
X48.884 Y19.562 Z-0.234
X48.88 Y19.552 Z-0.259
X48.876 Y19.544 Z-0.274
X48.875 Y19.542 Z-0.291
X48.87 Z-0.299
X48.276
X48.272 Z-0.292
X48.271 Y19.538 Z-0.274
X48.27 Y19.529 Z-0.259
X48.269 Y19.518 Z-0.236
Y19.519 Z-0.211
X48.271 Y19.532 Z-0.19
X48.273 Y19.554 Z-0.177
X48.276 Y19.579
X48.278 Y19.601 Z-0.19
X48.28 Y19.614 Z-0.211
Y19.615 Z-0.236
X48.279 Y19.604 Z-0.259
X48.278 Y19.595 Z-0.274
X48.277 Y19.592 Z-0.292
Z-0.293
X48.281 Z-0.299
X48.894
X48.9 Z-0.29
X48.899 Y19.59 Z-0.276
X48.895 Y19.585 Z-0.262
X48.89 Y19.579 Z-0.237
X48.893 Y19.584 Z-0.211
X48.906 Y19.597 Z-0.192
X48.923 Y19.617 Z-0.185
X48.94 Y19.636 Z-0.192
X48.952 Y19.65 Z-0.211
X48.956 Y19.654 Z-0.237
X48.95 Y19.648 Z-0.262
X48.946 Y19.643 Z-0.276
X48.945 Y19.642 Z-0.29
Z-0.292
X48.938 Z-0.299
X48.278
X48.274 Z-0.293
G0 Z5.
X47.642 Y16.242
Z1.935
G1 Z-0.259 F40.
X47.636 Z-0.279
X47.622 Z-0.294
X47.602 Z-0.299
X45.255
X45.246 Z-0.297
X45.237 Z-0.295
X45.096
X45.078 Y16.249
X45.071 Y16.267
X45.078 Y16.284
X45.096 Y16.292
X45.105 Z-0.297
X45.113 Z-0.299
X47.196
X47.21 Z-0.293
X47.216 Z-0.279
X47.21 Z-0.265
X47.196 Y16.294 Z-0.259
X46.838 Y16.339
X46.824 Y16.341 Z-0.265
X46.818 Y16.342 Z-0.279
X46.812 Z-0.293
X46.798 Z-0.299
X45.051
Z-0.781
X44.886
X44.877 Z-0.779
X44.869 Z-0.777
X44.641
X44.624 Y16.349
X44.616 Y16.367
X44.624 Y16.384
X44.641 Y16.392
X44.65 Z-0.779
X44.659 Z-0.781
X45.044
X45.049 Z-0.299
X46.703
X46.708 Z-0.293
Z-0.29
X46.71 Y16.39 Z-0.274
X46.714 Y16.384 Z-0.261
X46.72 Y16.377 Z-0.235
X46.716 Y16.382 Z-0.209
X46.705 Y16.396 Z-0.189
X46.689 Y16.417 Z-0.182
X46.673 Y16.437 Z-0.189
X46.661 Y16.451 Z-0.209
X46.658 Y16.456 Z-0.235
X46.663 Y16.449 Z-0.261
X46.667 Y16.443 Z-0.274
X46.669 Y16.442 Z-0.29
X46.663 Z-0.299
X45.046
X45.044 Z-0.781
X44.447
X44.439 Z-0.779
X44.43 Z-0.777
X44.224
X44.206 Y16.449
X44.199 Y16.467
X44.206 Y16.484
X44.224 Y16.492
X44.233 Z-0.779
X44.241 Z-0.781
X45.041
X45.044 Z-0.299
X46.643
X46.647 Z-0.293
X46.648 Y16.488 Z-0.275
X46.649 Y16.479 Z-0.26
X46.651 Y16.468 Z-0.237
X46.65 Y16.469 Z-0.212
X46.649 Y16.482 Z-0.191
X46.645 Y16.504 Z-0.178
X46.642 Y16.529
X46.639 Y16.551 Z-0.191
X46.637 Y16.564 Z-0.212
Y16.565 Z-0.237
X46.638 Y16.554 Z-0.26
X46.64 Y16.545 Z-0.275
Y16.542 Z-0.293
X46.636 Z-0.299
X45.041
Z-0.781
X44.035
X44.027 Z-0.779
X44.018 Z-0.777
X43.823
X43.805 Y16.549
X43.798 Y16.567
X43.805 Y16.584
X43.823 Y16.592
X43.832 Z-0.779
X43.84 Z-0.781
X45.039
Z-0.299
X46.639
X46.644 Z-0.292
X46.643 Y16.588 Z-0.274
X46.642 Y16.579 Z-0.259
X46.641 Y16.568 Z-0.237
Y16.569 Z-0.211
X46.643 Y16.582 Z-0.19
X46.645 Y16.604 Z-0.178
X46.647 Y16.629
X46.649 Y16.651 Z-0.19
X46.65 Y16.664 Z-0.211
Y16.665 Z-0.237
X46.649 Y16.654 Z-0.259
Y16.645 Z-0.274
X46.648 Y16.642 Z-0.292
X46.644 Z-0.299
X45.036
Z-0.781
X43.652
X43.643 Z-0.779
X43.635 Z-0.777
X43.446
X43.429 Y16.649
X43.421 Y16.667
X43.429 Y16.684
X43.446 Y16.692
X43.455 Z-0.779
X43.464 Z-0.781
X45.034
Z-0.299
X46.656
X46.662 Z-0.291
Z-0.288
X46.66 Y16.689 Z-0.272
X46.656 Y16.683 Z-0.257
X46.651 Y16.674 Z-0.232
X46.654 Y16.678 Z-0.205
X46.663 Y16.694 Z-0.184
X46.677 Y16.717 Z-0.177
X46.691 Y16.739 Z-0.184
X46.7 Y16.755 Z-0.205
X46.703 Y16.759 Z-0.232
X46.698 Y16.75 Z-0.257
X46.694 Y16.744 Z-0.272
X46.692 Y16.742 Z-0.288
X46.69 Z-0.295
X46.685 Z-0.299
X45.031
Z-0.781
X43.279
X43.27 Z-0.779
X43.261 Z-0.777
X43.088
X43.07 Y16.749
X43.063 Y16.767
X43.07 Y16.784
X43.088 Y16.792
X43.096 Z-0.779
X43.105 Z-0.781
X45.029
Z-0.299
X46.74
X46.748 Z-0.296
X46.751 Z-0.289
G0 Z5.
X47.121 Y16.842
Z1.935
G1 Z-0.292 F40.
X47.117 Z-0.299
X45.026
Z-0.781
X42.932
X42.923 Z-0.779
X42.914 Z-0.777
X42.741
X42.723 Y16.849
X42.716 Y16.867
X42.723 Y16.884
X42.741 Y16.892
X42.75 Z-0.779
X42.758 Z-0.781
X45.024
Z-0.299
X47.127
X47.132 Z-0.292
X47.131 Y16.888 Z-0.274
X47.13 Y16.879 Z-0.259
X47.128 Y16.868 Z-0.236
Y16.869 Z-0.211
X47.13 Y16.882 Z-0.19
X47.134 Y16.904 Z-0.178
X47.138 Y16.929
X47.141 Y16.951 Z-0.19
X47.143 Y16.964 Z-0.211
X47.144 Y16.965 Z-0.236
X47.142 Y16.954 Z-0.259
X47.14 Y16.945 Z-0.274
Y16.942 Z-0.292
X47.135 Z-0.299
X45.021
Z-0.781
X42.591
X42.583 Z-0.779
X42.574 Z-0.777
X42.413
X42.396 Y16.949
X42.388 Y16.967
X42.396 Y16.984
X42.413 Y16.992
X42.422 Z-0.779
X42.431 Z-0.781
X45.017
X45.019 Z-0.299
X47.141
X47.146 Z-0.292
Y16.988 Z-0.274
X47.145 Y16.979 Z-0.259
X47.143 Y16.968 Z-0.236
Y16.969 Z-0.211
X47.145 Y16.982 Z-0.19
X47.148 Y17.004 Z-0.177
X47.151 Y17.029
X47.153 Y17.051 Z-0.19
X47.155 Y17.064 Z-0.211
Y17.065 Z-0.236
X47.154 Y17.054 Z-0.259
X47.152 Y17.045 Z-0.274
Y17.042 Z-0.292
Z-0.293
X47.148 Z-0.299
X45.016
Z-0.781
X42.27
X42.262 Z-0.779
X42.253 Z-0.777
X42.092
X42.075 Y17.049
X42.067 Y17.067
X42.075 Y17.084
X42.092 Y17.092
X42.101 Z-0.779
X42.11 Z-0.781
X45.013
X45.014 Z-0.299
X45.212
X47.154
X47.158 Z-0.293
Y17.088 Z-0.275
X47.157 Y17.079 Z-0.26
X47.155 Y17.068 Z-0.237
Y17.069 Z-0.212
X47.157 Y17.082 Z-0.191
X47.16 Y17.104 Z-0.179
X47.163 Y17.129
X47.165 Y17.151 Z-0.191
X47.167 Y17.164 Z-0.212
Y17.165 Z-0.237
X47.166 Y17.154 Z-0.26
X47.165 Y17.145 Z-0.275
X47.164 Y17.142 Z-0.293
X47.16 Z-0.299
X45.207
X45.008 Z-0.304
Z-0.781
X41.955
X41.947 Z-0.779
X41.938 Z-0.777
X41.788
X41.771 Y17.149
X41.763 Y17.167
X41.771 Y17.184
X41.788 Y17.192
X41.797 Z-0.779
X41.806 Z-0.781
X45.003
Z-0.303
X45.203 Z-0.299
X47.166
X47.17 Z-0.293
Z-0.292
Y17.188 Z-0.275
X47.169 Y17.179 Z-0.259
X47.167 Y17.168 Z-0.237
X47.168 Y17.169 Z-0.212
X47.169 Y17.182 Z-0.19
X47.172 Y17.204 Z-0.178
X47.175 Y17.229
X47.177 Y17.251 Z-0.19
X47.179 Y17.264 Z-0.212
Y17.265 Z-0.237
X47.178 Y17.254 Z-0.259
X47.177 Y17.245 Z-0.275
X47.176 Y17.242 Z-0.292
X47.172 Z-0.299
X45.198
X45.
X44.998 Z-0.781
X41.656
X41.647 Z-0.779
X41.639 Z-0.777
X41.489
X41.471 Y17.249
X41.464 Y17.267
X41.471 Y17.284
X41.489 Y17.292
X41.498 Z-0.779
X41.506 Z-0.781
X44.993
X44.994 Z-0.303
X45.193 Z-0.299
X47.178
X47.182 Z-0.292
Y17.288 Z-0.274
X47.181 Y17.279 Z-0.259
X47.18 Y17.268 Z-0.236
Y17.269 Z-0.211
X47.181 Y17.282 Z-0.19
X47.184 Y17.304 Z-0.177
X47.187 Y17.329
X47.19 Y17.351 Z-0.19
X47.191 Y17.364 Z-0.211
Y17.365 Z-0.236
X47.19 Y17.354 Z-0.259
X47.189 Y17.345 Z-0.274
Y17.342 Z-0.292
Z-0.293
X47.185 Z-0.299
X45.189
X44.989 Z-0.303
Z-0.781
X41.36
X41.351 Z-0.779
X41.343 Z-0.777
X41.203
X41.185 Y17.349
X41.178 Y17.367
X41.185 Y17.384
X41.203 Y17.392
X41.211 Z-0.779
X41.22 Z-0.781
X44.984
Z-0.303
X45.184 Z-0.299
X47.191
X47.195 Z-0.293
X47.194 Y17.388 Z-0.275
X47.193 Y17.379 Z-0.26
X47.192 Y17.368 Z-0.238
Y17.369 Z-0.212
X47.193 Y17.382 Z-0.191
X47.196 Y17.404 Z-0.179
X47.199 Y17.429
X47.202 Y17.451 Z-0.191
X47.203 Y17.464 Z-0.212
Y17.465 Z-0.238
X47.202 Y17.454 Z-0.26
X47.201 Y17.445 Z-0.275
Y17.442 Z-0.293
X47.197 Z-0.299
X45.179
X44.979 Z-0.303
X44.977 Z-0.781
X41.08
X41.071 Z-0.779
X41.063 Z-0.777
X40.923
X40.905 Y17.449
X40.898 Y17.467
X40.905 Y17.484
X40.923 Y17.492
X40.931 Z-0.779
X40.94 Z-0.781
X44.974
Z-0.303
X45.174 Z-0.299
X47.203
X47.207 Z-0.293
X47.206 Y17.488 Z-0.275
X47.205 Y17.479 Z-0.26
X47.204 Y17.468 Z-0.237
Y17.469 Z-0.212
X47.206 Y17.482 Z-0.191
X47.208 Y17.504 Z-0.179
X47.211 Y17.529
X47.214 Y17.551 Z-0.191
X47.216 Y17.564 Z-0.212
Y17.565 Z-0.237
X47.214 Y17.554 Z-0.26
X47.213 Y17.545 Z-0.275
Y17.542 Z-0.293
X47.209 Z-0.299
X45.169
X44.97 Z-0.302
X44.967 Z-0.781
X40.8
X40.792 Z-0.779
X40.783 Z-0.777
X40.65
X40.632 Y17.549
X40.625 Y17.567
X40.632 Y17.584
X40.65 Y17.592
X40.659 Z-0.779
X40.668 Z-0.781
X44.964
X44.965 Z-0.303
X45.164 Z-0.299
X47.215
X47.219 Z-0.293
X47.218 Y17.588 Z-0.276
X47.217 Y17.579 Z-0.26
X47.216 Y17.568 Z-0.238
Y17.569 Z-0.213
X47.218 Y17.582 Z-0.191
X47.22 Y17.604 Z-0.179
X47.223 Y17.629
X47.226 Y17.651 Z-0.191
X47.228 Y17.664 Z-0.213
Y17.665 Z-0.238
X47.226 Y17.654 Z-0.26
X47.225 Y17.645 Z-0.276
Y17.642 Z-0.293
X47.221 Z-0.299
X45.159
X44.96 Z-0.304
Z-0.781
X40.536
X40.528 Z-0.779
X40.519 Z-0.777
X40.387
X40.37 Y17.649
X40.362 Y17.667
X40.37 Y17.684
X40.387 Y17.692
X40.396 Z-0.779
X40.405 Z-0.781
X44.955
Z-0.299
X45.154
X47.226
X47.231 Z-0.292
Y17.688 Z-0.274
X47.23 Y17.679 Z-0.259
X47.228 Y17.668 Z-0.236
Y17.669 Z-0.211
X47.23 Y17.682 Z-0.19
X47.233 Y17.704 Z-0.177
X47.236 Y17.729
X47.238 Y17.751 Z-0.19
X47.24 Y17.764 Z-0.211
Y17.765 Z-0.236
X47.239 Y17.754 Z-0.259
X47.237 Y17.745 Z-0.274
Y17.742 Z-0.292
Z-0.293
X47.233 Z-0.299
X45.149
X44.949
Z-0.781
X40.274
X40.265 Z-0.779
X40.256 Z-0.777
X40.126
X40.108 Y17.749
X40.101 Y17.767
X40.108 Y17.784
X40.126 Y17.792
X40.134 Z-0.779
X40.143 Z-0.781
X44.944
Z-0.299
X45.143
X45.144
X47.239
X47.243 Z-0.292
Y17.788 Z-0.275
X47.242 Y17.779 Z-0.259
X47.24 Y17.768 Z-0.237
Y17.769 Z-0.212
X47.242 Y17.782 Z-0.19
X47.245 Y17.804 Z-0.178
X47.248 Y17.829
X47.25 Y17.851 Z-0.19
X47.252 Y17.864 Z-0.212
Y17.865 Z-0.237
X47.251 Y17.854 Z-0.259
X47.25 Y17.845 Z-0.275
X47.249 Y17.842 Z-0.292
Z-0.293
X47.245 Z-0.299
X45.139
X45.138
X44.939
X44.936 Z-0.781
X40.019
X40.01 Z-0.779
X40.002 Z-0.777
X39.878
X39.86 Y17.849
X39.853 Y17.867
X39.86 Y17.884
X39.878 Y17.892
X39.887 Z-0.779
X39.895 Z-0.781
X44.933
Z-0.299
X45.133
X47.251
X47.255 Z-0.293
Z-0.292
Y17.888 Z-0.274
X47.254 Y17.879 Z-0.259
X47.252 Y17.868 Z-0.236
X47.253 Y17.869 Z-0.211
X47.254 Y17.882 Z-0.19
X47.257 Y17.904 Z-0.178
X47.26 Y17.929
X47.262 Y17.951 Z-0.19
X47.264 Y17.964 Z-0.211
Y17.965 Z-0.236
X47.263 Y17.954 Z-0.259
X47.262 Y17.945 Z-0.274
X47.261 Y17.942 Z-0.292
X47.257 Z-0.299
X45.128
X44.928
Z-0.781
X39.771
X39.763 Z-0.779
X39.754 Z-0.777
X39.63
X39.613 Y17.949
X39.605 Y17.967
X39.613 Y17.984
X39.63 Y17.992
X39.639 Z-0.779
X39.648 Z-0.781
X44.922
X44.923 Z-0.299
X45.122
X45.123
X47.263
X47.267 Z-0.292
Y17.988 Z-0.275
X47.266 Y17.979 Z-0.259
X47.265 Y17.968 Z-0.237
Y17.969 Z-0.212
X47.266 Y17.982 Z-0.19
X47.269 Y18.004 Z-0.178
X47.272 Y18.029
X47.275 Y18.051 Z-0.19
X47.276 Y18.064 Z-0.212
Y18.065 Z-0.237
X47.275 Y18.054 Z-0.259
X47.274 Y18.045 Z-0.275
X47.273 Y18.042 Z-0.292
Z-0.293
X47.269 Z-0.299
X45.117
X44.917
Z-0.781
X39.525
X39.516 Z-0.779
X39.507 Z-0.777
X39.39
X39.373 Y18.049
X39.365 Y18.067
X39.373 Y18.084
X39.39 Y18.092
X39.399 Z-0.779
X39.408 Z-0.781
X44.912
Z-0.299
X45.112
X47.275
X47.279 Z-0.292
Y18.088 Z-0.275
X47.278 Y18.079 Z-0.259
X47.277 Y18.068 Z-0.237
Y18.069 Z-0.212
X47.278 Y18.082 Z-0.19
X47.281 Y18.104 Z-0.178
X47.284 Y18.129
X47.287 Y18.151 Z-0.19
X47.288 Y18.164 Z-0.212
Y18.165 Z-0.237
X47.287 Y18.154 Z-0.259
X47.286 Y18.145 Z-0.275
Y18.142 Z-0.292
Z-0.293
X47.281 Z-0.299
X45.107
X45.106
X44.906
Z-0.781
X39.291
X39.282 Z-0.779
X39.273 Z-0.777
X39.156
X39.138 Y18.149
X39.131 Y18.167
X39.138 Y18.184
X39.156 Y18.192
X39.165 Z-0.779
X39.173 Z-0.781
X44.901
Z-0.299
X45.101
X47.287
X47.292 Z-0.292
X47.291 Y18.188 Z-0.274
X47.29 Y18.179 Z-0.259
X47.289 Y18.168 Z-0.236
Y18.169 Z-0.211
X47.291 Y18.182 Z-0.19
X47.293 Y18.204 Z-0.177
X47.296 Y18.229
X47.299 Y18.251 Z-0.19
X47.3 Y18.264 Z-0.211
X47.301 Y18.265 Z-0.236
X47.299 Y18.254 Z-0.259
X47.298 Y18.245 Z-0.274
Y18.242 Z-0.292
X47.293 Z-0.299
X45.096
X45.095
X44.896
X44.894 Z-0.781
X39.056
X39.048 Z-0.779
X39.039 Z-0.777
X38.922
X38.904 Y18.249
X38.897 Y18.267
X38.904 Y18.284
X38.922 Y18.292
X38.931 Z-0.779
X38.939 Z-0.781
X44.89
Z-0.299
X45.09
X47.299
X47.304 Z-0.292
X47.303 Y18.288 Z-0.274
X47.302 Y18.279 Z-0.259
X47.301 Y18.268 Z-0.236
Y18.269 Z-0.211
X47.303 Y18.282 Z-0.19
X47.305 Y18.304 Z-0.177
X47.308 Y18.329
X47.311 Y18.351 Z-0.19
X47.312 Y18.364 Z-0.211
X47.313 Y18.365 Z-0.236
X47.311 Y18.354 Z-0.259
X47.31 Y18.345 Z-0.274
Y18.342 Z-0.292
Z-0.293
X47.306 Z-0.299
X45.085
X45.084
X44.885
Z-0.781
X38.828
X38.819 Z-0.779
X38.81 Z-0.777
X38.699
X38.682 Y18.349
X38.674 Y18.367
X38.682 Y18.384
X38.699 Y18.392
X38.708 Z-0.779
X38.717 Z-0.781
X44.879
Z-0.299
X45.079
X47.311
X47.316 Z-0.292
Y18.388 Z-0.274
X47.314 Y18.379 Z-0.259
X47.313 Y18.368 Z-0.236
Y18.369 Z-0.211
X47.315 Y18.382 Z-0.19
X47.317 Y18.404 Z-0.178
X47.321 Y18.429
X47.323 Y18.451 Z-0.19
X47.325 Y18.464 Z-0.211
Y18.465 Z-0.236
X47.324 Y18.454 Z-0.259
X47.322 Y18.445 Z-0.274
Y18.442 Z-0.292
Z-0.293
X47.318 Z-0.299
X45.074
X45.073
X44.873
Z-0.781
X38.606
X38.597 Z-0.779
X38.588 Z-0.777
X38.478
X38.46 Y18.449
X38.453 Y18.467
X38.46 Y18.484
X38.478 Y18.492
X38.486 Z-0.779
X38.495 Z-0.781
X44.866
X44.867 Z-0.299
X45.067
X45.068
X47.324
X47.328 Z-0.292
Y18.488 Z-0.275
X47.327 Y18.479 Z-0.259
X47.325 Y18.468 Z-0.237
Y18.469 Z-0.212
X47.327 Y18.482 Z-0.19
X47.33 Y18.504 Z-0.178
X47.333 Y18.529
X47.335 Y18.551 Z-0.19
X47.337 Y18.564 Z-0.212
Y18.565 Z-0.237
X47.336 Y18.554 Z-0.259
X47.335 Y18.545 Z-0.275
X47.334 Y18.542 Z-0.292
Z-0.293
X47.33 Z-0.299
X45.062
X44.861
X44.86 Z-0.781
X38.384
X38.375 Z-0.779
X38.367 Z-0.777
X38.258
X38.24 Y18.549
X38.233 Y18.567
X38.24 Y18.584
X38.258 Y18.592
X38.267 Z-0.779
X38.276 Z-0.781
X44.855
Z-0.299
X45.056
X45.057
X47.336
X47.34 Z-0.293
Z-0.292
Y18.588 Z-0.275
X47.339 Y18.579 Z-0.259
X47.337 Y18.568 Z-0.237
Y18.569 Z-0.212
X47.339 Y18.582 Z-0.19
X47.342 Y18.604 Z-0.178
X47.345 Y18.629
X47.347 Y18.651 Z-0.19
X47.349 Y18.664 Z-0.212
Y18.665 Z-0.237
X47.348 Y18.654 Z-0.259
X47.347 Y18.645 Z-0.275
X47.346 Y18.642 Z-0.292
X47.342 Z-0.299
X45.051
X45.05
X44.85
X44.849 Z-0.781
X38.17
X38.161 Z-0.779
X38.153 Z-0.777
X38.047
X38.03 Y18.649
X38.022 Y18.667
X38.03 Y18.684
X38.047 Y18.692
X38.056 Z-0.779
X38.065 Z-0.781
X44.843
X44.844 Z-0.299
X45.045
X47.348
X47.352 Z-0.293
Y18.688 Z-0.275
X47.351 Y18.679 Z-0.26
X47.35 Y18.668 Z-0.238
Y18.669 Z-0.212
X47.351 Y18.682 Z-0.191
X47.354 Y18.704 Z-0.179
X47.357 Y18.729
X47.36 Y18.751 Z-0.191
X47.361 Y18.764 Z-0.212
Y18.765 Z-0.238
X47.36 Y18.754 Z-0.26
X47.359 Y18.745 Z-0.275
X47.358 Y18.742 Z-0.293
X47.354 Z-0.299
X45.039
X44.838
X44.837 Z-0.781
X37.959
X37.951 Z-0.779
X37.942 Z-0.777
X37.837
X37.819 Y18.749
X37.812 Y18.767
X37.819 Y18.784
X37.837 Y18.792
X37.845 Z-0.779
X37.854 Z-0.781
X44.831
X44.832 Z-0.299
X45.033
X45.034
X47.36
X47.365 Z-0.293
Z-0.292
X47.364 Y18.788 Z-0.275
X47.363 Y18.779 Z-0.259
X47.362 Y18.768 Z-0.237
Y18.769 Z-0.212
X47.363 Y18.782 Z-0.19
X47.366 Y18.804 Z-0.178
X47.369 Y18.829
X47.372 Y18.851 Z-0.19
X47.373 Y18.864 Z-0.212
Y18.865 Z-0.237
X47.372 Y18.854 Z-0.259
X47.371 Y18.845 Z-0.275
Y18.842 Z-0.292
X47.366 Z-0.299
X45.028
X45.027
X44.826
Z-0.781
X37.749
X37.74 Z-0.779
X37.731 Z-0.777
X37.63
X37.612 Y18.849
X37.605 Y18.867
X37.612 Y18.884
X37.63 Y18.892
X37.638 Z-0.779
X37.647 Z-0.781
X44.82
Z-0.299
X45.021
X45.022
X47.372
X47.377 Z-0.292
X47.376 Y18.888 Z-0.274
X47.375 Y18.879 Z-0.259
X47.374 Y18.868 Z-0.236
Y18.869 Z-0.211
X47.376 Y18.882 Z-0.19
X47.378 Y18.904 Z-0.177
X47.381 Y18.929
X47.384 Y18.951 Z-0.19
X47.385 Y18.964 Z-0.211
Y18.965 Z-0.236
X47.384 Y18.954 Z-0.259
X47.383 Y18.945 Z-0.274
Y18.942 Z-0.292
Z-0.293
X47.379 Z-0.299
X45.016
X44.814
Z-0.781
X37.547
X37.538 Z-0.779
X37.529 Z-0.777
X37.429
X37.411 Y18.949
X37.404 Y18.967
X37.411 Y18.984
X37.429 Y18.992
X37.438 Z-0.779
X37.446 Z-0.781
X44.808
Z-0.299
X45.01
X47.385
X47.389 Z-0.293
X47.388 Y18.988 Z-0.275
X47.387 Y18.979 Z-0.26
X47.386 Y18.968 Z-0.237
Y18.969 Z-0.212
X47.388 Y18.982 Z-0.191
X47.39 Y19.004 Z-0.178
X47.393 Y19.029
X47.396 Y19.051 Z-0.191
X47.398 Y19.064 Z-0.212
Y19.065 Z-0.237
X47.396 Y19.054 Z-0.26
X47.395 Y19.045 Z-0.275
Y19.042 Z-0.293
X47.391 Z-0.299
X47.238
X47.224 Z-0.295
X47.214 Z-0.285
X47.21 Z-0.271
G0 Z5.
X47.069
Z1.935
G1 Z-0.281 F40.
X47.063 Z-0.294
X47.05 Z-0.299
X45.004
X44.802
Z-0.781
X37.346
X37.337 Z-0.779
X37.329 Z-0.777
X37.228
X37.211 Y19.049
X37.203 Y19.067
X37.211 Y19.084
X37.228 Y19.092
X37.237 Z-0.779
X37.246 Z-0.781
X41.647
X41.661 Z-0.775
X41.667 Z-0.761
X41.661 Y19.093 Z-0.747
X41.648 Y19.097 Z-0.742
X41.498 Y19.136
X41.484 Y19.14 Z-0.747
X41.479 Y19.142 Z-0.761
X41.473 Z-0.775
X41.459 Z-0.781
X37.145
X37.137 Z-0.779
X37.128 Z-0.777
X37.031
X37.014 Y19.149
X37.006 Y19.167
X37.014 Y19.184
X37.031 Y19.192
X37.04 Z-0.779
X37.049 Z-0.781
X41.329
X41.341 Z-0.776
X41.345 Z-0.765
X41.34 Y19.194 Z-0.739
X41.325 Y19.201 Z-0.718
X41.304 Y19.211 Z-0.707
X41.28 Y19.222
X41.258 Y19.232 Z-0.718
X41.244 Y19.239 Z-0.739
X41.238 Y19.242 Z-0.765
Z-0.77
X41.235 Z-0.778
X41.227 Z-0.781
X36.953
X36.944 Z-0.779
X36.936 Z-0.777
X36.84
X36.822 Y19.249
X36.815 Y19.267
X36.822 Y19.284
X36.84 Y19.292
X36.849 Z-0.779
X36.857 Z-0.781
X41.138
X41.144 Z-0.779
X41.147 Z-0.773
X41.148 Y19.291 Z-0.76
Z-0.734
X41.137 Y19.298 Z-0.712
X41.118 Y19.31 Z-0.699
X41.097 Y19.323
X41.078 Y19.335 Z-0.712
X41.067 Y19.342 Z-0.734
Z-0.76
X41.068 Z-0.773
X41.065 Z-0.779
X41.059 Z-0.781
X36.762
X36.753 Z-0.779
X36.744 Z-0.777
X36.649
X36.631 Y19.349
X36.624 Y19.367
X36.631 Y19.384
X36.649 Y19.392
X36.657 Z-0.779
X36.666 Z-0.781
X40.993
X40.999 Z-0.779
X41.001 Z-0.774
X41.004 Y19.389 Z-0.753
X41.008 Y19.386 Z-0.729
X41.001 Y19.391 Z-0.706
X40.987 Y19.402 Z-0.689
X40.968 Y19.417 Z-0.683
X40.949 Y19.431 Z-0.689
X40.934 Y19.442 Z-0.706
X40.928 Y19.447 Z-0.729
X40.931 Y19.444 Z-0.753
X40.935 Y19.442 Z-0.774
X40.933 Z-0.779
X40.927 Z-0.781
X40.697
X40.683 Z-0.777
X40.672 Z-0.767
X40.669 Z-0.753
G0 Z5.
X40.578
Z1.935
G1 Z-0.753 F40.
X40.574 Z-0.767
X40.564 Z-0.777
X40.55 Z-0.781
X36.57
X36.562 Z-0.779
X36.553 Z-0.777
X36.46
X36.442 Y19.449
X36.435 Y19.467
X36.442 Y19.484
X36.46 Y19.492
X36.469 Z-0.779
X36.478 Z-0.781
X40.426
X40.432 Z-0.778
X40.435 Z-0.772
G0 Z5.
X40.768
Z1.935
G1 Z-0.776 F40.
X40.773 Z-0.781
X40.861
X40.867 Z-0.779
X40.869 Z-0.774
G0 Z5.
X40.381 Y19.542
Z1.935
G1 Z-0.771 F40.
X40.375 Z-0.781
X36.386
X36.377 Z-0.779
X36.369 Z-0.777
X36.277
X36.26 Y19.549
X36.252 Y19.567
X36.26 Y19.584
X36.277 Y19.592
X36.286 Z-0.779
X36.295 Z-0.781
X40.348
X40.353 Z-0.774
X40.354 Y19.588 Z-0.757
X40.356 Y19.58 Z-0.741
X40.358 Y19.569 Z-0.719
Y19.57 Z-0.694
X40.355 Y19.583 Z-0.672
X40.35 Y19.604 Z-0.66
X40.344 Y19.629
X40.339 Y19.65 Z-0.672
X40.335 Y19.663 Z-0.694
Y19.664 Z-0.719
X40.338 Y19.653 Z-0.741
X40.34 Y19.645 Z-0.757
X40.341 Y19.642 Z-0.774
X40.336 Z-0.781
X36.203
X36.195 Z-0.779
X36.186 Z-0.777
X36.094
X36.077 Y19.649
X36.069 Y19.667
X36.077 Y19.684
X36.094 Y19.692
X36.103 Z-0.779
X36.112 Z-0.781
X40.337
X40.341 Z-0.774
Y19.689 Z-0.756
X40.338 Y19.68 Z-0.741
X40.336 Y19.669 Z-0.719
Y19.67 Z-0.694
X40.339 Y19.683 Z-0.672
X40.345 Y19.704 Z-0.66
X40.351 Y19.729
X40.357 Y19.75 Z-0.672
X40.36 Y19.763 Z-0.694
Y19.764 Z-0.719
X40.358 Y19.753 Z-0.741
X40.355 Y19.745 Z-0.756
Y19.742 Z-0.774
X40.35 Z-0.781
X36.021
X36.012 Z-0.779
X36.003 Z-0.777
X35.913
X35.895 Y19.749
X35.888 Y19.767
X35.895 Y19.784
X35.913 Y19.792
X35.921 Z-0.779
X35.93 Z-0.781
X40.366
X40.371 Z-0.773
X40.37 Y19.789 Z-0.756
X40.367 Y19.78 Z-0.741
X40.364 Y19.77 Z-0.719
Y19.771 Z-0.694
X40.368 Y19.784 Z-0.672
X40.375 Y19.805 Z-0.66
X40.383 Y19.828
X40.389 Y19.849 Z-0.672
X40.394 Y19.862 Z-0.694
Y19.863 Z-0.719
X40.391 Y19.853 Z-0.741
X40.388 Y19.844 Z-0.756
X40.387 Y19.842 Z-0.773
X40.382 Z-0.781
X39.757
X39.64
X35.843
X35.834 Z-0.779
X35.825 Z-0.777
X35.738
X35.72 Y19.849
X35.713 Y19.867
X35.72 Y19.884
X35.738 Y19.892
X35.747 Z-0.779
X35.755 Z-0.781
X39.532
X39.542 Z-0.777
X39.546 Z-0.768
X39.539 Y19.895 Z-0.74
X39.521 Y19.904 Z-0.72
X39.496 Y19.917 Z-0.712
X39.471 Y19.929 Z-0.72
X39.453 Y19.938 Z-0.74
X39.446 Y19.942 Z-0.768
X39.442 Z-0.777
X39.433 Z-0.781
X35.668
X35.659 Z-0.779
X35.651 Z-0.777
X35.563
X35.545 Y19.949
X35.538 Y19.967
X35.545 Y19.984
X35.563 Y19.992
X35.572 Z-0.779
X35.581 Z-0.781
X39.333
X39.342 Z-0.777
X39.346 Z-0.768
X39.34 Y19.995 Z-0.74
X39.321 Y20.004 Z-0.72
X39.296 Y20.017 Z-0.712
X39.272 Y20.029 Z-0.72
X39.253 Y20.038 Z-0.74
X39.247 Y20.042 Z-0.768
Z-0.769
X39.243 Z-0.777
X39.234 Z-0.781
X35.493
X35.484 Z-0.779
X35.476 Z-0.777
X35.388
X35.371 Y20.049
X35.363 Y20.067
X35.371 Y20.084
X35.388 Y20.092
X35.397 Z-0.779
X35.406 Z-0.781
X39.134
X39.143 Z-0.777
X39.147 Z-0.769
X39.14 Y20.095 Z-0.741
X39.122 Y20.104 Z-0.72
X39.097 Y20.117 Z-0.713
X39.072 Y20.129 Z-0.72
X39.054 Y20.138 Z-0.741
X39.047 Y20.142 Z-0.769
X39.044 Z-0.777
X39.035 Z-0.781
X35.321
X35.312 Z-0.779
X35.303 Z-0.777
X35.22
X35.202 Y20.149
X35.195 Y20.167
X35.202 Y20.184
X35.22 Y20.192
X35.228 Z-0.779
X35.237 Z-0.781
X38.935
X38.944 Z-0.777
X38.948 Z-0.768
X38.941 Y20.195 Z-0.74
X38.923 Y20.204 Z-0.72
X38.898 Y20.217 Z-0.712
X38.873 Y20.229 Z-0.72
X38.855 Y20.238 Z-0.74
X38.848 Y20.242 Z-0.768
X38.844 Z-0.777
X38.835 Z-0.781
X35.153
X35.144 Z-0.779
X35.136 Z-0.777
X35.052
X35.034 Y20.249
X35.027 Y20.267
X35.034 Y20.284
X35.052 Y20.292
X35.061 Z-0.779
X35.069 Z-0.781
X38.735
X38.745 Z-0.777
X38.748 Z-0.768
X38.742 Y20.295 Z-0.74
X38.724 Y20.304 Z-0.72
X38.699 Y20.317 Z-0.712
X38.674 Y20.329 Z-0.72
X38.655 Y20.338 Z-0.74
X38.649 Y20.342 Z-0.768
Z-0.769
X38.645 Z-0.777
X38.636 Z-0.781
X34.986
X34.977 Z-0.779
X34.968 Z-0.777
X34.884
X34.867 Y20.349
X34.859 Y20.367
X34.867 Y20.384
X34.884 Y20.392
X34.893 Z-0.779
X34.902 Z-0.781
X38.537
X38.545 Z-0.778
X38.549 Z-0.769
Y20.391 Z-0.762
X38.546 Y20.394 Z-0.735
X38.53 Y20.403 Z-0.714
X38.507 Y20.417 Z-0.706
X38.484 Y20.43 Z-0.714
X38.468 Y20.44 Z-0.735
X38.464 Y20.442 Z-0.762
Z-0.769
Z-0.776
X38.459 Z-0.781
X34.818
X34.809 Z-0.779
X34.801 Z-0.777
X34.72
X34.702 Y20.449
X34.695 Y20.467
X34.702 Y20.484
X34.72 Y20.492
X34.729 Z-0.779
X34.737 Z-0.781
X38.421
X38.428 Z-0.772
X38.429 Y20.489 Z-0.755
X38.432 Y20.481 Z-0.74
X38.436 Y20.47 Z-0.714
X38.434 Y20.475 Z-0.687
X38.428 Y20.492 Z-0.666
X38.418 Y20.517 Z-0.658
X38.408 Y20.541 Z-0.666
X38.401 Y20.559 Z-0.687
X38.399 Y20.563 Z-0.714
X38.403 Y20.552 Z-0.74
X38.406 Y20.544 Z-0.755
X38.407 Y20.542 Z-0.772
Z-0.773
X38.402 Z-0.781
X34.657
X34.648 Z-0.779
X34.64 Z-0.777
X34.559
X34.542 Y20.549
X34.534 Y20.567
X34.542 Y20.584
X34.559 Y20.592
X34.568 Z-0.779
X34.577 Z-0.781
X38.397
X38.401 Z-0.774
Y20.588 Z-0.756
X38.4 Y20.579 Z-0.741
X38.398 Y20.568 Z-0.718
Y20.569 Z-0.693
X38.4 Y20.582 Z-0.672
X38.403 Y20.604 Z-0.66
X38.407 Y20.629
X38.41 Y20.651 Z-0.672
X38.411 Y20.664 Z-0.693
X38.412 Y20.665 Z-0.718
X38.41 Y20.654 Z-0.741
X38.409 Y20.645 Z-0.756
X38.408 Y20.642 Z-0.774
X38.404 Z-0.781
X34.496
X34.488 Z-0.779
X34.479 Z-0.777
X34.399
X34.381 Y20.649
X34.374 Y20.667
X34.381 Y20.684
X34.399 Y20.692
X34.407 Z-0.779
X34.416 Z-0.781
X38.423
X38.429 Z-0.773
X38.428 Y20.689 Z-0.756
X38.424 Y20.682 Z-0.741
X38.419 Y20.672 Z-0.716
X38.421 Y20.676 Z-0.688
X38.43 Y20.693 Z-0.668
X38.442 Y20.717 Z-0.66
X38.454 Y20.74 Z-0.668
X38.462 Y20.757 Z-0.688
X38.464 Y20.761 Z-0.716
X38.459 Y20.751 Z-0.741
X38.456 Y20.744 Z-0.756
X38.454 Y20.742 Z-0.773
Z-0.774
X38.449 Z-0.781
X34.336
X34.327 Z-0.779
X34.318 Z-0.777
X34.238
X34.22 Y20.749
X34.213 Y20.767
X34.22 Y20.784
X34.238 Y20.792
X34.247 Z-0.779
X34.255 Z-0.781
X38.478
X38.485 Z-0.771
Z-0.77
X38.481 Y20.788 Z-0.747
X38.476 Y20.784 Z-0.722
X38.482 Y20.789 Z-0.697
X38.496 Y20.8 Z-0.68
X38.514 Y20.817 Z-0.673
X38.533 Y20.833 Z-0.68
X38.547 Y20.844 Z-0.697
X38.552 Y20.849 Z-0.722
X38.548 Y20.845 Z-0.747
X38.544 Y20.842 Z-0.77
X38.54 Z-0.778
X38.532 Z-0.781
X34.178
X34.169 Z-0.779
X34.16 Z-0.777
X34.083
X34.066 Y20.849
X34.058 Y20.867
X34.066 Y20.884
X34.083 Y20.892
X34.092 Z-0.779
X34.101 Z-0.781
X37.54
X37.552 Z-0.776
X37.557 Z-0.764
G0 Z5.
X38.748 Y20.842
Z1.935
G1 Z-0.762 F40.
X38.754 Z-0.776
X38.767 Z-0.781
X38.845
X38.849 Z-0.775
X38.848 Y20.838 Z-0.757
X38.847 Y20.829 Z-0.742
X38.845 Y20.818 Z-0.719
Y20.819 Z-0.694
X38.847 Y20.832 Z-0.673
X38.851 Y20.854 Z-0.661
X38.855 Y20.879
X38.859 Y20.901 Z-0.673
X38.861 Y20.914 Z-0.694
Y20.915 Z-0.719
X38.859 Y20.904 Z-0.742
X38.858 Y20.895 Z-0.757
X38.857 Y20.892 Z-0.775
X38.853 Z-0.781
X37.721
X37.712 Z-0.774
X37.708 Z-0.763
X37.713 Y20.895 Z-0.749
X37.725 Y20.903 Z-0.743
X37.765 Y20.93
X37.777 Y20.938 Z-0.749
X37.781 Y20.942 Z-0.763
Z-0.767
X37.787 Z-0.781
X38.859
X38.864 Z-0.775
G0 Z5.
X38.942 Y22.091
Z1.935
G1 Z-0.536 F40.
X38.938 Z-0.543
X38.788
X38.778 Z-0.539
X38.774 Z-0.529
X38.767 Y22.095 Z-0.501
X38.749 Y22.104 Z-0.481
X38.724 Y22.116 Z-0.473
X38.699 Y22.129 Z-0.481
X38.681 Y22.138 Z-0.501
X38.674 Y22.141 Z-0.529
Z-0.53
X38.678 Z-0.539
X38.687 Z-0.543
X38.941
X38.945 Z-0.536
Y22.138 Z-0.518
Y22.129 Z-0.503
X38.944 Y22.118 Z-0.48
Y22.119 Z-0.455
X38.945 Y22.132 Z-0.434
X38.946 Y22.154 Z-0.421
X38.948 Y22.179
X38.949 Y22.201 Z-0.434
X38.95 Y22.214 Z-0.455
Y22.215 Z-0.48
X38.949 Y22.204 Z-0.503
Y22.195 Z-0.518
Y22.191 Z-0.536
X38.944 Z-0.543
X38.588
X38.585 Z-0.542
X38.583 Z-0.541
X38.57
X38.552 Y22.199
X38.545 Y22.216
X38.552 Y22.234
X38.57 Y22.241
X38.572 Z-0.542
X38.575 Z-0.543
X38.947
X38.952 Z-0.536
X38.951 Y22.238 Z-0.518
Y22.229 Z-0.503
X38.95 Y22.218 Z-0.48
Y22.219 Z-0.455
X38.951 Y22.232 Z-0.433
X38.952 Y22.254 Z-0.421
X38.954 Y22.279
X38.955 Y22.301 Z-0.433
X38.956 Y22.314 Z-0.455
Y22.315 Z-0.48
X38.955 Y22.304 Z-0.503
Y22.295 Z-0.518
Y22.291 Z-0.536
Z-0.537
X38.951 Z-0.543
X38.633
X38.628 Z-0.537
X38.623 Y22.288 Z-0.513
X38.619 Y22.284 Z-0.489
X38.624 Y22.289 Z-0.464
X38.638 Y22.301 Z-0.447
X38.657 Y22.316 Z-0.44
X38.676 Y22.332 Z-0.447
X38.689 Y22.344 Z-0.464
X38.695 Y22.349 Z-0.489
X38.691 Y22.345 Z-0.513
X38.686 Y22.341 Z-0.537
X38.692 Z-0.543
X38.953
X38.958 Z-0.535
Y22.338 Z-0.518
X38.957 Y22.329 Z-0.502
X38.956 Y22.318 Z-0.48
Y22.319 Z-0.455
X38.957 Y22.332 Z-0.433
X38.958 Y22.354 Z-0.421
X38.96 Y22.379
X38.961 Y22.401 Z-0.433
X38.962 Y22.414 Z-0.455
Y22.415 Z-0.48
Y22.404 Z-0.502
X38.961 Y22.395 Z-0.518
Y22.391 Z-0.535
Z-0.536
X38.956 Z-0.543
X38.751
X38.745 Z-0.536
X38.74 Y22.388 Z-0.513
X38.736 Y22.384 Z-0.488
X38.742 Y22.389 Z-0.464
X38.755 Y22.401 Z-0.446
X38.774 Y22.416 Z-0.44
X38.793 Y22.432 Z-0.446
X38.807 Y22.444 Z-0.464
X38.812 Y22.449 Z-0.488
X38.808 Y22.445 Z-0.513
X38.803 Y22.441 Z-0.536
Z-0.537
X38.809 Z-0.543
X38.959
X38.964 Z-0.536
Y22.438 Z-0.518
X38.963 Y22.429 Z-0.503
X38.962 Y22.418 Z-0.481
Y22.419 Z-0.455
X38.963 Y22.432 Z-0.434
X38.965 Y22.454 Z-0.422
X38.966 Y22.479
X38.967 Y22.501 Z-0.434
X38.968 Y22.514 Z-0.455
Y22.515 Z-0.481
Y22.504 Z-0.503
X38.967 Y22.495 Z-0.518
Y22.491 Z-0.536
X38.963 Z-0.543
X38.868
X38.862 Z-0.536
G0 Z5.
X37.454 Y20.942
Z1.935
G1 Z-0.768 F40.
X37.45 Z-0.777
X37.441 Z-0.781
X34.024
X34.015 Z-0.779
X34.006 Z-0.777
X33.929
X33.911 Y20.949
X33.904 Y20.967
X33.911 Y20.984
X33.929 Y20.992
X33.938 Z-0.779
X33.946 Z-0.781
X37.341
X37.35 Z-0.777
X37.354 Z-0.768
X37.347 Y20.995 Z-0.74
X37.329 Y21.004 Z-0.72
X37.304 Y21.017 Z-0.712
X37.279 Y21.029 Z-0.72
X37.261 Y21.038 Z-0.74
X37.254 Y21.042 Z-0.768
X37.251 Z-0.777
X37.241 Z-0.781
X33.869
X33.861 Z-0.779
X33.852 Z-0.777
X33.775
X33.757 Y21.049
X33.75 Y21.067
X33.757 Y21.084
X33.775 Y21.092
X33.783 Z-0.779
X33.792 Z-0.781
X37.142
X37.151 Z-0.777
X37.155 Z-0.768
X37.148 Y21.095 Z-0.74
X37.13 Y21.104 Z-0.72
X37.105 Y21.117 Z-0.713
X37.08 Y21.129 Z-0.72
X37.062 Y21.138 Z-0.74
X37.055 Y21.142 Z-0.768
X37.052 Z-0.777
X37.042 Z-0.781
X33.715
X33.706 Z-0.779
X33.698 Z-0.777
X33.623
X33.605 Y21.149
X33.598 Y21.166
X33.605 Y21.184
X33.623 Y21.191
X33.631 Z-0.779
X33.64 Z-0.781
X36.943
X36.952 Z-0.777
X36.956 Z-0.768
X36.949 Y21.195 Z-0.74
X36.931 Y21.204 Z-0.72
X36.906 Y21.216 Z-0.713
X36.881 Y21.229 Z-0.72
X36.863 Y21.238 Z-0.74
X36.856 Y21.241 Z-0.768
Z-0.769
X36.853 Z-0.777
X36.844 Z-0.781
X33.566
X33.557 Z-0.779
X33.548 Z-0.777
X33.474
X33.457 Y21.249
X33.449 Y21.266
X33.457 Y21.284
X33.474 Y21.291
X33.483 Z-0.779
X33.492 Z-0.781
X36.744
X36.753 Z-0.777
X36.757 Z-0.768
X36.75 Y21.295 Z-0.74
X36.732 Y21.304 Z-0.72
X36.707 Y21.316 Z-0.712
X36.682 Y21.329 Z-0.72
X36.664 Y21.338 Z-0.74
X36.657 Y21.341 Z-0.768
Z-0.771
X36.654 Z-0.778
X36.647 Z-0.781
X33.418
X33.409 Z-0.779
X33.4 Z-0.777
X33.326
X33.308 Y21.349
X33.301 Y21.366
X33.308 Y21.384
X33.326 Y21.391
X33.335 Z-0.779
X33.343 Z-0.781
X36.593
X36.601 Z-0.77
X36.602 Y21.389 Z-0.754
X36.606 Y21.382 Z-0.74
X36.611 Y21.374 Z-0.714
X36.609 Y21.378 Z-0.687
X36.599 Y21.394 Z-0.667
X36.586 Y21.416 Z-0.659
X36.572 Y21.439 Z-0.667
X36.563 Y21.455 Z-0.687
X36.56 Y21.459 Z-0.714
X36.566 Y21.451 Z-0.74
X36.57 Y21.444 Z-0.754
X36.571 Y21.441 Z-0.77
Z-0.773
X36.565 Z-0.781
X33.269
X33.261 Z-0.779
X33.252 Z-0.777
X33.178
X33.16 Y21.449
X33.153 Y21.466
X33.16 Y21.484
X33.178 Y21.491
X33.187 Z-0.779
X33.195 Z-0.781
X36.554
X36.558 Z-0.775
Z-0.774
Y21.488 Z-0.757
Y21.479 Z-0.741
Y21.468 Z-0.719
Y21.469 Z-0.694
Y21.482 Z-0.672
Y21.504 Z-0.66
Y21.529
Y21.551 Z-0.672
Y21.564 Z-0.694
Y21.565 Z-0.719
Y21.554 Z-0.741
Y21.545 Z-0.757
Y21.541 Z-0.774
X36.554 Z-0.781
X33.122
X33.113 Z-0.779
X33.105 Z-0.777
X33.033
X33.016 Y21.549
X33.008 Y21.566
X33.016 Y21.584
X33.033 Y21.591
X33.042 Z-0.779
X33.051 Z-0.781
X36.566
X36.571 Z-0.773
Z-0.772
X36.57 Y21.589 Z-0.756
X36.566 Y21.581 Z-0.741
X36.562 Y21.572 Z-0.715
X36.564 Y21.576 Z-0.688
X36.572 Y21.592 Z-0.667
X36.583 Y21.616 Z-0.659
X36.595 Y21.641 Z-0.667
X36.603 Y21.657 Z-0.688
X36.605 Y21.661 Z-0.715
X36.6 Y21.652 Z-0.741
X36.596 Y21.644 Z-0.756
X36.595 Y21.641 Z-0.772
X36.589 Z-0.781
X32.979
X32.971 Z-0.779
X32.962 Z-0.777
X32.891
X32.873 Y21.649
X32.866 Y21.666
X32.873 Y21.684
X32.891 Y21.691
X32.899 Z-0.779
X32.908 Z-0.781
X36.615
X36.62 Z-0.773
X36.619 Y21.69 Z-0.758
X36.615 Y21.684 Z-0.744
X36.609 Y21.677 Z-0.718
X36.612 Y21.681 Z-0.692
X36.624 Y21.696 Z-0.672
X36.639 Y21.716 Z-0.665
X36.655 Y21.737 Z-0.672
X36.666 Y21.752 Z-0.692
X36.669 Y21.756 Z-0.718
X36.664 Y21.749 Z-0.744
X36.659 Y21.743 Z-0.758
X36.658 Y21.741 Z-0.773
Z-0.775
X36.652 Z-0.781
X32.837
X32.828 Z-0.779
X32.819 Z-0.777
X32.748
X32.73 Y21.749
X32.723 Y21.766
X32.73 Y21.784
X32.748 Y21.791
X32.757 Z-0.779
X32.765 Z-0.781
X36.738
X36.857
X37.073
X37.081 Z-0.778
X37.084 Z-0.77
X37.083 Y21.79 Z-0.755
X37.082 Z-0.729
X37.093 Y21.797 Z-0.706
X37.112 Y21.809 Z-0.693
X37.134 Y21.824
X37.153 Y21.836 Z-0.706
X37.163 Y21.843 Z-0.729
Z-0.755
X37.161 Y21.841 Z-0.77
Z-0.774
X37.159 Z-0.779
X37.154 Z-0.781
X36.172
X36.165 Z-0.775
G0 Z5.
X35.912
Z1.935
G1 Z-0.772 F40.
X35.909 Z-0.779
X35.903 Z-0.781
X32.694
X32.685 Z-0.779
X32.677 Z-0.777
X32.605
X32.588 Y21.849
X32.58 Y21.866
X32.588 Y21.884
X32.605 Y21.891
X32.614 Z-0.779
X32.623 Z-0.781
X35.827
X35.833 Z-0.779
X35.835 Z-0.773
X35.837 Y21.89 Z-0.758
X35.838 Z-0.732
X35.827 Y21.897 Z-0.709
X35.808 Y21.909 Z-0.695
X35.786 Y21.924
X35.767 Y21.936 Z-0.709
X35.756 Y21.943 Z-0.732
X35.757 Z-0.758
X35.759 Y21.941 Z-0.773
X35.756 Z-0.779
X35.751 Z-0.781
X32.554
X32.545 Z-0.779
X32.536 Z-0.777
X32.468
X32.45 Y21.949
X32.443 Y21.966
X32.45 Y21.984
X32.468 Y21.991
X32.476 Z-0.779
X32.485 Z-0.781
X35.674
X35.68 Z-0.779
X35.682 Z-0.773
Z-0.772
X35.684 Y21.99 Z-0.758
X35.685 Z-0.731
X35.674 Y21.997 Z-0.708
X35.655 Y22.009 Z-0.695
X35.633 Y22.024
X35.614 Y22.036 Z-0.708
X35.603 Y22.043 Z-0.731
X35.604 Z-0.758
X35.606 Y22.041 Z-0.772
X35.603 Z-0.779
X35.597 Z-0.781
X32.416
X32.408 Z-0.779
X32.399 Z-0.777
X32.33
X32.313 Y22.049
X32.305 Y22.066
X32.313 Y22.084
X32.33 Y22.091
X32.339 Z-0.779
X32.348 Z-0.781
X35.52
X35.527 Z-0.778
X35.529 Z-0.772
X35.531 Y22.09 Z-0.758
X35.532 Z-0.731
X35.521 Y22.097 Z-0.708
X35.502 Y22.109 Z-0.695
X35.48 Y22.124
X35.461 Y22.136 Z-0.708
X35.45 Y22.143 Z-0.731
X35.451 Z-0.758
X35.453 Y22.141 Z-0.772
Z-0.773
X35.45 Z-0.779
X35.445 Z-0.781
X32.279
X32.27 Z-0.779
X32.262 Z-0.777
X32.193
X32.175 Y22.149
X32.168 Y22.166
X32.175 Y22.184
X32.193 Y22.191
X32.202 Z-0.779
X32.21 Z-0.781
X35.367
X35.374 Z-0.779
X35.376 Z-0.772
X35.378 Y22.19 Z-0.758
X35.379 Z-0.731
X35.368 Y22.197 Z-0.708
X35.349 Y22.209 Z-0.695
X35.327 Y22.224
X35.308 Y22.236 Z-0.708
X35.297 Y22.243 Z-0.731
X35.298 Z-0.758
X35.3 Y22.241 Z-0.772
X35.297 Z-0.779
X35.291 Z-0.781
X32.142
X32.133 Z-0.779
X32.124 Z-0.777
X32.056
X32.039 Y22.249
X32.031 Y22.266
X32.039 Y22.284
X32.056 Y22.291
X32.065 Z-0.779
X32.074 Z-0.781
X35.214
X35.221 Z-0.778
X35.223 Z-0.772
X35.225 Y22.29 Z-0.757
X35.226 Z-0.731
X35.215 Y22.297 Z-0.708
X35.196 Y22.309 Z-0.695
X35.174 Y22.324
X35.155 Y22.336 Z-0.708
X35.144 Y22.343 Z-0.731
X35.145 Z-0.757
X35.147 Y22.341 Z-0.772
X35.144 Z-0.778
X35.138 Z-0.781
X32.008
X31.999 Z-0.779
X31.99 Z-0.777
X31.924
X31.906 Y22.349
X31.899 Y22.366
X31.906 Y22.384
X31.924 Y22.391
X31.933 Z-0.779
X31.941 Z-0.781
X35.062
X35.068 Z-0.779
X35.07 Z-0.772
X35.072 Y22.39 Z-0.758
X35.073 Z-0.731
X35.062 Y22.397 Z-0.708
X35.043 Y22.409 Z-0.695
X35.021 Y22.424
X35.002 Y22.436 Z-0.708
X34.992 Y22.443 Z-0.731
Z-0.758
X34.994 Y22.441 Z-0.772
X34.991 Z-0.779
X34.985 Z-0.781
X31.875
X31.866 Z-0.779
X31.858 Z-0.777
X31.792
X31.774 Y22.449
X31.767 Y22.466
X31.774 Y22.484
X31.792 Y22.491
X31.8 Z-0.779
X31.809 Z-0.781
X34.909
X34.915 Z-0.779
X34.917 Z-0.773
X34.919 Y22.49 Z-0.758
X34.92 Z-0.732
X34.909 Y22.497 Z-0.709
X34.89 Y22.509 Z-0.695
X34.868 Y22.524
X34.849 Y22.536 Z-0.709
X34.838 Y22.543 Z-0.732
X34.839 Z-0.758
X34.841 Y22.541 Z-0.773
X34.838 Z-0.779
X34.832 Z-0.781
X31.743
X31.734 Z-0.779
X31.725 Z-0.777
X31.659
X31.641 Y22.549
X31.634 Y22.566
X31.641 Y22.584
X31.659 Y22.591
X31.668 Z-0.779
X31.677 Z-0.781
X34.773
X34.778 Z-0.777
X34.78 Z-0.77
X34.781 Y22.589 Z-0.754
X34.786 Y22.583 Z-0.74
X34.791 Y22.575 Z-0.714
X34.788 Y22.579 Z-0.688
X34.778 Y22.595 Z-0.667
X34.764 Y22.616 Z-0.66
X34.749 Y22.638 Z-0.667
X34.739 Y22.654 Z-0.688
X34.736 Y22.658 Z-0.714
X34.741 Y22.65 Z-0.74
X34.746 Y22.644 Z-0.754
X34.747 Y22.641 Z-0.77
Z-0.772
X34.741 Z-0.781
X31.61
X31.602 Z-0.779
X31.593 Z-0.777
X31.528
X31.511 Y22.649
X31.503 Y22.666
X31.511 Y22.684
X31.528 Y22.691
X31.537 Z-0.779
X31.546 Z-0.781
X34.727
X34.732 Z-0.775
Z-0.774
Y22.688 Z-0.756
Y22.679 Z-0.741
X34.733 Y22.668 Z-0.718
X34.732 Y22.669 Z-0.693
Y22.682 Z-0.672
X34.731 Y22.704 Z-0.659
X34.73 Y22.729
X34.729 Y22.751 Z-0.672
Y22.764 Z-0.693
Y22.765 Z-0.718
Y22.754 Z-0.741
Y22.745 Z-0.756
X34.73 Y22.741 Z-0.774
X34.725 Z-0.781
X31.482
X31.473 Z-0.779
X31.464 Z-0.777
X31.401
X31.383 Y22.749
X31.376 Y22.766
X31.383 Y22.784
X31.401 Y22.791
X31.409 Z-0.779
X31.418 Z-0.781
X34.736
X34.74 Z-0.774
Z-0.771
X34.739 Y22.789 Z-0.755
X34.735 Y22.782 Z-0.74
X34.731 Y22.772 Z-0.715
X34.733 Y22.777 Z-0.687
X34.741 Y22.793 Z-0.667
X34.753 Y22.816 Z-0.659
X34.766 Y22.84 Z-0.667
X34.774 Y22.856 Z-0.687
X34.776 Y22.861 Z-0.715
X34.772 Y22.851 Z-0.74
X34.768 Y22.844 Z-0.755
X34.767 Y22.841 Z-0.771
X34.76 Z-0.781
X31.354
X31.345 Z-0.779
X31.337 Z-0.777
X31.273
X31.255 Y22.849
X31.248 Y22.866
X31.255 Y22.884
X31.273 Y22.891
X31.282 Z-0.779
X31.29 Z-0.781
X34.793
X34.799 Z-0.773
X34.797 Y22.889 Z-0.757
X34.793 Y22.884 Z-0.743
X34.788 Y22.876 Z-0.718
X34.791 Y22.88 Z-0.691
X34.801 Y22.895 Z-0.671
X34.817 Y22.916 Z-0.663
X34.832 Y22.938 Z-0.671
X34.842 Y22.953 Z-0.691
X34.846 Y22.957 Z-0.718
X34.84 Y22.949 Z-0.743
X34.836 Y22.943 Z-0.757
X34.834 Y22.941 Z-0.773
Z-0.776
X34.83 Z-0.781
X31.226
X31.207 Z-0.776
X31.192 Z-0.761
X31.187 Z-0.742
G0 Z5.
X30.579 Y26.791
Z1.935
G1 Z-0.775 F40.
X30.573 Z-0.781
X30.495
X30.489 Z-0.779
X30.486 Z-0.773
X30.49 Y26.789 Z-0.753
X30.492 Y26.787 Z-0.725
X30.483 Y26.794 Z-0.7
X30.464 Y26.808 Z-0.685
X30.442 Y26.825
X30.423 Y26.839 Z-0.7
X30.413 Y26.846 Z-0.725
X30.416 Y26.844 Z-0.753
X30.42 Y26.841 Z-0.773
Z-0.775
X30.426 Z-0.781
X30.626
X30.63 Z-0.777
G0 Z5.
X32.532 Y27.091
Z1.935
G1 Z-0.518 F40.
X32.539 Z-0.535
X32.557 Z-0.543
X32.735
X32.749 Z-0.537
X32.754 Z-0.523
X32.761 Y27.095 Z-0.495
X32.779 Y27.104 Z-0.475
X32.803 Y27.116 Z-0.468
X32.828 Y27.129 Z-0.475
X32.846 Y27.138 Z-0.495
X32.852 Y27.141 Z-0.523
Z-0.536
X32.846 Z-0.543
X32.416
X32.406 Z-0.539
X32.402 Z-0.529
X32.396 Y27.145 Z-0.503
X32.38 Y27.154 Z-0.484
X32.357 Y27.166 Z-0.477
X32.334 Y27.179 Z-0.484
X32.318 Y27.188 Z-0.503
X32.312 Y27.191 Z-0.529
Z-0.534
X32.314 Z-0.54
X32.32 Z-0.543
X32.907
X32.911 Z-0.535
Z-0.533
X32.906 Y27.186 Z-0.506
X32.901 Y27.18 Z-0.481
X32.905 Y27.185 Z-0.455
X32.918 Y27.198 Z-0.436
X32.935 Y27.216 Z-0.43
X32.953 Y27.235 Z-0.436
X32.966 Y27.248 Z-0.455
X32.97 Y27.252 Z-0.481
X32.965 Y27.247 Z-0.506
X32.959 Y27.241 Z-0.533
X32.953 Z-0.543
X32.245
X32.237 Z-0.535
X32.234 Z-0.525
X32.229 Y27.246 Z-0.511
X32.22 Y27.256 Z-0.505
X32.199 Y27.277
X32.19 Y27.287 Z-0.511
X32.186 Y27.291 Z-0.525
Z-0.529
X32.192 Z-0.543
X32.99
X32.997 Z-0.532
X32.996 Y27.289 Z-0.515
X32.992 Y27.282 Z-0.501
X32.987 Y27.273 Z-0.475
X32.989 Y27.277 Z-0.448
X32.998 Y27.293 Z-0.428
X33.011 Y27.316 Z-0.42
X33.024 Y27.34 Z-0.428
X33.033 Y27.356 Z-0.448
X33.035 Y27.36 Z-0.475
X33.03 Y27.351 Z-0.501
X33.026 Y27.344 Z-0.515
X33.025 Y27.341 Z-0.532
Z-0.534
X33.02 Z-0.543
X32.236
X32.232 Z-0.538
Z-0.531
X32.231 Y27.34 Z-0.516
X32.226 Y27.335 Z-0.503
X32.221 Y27.328 Z-0.477
X32.225 Y27.332 Z-0.451
X32.236 Y27.346 Z-0.432
X32.253 Y27.366 Z-0.424
X32.269 Y27.386 Z-0.432
X32.281 Y27.401 Z-0.451
X32.284 Y27.405 Z-0.477
X32.279 Y27.398 Z-0.503
X32.275 Y27.393 Z-0.516
X32.273 Y27.391 Z-0.531
X32.275 Z-0.538
X32.281 Z-0.543
X33.044
X33.048 Z-0.536
Z-0.535
X33.047 Y27.388 Z-0.518
X33.045 Y27.38 Z-0.503
X33.042 Y27.369 Z-0.481
Y27.371 Z-0.456
X33.046 Y27.383 Z-0.434
X33.052 Y27.404 Z-0.422
X33.059 Y27.428
X33.066 Y27.449 Z-0.434
X33.07 Y27.462 Z-0.456
Y27.463 Z-0.481
X33.067 Y27.453 Z-0.503
X33.064 Y27.444 Z-0.518
X33.063 Y27.441 Z-0.535
X33.059 Z-0.543
X32.326
X32.318 Z-0.532
X32.313 Y27.436 Z-0.505
X32.308 Y27.431 Z-0.48
X32.312 Y27.435 Z-0.455
X32.325 Y27.448 Z-0.436
X32.343 Y27.466 Z-0.429
X32.36 Y27.484 Z-0.436
X32.373 Y27.498 Z-0.455
X32.378 Y27.502 Z-0.48
X32.372 Y27.497 Z-0.505
X32.367 Y27.491 Z-0.532
Z-0.538
X32.371 Z-0.543
X33.069
X33.072 Z-0.537
Y27.488 Z-0.519
X33.071 Y27.479 Z-0.504
X33.07 Y27.468 Z-0.481
Y27.469 Z-0.456
X33.072 Y27.482 Z-0.435
X33.074 Y27.504 Z-0.422
X33.076 Y27.529
X33.078 Y27.551 Z-0.435
X33.079 Y27.564 Z-0.456
Y27.565 Z-0.481
X33.078 Y27.554 Z-0.504
X33.077 Y27.545 Z-0.519
Y27.541 Z-0.537
X33.073 Z-0.543
X32.416
X32.412 Z-0.538
Z-0.531
X32.411 Y27.54 Z-0.516
X32.407 Y27.535 Z-0.503
X32.401 Y27.528 Z-0.477
X32.405 Y27.532 Z-0.451
X32.416 Y27.546 Z-0.432
X32.433 Y27.566 Z-0.424
X32.449 Y27.586 Z-0.432
X32.461 Y27.601 Z-0.451
X32.464 Y27.605 Z-0.477
X32.459 Y27.598 Z-0.503
X32.455 Y27.593 Z-0.516
X32.453 Y27.591 Z-0.531
X32.455 Z-0.538
X32.461 Z-0.543
X33.069
X33.072 Z-0.537
Z-0.536
X33.073 Y27.588 Z-0.518
X33.074 Y27.579 Z-0.503
X33.076 Y27.568 Z-0.48
Y27.569 Z-0.455
X33.074 Y27.582 Z-0.434
X33.07 Y27.604 Z-0.421
X33.066 Y27.629
X33.062 Y27.65 Z-0.434
X33.06 Y27.663 Z-0.455
Y27.665 Z-0.48
X33.062 Y27.654 Z-0.503
X33.063 Y27.644 Z-0.518
X33.064 Y27.641 Z-0.536
X33.059 Z-0.543
X32.506
X32.502 Z-0.538
Z-0.532
X32.501 Y27.64 Z-0.517
X32.497 Y27.635 Z-0.503
X32.491 Y27.628 Z-0.478
X32.495 Y27.632 Z-0.452
X32.506 Y27.646 Z-0.432
X32.523 Y27.666 Z-0.425
X32.539 Y27.686 Z-0.432
X32.551 Y27.701 Z-0.452
X32.554 Y27.705 Z-0.478
X32.549 Y27.698 Z-0.503
X32.545 Y27.693 Z-0.517
X32.543 Y27.691 Z-0.532
X32.551 Z-0.543
X33.042
X33.046 Z-0.536
Z-0.534
X33.048 Y27.689 Z-0.517
X33.051 Y27.682 Z-0.502
X33.056 Y27.672 Z-0.477
X33.054 Y27.676 Z-0.449
X33.046 Y27.693 Z-0.429
X33.034 Y27.716 Z-0.421
X33.022 Y27.74 Z-0.429
X33.014 Y27.757 Z-0.449
X33.012 Y27.761 Z-0.477
X33.016 Y27.751 Z-0.502
X33.02 Y27.744 Z-0.517
X33.021 Y27.741 Z-0.534
X33.015 Z-0.543
X32.596
X32.59 Z-0.538
X32.588 Z-0.532
Z-0.531
X32.587 Y27.74 Z-0.517
X32.583 Y27.735 Z-0.504
X32.577 Y27.729 Z-0.478
X32.581 Y27.734 Z-0.452
X32.594 Y27.747 Z-0.433
X32.611 Y27.766 Z-0.426
X32.628 Y27.785 Z-0.433
X32.64 Y27.799 Z-0.452
X32.644 Y27.803 Z-0.478
X32.639 Y27.797 Z-0.504
X32.635 Y27.793 Z-0.517
X32.633 Y27.791 Z-0.531
X32.635 Z-0.538
X32.641 Z-0.543
X32.981
X32.985 Z-0.538
X32.987 Y27.79 Z-0.524
X32.991 Y27.785 Z-0.511
X32.996 Y27.779 Z-0.486
X32.992 Y27.784 Z-0.46
X32.98 Y27.797 Z-0.441
X32.963 Y27.816 Z-0.434
X32.946 Y27.835 Z-0.441
X32.933 Y27.849 Z-0.46
X32.929 Y27.853 Z-0.486
X32.935 Y27.847 Z-0.511
X32.939 Y27.843 Z-0.524
X32.94 Y27.841 Z-0.538
Z-0.539
X32.936 Z-0.543
X32.686
X32.682 Z-0.538
X32.681 Y27.84 Z-0.524
X32.677 Y27.835 Z-0.511
X32.671 Y27.829 Z-0.485
X32.675 Y27.834 Z-0.46
X32.688 Y27.847 Z-0.44
X32.705 Y27.866 Z-0.433
X32.722 Y27.885 Z-0.44
X32.734 Y27.899 Z-0.46
X32.738 Y27.903 Z-0.485
X32.733 Y27.897 Z-0.511
X32.729 Y27.893 Z-0.524
X32.727 Y27.891 Z-0.538
X32.732 Z-0.543
X32.876
X32.881 Z-0.541
X32.883 Z-0.536
G0 Z5.
X30.764 Y29.091
Z1.935
G1 Z-0.774 F40.
X30.762 Z-0.779
X30.756 Z-0.781
X30.557
X30.551 Z-0.776
Z-0.77
X30.556 Y29.087 Z-0.746
X30.56 Y29.083 Z-0.721
X30.555 Y29.088 Z-0.697
X30.541 Y29.1 Z-0.679
X30.523 Y29.116 Z-0.672
X30.504 Y29.133 Z-0.679
X30.49 Y29.145 Z-0.697
X30.485 Y29.149 Z-0.721
X30.49 Y29.145 Z-0.746
X30.494 Y29.141 Z-0.77
X30.496 Z-0.777
X30.502 Z-0.781
X30.825
X30.83 Z-0.779
X30.832 Z-0.774
G0 Z5.
X28.463
Z1.935
G1 Z-0.775 F40.
X28.457 Z-0.781
X28.308
X28.302 Z-0.776
X28.308 Y29.136 Z-0.75
X28.313 Y29.131 Z-0.724
X28.308 Y29.136 Z-0.699
X28.295 Y29.148 Z-0.68
X28.277 Y29.166 Z-0.674
X28.259 Y29.184 Z-0.68
X28.246 Y29.197 Z-0.699
X28.242 Y29.202 Z-0.724
X28.247 Y29.196 Z-0.75
X28.252 Y29.191 Z-0.776
Z-0.777
X28.256 Z-0.781
X28.515
X28.52 Z-0.776
G0 Z5.
X27.837 Y31.391
Z1.935
G1 Z-0.753 F40.
X27.833 Z-0.767
X27.823 Z-0.777
X27.809 Z-0.781
X27.677
X27.671 Z-0.772
X27.669 Y31.389 Z-0.756
X27.665 Y31.382 Z-0.741
X27.66 Y31.373 Z-0.716
X27.663 Y31.377 Z-0.688
X27.672 Y31.393 Z-0.668
X27.684 Y31.416 Z-0.66
X27.697 Y31.44 Z-0.668
X27.706 Y31.456 Z-0.688
X27.708 Y31.46 Z-0.716
X27.703 Y31.451 Z-0.741
X27.699 Y31.444 Z-0.756
X27.698 Y31.441 Z-0.772
X27.704 Z-0.781
X27.989
X28.003 Z-0.775
X28.009 Z-0.761
X28.015 Y31.443 Z-0.747
X28.028 Y31.447 Z-0.742
X28.17 Y31.486
X28.183 Y31.49 Z-0.747
X28.189 Y31.491 Z-0.761
X28.183 Z-0.775
X28.169 Z-0.781
X27.731
X27.726 Z-0.773
Z-0.772
X27.724 Y31.489 Z-0.756
X27.721 Y31.482 Z-0.741
X27.716 Y31.473 Z-0.716
X27.718 Y31.477 Z-0.688
X27.727 Y31.493 Z-0.668
X27.74 Y31.516 Z-0.66
X27.752 Y31.54 Z-0.668
X27.761 Y31.556 Z-0.688
X27.764 Y31.56 Z-0.716
X27.759 Y31.551 Z-0.741
X27.755 Y31.544 Z-0.756
X27.753 Y31.541 Z-0.772
X27.759 Z-0.781
X28.35
X28.364 Z-0.775
X28.37 Z-0.761
X28.375 Y31.543 Z-0.747
X28.389 Y31.547 Z-0.742
X28.53 Y31.586
X28.544 Y31.59 Z-0.747
X28.549 Y31.591 Z-0.761
X28.543 Z-0.775
X28.529 Z-0.781
X27.787
X27.781 Z-0.773
Z-0.772
X27.78 Y31.589 Z-0.756
X27.776 Y31.582 Z-0.741
X27.771 Y31.573 Z-0.716
X27.773 Y31.577 Z-0.688
X27.782 Y31.593 Z-0.668
X27.795 Y31.616 Z-0.66
X27.808 Y31.64 Z-0.668
X27.816 Y31.656 Z-0.688
X27.819 Y31.66 Z-0.716
X27.814 Y31.651 Z-0.741
X27.81 Y31.644 Z-0.756
X27.809 Y31.641 Z-0.772
X27.815 Z-0.781
X28.71
X28.724 Z-0.775
X28.729 Z-0.761
X28.735 Y31.643 Z-0.747
X28.749 Y31.647 Z-0.742
X28.891 Y31.686
X28.904 Y31.69 Z-0.747
X28.91 Y31.691 Z-0.761
X28.904 Z-0.775
X28.89 Z-0.781
X27.842
X27.836 Z-0.772
X27.835 Y31.689 Z-0.756
X27.831 Y31.682 Z-0.741
X27.826 Y31.673 Z-0.715
X27.828 Y31.677 Z-0.688
X27.837 Y31.693 Z-0.668
X27.85 Y31.716 Z-0.66
X27.863 Y31.74 Z-0.668
X27.872 Y31.756 Z-0.688
X27.874 Y31.76 Z-0.715
X27.869 Y31.751 Z-0.741
X27.865 Y31.744 Z-0.756
X27.864 Y31.741 Z-0.772
X27.869 Z-0.781
X29.071
X29.085 Z-0.775
X29.09 Z-0.761
X29.095 Y31.743 Z-0.739
X29.107 Y31.747 Z-0.719
X29.125 Y31.753 Z-0.706
X29.147 Y31.76 Z-0.702
X29.185 Y31.773
X29.207 Y31.78 Z-0.706
X29.225 Y31.786 Z-0.719
X29.237 Y31.79 Z-0.739
X29.241 Y31.791 Z-0.761
Z-0.763
X29.236 Z-0.776
X29.223 Z-0.781
X27.897
X27.891 Z-0.772
X27.89 Y31.789 Z-0.755
X27.886 Y31.782 Z-0.741
X27.881 Y31.773 Z-0.715
X27.883 Y31.777 Z-0.688
X27.892 Y31.793 Z-0.667
X27.905 Y31.816 Z-0.66
X27.918 Y31.839 Z-0.667
X27.927 Y31.856 Z-0.688
X27.929 Y31.86 Z-0.715
X27.924 Y31.851 Z-0.741
X27.92 Y31.844 Z-0.755
X27.919 Y31.841 Z-0.772
X27.925 Z-0.781
X29.299
X29.304 Z-0.774
X29.305 Y31.838 Z-0.756
X29.307 Y31.83 Z-0.741
X29.31 Y31.819 Z-0.719
Y31.821 Z-0.694
X29.306 Y31.833 Z-0.672
X29.3 Y31.854 Z-0.66
X29.293 Y31.878
X29.286 Y31.899 Z-0.672
X29.282 Y31.912 Z-0.694
Y31.913 Z-0.719
X29.285 Y31.903 Z-0.741
X29.288 Y31.894 Z-0.756
X29.289 Y31.891 Z-0.774
X29.284 Z-0.781
X27.953
X27.946 Z-0.772
X27.945 Y31.889 Z-0.756
X27.941 Y31.882 Z-0.741
X27.936 Y31.873 Z-0.715
X27.938 Y31.877 Z-0.688
X27.947 Y31.893 Z-0.668
X27.96 Y31.916 Z-0.66
X27.973 Y31.939 Z-0.668
X27.982 Y31.956 Z-0.688
X27.984 Y31.96 Z-0.715
X27.979 Y31.951 Z-0.741
X27.975 Y31.944 Z-0.756
X27.974 Y31.941 Z-0.772
X27.98 Z-0.781
X29.257
X29.263 Z-0.772
X29.265 Y31.939 Z-0.756
X29.268 Y31.931 Z-0.741
X29.273 Y31.922 Z-0.715
X29.271 Y31.926 Z-0.688
X29.263 Y31.943 Z-0.667
X29.251 Y31.966 Z-0.66
X29.239 Y31.99 Z-0.667
X29.23 Y32.006 Z-0.688
X29.228 Y32.011 Z-0.715
X29.233 Y32.001 Z-0.741
X29.237 Y31.994 Z-0.756
X29.238 Y31.991 Z-0.772
Z-0.774
X29.233 Z-0.781
X28.007
X28.002 Z-0.772
X28. Y31.989 Z-0.756
X27.996 Y31.982 Z-0.741
X27.991 Y31.973 Z-0.716
X27.994 Y31.977 Z-0.689
X28.003 Y31.993 Z-0.668
X28.015 Y32.016 Z-0.66
X28.028 Y32.039 Z-0.668
X28.037 Y32.056 Z-0.689
X28.039 Y32.06 Z-0.716
X28.034 Y32.051 Z-0.741
X28.031 Y32.044 Z-0.756
X28.029 Y32.041 Z-0.772
X28.035 Z-0.781
X29.22
X29.224 Z-0.775
Z-0.774
Y32.038 Z-0.756
Y32.029 Z-0.741
Y32.017 Z-0.719
Y32.018 Z-0.693
Y32.032 Z-0.672
Y32.054 Z-0.66
X29.223 Y32.079
Y32.101 Z-0.672
Y32.114 Z-0.693
Y32.115 Z-0.719
Y32.104 Z-0.741
Y32.094 Z-0.756
Y32.091 Z-0.774
X29.219 Z-0.781
X28.063
X28.057 Z-0.772
X28.055 Y32.089 Z-0.756
X28.052 Y32.082 Z-0.741
X28.047 Y32.073 Z-0.716
X28.049 Y32.077 Z-0.689
X28.058 Y32.093 Z-0.668
X28.071 Y32.116 Z-0.661
X28.083 Y32.139 Z-0.668
X28.092 Y32.156 Z-0.689
X28.095 Y32.16 Z-0.716
X28.09 Y32.151 Z-0.741
X28.086 Y32.144 Z-0.756
X28.084 Y32.141 Z-0.772
X28.09 Z-0.781
X29.23
X29.236 Z-0.773
Z-0.771
X29.234 Y32.139 Z-0.755
X29.23 Y32.132 Z-0.741
X29.225 Y32.123 Z-0.715
X29.228 Y32.127 Z-0.688
X29.237 Y32.143 Z-0.667
X29.25 Y32.166 Z-0.66
X29.263 Y32.189 Z-0.667
X29.272 Y32.205 Z-0.688
X29.275 Y32.209 Z-0.715
X29.269 Y32.2 Z-0.741
X29.266 Y32.194 Z-0.755
X29.264 Y32.191 Z-0.771
X29.258 Z-0.781
X28.118
X28.112 Z-0.772
G0 Z5.
X35.22 Y22.891
Z1.935
G1 Z-0.766 F40.
X35.225 Z-0.777
X35.236 Z-0.781
X35.301
X35.305 Z-0.777
Z-0.77
X35.303 Y22.89 Z-0.756
X35.299 Y22.885 Z-0.743
X35.294 Y22.879 Z-0.717
X35.298 Y22.883 Z-0.691
X35.31 Y22.897 Z-0.672
X35.327 Y22.916 Z-0.665
X35.344 Y22.936 Z-0.672
X35.356 Y22.95 Z-0.691
X35.36 Y22.954 Z-0.717
X35.354 Y22.948 Z-0.743
X35.35 Y22.943 Z-0.756
X35.349 Y22.941 Z-0.77
X35.342 Z-0.781
X35.14
X35.131 Z-0.774
X35.128 Z-0.763
Z-0.761
X35.122 Y22.944 Z-0.747
X35.11 Y22.951 Z-0.742
X35.049 Y22.982
X35.037 Y22.989 Z-0.747
X35.032 Y22.991 Z-0.761
X35.038 Z-0.775
X35.052 Z-0.781
X35.378
X35.385 Z-0.771
G0 Z5.
X34.935
Z1.935
G1 Z-0.752 F40.
X34.932 Z-0.767
X34.921 Z-0.777
X34.907 Z-0.781
X31.162
X31.154 Z-0.779
X31.145 Z-0.777
X31.081
X31.064 Y22.999
X31.056 Y23.016
X31.064 Y23.034
X31.081 Y23.041
X31.09 Z-0.779
X31.099 Z-0.781
X35.411
X35.417 Z-0.772
X35.416 Y23.039 Z-0.756
X35.412 Y23.033 Z-0.742
X35.407 Y23.025 Z-0.716
X35.409 Y23.029 Z-0.69
X35.419 Y23.044 Z-0.669
X35.434 Y23.066 Z-0.662
X35.448 Y23.088 Z-0.669
X35.458 Y23.104 Z-0.69
X35.461 Y23.108 Z-0.716
X35.456 Y23.1 Z-0.742
X35.452 Y23.094 Z-0.756
X35.45 Y23.091 Z-0.772
X35.444 Z-0.781
X31.037
X31.028 Z-0.779
X31.019 Z-0.777
X30.958
X30.94 Y23.099
X30.933 Y23.116
X30.94 Y23.134
X30.958 Y23.141
X30.966 Z-0.779
X30.975 Z-0.781
X35.476
X35.482 Z-0.772
Z-0.771
X35.481 Y23.139 Z-0.755
X35.477 Y23.133 Z-0.741
X35.472 Y23.125 Z-0.715
X35.474 Y23.129 Z-0.688
X35.484 Y23.144 Z-0.668
X35.499 Y23.166 Z-0.661
X35.513 Y23.189 Z-0.668
X35.523 Y23.204 Z-0.688
X35.525 Y23.208 Z-0.715
X35.52 Y23.2 Z-0.741
X35.516 Y23.194 Z-0.755
X35.515 Y23.191 Z-0.771
X35.508 Z-0.781
X30.914
X30.905 Z-0.779
X30.896 Z-0.777
X30.834
X30.817 Y23.199
X30.809 Y23.216
X30.817 Y23.234
X30.834 Y23.241
X30.843 Z-0.779
X30.852 Z-0.781
X35.54
X35.547 Z-0.771
X35.545 Y23.239 Z-0.755
X35.541 Y23.233 Z-0.741
X35.536 Y23.225 Z-0.715
X35.539 Y23.229 Z-0.689
X35.548 Y23.244 Z-0.668
X35.563 Y23.266 Z-0.661
X35.577 Y23.289 Z-0.668
X35.587 Y23.304 Z-0.689
X35.59 Y23.308 Z-0.715
X35.584 Y23.3 Z-0.741
X35.58 Y23.294 Z-0.755
X35.579 Y23.291 Z-0.771
X35.572 Z-0.781
X33.937
X33.807
X30.79
X30.782 Z-0.779
X30.773 Z-0.777
X30.711
X30.694 Y23.299
X30.686 Y23.316
X30.694 Y23.334
X30.711 Y23.341
X30.72 Z-0.779
X30.729 Z-0.781
X33.722
X33.727 Z-0.779
X33.729 Z-0.774
G0 Z5.
X34.013
Z1.935
G1 Z-0.776 F40.
X34.019 Z-0.781
X35.605
X35.611 Z-0.772
X35.61 Y23.339 Z-0.756
X35.605 Y23.333 Z-0.742
X35.6 Y23.325 Z-0.716
X35.603 Y23.329 Z-0.689
X35.613 Y23.344 Z-0.669
X35.627 Y23.366 Z-0.662
X35.641 Y23.389 Z-0.669
X35.651 Y23.404 Z-0.689
X35.654 Y23.408 Z-0.716
X35.649 Y23.4 Z-0.742
X35.644 Y23.394 Z-0.756
X35.643 Y23.391 Z-0.772
X35.637 Z-0.781
X34.059
X34.053 Z-0.771
X34.051 Y23.39 Z-0.755
X34.047 Y23.384 Z-0.742
X34.041 Y23.377 Z-0.716
X34.045 Y23.381 Z-0.69
X34.056 Y23.396 Z-0.67
X34.072 Y23.416 Z-0.663
X34.088 Y23.437 Z-0.67
X34.099 Y23.452 Z-0.69
X34.102 Y23.456 Z-0.716
X34.097 Y23.449 Z-0.742
X34.092 Y23.443 Z-0.755
X34.091 Y23.441 Z-0.771
X34.098 Z-0.781
X35.669
X35.675 Z-0.773
Z-0.771
X35.674 Y23.439 Z-0.755
X35.67 Y23.433 Z-0.741
X35.664 Y23.425 Z-0.716
X35.667 Y23.429 Z-0.689
X35.677 Y23.444 Z-0.668
X35.691 Y23.466 Z-0.661
X35.706 Y23.489 Z-0.668
X35.715 Y23.504 Z-0.689
X35.718 Y23.508 Z-0.716
X35.713 Y23.5 Z-0.741
X35.709 Y23.494 Z-0.755
X35.707 Y23.491 Z-0.771
X35.701 Z-0.781
X34.122
X34.117 Z-0.774
Y23.488 Z-0.757
X34.115 Y23.479 Z-0.741
X34.112 Y23.469 Z-0.719
X34.113 Y23.47 Z-0.694
X34.115 Y23.483 Z-0.672
X34.12 Y23.504 Z-0.66
X34.125 Y23.529
X34.13 Y23.55 Z-0.672
X34.132 Y23.563 Z-0.694
X34.133 Y23.564 Z-0.719
X34.13 Y23.553 Z-0.741
X34.128 Y23.545 Z-0.757
Y23.541 Z-0.774
X34.133 Z-0.781
X35.733
X35.739 Z-0.771
X35.738 Y23.539 Z-0.756
X35.734 Y23.533 Z-0.741
X35.729 Y23.525 Z-0.716
X35.731 Y23.529 Z-0.689
X35.741 Y23.544 Z-0.669
X35.755 Y23.566 Z-0.661
X35.77 Y23.589 Z-0.669
X35.78 Y23.604 Z-0.689
X35.782 Y23.608 Z-0.716
X35.777 Y23.6 Z-0.741
X35.773 Y23.594 Z-0.756
X35.772 Y23.591 Z-0.771
Z-0.772
X35.765 Z-0.781
X34.13
X34.126 Z-0.775
Z-0.773
Y23.589 Z-0.756
X34.129 Y23.58 Z-0.741
X34.132 Y23.57 Z-0.718
Y23.571 Z-0.693
X34.128 Y23.584 Z-0.672
X34.121 Y23.605 Z-0.66
X34.114 Y23.628
X34.107 Y23.649 Z-0.672
X34.103 Y23.662 Z-0.693
Y23.663 Z-0.718
X34.106 Y23.653 Z-0.741
X34.109 Y23.644 Z-0.756
X34.11 Y23.641 Z-0.773
X34.115 Z-0.781
X35.797
X35.804 Z-0.771
X35.802 Y23.639 Z-0.755
X35.798 Y23.633 Z-0.741
X35.793 Y23.625 Z-0.716
X35.796 Y23.629 Z-0.689
X35.806 Y23.644 Z-0.668
X35.82 Y23.666 Z-0.661
X35.834 Y23.689 Z-0.668
X35.844 Y23.704 Z-0.689
X35.847 Y23.708 Z-0.716
X35.841 Y23.7 Z-0.741
X35.837 Y23.694 Z-0.755
X35.836 Y23.691 Z-0.771
Z-0.773
X35.83 Z-0.781
X34.084
X34.078 Z-0.777
X34.076 Z-0.77
X34.081 Y23.687 Z-0.745
X34.086 Y23.682 Z-0.72
X34.081 Y23.687 Z-0.695
X34.068 Y23.699 Z-0.676
X34.05 Y23.716 Z-0.67
X34.031 Y23.734 Z-0.676
X34.018 Y23.746 Z-0.695
X34.013 Y23.751 Z-0.72
X34.018 Y23.746 Z-0.745
X34.023 Y23.741 Z-0.77
Z-0.776
X34.028 Z-0.781
X35.862
X35.868 Z-0.772
X35.867 Y23.739 Z-0.756
X35.862 Y23.733 Z-0.742
X35.857 Y23.725 Z-0.717
X35.86 Y23.729 Z-0.69
X35.87 Y23.744 Z-0.669
X35.884 Y23.766 Z-0.662
X35.898 Y23.789 Z-0.669
X35.908 Y23.804 Z-0.69
X35.911 Y23.808 Z-0.717
X35.906 Y23.8 Z-0.742
X35.901 Y23.794 Z-0.756
X35.9 Y23.791 Z-0.772
X35.894 Z-0.781
X33.97
X33.965 Z-0.776
X33.966 Y23.79 Z-0.762
X33.97 Y23.786 Z-0.749
X33.975 Y23.78 Z-0.724
X33.971 Y23.784 Z-0.698
X33.959 Y23.798 Z-0.679
X33.942 Y23.816 Z-0.672
X33.924 Y23.835 Z-0.679
X33.912 Y23.849 Z-0.698
X33.908 Y23.853 Z-0.724
X33.913 Y23.847 Z-0.749
X33.917 Y23.843 Z-0.762
X33.918 Y23.841 Z-0.776
Z-0.777
X33.923 Z-0.781
X35.926
X35.932 Z-0.772
X35.931 Y23.839 Z-0.756
X35.927 Y23.833 Z-0.741
X35.921 Y23.825 Z-0.716
X35.924 Y23.829 Z-0.689
X35.934 Y23.844 Z-0.669
X35.948 Y23.866 Z-0.661
X35.962 Y23.889 Z-0.669
X35.972 Y23.904 Z-0.689
X35.975 Y23.908 Z-0.716
X35.97 Y23.9 Z-0.741
X35.966 Y23.894 Z-0.756
X35.964 Y23.891 Z-0.772
Z-0.773
X35.959 Z-0.781
X33.904
X33.899 Z-0.773
Z-0.772
X33.898 Y23.889 Z-0.755
X33.894 Y23.882 Z-0.741
X33.889 Y23.873 Z-0.715
X33.891 Y23.877 Z-0.688
X33.9 Y23.893 Z-0.667
X33.912 Y23.916 Z-0.66
X33.925 Y23.94 Z-0.667
X33.933 Y23.956 Z-0.688
X33.936 Y23.96 Z-0.715
X33.931 Y23.951 Z-0.741
X33.927 Y23.944 Z-0.755
X33.926 Y23.941 Z-0.772
X33.932 Z-0.781
X35.99
X35.996 Z-0.772
Z-0.771
X35.995 Y23.939 Z-0.755
X35.991 Y23.933 Z-0.741
X35.986 Y23.925 Z-0.715
X35.988 Y23.929 Z-0.688
X35.998 Y23.944 Z-0.668
X36.013 Y23.966 Z-0.661
X36.027 Y23.989 Z-0.668
X36.037 Y24.004 Z-0.688
X36.039 Y24.008 Z-0.715
X36.034 Y24. Z-0.741
X36.03 Y23.994 Z-0.755
X36.029 Y23.991 Z-0.771
X36.022 Z-0.781
X33.965
X33.959 Z-0.772
Z-0.771
X33.958 Y23.989 Z-0.756
X33.954 Y23.984 Z-0.742
X33.948 Y23.976 Z-0.716
X33.951 Y23.98 Z-0.69
X33.962 Y23.995 Z-0.67
X33.977 Y24.016 Z-0.662
X33.993 Y24.038 Z-0.67
X34.004 Y24.053 Z-0.69
X34.007 Y24.057 Z-0.716
X34.001 Y24.049 Z-0.742
X33.997 Y24.043 Z-0.756
X33.996 Y24.041 Z-0.771
X34.002 Z-0.781
X36.055
X36.061 Z-0.772
Z-0.771
X36.059 Y24.039 Z-0.756
X36.055 Y24.033 Z-0.741
X36.05 Y24.025 Z-0.716
X36.053 Y24.029 Z-0.689
X36.063 Y24.044 Z-0.669
X36.077 Y24.066 Z-0.661
X36.091 Y24.089 Z-0.669
X36.101 Y24.104 Z-0.689
X36.104 Y24.108 Z-0.716
X36.098 Y24.1 Z-0.741
X36.094 Y24.094 Z-0.756
X36.093 Y24.091 Z-0.771
X36.086 Z-0.781
X34.041
X34.033 Z-0.77
X34.032 Y24.09 Z-0.755
X34.028 Y24.084 Z-0.741
X34.022 Y24.077 Z-0.716
X34.025 Y24.081 Z-0.689
X34.037 Y24.096 Z-0.67
X34.052 Y24.116 Z-0.662
X34.068 Y24.137 Z-0.67
X34.079 Y24.152 Z-0.689
X34.082 Y24.156 Z-0.716
X34.077 Y24.149 Z-0.741
X34.073 Y24.143 Z-0.755
X34.071 Y24.141 Z-0.77
X34.078 Z-0.781
X36.119
X36.125 Z-0.772
X36.123 Y24.139 Z-0.756
X36.119 Y24.133 Z-0.742
X36.114 Y24.125 Z-0.716
X36.117 Y24.129 Z-0.689
X36.127 Y24.144 Z-0.669
X36.141 Y24.166 Z-0.661
X36.155 Y24.189 Z-0.669
X36.165 Y24.204 Z-0.689
X36.168 Y24.208 Z-0.716
X36.163 Y24.2 Z-0.742
X36.159 Y24.194 Z-0.756
X36.157 Y24.191 Z-0.772
X36.151 Z-0.781
X34.117
X34.11 Z-0.771
X34.108 Y24.19 Z-0.755
X34.104 Y24.184 Z-0.742
X34.099 Y24.177 Z-0.716
X34.102 Y24.181 Z-0.69
X34.113 Y24.196 Z-0.67
X34.129 Y24.216 Z-0.663
X34.145 Y24.237 Z-0.67
X34.156 Y24.252 Z-0.69
X34.159 Y24.256 Z-0.716
X34.154 Y24.249 Z-0.742
X34.15 Y24.243 Z-0.755
X34.148 Y24.241 Z-0.771
X34.155 Z-0.781
X36.183
X36.189 Z-0.771
X36.188 Y24.239 Z-0.756
X36.184 Y24.233 Z-0.741
X36.178 Y24.225 Z-0.716
X36.181 Y24.229 Z-0.689
X36.191 Y24.244 Z-0.669
X36.205 Y24.266 Z-0.661
X36.22 Y24.289 Z-0.669
X36.229 Y24.304 Z-0.689
X36.232 Y24.308 Z-0.716
X36.227 Y24.3 Z-0.741
X36.223 Y24.294 Z-0.756
X36.221 Y24.291 Z-0.771
Z-0.772
X36.215 Z-0.781
X34.193
X34.187 Z-0.771
X34.185 Y24.29 Z-0.756
X34.181 Y24.284 Z-0.743
X34.175 Y24.277 Z-0.717
X34.179 Y24.281 Z-0.691
X34.19 Y24.296 Z-0.671
X34.206 Y24.316 Z-0.664
X34.222 Y24.337 Z-0.671
X34.233 Y24.352 Z-0.691
X34.236 Y24.356 Z-0.717
X34.231 Y24.349 Z-0.743
X34.227 Y24.343 Z-0.756
X34.225 Y24.341 Z-0.771
Z-0.772
X34.232 Z-0.781
X36.247
X36.253 Z-0.772
Z-0.771
X36.252 Y24.339 Z-0.756
X36.248 Y24.333 Z-0.741
X36.243 Y24.325 Z-0.716
X36.245 Y24.329 Z-0.689
X36.255 Y24.344 Z-0.669
X36.27 Y24.366 Z-0.661
X36.284 Y24.389 Z-0.669
X36.294 Y24.404 Z-0.689
X36.296 Y24.408 Z-0.716
X36.291 Y24.4 Z-0.741
X36.287 Y24.394 Z-0.756
X36.286 Y24.391 Z-0.771
X36.279 Z-0.781
X34.271
X34.266 Z-0.777
X34.264 Z-0.77
X34.262 Y24.39 Z-0.755
X34.258 Y24.384 Z-0.741
X34.252 Y24.377 Z-0.716
X34.256 Y24.381 Z-0.689
X34.267 Y24.396 Z-0.669
X34.283 Y24.416 Z-0.662
X34.299 Y24.437 Z-0.669
X34.31 Y24.452 Z-0.689
X34.313 Y24.456 Z-0.716
X34.308 Y24.449 Z-0.741
X34.303 Y24.443 Z-0.755
X34.302 Y24.441 Z-0.77
X34.309 Z-0.781
X36.311
X36.318 Z-0.771
X36.316 Y24.439 Z-0.755
X36.312 Y24.433 Z-0.741
X36.307 Y24.425 Z-0.715
X36.31 Y24.429 Z-0.688
X36.319 Y24.444 Z-0.668
X36.334 Y24.466 Z-0.661
X36.348 Y24.489 Z-0.668
X36.358 Y24.504 Z-0.688
X36.361 Y24.508 Z-0.715
X36.355 Y24.5 Z-0.741
X36.351 Y24.494 Z-0.755
X36.35 Y24.491 Z-0.771
Z-0.772
X36.344 Z-0.781
X34.347
X34.34 Z-0.771
X34.339 Y24.49 Z-0.756
X34.335 Y24.484 Z-0.742
X34.329 Y24.477 Z-0.717
X34.333 Y24.481 Z-0.69
X34.344 Y24.496 Z-0.67
X34.36 Y24.516 Z-0.663
X34.376 Y24.537 Z-0.67
X34.387 Y24.552 Z-0.69
X34.39 Y24.556 Z-0.717
X34.384 Y24.549 Z-0.742
X34.38 Y24.543 Z-0.756
X34.379 Y24.541 Z-0.771
X34.386 Z-0.781
X36.376
X36.382 Z-0.772
Z-0.771
X36.381 Y24.539 Z-0.756
X36.376 Y24.533 Z-0.741
X36.371 Y24.525 Z-0.716
X36.374 Y24.529 Z-0.689
X36.384 Y24.544 Z-0.669
X36.398 Y24.566 Z-0.661
X36.412 Y24.589 Z-0.669
X36.422 Y24.604 Z-0.689
X36.425 Y24.608 Z-0.716
X36.42 Y24.6 Z-0.741
X36.415 Y24.594 Z-0.756
X36.414 Y24.591 Z-0.771
X36.408 Z-0.781
X34.424
X34.417 Z-0.771
X34.416 Y24.59 Z-0.756
X34.412 Y24.584 Z-0.742
X34.406 Y24.577 Z-0.717
X34.409 Y24.581 Z-0.69
X34.421 Y24.596 Z-0.67
X34.437 Y24.616 Z-0.663
X34.452 Y24.637 Z-0.67
X34.464 Y24.652 Z-0.69
X34.467 Y24.656 Z-0.717
X34.461 Y24.649 Z-0.742
X34.457 Y24.643 Z-0.756
X34.456 Y24.641 Z-0.771
X34.463 Z-0.781
X36.44
X36.446 Z-0.771
X36.445 Y24.639 Z-0.755
X36.441 Y24.633 Z-0.741
X36.435 Y24.625 Z-0.715
X36.438 Y24.629 Z-0.689
X36.448 Y24.644 Z-0.668
X36.462 Y24.666 Z-0.661
X36.477 Y24.689 Z-0.668
X36.486 Y24.704 Z-0.689
X36.489 Y24.708 Z-0.715
X36.484 Y24.7 Z-0.741
X36.48 Y24.694 Z-0.755
X36.478 Y24.691 Z-0.771
X36.472 Z-0.781
X34.501
X34.494 Z-0.771
X34.493 Y24.69 Z-0.756
X34.489 Y24.684 Z-0.742
X34.483 Y24.677 Z-0.717
X34.486 Y24.681 Z-0.69
X34.498 Y24.696 Z-0.67
X34.513 Y24.716 Z-0.663
X34.529 Y24.737 Z-0.67
X34.541 Y24.752 Z-0.69
X34.544 Y24.756 Z-0.717
X34.538 Y24.749 Z-0.742
X34.534 Y24.743 Z-0.756
X34.533 Y24.741 Z-0.771
X34.539 Z-0.781
X36.504
X36.51 Z-0.771
X36.509 Y24.739 Z-0.755
X36.505 Y24.733 Z-0.741
X36.5 Y24.725 Z-0.715
X36.502 Y24.729 Z-0.688
X36.512 Y24.744 Z-0.668
X36.527 Y24.766 Z-0.661
X36.541 Y24.789 Z-0.668
X36.551 Y24.804 Z-0.688
X36.553 Y24.808 Z-0.715
X36.548 Y24.8 Z-0.741
X36.544 Y24.794 Z-0.755
X36.543 Y24.791 Z-0.771
Z-0.773
X36.537 Z-0.781
X34.578
X34.571 Z-0.771
Z-0.77
X34.57 Y24.79 Z-0.755
X34.566 Y24.784 Z-0.741
X34.56 Y24.777 Z-0.716
X34.563 Y24.781 Z-0.69
X34.575 Y24.796 Z-0.67
X34.59 Y24.816 Z-0.663
X34.606 Y24.837 Z-0.67
X34.617 Y24.852 Z-0.69
X34.621 Y24.856 Z-0.716
X34.615 Y24.849 Z-0.741
X34.611 Y24.843 Z-0.755
X34.61 Y24.841 Z-0.77
X34.617 Z-0.781
X35.682
X35.699 Z-0.774
X35.706 Z-0.757
G0 Z5.
X35.813
Z1.935
G1 Z-0.757 F40.
X35.82 Z-0.774
X35.837 Z-0.781
X36.569
X36.575 Z-0.767
Z-0.763
X36.574 Y24.847 Z-0.749
Y24.861 Z-0.743
X36.573 Y24.872
Y24.886 Z-0.749
X36.572 Y24.891 Z-0.763
X36.569 Z-0.774
X36.56 Z-0.781
X35.911
X35.906 Z-0.777
G0 Z5.
X35.608
Z1.935
G1 Z-0.772 F40.
X35.605 Z-0.779
X35.599 Z-0.781
X34.655
X34.65 Z-0.777
X34.648 Z-0.77
X34.647 Y24.89 Z-0.755
X34.642 Y24.884 Z-0.741
X34.637 Y24.877 Z-0.716
X34.64 Y24.881 Z-0.689
X34.651 Y24.896 Z-0.669
X34.667 Y24.916 Z-0.662
X34.683 Y24.937 Z-0.669
X34.694 Y24.952 Z-0.689
X34.698 Y24.956 Z-0.716
X34.692 Y24.949 Z-0.741
X34.688 Y24.943 Z-0.755
X34.686 Y24.941 Z-0.77
Z-0.771
X34.693 Z-0.781
X35.535
X35.54 Z-0.776
Z-0.773
X35.541 Y24.939 Z-0.757
X35.545 Y24.933 Z-0.743
X35.551 Y24.925 Z-0.717
X35.548 Y24.929 Z-0.691
X35.538 Y24.944 Z-0.67
X35.523 Y24.966 Z-0.663
X35.509 Y24.988 Z-0.67
X35.499 Y25.004 Z-0.691
X35.496 Y25.008 Z-0.717
X35.501 Y25. Z-0.743
X35.505 Y24.994 Z-0.757
X35.507 Y24.991 Z-0.773
X35.501 Z-0.781
X34.732
X34.725 Z-0.771
X34.724 Y24.99 Z-0.756
X34.719 Y24.984 Z-0.742
X34.714 Y24.977 Z-0.717
X34.717 Y24.981 Z-0.69
X34.728 Y24.996 Z-0.67
X34.744 Y25.016 Z-0.663
X34.76 Y25.037 Z-0.67
X34.771 Y25.052 Z-0.69
X34.775 Y25.056 Z-0.717
X34.769 Y25.049 Z-0.742
X34.765 Y25.043 Z-0.756
X34.763 Y25.041 Z-0.771
X34.77 Z-0.781
X35.485
X35.489 Z-0.775
Y25.038 Z-0.757
X35.49 Y25.029 Z-0.742
X35.491 Y25.018 Z-0.719
Y25.019 Z-0.694
X35.49 Y25.032 Z-0.673
X35.488 Y25.054 Z-0.66
X35.486 Y25.079
X35.484 Y25.101 Z-0.673
X35.483 Y25.114 Z-0.694
Y25.115 Z-0.719
X35.484 Y25.104 Z-0.742
X35.485 Y25.095 Z-0.757
Y25.091 Z-0.775
X35.481 Z-0.781
X34.809
X34.802 Z-0.77
X34.8 Y25.09 Z-0.755
X34.796 Y25.084 Z-0.741
X34.791 Y25.077 Z-0.716
X34.794 Y25.081 Z-0.689
X34.805 Y25.096 Z-0.67
X34.821 Y25.116 Z-0.662
X34.837 Y25.137 Z-0.67
X34.848 Y25.152 Z-0.689
X34.851 Y25.156 Z-0.716
X34.846 Y25.149 Z-0.741
X34.842 Y25.143 Z-0.755
X34.84 Y25.141 Z-0.77
Z-0.771
X34.847 Z-0.781
X35.489
X35.494 Z-0.774
Z-0.772
X35.493 Y25.139 Z-0.755
X35.489 Y25.131 Z-0.74
X35.484 Y25.122 Z-0.715
X35.486 Y25.126 Z-0.687
X35.494 Y25.142 Z-0.667
X35.506 Y25.166 Z-0.659
X35.517 Y25.191 Z-0.667
X35.525 Y25.207 Z-0.687
X35.527 Y25.211 Z-0.715
X35.522 Y25.201 Z-0.74
X35.519 Y25.194 Z-0.755
X35.518 Y25.191 Z-0.772
X35.511 Z-0.781
X34.886
X34.879 Z-0.771
X34.877 Y25.19 Z-0.756
X34.873 Y25.184 Z-0.742
X34.867 Y25.177 Z-0.716
X34.871 Y25.181 Z-0.69
X34.882 Y25.196 Z-0.67
X34.898 Y25.216 Z-0.663
X34.914 Y25.237 Z-0.67
X34.925 Y25.252 Z-0.69
X34.928 Y25.256 Z-0.716
X34.923 Y25.249 Z-0.742
X34.919 Y25.243 Z-0.756
X34.917 Y25.241 Z-0.771
X34.924 Z-0.781
X35.547
X35.553 Z-0.772
X35.551 Y25.239 Z-0.756
X35.547 Y25.234 Z-0.742
X35.542 Y25.226 Z-0.717
X35.545 Y25.23 Z-0.69
X35.555 Y25.245 Z-0.67
X35.571 Y25.266 Z-0.662
X35.586 Y25.288 Z-0.67
X35.596 Y25.303 Z-0.69
X35.599 Y25.307 Z-0.717
X35.594 Y25.299 Z-0.742
X35.59 Y25.293 Z-0.756
X35.588 Y25.291 Z-0.772
X35.582 Z-0.781
X34.963
X34.956 Z-0.771
X34.954 Y25.29 Z-0.755
X34.95 Y25.284 Z-0.742
X34.944 Y25.277 Z-0.716
X34.948 Y25.281 Z-0.69
X34.959 Y25.296 Z-0.67
X34.975 Y25.316 Z-0.663
X34.991 Y25.337 Z-0.67
X35.002 Y25.352 Z-0.69
X35.005 Y25.356 Z-0.716
X35. Y25.349 Z-0.742
X34.996 Y25.343 Z-0.755
X34.994 Y25.341 Z-0.771
X35.001 Z-0.781
X35.617
X35.624 Z-0.771
X35.622 Y25.339 Z-0.755
X35.618 Y25.334 Z-0.741
X35.613 Y25.326 Z-0.716
X35.616 Y25.33 Z-0.689
X35.626 Y25.345 Z-0.669
X35.641 Y25.366 Z-0.662
X35.657 Y25.388 Z-0.669
X35.667 Y25.403 Z-0.689
X35.67 Y25.407 Z-0.716
X35.665 Y25.399 Z-0.741
X35.661 Y25.393 Z-0.755
X35.659 Y25.391 Z-0.771
X35.652 Z-0.781
X35.039
X35.032 Z-0.771
X35.031 Y25.39 Z-0.755
X35.027 Y25.384 Z-0.742
X35.021 Y25.377 Z-0.716
X35.025 Y25.381 Z-0.69
X35.036 Y25.396 Z-0.67
X35.052 Y25.416 Z-0.663
X35.068 Y25.437 Z-0.67
X35.079 Y25.452 Z-0.69
X35.082 Y25.456 Z-0.716
X35.077 Y25.449 Z-0.742
X35.072 Y25.443 Z-0.755
X35.071 Y25.441 Z-0.771
X35.078 Z-0.781
X35.688
X35.695 Z-0.771
X35.693 Y25.439 Z-0.755
X35.689 Y25.434 Z-0.741
X35.684 Y25.426 Z-0.716
X35.687 Y25.43 Z-0.689
X35.697 Y25.445 Z-0.669
X35.712 Y25.466 Z-0.662
X35.728 Y25.488 Z-0.669
X35.738 Y25.503 Z-0.689
X35.741 Y25.507 Z-0.716
X35.736 Y25.499 Z-0.741
X35.732 Y25.493 Z-0.755
X35.73 Y25.491 Z-0.771
Z-0.772
X35.724 Z-0.781
X35.116
X35.109 Z-0.771
X35.108 Y25.49 Z-0.755
X35.104 Y25.484 Z-0.742
X35.098 Y25.477 Z-0.716
X35.102 Y25.481 Z-0.69
X35.113 Y25.496 Z-0.67
X35.129 Y25.516 Z-0.663
X35.144 Y25.537 Z-0.67
X35.156 Y25.552 Z-0.69
X35.159 Y25.556 Z-0.716
X35.153 Y25.549 Z-0.742
X35.149 Y25.543 Z-0.755
X35.148 Y25.541 Z-0.771
X35.155 Z-0.781
X35.759
X35.766 Z-0.772
Z-0.771
X35.764 Y25.539 Z-0.756
X35.76 Y25.534 Z-0.742
X35.754 Y25.526 Z-0.716
X35.758 Y25.53 Z-0.69
X35.768 Y25.545 Z-0.67
X35.783 Y25.566 Z-0.662
X35.798 Y25.588 Z-0.67
X35.809 Y25.603 Z-0.69
X35.812 Y25.607 Z-0.716
X35.807 Y25.599 Z-0.742
X35.802 Y25.593 Z-0.756
X35.801 Y25.591 Z-0.771
X35.794 Z-0.781
X35.193
X35.186 Z-0.771
X35.185 Y25.59 Z-0.755
X35.181 Y25.584 Z-0.742
X35.175 Y25.577 Z-0.716
X35.178 Y25.581 Z-0.69
X35.19 Y25.596 Z-0.67
X35.206 Y25.616 Z-0.663
X35.221 Y25.637 Z-0.67
X35.233 Y25.652 Z-0.69
X35.236 Y25.656 Z-0.716
X35.23 Y25.649 Z-0.742
X35.226 Y25.643 Z-0.755
X35.225 Y25.641 Z-0.771
X35.232 Z-0.781
X35.83
X35.836 Z-0.771
X35.835 Y25.639 Z-0.755
X35.831 Y25.633 Z-0.741
X35.825 Y25.626 Z-0.716
X35.828 Y25.63 Z-0.689
X35.839 Y25.645 Z-0.669
X35.854 Y25.666 Z-0.662
X35.869 Y25.688 Z-0.669
X35.88 Y25.703 Z-0.689
X35.883 Y25.707 Z-0.716
X35.877 Y25.699 Z-0.741
X35.873 Y25.693 Z-0.755
X35.872 Y25.691 Z-0.771
X35.865 Z-0.781
X35.773
X35.661
X35.27
X35.264 Z-0.771
X35.262 Y25.69 Z-0.757
X35.258 Y25.685 Z-0.743
X35.253 Y25.679 Z-0.718
X35.256 Y25.683 Z-0.692
X35.268 Y25.697 Z-0.673
X35.285 Y25.716 Z-0.666
X35.302 Y25.736 Z-0.673
X35.314 Y25.75 Z-0.692
X35.318 Y25.754 Z-0.718
X35.312 Y25.748 Z-0.743
X35.308 Y25.743 Z-0.757
X35.307 Y25.741 Z-0.771
Z-0.777
X35.311 Z-0.781
X35.571
X35.577 Z-0.774
Z-0.773
X35.58 Y25.739 Z-0.754
X35.583 Y25.737 Z-0.727
X35.573 Y25.744 Z-0.702
X35.554 Y25.758 Z-0.687
X35.532 Y25.775
X35.513 Y25.788 Z-0.702
X35.503 Y25.795 Z-0.727
X35.506 Y25.794 Z-0.754
X35.509 Y25.791 Z-0.773
X35.506 Z-0.779
X35.501 Z-0.781
X35.354
X35.348 Z-0.777
X35.346 Z-0.77
G0 Z5.
X35.946 Y24.941
Z1.935
G1 Z-0.77 F40.
X35.953 Z-0.781
X36.484
X36.49 Z-0.779
X36.493 Z-0.772
X36.494 Y24.94 Z-0.757
X36.495 Z-0.731
X36.485 Y24.947 Z-0.708
X36.466 Y24.959 Z-0.694
X36.443 Y24.974
X36.424 Y24.986 Z-0.708
X36.414 Y24.993 Z-0.731
X36.415 Z-0.757
X36.416 Y24.991 Z-0.772
X36.414 Z-0.778
X36.407 Z-0.781
X35.999
X35.994 Z-0.776
Z-0.773
X35.99 Y24.987 Z-0.749
X35.985 Y24.983 Z-0.724
X35.99 Y24.988 Z-0.699
X36.004 Y25. Z-0.681
X36.023 Y25.016 Z-0.674
X36.041 Y25.033 Z-0.681
X36.055 Y25.045 Z-0.699
X36.06 Y25.05 Z-0.724
X36.055 Y25.045 Z-0.749
X36.051 Y25.041 Z-0.773
X36.053 Z-0.779
X36.059 Z-0.781
X36.322
X36.33 Z-0.778
X36.333 Z-0.77
G0 Z5.
X33.666 Y23.391
Z1.935
G1 Z-0.774 F40.
X33.659 Z-0.781
X30.667
X30.658 Z-0.779
X30.65 Z-0.777
X30.588
X30.57 Y23.399
X30.563 Y23.416
X30.57 Y23.434
X30.588 Y23.441
X30.597 Z-0.779
X30.605 Z-0.781
X33.595
X33.602 Z-0.775
Z-0.774
X33.606 Y23.439 Z-0.753
X33.609 Y23.436 Z-0.729
X33.603 Y23.44 Z-0.705
X33.589 Y23.452 Z-0.688
X33.57 Y23.466 Z-0.682
X33.551 Y23.481 Z-0.688
X33.537 Y23.493 Z-0.705
X33.531 Y23.497 Z-0.729
X33.534 Y23.494 Z-0.753
X33.538 Y23.491 Z-0.774
X33.531 Z-0.781
X30.546
X30.537 Z-0.779
X30.529 Z-0.777
X30.469
X30.451 Y23.499
X30.444 Y23.516
X30.451 Y23.534
X30.469 Y23.541
X30.478 Z-0.779
X30.486 Z-0.781
X33.468
X33.474 Z-0.775
X33.478 Y23.539 Z-0.753
X33.482 Y23.536 Z-0.729
X33.476 Y23.54 Z-0.705
X33.461 Y23.552 Z-0.688
X33.443 Y23.566 Z-0.682
X33.424 Y23.581 Z-0.688
X33.409 Y23.592 Z-0.705
X33.403 Y23.597 Z-0.729
X33.407 Y23.594 Z-0.753
X33.411 Y23.591 Z-0.775
X33.404 Z-0.781
X30.427
X30.418 Z-0.779
X30.409 Z-0.777
X30.35
X30.332 Y23.599
X30.325 Y23.616
X30.332 Y23.634
X30.35 Y23.641
X30.359 Z-0.779
X30.367 Z-0.781
X33.34
X33.347 Z-0.775
X33.351 Y23.639 Z-0.753
X33.354 Y23.636 Z-0.729
X33.348 Y23.64 Z-0.705
X33.334 Y23.652 Z-0.688
X33.315 Y23.666 Z-0.682
