(1001)
(T1  D=2. CR=0. - ZMIN=-1.22 - FLAT END MILL)
G0 G90 G94 G17
G21
G53 G0 Z0.

(2MM  FLATEND  CONTOUR)
M5
M9
T1
S12000 M3
G4 P4.
G55
G0 X28.912 Y53.422
Z15.
Z0.98
G1 Z-0.161 F200.
G3 X29.251 Y53.568 I0.139 J0.143
G1 X29.248 Y53.789
X29.246 Y53.902
X29.245 Y54.014
Y54.127
Y67.222
X29.246 Y67.335
X29.251 Y67.394
X29.258 Y67.448
X29.269 Y67.504
X29.284 Y67.561
X29.301 Y67.617
X29.323 Y67.674
X29.342 Y67.716
X29.364 Y67.759
X29.379 Y67.786
X29.414 Y67.843
X29.455 Y67.899
X29.477 Y67.926
X29.515 Y67.969
X29.557 Y68.012
X29.59 Y68.041
X29.645 Y68.086
X29.701 Y68.125
X29.702 Y68.126
X29.759 Y68.16
X29.815 Y68.189
X29.872 Y68.214
X29.928 Y68.235
X29.938 Y68.238
X29.989 Y68.253
X30.041 Y68.265
X30.098 Y68.275
X30.154 Y68.282
X30.21 Y68.286
X30.267
X71.694
X71.75
X71.807 Y68.282
X71.863 Y68.276
X71.919 Y68.266
X71.972 Y68.254
X72.026 Y68.238
X72.032 Y68.236
X72.089 Y68.215
X72.145 Y68.191
X72.202 Y68.162
X72.258 Y68.128
X72.263 Y68.125
X72.317 Y68.087
X72.371 Y68.044
X72.406 Y68.012
X72.447 Y67.971
X72.484 Y67.93
X72.508 Y67.899
X72.549 Y67.843
X72.584 Y67.786
X72.597 Y67.764
X72.62 Y67.719
X72.64 Y67.674
X72.662 Y67.617
X72.68 Y67.561
X72.694 Y67.504
X72.705 Y67.448
X72.71 Y67.417
X72.717 Y67.335
X72.718 Y67.222
Y54.127
Y54.014
X72.717 Y53.902
X72.716 Y53.789
X72.706 Y53.111
X72.704 Y52.999
X72.701 Y52.886
X72.697 Y52.773
X72.668 Y52.095
X72.663 Y51.983
X72.658 Y51.87
X72.651 Y51.757
X72.643 Y51.644
X72.595 Y50.967
X72.586 Y50.854
X72.576 Y50.741
X72.498 Y49.951
X72.486 Y49.838
X72.484 Y49.814
X72.473 Y49.725
X72.459 Y49.612
X72.371 Y48.927
X72.357 Y48.822
X72.34 Y48.709
X72.233 Y48.032
X72.215 Y47.919
X72.197 Y47.806
X72.176 Y47.693
X72.155 Y47.58
X72.032 Y46.923
X72.028 Y46.903
X72.005 Y46.79
X71.981 Y46.677
X71.858 Y46.113
X71.834 Y46.
X71.808 Y45.887
X71.807 Y45.88
X71.78 Y45.774
X71.752 Y45.661
X71.613 Y45.097
X71.584 Y44.984
X71.581 Y44.971
X71.554 Y44.871
X71.365 Y44.194
X71.355 Y44.157
X71.333 Y44.081
X71.299 Y43.968
X71.124 Y43.403
X71.089 Y43.29
X71.053 Y43.178
X71.015 Y43.065
X70.784 Y42.387
X70.744 Y42.274
X70.702 Y42.162
X70.492 Y41.597
X70.452 Y41.493
X70.449 Y41.484
X70.404 Y41.371
X70.176 Y40.807
X70.129 Y40.694
X70.113 Y40.656
X69.884 Y40.13
X69.835 Y40.017
X69.785 Y39.904
X69.775 Y39.881
X69.733 Y39.791
X69.68 Y39.678
X69.436 Y39.157
X69.415 Y39.114
X69.359 Y39.001
X69.076 Y38.436
X69.018 Y38.324
X68.985 Y38.26
X68.717 Y37.759
X68.656 Y37.646
X68.646 Y37.628
X68.593 Y37.533
X68.307 Y37.03
X68.272 Y36.969
X68.206 Y36.856
X67.934 Y36.404
X67.866 Y36.292
X67.856 Y36.274
X67.797 Y36.179
X67.743 Y36.093
X67.404 Y35.56
X67.365 Y35.501
X67.29 Y35.388
X66.987 Y34.937
X66.953 Y34.886
X66.91 Y34.824
X66.84 Y34.725
X66.591 Y34.373
X66.511 Y34.26
X66.501 Y34.246
X66.429 Y34.147
X66.094 Y33.695
X66.05 Y33.636
X66.009 Y33.582
X65.937 Y33.489
X65.658 Y33.131
X65.598 Y33.054
X65.57 Y33.018
X65.485 Y32.913
X65.204 Y32.566
X65.147 Y32.496
X65.111 Y32.453
X65.034 Y32.361
X64.695 Y31.962
X64.633 Y31.889
X64.582 Y31.831
X64.233 Y31.438
X64.131 Y31.322
X64.029 Y31.212
X63.716 Y30.873
X63.679 Y30.833
X63.611 Y30.76
X63.228 Y30.362
X63.176 Y30.309
X63.115 Y30.246
X62.776 Y29.907
X62.726 Y29.857
X62.663 Y29.795
X62.612 Y29.744
X62.212 Y29.36
X62.142 Y29.293
X62.099 Y29.253
X62.02 Y29.18
X61.76 Y28.939
X61.655 Y28.841
X61.534 Y28.733
X61.196 Y28.431
X61.149 Y28.39
X61.083 Y28.332
X61.019 Y28.277
X60.744 Y28.04
X60.631 Y27.944
X60.625 Y27.938
X60.519 Y27.849
X60.219 Y27.599
X60.18 Y27.567
X60.08 Y27.487
X59.728 Y27.203
X59.659 Y27.148
X59.616 Y27.114
X59.503 Y27.026
X59.277 Y26.85
X59.225 Y26.809
X59.164 Y26.763
X59.076 Y26.696
X58.777 Y26.471
X58.712 Y26.423
X58.624 Y26.358
X58.315 Y26.132
X58.261 Y26.092
X58.158 Y26.019
X57.839 Y25.793
X57.809 Y25.772
X57.697 Y25.694
X57.471 Y25.539
X57.358 Y25.461
X57.348 Y25.455
X57.245 Y25.386
X57.01 Y25.229
X56.906 Y25.16
X56.839 Y25.116
X56.49 Y24.89
X56.455 Y24.868
X56.116 Y24.654
X56.003 Y24.584
X55.766 Y24.439
X55.665 Y24.377
X55.58 Y24.326
X55.326 Y24.175
X55.213 Y24.108
X54.875 Y23.912
X54.807 Y23.874
X54.607 Y23.761
X54.536 Y23.721
X54.423 Y23.659
X54.197 Y23.535
X54.084 Y23.474
X53.859 Y23.353
X53.776 Y23.31
X53.52 Y23.177
X53.407 Y23.119
X53.294 Y23.062
X53.181 Y23.005
X53.114 Y22.971
X52.956 Y22.893
X52.884 Y22.858
X52.73 Y22.784
X52.65 Y22.745
X52.504 Y22.677
X52.409 Y22.633
X52.278 Y22.572
X52.165 Y22.521
X52.053 Y22.471
X51.94 Y22.421
X51.907 Y22.407
X51.827 Y22.372
X51.714 Y22.324
X51.642 Y22.294
X51.601 Y22.277
X51.488 Y22.231
X51.375 Y22.187
X51.36 Y22.181
X51.262 Y22.147
X51.206 Y22.132
X51.15 Y22.121
X51.093 Y22.113
X51.037 Y22.109
X50.98 Y22.107
X50.924 Y22.109
X50.867 Y22.114
X50.811 Y22.122
X50.754 Y22.133
X50.698 Y22.148
X50.605 Y22.181
X50.585 Y22.188
X50.472 Y22.233
X50.359 Y22.278
X50.322 Y22.294
X50.247 Y22.325
X50.134 Y22.374
X50.057 Y22.407
X50.021 Y22.423
X49.908 Y22.472
X49.795 Y22.523
X49.682 Y22.574
X49.555 Y22.633
X49.456 Y22.679
X49.343 Y22.732
X49.315 Y22.745
X49.231 Y22.786
X49.118 Y22.84
X49.08 Y22.858
X49.005 Y22.895
X48.851 Y22.971
X48.779 Y23.007
X48.666 Y23.064
X48.553 Y23.121
X48.44 Y23.179
X48.405 Y23.197
X48.189 Y23.31
X48.102 Y23.356
X47.876 Y23.476
X47.766 Y23.536
X47.537 Y23.661
X47.425 Y23.724
X47.358 Y23.761
X47.157 Y23.874
X47.086 Y23.915
X46.747 Y24.111
X46.634 Y24.177
X46.385 Y24.326
X46.296 Y24.379
X46.014 Y24.552
X45.957 Y24.587
X45.844 Y24.657
X45.618 Y24.799
X45.506 Y24.87
X45.474 Y24.89
X45.393 Y24.943
X45.126 Y25.116
X45.054 Y25.163
X44.955 Y25.229
X44.715 Y25.389
X44.617 Y25.455
X44.603 Y25.464
X44.49 Y25.542
X44.264 Y25.697
X44.151 Y25.775
X44.125 Y25.793
X44.038 Y25.855
X43.807 Y26.019
X43.7 Y26.095
X43.649 Y26.132
X43.587 Y26.178
X43.341 Y26.358
X43.248 Y26.425
X43.188 Y26.471
X43.135 Y26.51
X42.796 Y26.766
X42.74 Y26.809
X42.684 Y26.853
X42.345 Y27.117
X42.306 Y27.148
X42.232 Y27.206
X41.884 Y27.487
X41.781 Y27.57
X41.746 Y27.599
X41.442 Y27.853
X41.34 Y27.938
X41.329 Y27.947
X41.216 Y28.043
X40.945 Y28.277
X40.878 Y28.335
X40.815 Y28.39
X40.765 Y28.434
X40.426 Y28.737
X40.313 Y28.838
X40.31 Y28.841
X40.2 Y28.942
X39.944 Y29.18
X39.862 Y29.256
X39.822 Y29.293
X39.749 Y29.363
X39.41 Y29.689
X39.352 Y29.744
X39.297 Y29.798
X39.238 Y29.857
X38.899 Y30.196
X38.846 Y30.249
X38.788 Y30.309
X38.733 Y30.365
X38.394 Y30.717
X38.353 Y30.76
X38.281 Y30.837
X38.248 Y30.873
X37.935 Y31.212
X37.831 Y31.325
X37.731 Y31.438
X37.378 Y31.835
X37.331 Y31.889
X37.265 Y31.967
X36.927 Y32.365
X36.853 Y32.453
X36.814 Y32.501
X36.761 Y32.566
X36.475 Y32.917
X36.394 Y33.018
X36.306 Y33.131
X35.955 Y33.582
X35.911 Y33.641
X35.787 Y33.808
X35.536 Y34.147
X35.459 Y34.251
X35.373 Y34.373
X35.055 Y34.824
X35.008 Y34.891
X34.977 Y34.937
X34.895 Y35.059
X34.598 Y35.501
X34.556 Y35.566
X34.526 Y35.614
X34.443 Y35.743
X34.166 Y36.179
X34.105 Y36.279
X34.097 Y36.292
X34.029 Y36.404
X33.758 Y36.856
X33.692 Y36.969
X33.653 Y37.036
X33.371 Y37.533
X33.315 Y37.633
X33.308 Y37.646
X33.247 Y37.759
X32.976 Y38.266
X32.945 Y38.324
X32.888 Y38.436
X32.863 Y38.485
X32.605 Y39.001
X32.549 Y39.114
X32.524 Y39.164
X32.495 Y39.227
X32.231 Y39.791
X32.186 Y39.888
X32.178 Y39.904
X32.129 Y40.017
X31.883 Y40.581
X31.847 Y40.663
X31.834 Y40.694
X31.788 Y40.807
X31.56 Y41.371
X31.515 Y41.484
X31.509 Y41.5
X31.472 Y41.597
X31.262 Y42.162
X31.22 Y42.274
X31.179 Y42.387
X30.949 Y43.065
X30.911 Y43.178
X30.875 Y43.29
X30.84 Y43.403
X30.665 Y43.968
X30.631 Y44.081
X30.606 Y44.169
X30.599 Y44.194
X30.567 Y44.306
X30.41 Y44.871
X30.38 Y44.982
X30.379 Y44.984
X30.351 Y45.097
X30.183 Y45.774
X30.155 Y45.887
X30.154 Y45.893
X30.13 Y46.
X29.982 Y46.677
X29.958 Y46.79
X29.935 Y46.903
X29.808 Y47.58
X29.787 Y47.693
X29.766 Y47.806
X29.748 Y47.919
X29.73 Y48.032
X29.623 Y48.709
X29.607 Y48.822
X29.592 Y48.935
X29.504 Y49.612
X29.49 Y49.725
X29.477 Y49.838
Y49.841
X29.466 Y49.951
X29.398 Y50.628
X29.387 Y50.741
X29.377 Y50.854
X29.369 Y50.967
X29.364 Y51.037
X29.313 Y51.757
X29.306 Y51.87
X29.3 Y51.983
X29.295 Y52.095
X29.267 Y52.773
X29.262 Y52.886
X29.259 Y52.999
X29.257 Y53.111
X29.251 Y53.568
Y53.592
X29.25 Y53.616
Y53.663
X29.248 Y53.759 Z-0.162
X29.246 Y53.949 Z-0.164
X29.245 Y54.14 Z-0.167
Y54.33 Z-0.171
Y54.426 Z-0.174
Y54.521 Z-0.176
Y54.616 Z-0.179
Y54.712 Z-0.182
Y54.807 Z-0.186
Y54.902 Z-0.189
Y54.997 Z-0.192
Y55.093 Z-0.196
Y55.188 Z-0.199
Y55.283 Z-0.202
Y55.379 Z-0.206
Y55.569 Z-0.212
Y55.664 Z-0.216
Y55.76 Z-0.219
Y55.855 Z-0.222
Y55.95 Z-0.226
Y56.046 Z-0.229
Y56.141 Z-0.232
Y56.236 Z-0.236
Y56.331 Z-0.239
Y56.427 Z-0.242
Y56.522 Z-0.245
Y56.617 Z-0.248
Y56.808 Z-0.252
Y56.999 Z-0.256
Y57.189 Z-0.259
Y57.38 Z-0.261
Y57.433
Y57.474
Y57.487
Y67.222
X29.246 Y67.335
X29.251 Y67.394
X29.258 Y67.448
X29.269 Y67.504
X29.284 Y67.561
X29.301 Y67.617
X29.323 Y67.674
X29.342 Y67.716
X29.364 Y67.759
X29.379 Y67.786
X29.414 Y67.843
X29.455 Y67.899
X29.477 Y67.926
X29.515 Y67.969
X29.557 Y68.012
X29.59 Y68.041
X29.645 Y68.086
X29.701 Y68.125
X29.702 Y68.126
X29.759 Y68.16
X29.815 Y68.189
X29.872 Y68.214
X29.928 Y68.235
X29.938 Y68.238
X29.989 Y68.253
X30.041 Y68.265
X30.098 Y68.275
X30.154 Y68.282
X30.21 Y68.286
X30.267
X71.694
X71.75
X71.807 Y68.282
X71.863 Y68.276
X71.919 Y68.266
X71.972 Y68.254
X72.026 Y68.238
X72.032 Y68.236
X72.089 Y68.215
X72.145 Y68.191
X72.202 Y68.162
X72.258 Y68.128
X72.263 Y68.125
X72.317 Y68.087
X72.371 Y68.044
X72.406 Y68.012
X72.447 Y67.971
X72.484 Y67.93
X72.508 Y67.899
X72.549 Y67.843
X72.584 Y67.786
X72.597 Y67.764
X72.62 Y67.719
X72.64 Y67.674
X72.662 Y67.617
X72.68 Y67.561
X72.694 Y67.504
X72.705 Y67.448
X72.71 Y67.417
X72.717 Y67.335
X72.718 Y67.222
Y54.127
Y54.014
X72.716 Y53.789
X72.715 Y53.676
X72.707 Y53.111
X72.704 Y52.999
X72.701 Y52.886
X72.697 Y52.773
X72.673 Y52.208
X72.668 Y52.095
X72.663 Y51.983
X72.658 Y51.87
X72.651 Y51.757
X72.643 Y51.644
X72.635 Y51.531
X72.604 Y51.079
X72.597 Y50.984
X72.586 Y50.854
X72.577 Y50.741
X72.566 Y50.628
X72.521 Y50.176
X72.509 Y50.064
X72.486 Y49.838
X72.484 Y49.814
X72.473 Y49.725
X72.459 Y49.612
X72.445 Y49.499
X72.387 Y49.048
X72.372 Y48.935
X72.357 Y48.822
X72.341 Y48.709
X72.323 Y48.596
X72.252 Y48.144
X72.234 Y48.032
X72.216 Y47.919
X72.197 Y47.806
X72.176 Y47.693
X72.156 Y47.58
X72.145 Y47.522
X72.05 Y47.016
X72.032 Y46.923
X72.028 Y46.903
X72.005 Y46.79
X71.982 Y46.677
X71.884 Y46.225
X71.859 Y46.113
X71.834 Y46.
X71.808 Y45.887
X71.807 Y45.88
X71.781 Y45.774
X71.753 Y45.661
X71.725 Y45.548
X71.613 Y45.097
X71.584 Y44.984
X71.581 Y44.971
X71.554 Y44.871
X71.523 Y44.758
X71.397 Y44.306
X71.365 Y44.194
X71.355 Y44.157
X71.333 Y44.081
X71.299 Y43.968
X71.264 Y43.855
X71.16 Y43.516
X71.129 Y43.418
X71.089 Y43.29
X71.053 Y43.178
X71.015 Y43.065
X70.977 Y42.952
X70.938 Y42.839
X70.823 Y42.5
X70.791 Y42.405
X70.784 Y42.387
X70.744 Y42.274
X70.702 Y42.162
X70.678 Y42.095
X70.535 Y41.71
X70.492 Y41.597
X70.452 Y41.493
X70.404 Y41.371
X70.222 Y40.92
X70.176 Y40.807
X70.129 Y40.694
X70.113 Y40.656
X70.081 Y40.581
X69.934 Y40.243
X69.888 Y40.137
X69.835 Y40.017
X69.785 Y39.904
X69.775 Y39.881
X69.662 Y39.638
X69.628 Y39.565
X69.469 Y39.227
X69.436 Y39.157
X69.415 Y39.114
X69.323 Y38.928
X69.303 Y38.888
X69.133 Y38.549
X69.097 Y38.477
X69.076 Y38.436
X69.018 Y38.324
X68.985 Y38.26
X68.959 Y38.211
X68.759 Y37.836
X68.717 Y37.759
X68.656 Y37.646
X68.646 Y37.628
X68.593 Y37.533
X68.401 Y37.195
X68.337 Y37.082
X68.272 Y36.969
X68.207 Y36.856
X67.969 Y36.461
X67.856 Y36.274
X67.797 Y36.179
X67.726 Y36.066
X67.654 Y35.953
X67.439 Y35.614
X67.404 Y35.56
X67.365 Y35.501
X67.29 Y35.388
X67.215 Y35.276
X67.063 Y35.05
X66.987 Y34.937
X66.953 Y34.886
X66.91 Y34.824
X66.831 Y34.711
X66.592 Y34.373
X66.511 Y34.26
X66.501 Y34.246
X66.429 Y34.147
X66.388 Y34.092
X66.163 Y33.787
X66.094 Y33.695
X66.05 Y33.636
X66.009 Y33.582
X65.937 Y33.489
X65.711 Y33.198
X65.659 Y33.131
X65.57 Y33.018
X65.485 Y32.912
X65.259 Y32.635
X65.204 Y32.566
X65.111 Y32.453
X65.034 Y32.36
X64.808 Y32.095
X64.729 Y32.002
X64.633 Y31.889
X64.582 Y31.831
X64.534 Y31.776
X64.334 Y31.55
X64.244 Y31.449
X64.131 Y31.322
X64.03 Y31.212
X63.821 Y30.986
X63.792 Y30.955
X63.679 Y30.833
X63.611 Y30.76
X63.566 Y30.714
X63.341 Y30.479
X63.285 Y30.422
X63.176 Y30.309
X63.115 Y30.246
X62.839 Y29.97
X62.663 Y29.795
X62.612 Y29.744
X62.325 Y29.468
X62.212 Y29.359
X62.142 Y29.293
X61.986 Y29.148
X61.873 Y29.043
X61.76 Y28.939
X61.655 Y28.841
X61.529 Y28.728
X61.422 Y28.632
X61.196 Y28.43
X61.149 Y28.39
X61.019 Y28.277
X60.97 Y28.235
X60.744 Y28.04
X60.631 Y27.944
X60.49 Y27.825
X60.219 Y27.599
X60.18 Y27.567
X60.067 Y27.476
X59.954 Y27.385
X59.728 Y27.203
X59.659 Y27.148
X59.515 Y27.035
X59.277 Y26.85
X59.225 Y26.809
X59.164 Y26.763
X59.051 Y26.677
X58.927 Y26.583
X58.777 Y26.471
X58.712 Y26.423
X58.6 Y26.34
X58.487 Y26.257
X58.316 Y26.132
X58.261 Y26.092
X58.148 Y26.012
X58.035 Y25.932
X57.84 Y25.793
X57.809 Y25.772
X57.676 Y25.68
X57.584 Y25.617
X57.471 Y25.539
X57.358 Y25.461
X57.348 Y25.455
X57.179 Y25.342
X57.01 Y25.229
X56.906 Y25.16
X56.794 Y25.087
X56.665 Y25.003
X56.49 Y24.89
X56.455 Y24.868
X56.116 Y24.654
X56.003 Y24.584
X55.766 Y24.439
X55.665 Y24.377
X55.58 Y24.326
X55.39 Y24.213
X55.326 Y24.175
X55.213 Y24.108
X54.875 Y23.912
X54.808 Y23.874
X54.607 Y23.761
X54.536 Y23.721
X54.423 Y23.659
X54.197 Y23.535
X54.084 Y23.474
X53.989 Y23.423
X53.859 Y23.353
X53.776 Y23.31
X53.52 Y23.177
X53.407 Y23.119
X53.294 Y23.062
X53.181 Y23.005
X53.114 Y22.971
X53.069 Y22.949
X52.956 Y22.893
X52.884 Y22.858
X52.73 Y22.784
X52.65 Y22.745
X52.504 Y22.677
X52.409 Y22.633
X52.278 Y22.572
X52.165 Y22.521
X52.053 Y22.47
X51.94 Y22.421
X51.907 Y22.407
X51.827 Y22.372
X51.714 Y22.324
X51.643 Y22.294
X51.601 Y22.277
X51.488 Y22.231
X51.375 Y22.187
X51.36 Y22.181
X51.262 Y22.147
X51.206 Y22.132
X51.15 Y22.121
X51.093 Y22.113
X51.037 Y22.109
X50.98 Y22.107
X50.924 Y22.109
X50.867 Y22.114
X50.811 Y22.122
X50.754 Y22.133
X50.698 Y22.148
X50.605 Y22.181
X50.585 Y22.188
X50.472 Y22.233
X50.359 Y22.278
X50.322 Y22.294
X50.247 Y22.325
X50.134 Y22.374
X50.057 Y22.407
X50.021 Y22.423
X49.908 Y22.472
X49.795 Y22.523
X49.682 Y22.574
X49.555 Y22.633
X49.456 Y22.679
X49.343 Y22.732
X49.315 Y22.745
X49.231 Y22.786
X49.118 Y22.84
X49.08 Y22.858
X49.005 Y22.895
X48.851 Y22.971
X48.779 Y23.007
X48.666 Y23.064
X48.553 Y23.121
X48.44 Y23.179
X48.405 Y23.197
X48.328 Y23.237
X48.215 Y23.296
X48.188 Y23.31
X48.102 Y23.356
X47.989 Y23.416
X47.876 Y23.476
X47.766 Y23.536
X47.65 Y23.599
X47.537 Y23.661
X47.425 Y23.724
X47.312 Y23.787
X47.157 Y23.874
X47.086 Y23.915
X46.747 Y24.111
X46.634 Y24.177
X46.522 Y24.245
X46.385 Y24.326
X46.296 Y24.379
X46.183 Y24.448
X46.07 Y24.517
X46.014 Y24.552
X45.957 Y24.587
X45.844 Y24.657
X45.618 Y24.799
X45.506 Y24.87
X45.474 Y24.89
X45.393 Y24.943
X45.167 Y25.089
X45.054 Y25.163
X44.954 Y25.229
X44.715 Y25.388
X44.617 Y25.455
X44.603 Y25.464
X44.49 Y25.541
X44.264 Y25.697
X44.151 Y25.775
X44.038 Y25.855
X43.965 Y25.906
X43.806 Y26.019
X43.7 Y26.095
X43.649 Y26.132
X43.587 Y26.178
X43.495 Y26.245
X43.34 Y26.358
X43.248 Y26.425
X43.188 Y26.471
X43.135 Y26.51
X43.038 Y26.583
X42.796 Y26.766
X42.74 Y26.809
X42.571 Y26.941
X42.306 Y27.148
X42.232 Y27.206
X41.884 Y27.487
X41.781 Y27.57
X41.745 Y27.599
X41.475 Y27.825
X41.329 Y27.947
X41.216 Y28.043
X40.99 Y28.238
X40.945 Y28.277
X40.815 Y28.39
X40.765 Y28.434
X40.688 Y28.503
X40.539 Y28.635
X40.435 Y28.728
X40.313 Y28.838
X40.31 Y28.841
X40.2 Y28.942
X39.943 Y29.18
X39.862 Y29.256
X39.822 Y29.293
X39.749 Y29.363
X39.704 Y29.406
X39.469 Y29.631
X39.41 Y29.688
X39.352 Y29.744
X39.297 Y29.798
X39.238 Y29.857
X39.184 Y29.91
X38.959 Y30.136
X38.899 Y30.196
X38.846 Y30.249
X38.788 Y30.309
X38.733 Y30.365
X38.678 Y30.422
X38.461 Y30.647
X38.394 Y30.717
X38.353 Y30.76
X38.281 Y30.837
X38.168 Y30.958
X37.934 Y31.212
X37.831 Y31.325
X37.717 Y31.453
X37.63 Y31.55
X37.43 Y31.776
X37.378 Y31.835
X37.331 Y31.889
X37.235 Y32.002
X37.153 Y32.099
X36.927 Y32.365
X36.853 Y32.453
X36.701 Y32.64
X36.669 Y32.679
X36.475 Y32.917
X36.394 Y33.018
X36.218 Y33.244
X35.955 Y33.582
X35.911 Y33.641
X35.787 Y33.808
X35.619 Y34.034
X35.536 Y34.147
X35.459 Y34.251
X35.294 Y34.485
X35.055 Y34.824
X35.008 Y34.891
X34.895 Y35.059
X34.826 Y35.163
X34.598 Y35.501
X34.556 Y35.566
X34.443 Y35.743
X34.382 Y35.84
X34.166 Y36.179
X34.105 Y36.279
X33.992 Y36.466
X33.757 Y36.856
X33.692 Y36.969
X33.627 Y37.082
X33.563 Y37.195
X33.371 Y37.533
X33.315 Y37.633
X33.202 Y37.843
X33.186 Y37.872
X32.976 Y38.266
X32.945 Y38.324
X32.888 Y38.436
X32.83 Y38.549
X32.774 Y38.662
X32.604 Y39.001
X32.549 Y39.114
X32.524 Y39.164
X32.495 Y39.227
X32.441 Y39.339
X32.283 Y39.678
X32.23 Y39.791
X32.186 Y39.888
X32.178 Y39.904
X32.128 Y40.017
X32.079 Y40.13
X31.931 Y40.468
X31.882 Y40.581
X31.847 Y40.663
X31.834 Y40.694
X31.787 Y40.807
X31.742 Y40.92
X31.605 Y41.259
X31.56 Y41.371
X31.509 Y41.5
X31.471 Y41.597
X31.429 Y41.71
X31.283 Y42.104
X31.22 Y42.274
X31.179 Y42.387
X31.17 Y42.414
X31.14 Y42.5
X31.025 Y42.839
X30.987 Y42.952
X30.911 Y43.178
X30.875 Y43.29
X30.805 Y43.516
X30.77 Y43.629
X30.665 Y43.968
X30.631 Y44.081
X30.606 Y44.169
X30.567 Y44.306
X30.535 Y44.419
X30.41 Y44.871
X30.379 Y44.984
X30.35 Y45.097
X30.322 Y45.209
X30.21 Y45.661
X30.182 Y45.774
X30.154 Y45.893
X30.13 Y46.
X30.104 Y46.113
X30.006 Y46.564
X29.982 Y46.677
X29.958 Y46.79
X29.935 Y46.903
X29.928 Y46.937
X29.829 Y47.467
X29.815 Y47.54
X29.787 Y47.693
X29.766 Y47.806
X29.748 Y47.919
X29.73 Y48.032
X29.712 Y48.144
X29.64 Y48.596
X29.623 Y48.709
X29.607 Y48.822
X29.59 Y48.948
X29.576 Y49.048
X29.518 Y49.499
X29.504 Y49.612
X29.49 Y49.725
X29.477 Y49.838
X29.465 Y49.951
X29.409 Y50.515
X29.398 Y50.628
X29.387 Y50.741
X29.377 Y50.854
X29.369 Y50.967
X29.361 Y51.079
X29.352 Y51.192
X29.313 Y51.757
X29.306 Y51.87
X29.3 Y51.983
X29.295 Y52.095
X29.29 Y52.208
X29.271 Y52.66
X29.266 Y52.773
X29.262 Y52.886
X29.259 Y52.999
X29.257 Y53.111
X29.251 Y53.52
X29.249 Y53.676
X29.248 Y53.789
X29.245 Y54.014
Y54.127
Y57.487
Y57.511
Y57.535
Y57.583
Y57.678 Z-0.262
Y57.868 Z-0.264
Y58.059 Z-0.267
Y58.25 Z-0.271
Y58.345 Z-0.274
Y58.44 Z-0.276
Y58.535 Z-0.279
Y58.631 Z-0.282
Y58.726 Z-0.286
Y58.821 Z-0.289
Y58.917 Z-0.292
Y59.012 Z-0.296
Y59.107 Z-0.299
Y59.202 Z-0.302
Y59.298 Z-0.306
Y59.488 Z-0.312
Y59.584 Z-0.316
Y59.679 Z-0.319
Y59.774 Z-0.322
Y59.869 Z-0.326
Y59.965 Z-0.329
Y60.06 Z-0.332
Y60.155 Z-0.336
Y60.251 Z-0.339
Y60.346 Z-0.342
Y60.441 Z-0.345
Y60.536 Z-0.348
Y60.727 Z-0.352
Y60.918 Z-0.356
Y61.108 Z-0.359
Y61.299 Z-0.361
Y61.353
Y61.393
Y61.406
Y67.222
X29.246 Y67.335
X29.251 Y67.394
X29.258 Y67.448
X29.269 Y67.504
X29.284 Y67.561
X29.301 Y67.617
X29.323 Y67.674
X29.342 Y67.716
X29.364 Y67.759
X29.379 Y67.786
X29.414 Y67.843
X29.455 Y67.899
X29.477 Y67.926
X29.515 Y67.969
X29.557 Y68.012
X29.59 Y68.041
X29.645 Y68.086
X29.701 Y68.125
X29.702 Y68.126
X29.759 Y68.16
X29.815 Y68.189
X29.872 Y68.214
X29.928 Y68.235
X29.938 Y68.238
X29.989 Y68.253
X30.041 Y68.265
X30.098 Y68.275
X30.154 Y68.282
X30.21 Y68.286
X30.267
X71.694
X71.75
X71.807 Y68.282
X71.863 Y68.276
X71.919 Y68.266
X71.972 Y68.254
X72.026 Y68.238
X72.032 Y68.236
X72.089 Y68.215
X72.145 Y68.191
X72.202 Y68.162
X72.258 Y68.128
X72.263 Y68.125
X72.317 Y68.087
X72.371 Y68.044
X72.406 Y68.012
X72.447 Y67.971
X72.484 Y67.93
X72.508 Y67.899
X72.549 Y67.843
X72.584 Y67.786
X72.597 Y67.764
X72.62 Y67.719
X72.64 Y67.674
X72.662 Y67.617
X72.68 Y67.561
X72.694 Y67.504
X72.705 Y67.448
X72.71 Y67.417
X72.717 Y67.335
X72.718 Y67.222
Y54.127
Y54.014
X72.715 Y53.676
X72.714 Y53.563
X72.709 Y53.224
X72.707 Y53.111
X72.704 Y52.999
X72.701 Y52.886
X72.698 Y52.773
X72.693 Y52.66
X72.684 Y52.434
X72.679 Y52.321
X72.663 Y51.983
X72.658 Y51.87
X72.651 Y51.757
X72.636 Y51.531
X72.628 Y51.418
X72.612 Y51.192
X72.604 Y51.079
X72.586 Y50.854
X72.577 Y50.741
X72.566 Y50.628
X72.533 Y50.289
X72.521 Y50.176
X72.498 Y49.951
X72.487 Y49.838
X72.484 Y49.814
X72.473 Y49.725
X72.445 Y49.499
X72.431 Y49.386
X72.388 Y49.048
X72.371 Y48.924
X72.357 Y48.822
X72.341 Y48.709
X72.324 Y48.596
X72.27 Y48.257
X72.258 Y48.181
X72.216 Y47.919
X72.197 Y47.806
X72.176 Y47.693
X72.135 Y47.467
X72.114 Y47.354
X72.072 Y47.129
X72.051 Y47.016
X72.028 Y46.903
X72.005 Y46.79
X71.982 Y46.677
X71.958 Y46.564
X71.909 Y46.338
X71.884 Y46.225
X71.834 Y46.
X71.808 Y45.887
X71.807 Y45.88
X71.781 Y45.774
X71.697 Y45.435
X71.614 Y45.097
X71.584 Y44.984
X71.581 Y44.971
X71.523 Y44.758
X71.492 Y44.645
X71.429 Y44.419
X71.398 Y44.306
X71.355 Y44.157
X71.333 Y44.081
X71.299 Y43.968
X71.265 Y43.855
X71.195 Y43.629
X71.16 Y43.516
X71.089 Y43.29
X71.053 Y43.178
X71.016 Y43.068
X70.939 Y42.839
X70.903 Y42.735
X70.823 Y42.5
X70.791 Y42.405
X70.784 Y42.387
X70.744 Y42.274
X70.661 Y42.049
X70.619 Y41.936
X70.565 Y41.79
X70.535 Y41.71
X70.492 Y41.597
X70.452 Y41.493
X70.404 Y41.371
X70.359 Y41.259
X70.268 Y41.033
X70.226 Y40.93
X70.176 Y40.807
X70.129 Y40.694
X70.113 Y40.656
X70.082 Y40.581
X69.983 Y40.355
X69.934 Y40.243
X69.835 Y40.017
X69.785 Y39.904
X69.775 Y39.881
X69.628 Y39.565
X69.575 Y39.452
X69.469 Y39.227
X69.436 Y39.157
X69.415 Y39.114
X69.303 Y38.888
X69.247 Y38.775
X69.134 Y38.549
X69.097 Y38.477
X69.076 Y38.436
X69.018 Y38.324
X68.959 Y38.211
X68.899 Y38.098
X68.778 Y37.872
X68.656 Y37.646
X68.646 Y37.628
X68.593 Y37.533
X68.533 Y37.426
X68.42 Y37.227
X68.401 Y37.195
X68.272 Y36.969
X68.207 Y36.856
X68.194 Y36.835
X68.071 Y36.63
X68.003 Y36.517
X67.856 Y36.274
X67.797 Y36.179
X67.63 Y35.915
X67.583 Y35.84
X67.439 Y35.614
X67.404 Y35.56
X67.365 Y35.501
X67.215 Y35.276
X67.178 Y35.221
X67.064 Y35.05
X66.987 Y34.937
X66.953 Y34.886
X66.91 Y34.824
X66.831 Y34.711
X66.751 Y34.598
X66.614 Y34.404
X66.592 Y34.373
X66.501 Y34.246
X66.429 Y34.147
X66.388 Y34.091
X66.346 Y34.034
X66.179 Y33.808
X66.163 Y33.787
X66.05 Y33.636
X66.009 Y33.582
X65.922 Y33.469
X65.835 Y33.357
X65.747 Y33.244
X65.711 Y33.198
X65.57 Y33.018
X65.485 Y32.912
X65.48 Y32.905
X65.388 Y32.792
X65.296 Y32.679
X65.259 Y32.634
X65.111 Y32.453
X65.034 Y32.36
X65.017 Y32.341
X64.921 Y32.227
X64.826 Y32.115
X64.633 Y31.889
X64.582 Y31.831
X64.534 Y31.776
X64.434 Y31.663
X64.356 Y31.576
X64.131 Y31.322
X64.03 Y31.212
X63.905 Y31.077
X63.792 Y30.955
X63.679 Y30.833
X63.611 Y30.76
X63.566 Y30.713
X63.453 Y30.596
X63.394 Y30.534
X63.176 Y30.309
X63.115 Y30.245
X62.952 Y30.083
X62.889 Y30.02
X62.663 Y29.795
X62.612 Y29.744
X62.438 Y29.577
X62.212 Y29.359
X62.142 Y29.293
X61.873 Y29.043
X61.76 Y28.939
X61.655 Y28.841
X61.403 Y28.615
X61.309 Y28.531
X61.196 Y28.43
X61.149 Y28.39
X60.888 Y28.164
X60.857 Y28.137
X60.744 Y28.039
X60.631 Y27.944
X60.406 Y27.755
X60.355 Y27.712
X60.219 Y27.599
X60.18 Y27.567
X59.941 Y27.374
X59.841 Y27.293
X59.728 Y27.202
X59.659 Y27.148
X59.503 Y27.026
X59.39 Y26.937
X59.277 Y26.849
X59.225 Y26.809
X59.164 Y26.763
X59.051 Y26.677
X58.938 Y26.592
X58.778 Y26.471
X58.712 Y26.423
X58.487 Y26.257
X58.47 Y26.245
X58.316 Y26.132
X58.261 Y26.092
X58.035 Y25.932
X57.999 Y25.906
X57.84 Y25.793
X57.809 Y25.772
X57.676 Y25.68
X57.584 Y25.616
X57.513 Y25.568
X57.471 Y25.539
X57.358 Y25.461
X57.348 Y25.455
X57.132 Y25.31
X57.01 Y25.229
X56.906 Y25.16
X56.665 Y25.003
X56.491 Y24.89
X56.455 Y24.868
X56.116 Y24.654
X56.003 Y24.584
X55.891 Y24.515
X55.665 Y24.377
X55.58 Y24.326
X55.439 Y24.242
X55.326 Y24.175
X55.213 Y24.108
X54.875 Y23.912
X54.808 Y23.874
X54.762 Y23.848
X54.649 Y23.785
X54.536 Y23.721
X54.423 Y23.659
X54.197 Y23.535
X54.084 Y23.474
X53.972 Y23.414
X53.859 Y23.353
X53.776 Y23.31
X53.52 Y23.177
X53.407 Y23.119
X53.294 Y23.062
X53.181 Y23.005
X53.069 Y22.949
X52.956 Y22.893
X52.884 Y22.858
X52.73 Y22.784
X52.65 Y22.745
X52.504 Y22.677
X52.409 Y22.633
X52.278 Y22.572
X52.165 Y22.521
X52.053 Y22.47
X51.94 Y22.421
X51.907 Y22.407
X51.827 Y22.372
X51.714 Y22.324
X51.643 Y22.294
X51.601 Y22.277
X51.488 Y22.231
X51.375 Y22.187
X51.36 Y22.181
X51.262 Y22.147
X51.206 Y22.132
X51.15 Y22.121
X51.093 Y22.113
X51.037 Y22.109
X50.98 Y22.107
X50.924 Y22.109
X50.867 Y22.114
X50.811 Y22.122
X50.754 Y22.133
X50.698 Y22.148
X50.605 Y22.181
X50.585 Y22.188
X50.472 Y22.232
X50.359 Y22.278
X50.322 Y22.294
X50.247 Y22.325
X50.134 Y22.374
X50.057 Y22.407
X50.021 Y22.423
X49.908 Y22.472
X49.795 Y22.523
X49.682 Y22.574
X49.555 Y22.633
X49.456 Y22.679
X49.315 Y22.745
X49.231 Y22.786
X49.118 Y22.84
X49.08 Y22.858
X49.005 Y22.895
X48.892 Y22.951
X48.851 Y22.971
X48.779 Y23.007
X48.666 Y23.064
X48.626 Y23.084
X48.553 Y23.121
X48.44 Y23.179
X48.405 Y23.197
X48.328 Y23.237
X48.215 Y23.296
X48.188 Y23.31
X48.102 Y23.356
X47.989 Y23.416
X47.876 Y23.476
X47.766 Y23.536
X47.65 Y23.599
X47.537 Y23.661
X47.425 Y23.724
X47.312 Y23.787
X47.199 Y23.851
X47.157 Y23.874
X47.086 Y23.915
X46.747 Y24.111
X46.634 Y24.177
X46.575 Y24.213
X46.522 Y24.245
X46.385 Y24.326
X46.296 Y24.379
X46.198 Y24.439
X46.183 Y24.448
X46.07 Y24.517
X45.957 Y24.587
X45.844 Y24.656
X45.832 Y24.664
X45.731 Y24.728
X45.652 Y24.777
X45.506 Y24.87
X45.474 Y24.89
X45.393 Y24.942
X45.28 Y25.016
X45.167 Y25.089
X45.054 Y25.163
X44.941 Y25.237
X44.828 Y25.313
X44.785 Y25.342
X44.715 Y25.388
X44.617 Y25.455
X44.603 Y25.464
X44.451 Y25.568
X44.287 Y25.68
X44.264 Y25.697
X44.151 Y25.775
X43.965 Y25.906
X43.806 Y26.019
X43.7 Y26.095
X43.649 Y26.132
X43.474 Y26.26
X43.34 Y26.358
X43.248 Y26.425
X43.188 Y26.471
X43.022 Y26.595
X42.909 Y26.68
X42.796 Y26.766
X42.74 Y26.809
X42.45 Y27.035
X42.306 Y27.148
X42.232 Y27.206
X41.884 Y27.487
X41.781 Y27.57
X41.745 Y27.599
X41.61 Y27.712
X41.555 Y27.758
X41.329 Y27.947
X41.216 Y28.043
X41.076 Y28.164
X40.99 Y28.238
X40.815 Y28.39
X40.765 Y28.434
X40.687 Y28.503
X40.539 Y28.635
X40.426 Y28.736
X40.313 Y28.838
X40.31 Y28.841
X40.2 Y28.941
X40.186 Y28.954
X40.065 Y29.067
X39.975 Y29.151
X39.822 Y29.293
X39.749 Y29.363
X39.704 Y29.406
X39.636 Y29.47
X39.523 Y29.579
X39.469 Y29.631
X39.352 Y29.744
X39.297 Y29.798
X39.184 Y29.91
X39.124 Y29.97
X38.959 Y30.135
X38.899 Y30.196
X38.846 Y30.249
X38.788 Y30.309
X38.62 Y30.482
X38.569 Y30.534
X38.461 Y30.647
X38.394 Y30.717
X38.353 Y30.76
X38.281 Y30.837
X38.143 Y30.986
X38.056 Y31.08
X37.934 Y31.212
X37.831 Y31.325
X37.604 Y31.58
X37.53 Y31.663
X37.43 Y31.776
X37.378 Y31.835
X37.331 Y31.889
X37.139 Y32.115
X37.04 Y32.232
X36.927 Y32.365
X36.853 Y32.453
X36.669 Y32.679
X36.588 Y32.778
X36.475 Y32.917
X36.394 Y33.018
X36.131 Y33.357
X35.955 Y33.582
X35.911 Y33.641
X35.685 Y33.945
X35.536 Y34.147
X35.459 Y34.251
X35.214 Y34.598
X35.054 Y34.824
X35.008 Y34.891
X34.782 Y35.227
X34.75 Y35.276
X34.598 Y35.501
X34.556 Y35.566
X34.331 Y35.92
X34.218 Y36.098
X34.166 Y36.179
X34.105 Y36.279
X33.961 Y36.517
X33.893 Y36.63
X33.766 Y36.841
X33.757 Y36.856
X33.692 Y36.969
X33.54 Y37.234
X33.499 Y37.308
X33.37 Y37.533
X33.315 Y37.633
X33.186 Y37.872
X33.126 Y37.985
X33.005 Y38.211
X32.976 Y38.265
X32.945 Y38.324
X32.888 Y38.436
X32.773 Y38.662
X32.75 Y38.708
X32.637 Y38.933
X32.604 Y39.001
X32.549 Y39.114
X32.524 Y39.164
X32.412 Y39.402
X32.388 Y39.452
X32.282 Y39.678
X32.23 Y39.791
X32.186 Y39.888
X32.178 Y39.904
X32.073 Y40.142
X32.029 Y40.243
X31.96 Y40.4
X31.931 Y40.468
X31.847 Y40.663
X31.834 Y40.694
X31.787 Y40.807
X31.741 Y40.92
X31.65 Y41.146
X31.621 Y41.216
X31.509 Y41.5
X31.471 Y41.597
X31.429 Y41.71
X31.345 Y41.936
X31.303 Y42.049
X31.22 Y42.274
X31.179 Y42.387
X31.17 Y42.414
X31.14 Y42.5
X31.057 Y42.744
X31.025 Y42.839
X30.911 Y43.178
X30.875 Y43.29
X30.769 Y43.629
X30.734 Y43.742
X30.665 Y43.968
X30.631 Y44.081
X30.606 Y44.169
X30.535 Y44.419
X30.503 Y44.532
X30.44 Y44.758
X30.409 Y44.871
X30.379 Y44.984
X30.35 Y45.097
X30.322 Y45.209
X30.293 Y45.322
X30.237 Y45.548
X30.209 Y45.661
X30.154 Y45.893
X30.13 Y46.
X30.104 Y46.113
X30.079 Y46.225
X30.03 Y46.451
X30.006 Y46.564
X29.958 Y46.79
X29.935 Y46.903
X29.928 Y46.937
X29.913 Y47.016
X29.871 Y47.241
X29.85 Y47.354
X29.787 Y47.693
X29.766 Y47.806
X29.748 Y47.919
X29.694 Y48.257
X29.676 Y48.37
X29.64 Y48.596
X29.623 Y48.709
X29.607 Y48.822
X29.576 Y49.048
X29.561 Y49.16
X29.517 Y49.499
X29.504 Y49.612
X29.49 Y49.725
X29.477 Y49.838
X29.465 Y49.951
X29.453 Y50.064
X29.43 Y50.289
X29.419 Y50.402
X29.387 Y50.741
X29.377 Y50.854
X29.368 Y50.967
X29.344 Y51.305
X29.336 Y51.418
X29.32 Y51.644
X29.312 Y51.757
X29.306 Y51.87
X29.3 Y51.983
X29.289 Y52.208
X29.284 Y52.321
X29.275 Y52.547
X29.27 Y52.66
X29.262 Y52.886
X29.259 Y52.999
X29.256 Y53.111
X29.254 Y53.224
X29.251 Y53.475
X29.25 Y53.563
X29.245 Y54.014
Y54.127
Y61.406
Y61.416
Y61.426
Y61.447
Y61.487
Y61.567 Z-0.362
Y61.727 Z-0.365
Y61.888 Z-0.369
Y61.968 Z-0.372
Y62.048 Z-0.374
Y62.129 Z-0.377
Y62.289 Z-0.383
Y62.369 Z-0.385
Y62.45 Z-0.388
Y62.53 Z-0.391
Y62.69 Z-0.395
Y62.851 Z-0.398
Y63.011 Z-0.399
Y63.016
Y67.222
X29.246 Y67.335
X29.251 Y67.394
X29.258 Y67.448
X29.269 Y67.504
X29.284 Y67.561
X29.301 Y67.617
X29.323 Y67.674
X29.342 Y67.716
X29.364 Y67.759
X29.379 Y67.786
X29.414 Y67.843
X29.455 Y67.899
X29.477 Y67.926
X29.515 Y67.969
X29.557 Y68.012
X29.59 Y68.041
X29.645 Y68.086
X29.701 Y68.125
X29.702 Y68.126
X29.759 Y68.16
X29.815 Y68.189
X29.872 Y68.214
X29.928 Y68.235
X29.938 Y68.238
X29.989 Y68.253
X30.041 Y68.265
X30.098 Y68.275
X30.154 Y68.282
X30.21 Y68.286
X30.267
X71.694
X71.75
X71.807 Y68.282
X71.863 Y68.276
X71.919 Y68.266
X71.972 Y68.254
X72.026 Y68.238
X72.032 Y68.236
X72.089 Y68.215
X72.145 Y68.191
X72.202 Y68.162
X72.258 Y68.128
X72.263 Y68.125
X72.317 Y68.087
X72.371 Y68.044
X72.406 Y68.012
X72.447 Y67.971
X72.484 Y67.93
X72.508 Y67.899
X72.549 Y67.843
X72.584 Y67.786
X72.597 Y67.764
X72.62 Y67.719
X72.64 Y67.674
X72.662 Y67.617
X72.68 Y67.561
X72.694 Y67.504
X72.705 Y67.448
X72.71 Y67.417
X72.717 Y67.335
X72.718 Y67.222
Y54.127
Y54.014
X72.714 Y53.563
X72.713 Y53.45
X72.709 Y53.224
X72.707 Y53.111
X72.704 Y52.999
X72.701 Y52.886
X72.698 Y52.773
X72.693 Y52.66
X72.684 Y52.434
X72.679 Y52.321
X72.664 Y51.983
X72.658 Y51.87
X72.651 Y51.757
X72.636 Y51.531
X72.629 Y51.418
X72.613 Y51.192
X72.604 Y51.079
X72.586 Y50.854
X72.577 Y50.741
X72.567 Y50.628
X72.544 Y50.402
X72.533 Y50.289
X72.498 Y49.951
X72.487 Y49.838
X72.484 Y49.814
X72.473 Y49.725
X72.432 Y49.386
X72.417 Y49.273
X72.403 Y49.16
X72.388 Y49.048
X72.357 Y48.822
X72.341 Y48.709
X72.324 Y48.596
X72.306 Y48.483
X72.288 Y48.37
X72.27 Y48.257
X72.216 Y47.919
X72.197 Y47.806
X72.176 Y47.693
X72.135 Y47.467
X72.115 Y47.354
X72.072 Y47.129
X72.051 Y47.016
X72.028 Y46.903
X72.005 Y46.79
X71.982 Y46.677
X71.958 Y46.564
X71.909 Y46.338
X71.884 Y46.225
X71.834 Y46.
X71.808 Y45.887
X71.807 Y45.88
X71.781 Y45.774
X71.694 Y45.42
X71.67 Y45.322
X71.614 Y45.097
X71.584 Y44.984
X71.581 Y44.971
X71.492 Y44.645
X71.468 Y44.557
X71.43 Y44.419
X71.398 Y44.306
X71.355 Y44.157
X71.333 Y44.081
X71.299 Y43.968
X71.265 Y43.855
X71.195 Y43.629
X71.16 Y43.516
X71.089 Y43.29
X71.053 Y43.178
X71.016 Y43.068
X70.9 Y42.726
X70.862 Y42.613
X70.824 Y42.5
X70.791 Y42.405
X70.784 Y42.387
X70.744 Y42.274
X70.661 Y42.049
X70.619 Y41.936
X70.565 Y41.789
X70.535 Y41.71
X70.492 Y41.597
X70.452 Y41.493
X70.404 Y41.371
X70.359 Y41.259
X70.268 Y41.033
X70.222 Y40.92
X70.176 Y40.807
X70.129 Y40.694
X70.113 Y40.656
X70.082 Y40.581
X70.033 Y40.468
X69.983 Y40.355
X69.934 Y40.243
X69.835 Y40.017
X69.785 Y39.904
X69.775 Y39.881
X69.628 Y39.565
X69.575 Y39.452
X69.469 Y39.227
X69.436 Y39.157
X69.415 Y39.114
X69.303 Y38.888
X69.247 Y38.775
X69.191 Y38.662
X69.134 Y38.549
X69.076 Y38.436
X69.018 Y38.324
X68.959 Y38.211
X68.899 Y38.098
X68.839 Y37.985
X68.778 Y37.872
X68.656 Y37.646
X68.646 Y37.628
X68.593 Y37.533
X68.533 Y37.426
X68.466 Y37.308
X68.42 Y37.227
X68.272 Y36.969
X68.207 Y36.856
X68.194 Y36.835
X68.071 Y36.63
X68.003 Y36.517
X67.856 Y36.274
X67.797 Y36.179
X67.583 Y35.84
X67.511 Y35.727
X67.439 Y35.614
X67.404 Y35.56
X67.365 Y35.501
X67.178 Y35.221
X67.14 Y35.163
X67.064 Y35.05
X66.987 Y34.937
X66.953 Y34.886
X66.91 Y34.824
X66.831 Y34.711
X66.752 Y34.598
X66.672 Y34.485
X66.614 Y34.403
X66.501 Y34.246
X66.429 Y34.147
X66.346 Y34.034
X66.275 Y33.938
X66.263 Y33.921
X66.179 Y33.808
X66.05 Y33.636
X66.009 Y33.582
X65.922 Y33.469
X65.835 Y33.357
X65.824 Y33.342
X65.747 Y33.244
X65.57 Y33.018
X65.485 Y32.912
X65.48 Y32.905
X65.388 Y32.792
X65.372 Y32.773
X65.296 Y32.679
X65.111 Y32.453
X65.034 Y32.36
X65.017 Y32.341
X64.921 Y32.227
X64.826 Y32.115
X64.633 Y31.889
X64.582 Y31.831
X64.535 Y31.776
X64.434 Y31.663
X64.356 Y31.576
X64.131 Y31.322
X64.03 Y31.212
X63.926 Y31.099
X63.679 Y30.833
X63.611 Y30.76
X63.566 Y30.713
X63.453 Y30.596
X63.341 Y30.479
X63.176 Y30.309
X63.115 Y30.245
X63.002 Y30.133
X62.952 Y30.083
X62.663 Y29.795
X62.612 Y29.744
X62.438 Y29.577
X62.212 Y29.359
X62.142 Y29.293
X61.873 Y29.043
X61.76 Y28.939
X61.655 Y28.841
X61.403 Y28.615
X61.309 Y28.531
X61.196 Y28.43
X61.149 Y28.39
X60.857 Y28.137
X60.744 Y28.039
X60.631 Y27.944
X60.406 Y27.755
X60.355 Y27.712
X60.219 Y27.599
X60.18 Y27.567
X59.941 Y27.374
X59.841 Y27.293
X59.801 Y27.261
X59.728 Y27.202
X59.659 Y27.148
X59.503 Y27.026
X59.39 Y26.937
X59.277 Y26.849
X59.225 Y26.809
X59.164 Y26.763
X58.927 Y26.583
X58.825 Y26.507
X58.778 Y26.471
X58.712 Y26.423
X58.47 Y26.245
X58.374 Y26.174
X58.316 Y26.132
X58.261 Y26.092
X57.999 Y25.906
X57.922 Y25.852
X57.84 Y25.793
X57.809 Y25.772
X57.676 Y25.68
X57.584 Y25.616
X57.513 Y25.568
X57.471 Y25.539
X57.358 Y25.461
X57.348 Y25.455
X57.132 Y25.31
X57.01 Y25.229
X56.906 Y25.16
X56.665 Y25.003
X56.568 Y24.94
X56.491 Y24.89
X56.455 Y24.868
X56.116 Y24.654
X56.003 Y24.584
X55.891 Y24.515
X55.665 Y24.377
X55.58 Y24.326
X55.552 Y24.309
X55.439 Y24.242
X55.326 Y24.175
X55.213 Y24.108
X54.875 Y23.912
X54.808 Y23.874
X54.762 Y23.848
X54.649 Y23.785
X54.536 Y23.721
X54.423 Y23.659
X54.197 Y23.535
X54.084 Y23.474
X53.972 Y23.414
X53.859 Y23.353
X53.776 Y23.31
X53.52 Y23.177
X53.407 Y23.119
X53.294 Y23.062
X53.181 Y23.005
X53.069 Y22.949
X52.956 Y22.893
X52.884 Y22.858
X52.73 Y22.784
X52.65 Y22.745
X52.504 Y22.677
X52.409 Y22.633
X52.278 Y22.572
X52.165 Y22.521
X52.053 Y22.47
X51.94 Y22.421
X51.907 Y22.407
X51.827 Y22.372
X51.714 Y22.324
X51.643 Y22.294
X51.601 Y22.277
X51.488 Y22.231
X51.375 Y22.187
X51.36 Y22.181
X51.262 Y22.147
X51.206 Y22.132
X51.15 Y22.121
X51.093 Y22.113
X51.037 Y22.109
X50.98 Y22.107
X50.924 Y22.109
X50.867 Y22.114
X50.811 Y22.122
X50.754 Y22.133
X50.698 Y22.148
X50.605 Y22.181
X50.585 Y22.188
X50.472 Y22.232
X50.359 Y22.278
X50.322 Y22.294
X50.247 Y22.325
X50.134 Y22.374
X50.057 Y22.407
X50.021 Y22.423
X49.908 Y22.472
X49.795 Y22.523
X49.682 Y22.574
X49.555 Y22.633
X49.456 Y22.679
X49.315 Y22.745
X49.231 Y22.786
X49.118 Y22.84
X49.08 Y22.858
X49.005 Y22.895
X48.892 Y22.951
X48.779 Y23.007
X48.666 Y23.064
X48.626 Y23.084
X48.553 Y23.121
X48.44 Y23.179
X48.405 Y23.197
X48.328 Y23.237
X48.215 Y23.296
X48.188 Y23.31
X48.102 Y23.356
X47.989 Y23.416
X47.976 Y23.423
X47.876 Y23.476
X47.766 Y23.536
X47.65 Y23.599
X47.56 Y23.648
X47.537 Y23.661
X47.425 Y23.724
X47.312 Y23.787
X47.199 Y23.851
X47.157 Y23.874
X47.086 Y23.915
X46.747 Y24.111
X46.634 Y24.177
X46.575 Y24.213
X46.385 Y24.326
X46.296 Y24.379
X46.198 Y24.439
X46.183 Y24.448
X46.07 Y24.517
X45.957 Y24.587
X45.844 Y24.656
X45.832 Y24.664
X45.731 Y24.728
X45.652 Y24.777
X45.506 Y24.87
X45.474 Y24.89
X45.393 Y24.942
X45.299 Y25.003
X45.28 Y25.016
X45.167 Y25.089
X45.054 Y25.163
X44.941 Y25.237
X44.828 Y25.313
X44.785 Y25.342
X44.715 Y25.388
X44.617 Y25.455
X44.603 Y25.464
X44.451 Y25.568
X44.377 Y25.619
X44.287 Y25.68
X44.264 Y25.697
X44.151 Y25.775
X43.965 Y25.906
X43.925 Y25.934
X43.806 Y26.019
X43.7 Y26.095
X43.649 Y26.132
X43.474 Y26.26
X43.361 Y26.342
X43.34 Y26.358
X43.248 Y26.425
X43.188 Y26.471
X43.022 Y26.595
X42.909 Y26.68
X42.796 Y26.766
X42.74 Y26.809
X42.45 Y27.035
X42.306 Y27.148
X42.232 Y27.206
X41.884 Y27.487
X41.781 Y27.57
X41.745 Y27.599
X41.61 Y27.712
X41.442 Y27.853
X41.329 Y27.947
X41.216 Y28.043
X41.076 Y28.164
X40.815 Y28.39
X40.765 Y28.434
X40.687 Y28.503
X40.561 Y28.615
X40.539 Y28.635
X40.313 Y28.838
X40.31 Y28.841
X40.186 Y28.954
X40.087 Y29.046
X40.064 Y29.067
X39.975 Y29.151
X39.822 Y29.293
X39.749 Y29.363
X39.704 Y29.406
X39.636 Y29.47
X39.523 Y29.579
X39.469 Y29.631
X39.352 Y29.744
X39.297 Y29.798
X39.124 Y29.97
X39.071 Y30.022
X39.011 Y30.083
X38.959 Y30.135
X38.846 Y30.249
X38.788 Y30.309
X38.62 Y30.482
X38.569 Y30.534
X38.461 Y30.647
X38.394 Y30.717
X38.353 Y30.76
X38.281 Y30.837
X38.143 Y30.986
X38.056 Y31.08
X37.934 Y31.212
X37.831 Y31.325
X37.604 Y31.58
X37.53 Y31.663
X37.43 Y31.776
X37.378 Y31.835
X37.331 Y31.889
X37.139 Y32.115
X37.04 Y32.232
X36.927 Y32.364
X36.853 Y32.453
X36.577 Y32.792
X36.475 Y32.917
X36.394 Y33.018
X36.131 Y33.357
X36.024 Y33.494
X35.955 Y33.582
X35.911 Y33.641
X35.619 Y34.034
X35.536 Y34.147
X35.459 Y34.251
X35.214 Y34.598
X35.121 Y34.73
X35.054 Y34.824
X35.008 Y34.891
X34.75 Y35.276
X34.669 Y35.396
X34.598 Y35.501
X34.556 Y35.566
X34.31 Y35.953
X34.218 Y36.098
X34.166 Y36.179
X34.105 Y36.279
X33.893 Y36.63
X33.766 Y36.841
X33.757 Y36.856
X33.692 Y36.969
X33.498 Y37.308
X33.427 Y37.432
X33.37 Y37.533
X33.315 Y37.633
X33.125 Y37.985
X33.089 Y38.053
X33.005 Y38.211
X32.976 Y38.265
X32.945 Y38.324
X32.888 Y38.436
X32.75 Y38.708
X32.716 Y38.775
X32.637 Y38.933
X32.604 Y39.001
X32.549 Y39.114
X32.524 Y39.164
X32.412 Y39.402
X32.388 Y39.452
X32.282 Y39.678
X32.23 Y39.791
X32.186 Y39.888
X32.178 Y39.904
X32.073 Y40.142
X32.029 Y40.243
X31.96 Y40.4
X31.931 Y40.468
X31.847 Y40.663
X31.834 Y40.694
X31.787 Y40.807
X31.741 Y40.92
X31.734 Y40.936
X31.65 Y41.146
X31.621 Y41.216
X31.509 Y41.5
X31.471 Y41.597
X31.428 Y41.71
X31.344 Y41.936
X31.303 Y42.049
X31.22 Y42.274
X31.179 Y42.387
X31.17 Y42.414
X31.14 Y42.5
X31.101 Y42.613
X31.063 Y42.726
X30.911 Y43.178
X30.874 Y43.29
X30.734 Y43.742
X30.665 Y43.968
X30.631 Y44.081
X30.606 Y44.169
X30.503 Y44.532
X30.493 Y44.569
X30.44 Y44.758
X30.409 Y44.871
X30.379 Y44.984
X30.35 Y45.097
X30.293 Y45.322
X30.267 Y45.428
X30.237 Y45.548
X30.209 Y45.661
X30.154 Y45.893
X30.13 Y46.
X30.104 Y46.113
X30.079 Y46.225
X30.041 Y46.4
X30.03 Y46.451
X29.958 Y46.79
X29.935 Y46.903
X29.928 Y46.937
X29.913 Y47.016
X29.871 Y47.241
X29.85 Y47.354
X29.787 Y47.693
X29.766 Y47.806
X29.748 Y47.919
X29.694 Y48.257
X29.675 Y48.37
X29.64 Y48.596
X29.623 Y48.709
X29.607 Y48.822
X29.561 Y49.16
X29.546 Y49.273
X29.532 Y49.386
X29.517 Y49.499
X29.49 Y49.725
X29.477 Y49.838
X29.465 Y49.951
X29.453 Y50.064
X29.43 Y50.289
X29.419 Y50.402
X29.387 Y50.741
X29.377 Y50.854
X29.368 Y50.967
X29.336 Y51.418
X29.32 Y51.644
X29.312 Y51.757
X29.306 Y51.87
X29.3 Y51.983
X29.289 Y52.208
X29.284 Y52.321
X29.274 Y52.547
X29.27 Y52.66
X29.262 Y52.886
X29.259 Y52.999
X29.256 Y53.111
X29.254 Y53.224
X29.251 Y53.46
X29.25 Y53.563
X29.245 Y54.014
Y54.127
Y61.406
Y63.016
G3 X28.977 Y63.205 I-0.2 J0.
G1 X28.906 Y63.179
X28.857 Y63.161 Z-0.392
X28.812 Y63.145 Z-0.372
X28.773 Y63.131 Z-0.341
X28.743 Y63.12 Z-0.299
X28.724 Y63.113 Z-0.251
X28.718 Y63.111 Z-0.199
G0 Z5.
X47.403 Y79.363
Z0.08
G1 Z-0.914 F200.
X47.405 Y79.362 Z-0.946 F17.
X47.411 Y79.357 Z-0.976
X47.415 Y79.354 Z-0.989
X47.418 Y79.352 Z-0.998
X47.415 Y79.354 Z-1.006
X47.411 Y79.357 Z-1.014
X47.395 Y79.369 Z-1.043
X47.375 Y79.384 Z-1.068
X47.339 Y79.414 Z-1.097
X47.312 Y79.439 Z-1.109
X47.285 Y79.465 Z-1.114
X47.267 Y79.483 Z-1.115
X47.228 Y79.526 Z-1.117
X47.199 Y79.563 Z-1.119
X47.171 Y79.601 Z-1.121
X47.146 Y79.639 Z-1.122
X47.114 Y79.695 Z-1.124
X47.086 Y79.751 Z-1.127
X47.085 Y79.752
X47.061 Y79.809 Z-1.129
X47.041 Y79.865 Z-1.131
X47.025 Y79.922 Z-1.133
X47.012 Y79.978 Z-1.135
X47.003 Y80.034 Z-1.137
X46.997 Y80.091 Z-1.139
X46.994 Y80.147 Z-1.141
Y80.204 Z-1.143
X46.998 Y80.26 Z-1.145
X47.005 Y80.317 Z-1.147
X47.015 Y80.373 Z-1.149
X47.028 Y80.43 Z-1.151
X47.045 Y80.486 Z-1.153
X47.066 Y80.542 Z-1.155
X47.086 Y80.589 Z-1.157
X47.12 Y80.655 Z-1.159
X47.154 Y80.712 Z-1.162
X47.172 Y80.74 Z-1.163
X47.182 Y80.754
X47.187 Y80.761 Z-1.164
X47.191 Y80.766
X47.187 Y80.761
X47.182 Y80.754
X47.172 Y80.74 Z-1.165
X47.154 Y80.712 Z-1.166
X47.12 Y80.655 Z-1.169
X47.086 Y80.589 Z-1.171
X47.066 Y80.542 Z-1.173
X47.045 Y80.486 Z-1.175
X47.028 Y80.43 Z-1.177
X47.015 Y80.373 Z-1.179
X47.005 Y80.317 Z-1.181
X46.998 Y80.26 Z-1.183
X46.994 Y80.204 Z-1.185
Y80.147 Z-1.187
X46.997 Y80.091 Z-1.189
X47.003 Y80.034 Z-1.191
X47.012 Y79.978 Z-1.193
X47.025 Y79.922 Z-1.195
X47.041 Y79.865 Z-1.197
X47.061 Y79.809 Z-1.199
X47.085 Y79.752 Z-1.201
X47.086 Y79.751
X47.114 Y79.695 Z-1.204
X47.146 Y79.639 Z-1.206
X47.171 Y79.601 Z-1.207
X47.199 Y79.563 Z-1.209
X47.228 Y79.526 Z-1.211
X47.267 Y79.483 Z-1.213
X47.312 Y79.439 Z-1.215
X47.339 Y79.414 Z-1.216
X47.375 Y79.384 Z-1.218
X47.411 Y79.357 Z-1.219
X47.412 Y79.356
X47.415 Y79.354 Z-1.22
X47.418 Y79.352
X47.415 Y79.354 F200.
X47.411 Y79.357
X47.375 Y79.384
X47.339 Y79.414
X47.312 Y79.439
X47.267 Y79.483
X47.228 Y79.526
X47.199 Y79.563
X47.171 Y79.601
X47.146 Y79.639
X47.114 Y79.695
X47.086 Y79.751
X47.085 Y79.752
X47.061 Y79.809
X47.041 Y79.865
X47.025 Y79.922
X47.012 Y79.978
X47.003 Y80.034
X46.997 Y80.091
X46.994 Y80.147
Y80.204
X46.998 Y80.26
X47.005 Y80.317
X47.015 Y80.373
X47.028 Y80.43
X47.045 Y80.486
X47.066 Y80.542
X47.086 Y80.589
X47.12 Y80.655
X47.154 Y80.712
X47.172 Y80.74
X47.182 Y80.754
X47.187 Y80.761
X47.191 Y80.766
G0 Z5.
X44.711 Y25.391
Z1.035
G1 Z-0.194 F200.
X44.717 Y25.387 Z-0.244 F17.
X44.732 Y25.377 Z-0.291
X44.757 Y25.36 Z-0.332
X44.79 Y25.338 Z-0.364
X44.828 Y25.312 Z-0.385
X44.872 Y25.284 Z-0.394
X44.941 Y25.237 Z-0.397
X45.054 Y25.163 Z-0.401
X45.299 Y25.003 Z-0.412
X45.393 Y24.942 Z-0.416
X45.474 Y24.89 Z-0.419
X45.506 Y24.87 Z-0.42
X45.731 Y24.727 Z-0.43
X45.831 Y24.664 Z-0.434
X45.844 Y24.656
X45.957 Y24.587 Z-0.439
X46.198 Y24.439 Z-0.449
X46.296 Y24.379 Z-0.453
X46.385 Y24.326 Z-0.456
X46.634 Y24.177 Z-0.467
X46.747 Y24.111 Z-0.471
X47.086 Y23.915 Z-0.485
X47.157 Y23.874 Z-0.488
X47.432 Y23.72 Z-0.499
X47.429 Y23.718
X47.423
X47.416
X47.429 F200.
X47.432 Y23.72
X47.157 Y23.874
X47.086 Y23.915
X46.747 Y24.111
X46.634 Y24.177
X46.385 Y24.326
X46.296 Y24.379
X46.198 Y24.439
X45.957 Y24.587
X45.844 Y24.656
X45.831 Y24.664
X45.731 Y24.727
X45.506 Y24.87
X45.474 Y24.89
X45.393 Y24.942
X45.299 Y25.003
X45.054 Y25.163
X44.941 Y25.237
X44.828 Y25.312
X44.617 Y25.455
X44.603 Y25.464
X44.451 Y25.568
X44.377 Y25.618
X44.287 Y25.68
X44.264 Y25.697
X44.151 Y25.775
X43.925 Y25.934
X43.812 Y26.014
X43.7 Y26.095
X43.649 Y26.132
X43.474 Y26.26
X43.361 Y26.342
X43.34 Y26.358
X43.248 Y26.425
X43.188 Y26.471
X42.888 Y26.696
X42.796 Y26.766
X42.74 Y26.809
X42.345 Y27.117
X42.305 Y27.148
X42.232 Y27.206
X41.884 Y27.487
X41.781 Y27.57
X41.745 Y27.599
X41.668 Y27.664
X41.329 Y27.947
X41.216 Y28.042
X41.206 Y28.051
X41.103 Y28.14
X40.815 Y28.39
X40.765 Y28.434
X40.687 Y28.503
X40.652 Y28.534
X40.561 Y28.615
X40.313 Y28.838
X40.31 Y28.841
X40.186 Y28.954
X40.087 Y29.045
X40.064 Y29.067
X39.822 Y29.293
X39.749 Y29.363
X39.636 Y29.47
X39.585 Y29.518
X39.523 Y29.579
X39.352 Y29.744
X39.297 Y29.798
X39.071 Y30.022
X39.01 Y30.083
X38.959 Y30.135
X38.846 Y30.249
X38.788 Y30.309
X38.569 Y30.534
X38.507 Y30.599
X38.46 Y30.647
X38.353 Y30.76
X38.281 Y30.837
X38.038 Y31.099
X37.943 Y31.202
X37.934 Y31.212
X37.831 Y31.325
X37.491 Y31.707
X37.429 Y31.776
X37.378 Y31.835
X37.331 Y31.889
X37.04 Y32.232
X36.947 Y32.341
X36.927 Y32.364
X36.853 Y32.453
X36.475 Y32.917
X36.394 Y33.018
X36.024 Y33.494
X35.955 Y33.582
X35.911 Y33.641
X35.536 Y34.147
X35.459 Y34.251
X35.121 Y34.73
X35.054 Y34.824
X35.008 Y34.891
X34.669 Y35.396
X34.598 Y35.501
X34.556 Y35.566
X34.238 Y36.066
X34.218 Y36.097
X34.166 Y36.179
X34.105 Y36.279
X33.825 Y36.743
X33.766 Y36.841
X33.757 Y36.856
X33.692 Y36.969
X33.427 Y37.432
X33.37 Y37.533
X33.315 Y37.633
X33.065 Y38.098
X33.004 Y38.211
X32.945 Y38.324
X32.888 Y38.436
X32.716 Y38.775
X32.659 Y38.888
X32.637 Y38.932
X32.549 Y39.114
X32.524 Y39.164
X32.388 Y39.452
X32.334 Y39.565
X32.299 Y39.641
X32.186 Y39.888
X32.178 Y39.904
X32.028 Y40.243
X31.979 Y40.355
X31.847 Y40.663
X31.834 Y40.694
X31.787 Y40.807
X31.734 Y40.936
X31.695 Y41.033
X31.649 Y41.146
X31.509 Y41.5
X31.471 Y41.597
X31.428 Y41.71
X31.396 Y41.796
X31.386 Y41.823
X31.22 Y42.274
X31.179 Y42.387
X31.17 Y42.414
X31.139 Y42.5
X31.101 Y42.613
X30.911 Y43.178
X30.874 Y43.29
X30.699 Y43.855
X30.664 Y43.968
X30.631 Y44.081
X30.606 Y44.169
X30.471 Y44.645
X30.44 Y44.758
X30.409 Y44.871
X30.379 Y44.984
X30.35 Y45.097
X30.264 Y45.435
X30.236 Y45.548
X30.154 Y45.893
X30.13 Y46.
X30.078 Y46.225
X30.054 Y46.338
X29.958 Y46.79
X29.935 Y46.903
X29.913 Y47.016
X29.891 Y47.129
X29.787 Y47.693
X29.766 Y47.806
X29.748 Y47.919
X29.657 Y48.483
X29.639 Y48.596
X29.623 Y48.709
X29.607 Y48.822
X29.546 Y49.273
X29.531 Y49.386
X29.517 Y49.499
X29.49 Y49.725
X29.477 Y49.838
X29.452 Y50.064
X29.441 Y50.176
X29.43 Y50.289
X29.387 Y50.741
X29.377 Y50.854
X29.368 Y50.967
X29.328 Y51.531
X29.319 Y51.644
X29.312 Y51.757
X29.306 Y51.87
X29.3 Y51.983
X29.284 Y52.321
X29.278 Y52.434
X29.274 Y52.547
X29.262 Y52.886
X29.259 Y52.999
X29.256 Y53.111
X29.254 Y53.224
X29.252 Y53.337
X29.245 Y54.014
Y54.127
Y67.222
X29.246 Y67.335
X29.251 Y67.394
X29.258 Y67.448
X29.269 Y67.504
X29.284 Y67.561
X29.301 Y67.617
X29.323 Y67.674
X29.342 Y67.716
X29.364 Y67.759
X29.379 Y67.786
X29.414 Y67.843
X29.455 Y67.899
X29.477 Y67.926
X29.515 Y67.969
X29.557 Y68.012
X29.59 Y68.041
X29.645 Y68.086
X29.701 Y68.125
X29.702 Y68.126
X29.759 Y68.16
X29.815 Y68.189
X29.872 Y68.214
X29.928 Y68.235
X29.938 Y68.238
X29.989 Y68.253
X30.041 Y68.265
X30.098 Y68.275
X30.154 Y68.282
X30.21 Y68.286
X30.267
X71.694
X71.75
X71.807 Y68.282
X71.863 Y68.276
X71.919 Y68.266
X71.972 Y68.254
X72.026 Y68.238
X72.032 Y68.236
X72.089 Y68.215
X72.145 Y68.191
X72.202 Y68.162
X72.258 Y68.128
X72.263 Y68.125
X72.317 Y68.087
X72.371 Y68.044
X72.406 Y68.012
X72.447 Y67.971
X72.484 Y67.93
X72.508 Y67.899
X72.549 Y67.843
X72.584 Y67.786
X72.597 Y67.764
X72.62 Y67.719
X72.64 Y67.674
X72.662 Y67.617
X72.68 Y67.561
X72.694 Y67.504
X72.705 Y67.448
X72.71 Y67.417
X72.717 Y67.335
X72.718 Y67.222
Y54.127
Y54.014
X72.713 Y53.45
X72.712 Y53.337
X72.71 Y53.224
X72.704 Y52.999
X72.701 Y52.886
X72.698 Y52.773
X72.694 Y52.66
X72.689 Y52.547
X72.664 Y51.983
X72.658 Y51.87
X72.651 Y51.757
X72.629 Y51.418
X72.621 Y51.305
X72.613 Y51.192
X72.586 Y50.854
X72.577 Y50.741
X72.567 Y50.628
X72.556 Y50.515
X72.544 Y50.402
X72.498 Y49.951
X72.487 Y49.838
X72.484 Y49.814
X72.473 Y49.725
X72.418 Y49.273
X72.403 Y49.16
X72.388 Y49.048
X72.357 Y48.822
X72.341 Y48.709
X72.324 Y48.596
X72.307 Y48.483
X72.289 Y48.37
X72.216 Y47.919
X72.197 Y47.806
X72.176 Y47.693
X72.094 Y47.241
X72.073 Y47.129
X72.051 Y47.016
X72.028 Y46.903
X72.005 Y46.79
X71.958 Y46.564
X71.934 Y46.451
X71.919 Y46.383
X71.834 Y46.
X71.808 Y45.887
X71.807 Y45.88
X71.781 Y45.774
X71.642 Y45.209
X71.614 Y45.097
X71.584 Y44.984
X71.581 Y44.971
X71.462 Y44.532
X71.43 Y44.419
X71.355 Y44.157
X71.333 Y44.081
X71.266 Y43.855
X71.242 Y43.778
X71.231 Y43.742
X71.089 Y43.29
X71.053 Y43.178
X71.016 Y43.068
X70.862 Y42.613
X70.824 Y42.5
X70.791 Y42.405
X70.784 Y42.387
X70.744 Y42.274
X70.62 Y41.936
X70.578 Y41.823
X70.565 Y41.788
X70.492 Y41.597
X70.452 Y41.493
X70.36 Y41.259
X70.339 Y41.206
X70.315 Y41.146
X70.268 Y41.033
X70.176 Y40.807
X70.129 Y40.694
X70.082 Y40.581
X70.033 Y40.468
X69.835 Y40.017
X69.785 Y39.904
X69.775 Y39.881
X69.523 Y39.339
X69.47 Y39.227
X69.436 Y39.157
X69.415 Y39.114
X69.21 Y38.7
X69.191 Y38.662
X69.134 Y38.549
X69.076 Y38.436
X69.018 Y38.324
X68.899 Y38.098
X68.872 Y38.045
X68.839 Y37.985
X68.759 Y37.836
X68.656 Y37.646
X68.646 Y37.628
X68.593 Y37.533
X68.533 Y37.425
X68.53 Y37.42
X68.466 Y37.308
X68.272 Y36.969
X68.207 Y36.856
X68.194 Y36.835
X68.139 Y36.743
X67.856 Y36.274
X67.797 Y36.179
X67.511 Y35.727
X67.439 Y35.614
X67.404 Y35.56
X67.365 Y35.501
X67.14 Y35.163
X67.064 Y35.05
X66.987 Y34.937
X66.953 Y34.886
X66.91 Y34.824
X66.727 Y34.563
X66.673 Y34.485
X66.614 Y34.403
X66.501 Y34.246
X66.429 Y34.147
X66.346 Y34.034
X66.275 Y33.938
X66.263 Y33.921
X66.179 Y33.808
X66.05 Y33.636
X66.009 Y33.582
X65.922 Y33.469
X65.835 Y33.357
X65.824 Y33.342
X65.747 Y33.244
X65.57 Y33.018
X65.485 Y32.912
X65.48 Y32.905
X65.389 Y32.792
X65.372 Y32.772
X65.111 Y32.453
X65.034 Y32.36
X65.017 Y32.341
X64.922 Y32.228
X64.633 Y31.889
X64.582 Y31.831
X64.535 Y31.776
X64.469 Y31.702
X64.131 Y31.322
X64.03 Y31.212
X64.018 Y31.198
X63.679 Y30.833
X63.611 Y30.76
X63.566 Y30.713
X63.503 Y30.647
X63.176 Y30.309
X63.115 Y30.245
X63.065 Y30.196
X62.663 Y29.795
X62.612 Y29.744
X62.212 Y29.359
X62.142 Y29.293
X61.76 Y28.938
X61.655 Y28.841
X61.277 Y28.503
X61.196 Y28.43
X61.149 Y28.39
X60.758 Y28.051
X60.744 Y28.039
X60.631 Y27.944
X60.293 Y27.66
X60.22 Y27.599
X60.18 Y27.567
X59.941 Y27.374
X59.801 Y27.261
X59.728 Y27.202
X59.659 Y27.148
X59.37 Y26.922
X59.277 Y26.849
X59.225 Y26.809
X59.164 Y26.763
X58.927 Y26.583
X58.825 Y26.506
X58.778 Y26.471
X58.712 Y26.423
X58.374 Y26.174
X58.316 Y26.132
X58.261 Y26.092
X57.922 Y25.852
X57.84 Y25.793
X57.809 Y25.772
X57.676 Y25.68
X57.471 Y25.539
X57.358 Y25.461
X57.348 Y25.455
X57.01 Y25.229
X56.906 Y25.16
X56.568 Y24.94
X56.491 Y24.89
X56.455 Y24.868
X56.116 Y24.654
X56.003 Y24.584
X55.665 Y24.377
X55.58 Y24.326
X55.326 Y24.175
X55.213 Y24.108
X54.875 Y23.912
X54.808 Y23.874
X54.762 Y23.848
X54.649 Y23.785
X54.536 Y23.721
Y23.72
X54.552 Y23.719
X54.603 Y23.717 Z-0.492
X54.651 Y23.716 Z-0.472
X54.693 Y23.714 Z-0.441
X54.725 Y23.713 Z-0.399
X54.745 Y23.712 Z-0.351
X54.751 Z-0.299
G0 Z5.
X44.711 Y25.391
Z1.035
G1 Z-0.237 F200.
X44.717 Y25.387 Z-0.288 F17.
X44.732 Y25.377 Z-0.335
X44.757 Y25.36 Z-0.376
X44.79 Y25.338 Z-0.408
X44.828 Y25.312 Z-0.429
X44.872 Y25.284 Z-0.437
X44.941 Y25.237 Z-0.44
X45.054 Y25.163 Z-0.445
X45.299 Y25.003 Z-0.455
X45.393 Y24.942 Z-0.459
X45.474 Y24.89 Z-0.462
X45.506 Y24.87 Z-0.464
X45.731 Y24.727 Z-0.473
X45.831 Y24.664 Z-0.477
X45.844 Y24.656 Z-0.478
X45.957 Y24.587 Z-0.482
X46.198 Y24.439 Z-0.492
X46.296 Y24.379 Z-0.496
X46.385 Y24.326 Z-0.5
X46.634 Y24.177 Z-0.51
X46.747 Y24.111 Z-0.515
X47.086 Y23.915 Z-0.528
X47.157 Y23.874 Z-0.531
X47.432 Y23.72 Z-0.542
X47.429 Y23.718
X47.423
X47.416 Z-0.543
X47.429 F200.
X47.432 Y23.72
X47.157 Y23.874
X47.086 Y23.915
X46.747 Y24.111
X46.634 Y24.177
X46.385 Y24.326
X46.296 Y24.379
X46.198 Y24.439
X45.957 Y24.587
X45.844 Y24.656
X45.831 Y24.664
X45.731 Y24.727
X45.506 Y24.87
X45.474 Y24.89
X45.393 Y24.942
X45.299 Y25.003
X45.054 Y25.163
X44.941 Y25.237
X44.828 Y25.312
X44.617 Y25.455
X44.603 Y25.464
X44.377 Y25.618
X44.287 Y25.68
X44.264 Y25.697
X44.151 Y25.775
X43.925 Y25.934
X43.812 Y26.014
X43.7 Y26.095
X43.649 Y26.132
X43.339 Y26.358
X43.248 Y26.425
X43.188 Y26.471
X42.888 Y26.696
X42.796 Y26.766
X42.74 Y26.809
X42.305 Y27.148
X42.232 Y27.206
X41.884 Y27.487
X41.781 Y27.57
X41.745 Y27.599
X41.668 Y27.664
X41.329 Y27.947
X41.216 Y28.042
X41.206 Y28.051
X41.103 Y28.14
X40.815 Y28.39
X40.765 Y28.434
X40.687 Y28.503
X40.652 Y28.534
X40.313 Y28.838
X40.31 Y28.841
X40.186 Y28.954
X40.087 Y29.045
X39.822 Y29.293
X39.749 Y29.363
X39.585 Y29.518
X39.523 Y29.579
X39.352 Y29.744
X39.297 Y29.798
X39.071 Y30.022
X39.01 Y30.083
X38.846 Y30.249
X38.788 Y30.309
X38.507 Y30.598
X38.46 Y30.647
X38.353 Y30.76
X38.281 Y30.837
X38.038 Y31.099
X37.943 Y31.202
X37.934 Y31.212
X37.831 Y31.325
X37.491 Y31.707
X37.429 Y31.776
X37.378 Y31.835
X37.331 Y31.889
X36.927 Y32.364
X36.853 Y32.453
X36.475 Y32.917
X36.394 Y33.018
X35.955 Y33.582
X35.911 Y33.641
X35.536 Y34.147
X35.459 Y34.251
X35.054 Y34.824
X35.008 Y34.891
X34.669 Y35.396
X34.598 Y35.501
X34.556 Y35.566
X34.218 Y36.097
X34.166 Y36.179
X34.105 Y36.279
X33.825 Y36.743
X33.766 Y36.841
X33.757 Y36.856
X33.692 Y36.969
X33.427 Y37.432
X33.37 Y37.533
X33.315 Y37.633
X33.065 Y38.098
X33.004 Y38.211
X32.945 Y38.324
X32.888 Y38.436
X32.716 Y38.775
X32.659 Y38.888
X32.549 Y39.114
X32.524 Y39.164
X32.334 Y39.565
X32.299 Y39.641
X32.186 Y39.888
X32.178 Y39.904
X32.028 Y40.243
X31.979 Y40.355
X31.847 Y40.663
X31.834 Y40.694
X31.787 Y40.807
X31.734 Y40.936
X31.694 Y41.033
X31.649 Y41.146
X31.509 Y41.5
X31.471 Y41.597
X31.428 Y41.71
X31.396 Y41.796
X31.22 Y42.274
X31.179 Y42.387
X31.17 Y42.414
X31.139 Y42.5
X31.101 Y42.613
X30.911 Y43.178
X30.874 Y43.29
X30.664 Y43.968
X30.631 Y44.081
X30.606 Y44.169
X30.471 Y44.645
X30.44 Y44.758
X30.379 Y44.984
X30.35 Y45.097
X30.264 Y45.435
X30.236 Y45.548
X30.154 Y45.893
X30.13 Y46.
X30.078 Y46.225
X30.054 Y46.338
X29.958 Y46.79
X29.935 Y46.903
X29.913 Y47.016
X29.891 Y47.129
X29.787 Y47.693
X29.766 Y47.806
X29.748 Y47.919
X29.657 Y48.483
X29.639 Y48.596
X29.623 Y48.709
X29.607 Y48.822
X29.546 Y49.273
X29.531 Y49.386
X29.49 Y49.725
X29.477 Y49.838
X29.452 Y50.064
X29.441 Y50.176
X29.387 Y50.741
X29.377 Y50.854
X29.368 Y50.967
X29.319 Y51.644
X29.312 Y51.757
X29.306 Y51.87
X29.3 Y51.983
X29.278 Y52.434
X29.274 Y52.547
X29.262 Y52.886
X29.259 Y52.999
X29.254 Y53.224
X29.252 Y53.337
X29.245 Y54.014
Y54.127
Y67.222
X29.246 Y67.335
X29.251 Y67.394
X29.258 Y67.448
X29.269 Y67.504
X29.284 Y67.561
X29.301 Y67.617
X29.323 Y67.674
X29.342 Y67.716
X29.364 Y67.759
X29.379 Y67.786
X29.414 Y67.843
X29.455 Y67.899
X29.477 Y67.926
X29.515 Y67.969
X29.557 Y68.012
X29.59 Y68.041
X29.645 Y68.086
X29.701 Y68.125
X29.702 Y68.126
X29.759 Y68.16
X29.815 Y68.189
X29.872 Y68.214
X29.928 Y68.235
X29.938 Y68.238
X29.989 Y68.253
X30.041 Y68.265
X30.098 Y68.275
X30.154 Y68.282
X30.21 Y68.286
X30.267
X71.694
X71.75
X71.807 Y68.282
X71.863 Y68.276
X71.919 Y68.266
X71.972 Y68.254
X72.026 Y68.238
X72.032 Y68.236
X72.089 Y68.215
X72.145 Y68.191
X72.202 Y68.162
X72.258 Y68.128
X72.263 Y68.125
X72.317 Y68.087
X72.371 Y68.044
X72.406 Y68.012
X72.447 Y67.971
X72.484 Y67.93
X72.508 Y67.899
X72.549 Y67.843
X72.584 Y67.786
X72.597 Y67.764
X72.62 Y67.719
X72.64 Y67.674
X72.662 Y67.617
X72.68 Y67.561
X72.694 Y67.504
X72.705 Y67.448
X72.71 Y67.417
X72.717 Y67.335
X72.718 Y67.222
Y54.127
Y54.014
X72.713 Y53.45
X72.712 Y53.337
X72.71 Y53.224
X72.704 Y52.999
X72.701 Y52.886
X72.694 Y52.66
X72.689 Y52.547
X72.664 Y51.983
X72.658 Y51.87
X72.651 Y51.757
X72.621 Y51.305
X72.613 Y51.192
X72.586 Y50.854
X72.577 Y50.741
X72.567 Y50.628
X72.556 Y50.515
X72.499 Y49.951
X72.487 Y49.838
X72.484 Y49.814
X72.473 Y49.725
X72.418 Y49.273
X72.403 Y49.16
X72.357 Y48.822
X72.341 Y48.709
X72.324 Y48.596
X72.307 Y48.483
X72.216 Y47.919
X72.197 Y47.806
X72.176 Y47.693
X72.094 Y47.241
X72.073 Y47.129
X72.028 Y46.903
X72.005 Y46.79
X71.958 Y46.564
X71.935 Y46.451
X71.834 Y46.
X71.808 Y45.887
X71.807 Y45.88
X71.782 Y45.774
X71.642 Y45.209
X71.614 Y45.097
X71.584 Y44.984
X71.581 Y44.971
X71.462 Y44.532
X71.43 Y44.419
X71.355 Y44.157
X71.333 Y44.081
X71.266 Y43.855
X71.242 Y43.778
X71.089 Y43.29
X71.053 Y43.178
X71.016 Y43.067
X70.824 Y42.5
X70.791 Y42.405
X70.784 Y42.387
X70.744 Y42.274
X70.62 Y41.936
X70.578 Y41.823
X70.492 Y41.597
X70.452 Y41.493
X70.339 Y41.206
X70.315 Y41.146
X70.176 Y40.807
X70.129 Y40.694
X70.082 Y40.581
X70.033 Y40.468
X69.835 Y40.017
X69.785 Y39.904
X69.775 Y39.881
X69.523 Y39.339
X69.47 Y39.227
X69.436 Y39.157
X69.415 Y39.114
X69.191 Y38.662
X69.134 Y38.549
X69.076 Y38.436
X69.018 Y38.324
X68.872 Y38.045
X68.839 Y37.985
X68.656 Y37.646
X68.646 Y37.628
X68.593 Y37.533
X68.531 Y37.42
X68.466 Y37.308
X68.272 Y36.969
X68.207 Y36.856
X68.194 Y36.835
X68.139 Y36.743
X67.856 Y36.274
X67.797 Y36.179
X67.511 Y35.727
X67.439 Y35.614
X67.404 Y35.56
X67.365 Y35.501
X67.14 Y35.163
X67.066 Y35.051
X66.953 Y34.886
X66.91 Y34.824
X66.727 Y34.563
X66.673 Y34.485
X66.614 Y34.403
X66.501 Y34.246
X66.429 Y34.147
X66.275 Y33.937
X66.263 Y33.921
X66.163 Y33.787
X66.05 Y33.636
X66.009 Y33.582
X65.922 Y33.469
X65.836 Y33.357
X65.57 Y33.018
X65.485 Y32.912
X65.48 Y32.905
X65.389 Y32.792
X65.111 Y32.453
X65.034 Y32.36
X65.017 Y32.341
X64.922 Y32.228
X64.633 Y31.889
X64.582 Y31.831
X64.535 Y31.776
X64.469 Y31.702
X64.131 Y31.322
X64.03 Y31.212
X63.679 Y30.833
X63.611 Y30.76
X63.566 Y30.713
X63.176 Y30.309
X63.115 Y30.245
X63.065 Y30.196
X62.663 Y29.795
X62.612 Y29.744
X62.212 Y29.359
X62.142 Y29.293
X61.76 Y28.938
X61.655 Y28.841
X61.196 Y28.43
X61.149 Y28.39
X60.744 Y28.039
X60.631 Y27.944
X60.293 Y27.66
X60.22 Y27.599
X60.18 Y27.567
X59.941 Y27.374
X59.801 Y27.261
X59.728 Y27.202
X59.659 Y27.148
X59.277 Y26.849
X59.225 Y26.809
X59.164 Y26.763
X58.825 Y26.506
X58.778 Y26.471
X58.712 Y26.423
X58.374 Y26.174
X58.316 Y26.132
X58.261 Y26.092
X57.922 Y25.852
X57.84 Y25.793
X57.809 Y25.772
X57.676 Y25.68
X57.471 Y25.539
X57.358 Y25.461
X57.348 Y25.455
X57.01 Y25.229
X56.906 Y25.16
X56.568 Y24.94
X56.491 Y24.89
X56.455 Y24.868
X56.116 Y24.654
X56.003 Y24.584
X55.665 Y24.377
X55.58 Y24.326
X55.326 Y24.175
X55.213 Y24.108
X54.875 Y23.912
X54.808 Y23.874
X54.762 Y23.848
X54.649 Y23.785
X54.536 Y23.721
Y23.72
X54.552 Y23.719
X54.603 Y23.717 Z-0.536
X54.651 Y23.716 Z-0.516
X54.693 Y23.714 Z-0.484
X54.725 Y23.713 Z-0.443
X54.745 Y23.712 Z-0.394
X54.751 Z-0.343
G0 Z5.
X44.711 Y25.391
Z1.035
G1 Z-0.337 F200.
X44.717 Y25.387 Z-0.388 F17.
X44.732 Y25.377 Z-0.435
X44.757 Y25.36 Z-0.476
X44.79 Y25.338 Z-0.508
X44.828 Y25.312 Z-0.529
X44.872 Y25.284 Z-0.537
X44.941 Y25.237 Z-0.54
X45.054 Y25.163 Z-0.545
X45.299 Y25.003 Z-0.555
X45.393 Y24.942 Z-0.559
X45.474 Y24.89 Z-0.562
X45.506 Y24.87 Z-0.564
X45.731 Y24.727 Z-0.573
X45.831 Y24.664 Z-0.577
X45.844 Y24.656 Z-0.578
X45.957 Y24.587 Z-0.582
X46.198 Y24.439 Z-0.592
X46.296 Y24.379 Z-0.596
X46.385 Y24.326 Z-0.6
X46.634 Y24.177 Z-0.61
X46.747 Y24.111 Z-0.615
X47.086 Y23.915 Z-0.628
X47.157 Y23.874 Z-0.631
X47.432 Y23.72 Z-0.642
X47.429 Y23.718
X47.423
X47.416 Z-0.643
X47.429 F200.
X47.432 Y23.72
X47.157 Y23.874
X47.086 Y23.915
X46.747 Y24.111
X46.634 Y24.177
X46.385 Y24.326
X46.296 Y24.379
X46.198 Y24.439
X45.957 Y24.587
X45.844 Y24.656
X45.831 Y24.664
X45.731 Y24.727
X45.506 Y24.87
X45.474 Y24.89
X45.393 Y24.942
X45.299 Y25.003
X45.054 Y25.163
X44.941 Y25.237
X44.828 Y25.312
X44.617 Y25.455
X44.603 Y25.464
X44.377 Y25.618
X44.287 Y25.68
X44.264 Y25.697
X44.151 Y25.775
X43.925 Y25.934
X43.812 Y26.014
X43.7 Y26.095
X43.649 Y26.132
X43.339 Y26.358
X43.248 Y26.425
X43.188 Y26.471
X42.888 Y26.696
X42.796 Y26.766
X42.74 Y26.809
X42.305 Y27.148
X42.232 Y27.206
X41.884 Y27.487
X41.781 Y27.57
X41.745 Y27.599
X41.668 Y27.664
X41.329 Y27.947
X41.216 Y28.042
X41.206 Y28.051
X41.103 Y28.14
X40.815 Y28.39
X40.765 Y28.434
X40.687 Y28.503
X40.652 Y28.534
X40.313 Y28.838
X40.31 Y28.841
X40.186 Y28.954
X40.087 Y29.045
X39.822 Y29.293
X39.749 Y29.363
X39.585 Y29.518
X39.523 Y29.579
X39.352 Y29.744
X39.297 Y29.798
X39.071 Y30.022
X39.01 Y30.083
X38.846 Y30.249
X38.788 Y30.309
X38.507 Y30.598
X38.46 Y30.647
X38.353 Y30.76
X38.281 Y30.837
X38.038 Y31.099
X37.943 Y31.202
X37.934 Y31.212
X37.831 Y31.325
X37.491 Y31.707
X37.429 Y31.776
X37.378 Y31.835
X37.331 Y31.889
X36.927 Y32.364
X36.853 Y32.453
X36.475 Y32.917
X36.394 Y33.018
X35.955 Y33.582
X35.911 Y33.641
X35.536 Y34.147
X35.459 Y34.251
X35.054 Y34.824
X35.008 Y34.891
X34.669 Y35.396
X34.598 Y35.501
X34.556 Y35.566
X34.218 Y36.097
X34.166 Y36.179
X34.105 Y36.279
X33.825 Y36.743
X33.766 Y36.841
X33.757 Y36.856
X33.692 Y36.969
X33.427 Y37.432
X33.37 Y37.533
X33.315 Y37.633
X33.065 Y38.098
X33.004 Y38.211
X32.945 Y38.324
X32.888 Y38.436
X32.716 Y38.775
X32.659 Y38.888
X32.549 Y39.114
X32.524 Y39.164
X32.334 Y39.565
X32.299 Y39.641
X32.186 Y39.888
X32.178 Y39.904
X32.028 Y40.243
X31.979 Y40.355
X31.847 Y40.663
X31.834 Y40.694
X31.787 Y40.807
X31.734 Y40.936
X31.694 Y41.033
X31.621 Y41.216
X31.509 Y41.5
X31.471 Y41.597
X31.428 Y41.71
X31.396 Y41.796
X31.22 Y42.274
X31.179 Y42.387
X31.139 Y42.5
X31.101 Y42.613
X30.911 Y43.178
X30.874 Y43.29
X30.664 Y43.968
X30.631 Y44.081
X30.606 Y44.169
X30.471 Y44.645
X30.44 Y44.758
X30.379 Y44.984
X30.35 Y45.097
X30.264 Y45.435
X30.236 Y45.548
X30.154 Y45.893
X30.13 Y46.
X30.078 Y46.225
X30.054 Y46.338
X29.958 Y46.79
X29.935 Y46.903
X29.913 Y47.016
X29.891 Y47.129
X29.787 Y47.693
X29.766 Y47.806
X29.748 Y47.919
X29.657 Y48.483
X29.639 Y48.596
X29.623 Y48.709
X29.607 Y48.822
X29.546 Y49.273
X29.531 Y49.386
X29.49 Y49.725
X29.477 Y49.838
X29.452 Y50.064
X29.441 Y50.176
X29.387 Y50.741
X29.377 Y50.854
X29.368 Y50.967
X29.319 Y51.644
X29.312 Y51.757
X29.306 Y51.87
X29.3 Y51.983
X29.278 Y52.434
X29.274 Y52.547
X29.262 Y52.886
X29.259 Y52.999
X29.254 Y53.224
X29.252 Y53.337
X29.245 Y54.014
Y54.127
Y67.222
X29.246 Y67.335
X29.251 Y67.394
X29.258 Y67.448
X29.269 Y67.504
X29.284 Y67.561
X29.301 Y67.617
X29.323 Y67.674
X29.342 Y67.716
X29.364 Y67.759
X29.379 Y67.786
X29.414 Y67.843
X29.455 Y67.899
X29.477 Y67.926
X29.515 Y67.969
X29.557 Y68.012
X29.59 Y68.041
X29.645 Y68.086
X29.701 Y68.125
X29.702 Y68.126
X29.759 Y68.16
X29.815 Y68.189
X29.872 Y68.214
X29.928 Y68.235
X29.938 Y68.238
X29.989 Y68.253
X30.041 Y68.265
X30.098 Y68.275
X30.154 Y68.282
X30.21 Y68.286
X30.267
X71.694
X71.75
X71.807 Y68.282
X71.863 Y68.276
X71.919 Y68.266
X71.972 Y68.254
X72.026 Y68.238
X72.032 Y68.236
X72.089 Y68.215
X72.145 Y68.191
X72.202 Y68.162
X72.258 Y68.128
X72.263 Y68.125
X72.317 Y68.087
X72.371 Y68.044
X72.406 Y68.012
X72.447 Y67.971
X72.484 Y67.93
X72.508 Y67.899
X72.549 Y67.843
X72.584 Y67.786
X72.597 Y67.764
X72.62 Y67.719
X72.64 Y67.674
X72.662 Y67.617
X72.68 Y67.561
X72.694 Y67.504
X72.705 Y67.448
X72.71 Y67.417
X72.717 Y67.335
X72.718 Y67.222
Y54.127
Y54.014
X72.713 Y53.45
X72.712 Y53.337
X72.71 Y53.224
X72.704 Y52.999
X72.701 Y52.886
X72.694 Y52.66
X72.689 Y52.547
X72.664 Y51.983
X72.658 Y51.87
X72.651 Y51.757
X72.621 Y51.305
X72.613 Y51.192
X72.586 Y50.854
X72.577 Y50.741
X72.567 Y50.628
X72.556 Y50.515
X72.499 Y49.951
X72.487 Y49.838
X72.484 Y49.814
X72.473 Y49.725
X72.418 Y49.273
X72.403 Y49.16
X72.357 Y48.822
X72.341 Y48.709
X72.324 Y48.596
X72.307 Y48.483
X72.216 Y47.919
X72.197 Y47.806
X72.176 Y47.693
X72.094 Y47.241
X72.073 Y47.129
X72.028 Y46.903
X72.005 Y46.79
X71.958 Y46.564
X71.935 Y46.451
X71.834 Y46.
X71.808 Y45.887
X71.807 Y45.88
X71.782 Y45.774
X71.642 Y45.209
X71.614 Y45.097
X71.584 Y44.984
X71.581 Y44.971
X71.462 Y44.532
X71.43 Y44.419
X71.355 Y44.157
X71.333 Y44.081
X71.266 Y43.855
X71.242 Y43.778
X71.089 Y43.29
X71.053 Y43.178
X71.016 Y43.067
X70.824 Y42.5
X70.791 Y42.405
X70.784 Y42.387
X70.744 Y42.274
X70.62 Y41.936
X70.578 Y41.823
X70.492 Y41.597
X70.452 Y41.493
X70.339 Y41.206
X70.315 Y41.146
X70.176 Y40.807
X70.129 Y40.694
X70.082 Y40.581
X70.033 Y40.468
X69.835 Y40.017
X69.785 Y39.904
X69.775 Y39.881
X69.523 Y39.339
X69.47 Y39.227
X69.436 Y39.157
X69.415 Y39.114
X69.191 Y38.662
X69.134 Y38.549
X69.076 Y38.436
X69.018 Y38.324
X68.872 Y38.045
X68.839 Y37.985
X68.656 Y37.646
X68.646 Y37.628
X68.593 Y37.533
X68.531 Y37.42
X68.466 Y37.308
X68.272 Y36.969
X68.207 Y36.856
X68.194 Y36.835
X68.139 Y36.743
X67.856 Y36.274
X67.797 Y36.179
X67.511 Y35.727
X67.439 Y35.614
X67.404 Y35.56
X67.365 Y35.501
X67.14 Y35.163
X67.066 Y35.051
X66.953 Y34.886
X66.91 Y34.824
X66.727 Y34.563
X66.673 Y34.485
X66.501 Y34.246
X66.429 Y34.147
X66.275 Y33.937
X66.263 Y33.921
X66.05 Y33.636
X66.009 Y33.582
X65.922 Y33.469
X65.836 Y33.357
X65.57 Y33.018
X65.485 Y32.912
X65.48 Y32.905
X65.389 Y32.792
X65.111 Y32.453
X65.034 Y32.36
X65.017 Y32.341
X64.922 Y32.228
X64.633 Y31.889
X64.582 Y31.831
X64.535 Y31.776
X64.469 Y31.702
X64.131 Y31.322
X64.03 Y31.212
X63.679 Y30.833
X63.611 Y30.76
X63.566 Y30.713
X63.176 Y30.309
X63.115 Y30.245
X63.065 Y30.196
X62.663 Y29.795
X62.612 Y29.744
X62.212 Y29.359
X62.142 Y29.293
X61.76 Y28.938
X61.655 Y28.841
X61.196 Y28.43
X61.149 Y28.39
X60.744 Y28.039
X60.631 Y27.944
X60.293 Y27.66
X60.22 Y27.599
X60.18 Y27.567
X59.941 Y27.374
X59.801 Y27.261
X59.728 Y27.202
X59.659 Y27.148
X59.277 Y26.849
X59.225 Y26.809
X59.164 Y26.763
X58.825 Y26.506
X58.778 Y26.471
X58.712 Y26.423
X58.374 Y26.174
X58.316 Y26.132
X58.261 Y26.092
X57.922 Y25.852
X57.84 Y25.793
X57.809 Y25.772
X57.676 Y25.68
X57.471 Y25.539
X57.358 Y25.461
X57.348 Y25.455
X57.01 Y25.229
X56.906 Y25.16
X56.568 Y24.94
X56.491 Y24.89
X56.455 Y24.868
X56.116 Y24.654
X56.003 Y24.584
X55.665 Y24.377
X55.58 Y24.326
X55.326 Y24.175
X55.213 Y24.108
X54.875 Y23.912
X54.808 Y23.874
X54.762 Y23.848
X54.649 Y23.785
X54.536 Y23.721
Y23.72
X54.552 Y23.719
X54.603 Y23.717 Z-0.636
X54.651 Y23.716 Z-0.616
X54.693 Y23.714 Z-0.584
X54.725 Y23.713 Z-0.543
X54.745 Y23.712 Z-0.494
X54.751 Z-0.443
G0 Z5.
X44.711 Y25.391
Z1.035
G1 Z-0.437 F200.
X44.717 Y25.387 Z-0.488 F17.
X44.732 Y25.377 Z-0.535
X44.757 Y25.36 Z-0.576
X44.79 Y25.338 Z-0.608
X44.828 Y25.312 Z-0.629
X44.872 Y25.284 Z-0.637
X44.941 Y25.237 Z-0.64
X45.054 Y25.163 Z-0.645
X45.299 Y25.003 Z-0.655
X45.393 Y24.942 Z-0.659
X45.474 Y24.89 Z-0.662
X45.506 Y24.87 Z-0.664
X45.731 Y24.727 Z-0.673
X45.831 Y24.664 Z-0.677
X45.844 Y24.656 Z-0.678
X45.957 Y24.587 Z-0.682
X46.198 Y24.439 Z-0.692
X46.296 Y24.379 Z-0.696
X46.385 Y24.326 Z-0.7
X46.634 Y24.177 Z-0.71
X46.747 Y24.111 Z-0.715
X47.086 Y23.915 Z-0.728
X47.157 Y23.874 Z-0.731
X47.432 Y23.72 Z-0.742
X47.429 Y23.718
X47.423
X47.416 Z-0.743
X47.429 F200.
X47.432 Y23.72
X47.157 Y23.874
X47.086 Y23.915
X46.747 Y24.111
X46.634 Y24.177
X46.385 Y24.326
X46.296 Y24.379
X46.198 Y24.439
X45.957 Y24.587
X45.844 Y24.656
X45.831 Y24.664
X45.731 Y24.727
X45.506 Y24.87
X45.474 Y24.89
X45.393 Y24.942
X45.299 Y25.003
X45.054 Y25.163
X44.941 Y25.237
X44.828 Y25.312
X44.617 Y25.455
X44.603 Y25.464
X44.377 Y25.618
X44.287 Y25.68
X44.264 Y25.697
X44.151 Y25.775
X43.925 Y25.934
X43.812 Y26.014
X43.7 Y26.095
X43.649 Y26.132
X43.339 Y26.358
X43.248 Y26.425
X43.188 Y26.471
X42.888 Y26.696
X42.796 Y26.766
X42.74 Y26.809
X42.305 Y27.148
X42.232 Y27.206
X41.884 Y27.487
X41.781 Y27.57
X41.745 Y27.599
X41.668 Y27.664
X41.329 Y27.947
X41.216 Y28.042
X41.206 Y28.051
X41.103 Y28.14
X40.815 Y28.39
X40.765 Y28.434
X40.687 Y28.503
X40.652 Y28.534
X40.313 Y28.838
X40.31 Y28.841
X40.186 Y28.954
X40.087 Y29.045
X39.822 Y29.293
X39.749 Y29.363
X39.585 Y29.518
X39.523 Y29.579
X39.352 Y29.744
X39.297 Y29.798
X39.071 Y30.022
X39.01 Y30.083
X38.846 Y30.249
X38.788 Y30.309
X38.507 Y30.598
X38.46 Y30.647
X38.353 Y30.76
X38.281 Y30.837
X38.038 Y31.099
X37.943 Y31.202
X37.934 Y31.212
X37.831 Y31.325
X37.491 Y31.707
X37.429 Y31.776
X37.378 Y31.835
X37.331 Y31.889
X36.927 Y32.364
X36.853 Y32.453
X36.475 Y32.917
X36.394 Y33.018
X35.955 Y33.582
X35.911 Y33.641
X35.536 Y34.147
X35.459 Y34.251
X35.054 Y34.824
X35.008 Y34.891
X34.669 Y35.396
X34.598 Y35.501
X34.556 Y35.566
X34.218 Y36.097
X34.166 Y36.179
X34.105 Y36.279
X33.825 Y36.743
X33.766 Y36.841
X33.757 Y36.856
X33.692 Y36.969
X33.427 Y37.432
X33.37 Y37.533
X33.315 Y37.633
X33.065 Y38.098
X33.004 Y38.211
X32.945 Y38.324
X32.888 Y38.436
X32.716 Y38.775
X32.659 Y38.888
X32.549 Y39.114
X32.524 Y39.164
X32.334 Y39.565
X32.299 Y39.641
X32.186 Y39.888
X32.178 Y39.904
X32.028 Y40.243
X31.979 Y40.355
X31.847 Y40.663
X31.834 Y40.694
X31.787 Y40.807
X31.734 Y40.936
X31.694 Y41.033
X31.621 Y41.216
X31.509 Y41.5
X31.471 Y41.597
X31.428 Y41.71
X31.396 Y41.796
X31.22 Y42.274
X31.179 Y42.387
X31.139 Y42.5
X31.101 Y42.613
X30.911 Y43.178
X30.874 Y43.29
X30.664 Y43.968
X30.631 Y44.081
X30.606 Y44.169
X30.471 Y44.645
X30.44 Y44.758
X30.379 Y44.984
X30.35 Y45.097
X30.264 Y45.435
X30.236 Y45.548
X30.154 Y45.893
X30.13 Y46.
X30.078 Y46.225
X30.054 Y46.338
X29.958 Y46.79
X29.935 Y46.903
X29.913 Y47.016
X29.891 Y47.129
X29.787 Y47.693
X29.766 Y47.806
X29.748 Y47.919
X29.657 Y48.483
X29.639 Y48.596
X29.623 Y48.709
X29.607 Y48.822
X29.546 Y49.273
X29.531 Y49.386
X29.49 Y49.725
X29.477 Y49.838
X29.452 Y50.064
X29.441 Y50.176
X29.387 Y50.741
X29.377 Y50.854
X29.368 Y50.967
X29.319 Y51.644
X29.312 Y51.757
X29.306 Y51.87
X29.3 Y51.983
X29.278 Y52.434
X29.274 Y52.547
X29.262 Y52.886
X29.259 Y52.999
X29.254 Y53.224
X29.252 Y53.337
X29.245 Y54.014
Y54.127
Y67.222
X29.246 Y67.335
X29.251 Y67.394
X29.258 Y67.448
X29.269 Y67.504
X29.284 Y67.561
X29.301 Y67.617
X29.323 Y67.674
X29.342 Y67.716
X29.364 Y67.759
X29.379 Y67.786
X29.414 Y67.843
X29.455 Y67.899
X29.477 Y67.926
X29.515 Y67.969
X29.557 Y68.012
X29.59 Y68.041
X29.645 Y68.086
X29.701 Y68.125
X29.702 Y68.126
X29.759 Y68.16
X29.815 Y68.189
X29.872 Y68.214
X29.928 Y68.235
X29.938 Y68.238
X29.989 Y68.253
X30.041 Y68.265
X30.098 Y68.275
X30.154 Y68.282
X30.21 Y68.286
X30.267
X71.694
X71.75
X71.807 Y68.282
X71.863 Y68.276
X71.919 Y68.266
X71.972 Y68.254
X72.026 Y68.238
X72.032 Y68.236
X72.089 Y68.215
X72.145 Y68.191
X72.202 Y68.162
X72.258 Y68.128
X72.263 Y68.125
X72.317 Y68.087
X72.371 Y68.044
X72.406 Y68.012
X72.447 Y67.971
X72.484 Y67.93
X72.508 Y67.899
X72.549 Y67.843
X72.584 Y67.786
X72.597 Y67.764
X72.62 Y67.719
X72.64 Y67.674
X72.662 Y67.617
X72.68 Y67.561
X72.694 Y67.504
X72.705 Y67.448
X72.71 Y67.417
X72.717 Y67.335
X72.718 Y67.222
Y54.127
Y54.014
X72.713 Y53.45
X72.712 Y53.337
X72.71 Y53.224
X72.704 Y52.999
X72.701 Y52.886
X72.694 Y52.66
X72.689 Y52.547
X72.664 Y51.983
X72.658 Y51.87
X72.651 Y51.757
X72.621 Y51.305
X72.613 Y51.192
X72.586 Y50.854
X72.577 Y50.741
X72.567 Y50.628
X72.556 Y50.515
X72.499 Y49.951
X72.487 Y49.838
X72.484 Y49.814
X72.473 Y49.725
X72.418 Y49.273
X72.403 Y49.16
X72.357 Y48.822
X72.341 Y48.709
X72.324 Y48.596
X72.307 Y48.483
X72.216 Y47.919
X72.197 Y47.806
X72.176 Y47.693
X72.094 Y47.241
X72.073 Y47.129
X72.028 Y46.903
X72.005 Y46.79
X71.958 Y46.564
X71.935 Y46.451
X71.834 Y46.
X71.808 Y45.887
X71.807 Y45.88
X71.782 Y45.774
X71.642 Y45.209
X71.614 Y45.097
X71.584 Y44.984
X71.581 Y44.971
X71.462 Y44.532
X71.43 Y44.419
X71.355 Y44.157
X71.333 Y44.081
X71.266 Y43.855
X71.242 Y43.778
X71.089 Y43.29
X71.053 Y43.178
X71.016 Y43.067
X70.824 Y42.5
X70.791 Y42.405
X70.784 Y42.387
X70.744 Y42.274
X70.62 Y41.936
X70.578 Y41.823
X70.492 Y41.597
X70.452 Y41.493
X70.339 Y41.206
X70.315 Y41.146
X70.176 Y40.807
X70.129 Y40.694
X70.082 Y40.581
X70.033 Y40.468
X69.835 Y40.017
X69.785 Y39.904
X69.775 Y39.881
X69.523 Y39.339
X69.47 Y39.227
X69.436 Y39.157
X69.415 Y39.114
X69.191 Y38.662
X69.134 Y38.549
X69.076 Y38.436
X69.018 Y38.324
X68.872 Y38.045
X68.839 Y37.985
X68.656 Y37.646
X68.646 Y37.628
X68.593 Y37.533
X68.531 Y37.42
X68.466 Y37.308
X68.272 Y36.969
X68.207 Y36.856
X68.194 Y36.835
X68.139 Y36.743
X67.856 Y36.274
X67.797 Y36.179
X67.511 Y35.727
X67.439 Y35.614
X67.404 Y35.56
X67.365 Y35.501
X67.14 Y35.163
X67.066 Y35.051
X66.953 Y34.886
X66.91 Y34.824
X66.727 Y34.563
X66.673 Y34.485
X66.501 Y34.246
X66.429 Y34.147
X66.275 Y33.937
X66.263 Y33.921
X66.05 Y33.636
X66.009 Y33.582
X65.922 Y33.469
X65.836 Y33.357
X65.57 Y33.018
X65.485 Y32.912
X65.48 Y32.905
X65.389 Y32.792
X65.111 Y32.453
X65.034 Y32.36
X65.017 Y32.341
X64.922 Y32.228
X64.633 Y31.889
X64.582 Y31.831
X64.535 Y31.776
X64.469 Y31.702
X64.131 Y31.322
X64.03 Y31.212
X63.679 Y30.833
X63.611 Y30.76
X63.566 Y30.713
X63.176 Y30.309
X63.115 Y30.245
X63.065 Y30.196
X62.663 Y29.795
X62.612 Y29.744
X62.212 Y29.359
X62.142 Y29.293
X61.76 Y28.938
X61.655 Y28.841
X61.196 Y28.43
X61.149 Y28.39
X60.744 Y28.039
X60.631 Y27.944
X60.293 Y27.66
X60.22 Y27.599
X60.18 Y27.567
X59.941 Y27.374
X59.801 Y27.261
X59.728 Y27.202
X59.659 Y27.148
X59.277 Y26.849
X59.225 Y26.809
X59.164 Y26.763
X58.825 Y26.506
X58.778 Y26.471
X58.712 Y26.423
X58.374 Y26.174
X58.316 Y26.132
X58.261 Y26.092
X57.922 Y25.852
X57.84 Y25.793
X57.809 Y25.772
X57.676 Y25.68
X57.471 Y25.539
X57.358 Y25.461
X57.348 Y25.455
X57.01 Y25.229
X56.906 Y25.16
X56.568 Y24.94
X56.491 Y24.89
X56.455 Y24.868
X56.116 Y24.654
X56.003 Y24.584
X55.665 Y24.377
X55.58 Y24.326
X55.326 Y24.175
X55.213 Y24.108
X54.875 Y23.912
X54.808 Y23.874
X54.762 Y23.848
X54.649 Y23.785
X54.536 Y23.721
Y23.72
X54.552 Y23.719
X54.603 Y23.717 Z-0.736
X54.651 Y23.716 Z-0.716
X54.693 Y23.714 Z-0.684
X54.725 Y23.713 Z-0.643
X54.745 Y23.712 Z-0.594
X54.751 Z-0.543
G0 Z5.
X44.711 Y25.391
Z1.035
G1 Z-0.537 F200.
X44.717 Y25.387 Z-0.588 F17.
X44.732 Y25.377 Z-0.635
X44.757 Y25.36 Z-0.676
X44.79 Y25.338 Z-0.708
X44.828 Y25.312 Z-0.729
X44.872 Y25.284 Z-0.737
X44.941 Y25.237 Z-0.74
X45.054 Y25.163 Z-0.745
X45.299 Y25.003 Z-0.755
X45.393 Y24.942 Z-0.759
X45.474 Y24.89 Z-0.762
X45.506 Y24.87 Z-0.764
X45.731 Y24.727 Z-0.773
X45.831 Y24.664 Z-0.777
X45.844 Y24.656 Z-0.778
X45.957 Y24.587 Z-0.782
X46.198 Y24.439 Z-0.792
X46.296 Y24.379 Z-0.796
X46.385 Y24.326 Z-0.8
X46.634 Y24.177 Z-0.81
X46.747 Y24.111 Z-0.815
X47.086 Y23.915 Z-0.828
X47.157 Y23.874 Z-0.831
X47.432 Y23.72 Z-0.842
X47.429 Y23.718
X47.423
X47.416 Z-0.843
X47.429 F200.
X47.432 Y23.72
X47.157 Y23.874
X47.086 Y23.915
X46.747 Y24.111
X46.634 Y24.177
X46.385 Y24.326
X46.296 Y24.379
X46.198 Y24.439
X45.957 Y24.587
X45.844 Y24.656
X45.831 Y24.664
X45.731 Y24.727
X45.506 Y24.87
X45.474 Y24.89
X45.393 Y24.942
X45.299 Y25.003
X45.054 Y25.163
X44.941 Y25.237
X44.828 Y25.312
X44.617 Y25.455
X44.603 Y25.464
X44.377 Y25.618
X44.287 Y25.68
X44.264 Y25.697
X44.151 Y25.775
X43.925 Y25.934
X43.812 Y26.014
X43.7 Y26.095
X43.649 Y26.132
X43.339 Y26.358
X43.248 Y26.425
X43.188 Y26.471
X42.888 Y26.696
X42.796 Y26.766
X42.74 Y26.809
X42.305 Y27.148
X42.232 Y27.206
X41.884 Y27.487
X41.781 Y27.57
X41.745 Y27.599
X41.668 Y27.664
X41.329 Y27.947
X41.216 Y28.042
X41.206 Y28.051
X41.103 Y28.14
X40.815 Y28.39
X40.765 Y28.434
X40.687 Y28.503
X40.652 Y28.534
X40.313 Y28.838
X40.31 Y28.841
X40.186 Y28.954
X40.087 Y29.045
X39.822 Y29.293
X39.749 Y29.363
X39.585 Y29.518
X39.523 Y29.579
X39.352 Y29.744
X39.297 Y29.798
X39.071 Y30.022
X39.01 Y30.083
X38.846 Y30.249
X38.788 Y30.309
X38.507 Y30.598
X38.46 Y30.647
X38.353 Y30.76
X38.281 Y30.837
X38.038 Y31.099
X37.943 Y31.202
X37.934 Y31.212
X37.831 Y31.325
X37.491 Y31.707
X37.429 Y31.776
X37.378 Y31.835
X37.331 Y31.889
X36.927 Y32.364
X36.853 Y32.453
X36.475 Y32.917
X36.394 Y33.018
X35.955 Y33.582
X35.911 Y33.641
X35.536 Y34.147
X35.459 Y34.251
X35.054 Y34.824
X35.008 Y34.891
X34.669 Y35.396
X34.598 Y35.501
X34.556 Y35.566
X34.218 Y36.097
X34.166 Y36.179
X34.105 Y36.279
X33.825 Y36.743
X33.766 Y36.841
X33.757 Y36.856
X33.692 Y36.969
X33.427 Y37.432
X33.37 Y37.533
X33.315 Y37.633
X33.065 Y38.098
X33.004 Y38.211
X32.945 Y38.324
X32.888 Y38.436
X32.716 Y38.775
X32.659 Y38.888
X32.549 Y39.114
X32.524 Y39.164
X32.334 Y39.565
X32.299 Y39.641
X32.186 Y39.888
X32.178 Y39.904
X32.028 Y40.243
X31.979 Y40.355
X31.847 Y40.663
X31.834 Y40.694
X31.787 Y40.807
X31.734 Y40.936
X31.694 Y41.033
X31.621 Y41.216
X31.509 Y41.5
X31.471 Y41.597
X31.428 Y41.71
X31.396 Y41.796
X31.22 Y42.274
X31.179 Y42.387
X31.139 Y42.5
X31.101 Y42.613
X30.911 Y43.178
X30.874 Y43.29
X30.664 Y43.968
X30.631 Y44.081
X30.606 Y44.169
X30.471 Y44.645
X30.44 Y44.758
X30.379 Y44.984
X30.35 Y45.097
X30.264 Y45.435
X30.236 Y45.548
X30.154 Y45.893
X30.13 Y46.
X30.078 Y46.225
X30.054 Y46.338
X29.958 Y46.79
X29.935 Y46.903
X29.913 Y47.016
X29.891 Y47.129
X29.787 Y47.693
X29.766 Y47.806
X29.748 Y47.919
X29.657 Y48.483
X29.639 Y48.596
X29.623 Y48.709
X29.607 Y48.822
X29.546 Y49.273
X29.531 Y49.386
X29.49 Y49.725
X29.477 Y49.838
X29.452 Y50.064
X29.441 Y50.176
X29.387 Y50.741
X29.377 Y50.854
X29.368 Y50.967
X29.319 Y51.644
X29.312 Y51.757
X29.306 Y51.87
X29.3 Y51.983
X29.278 Y52.434
X29.274 Y52.547
X29.262 Y52.886
X29.259 Y52.999
X29.254 Y53.224
X29.252 Y53.337
X29.245 Y54.014
Y54.127
Y67.222
X29.246 Y67.335
X29.251 Y67.394
X29.258 Y67.448
X29.269 Y67.504
X29.284 Y67.561
X29.301 Y67.617
X29.323 Y67.674
X29.342 Y67.716
X29.364 Y67.759
X29.379 Y67.786
X29.414 Y67.843
X29.455 Y67.899
X29.477 Y67.926
X29.515 Y67.969
X29.557 Y68.012
X29.59 Y68.041
X29.645 Y68.086
X29.701 Y68.125
X29.702 Y68.126
X29.759 Y68.16
X29.815 Y68.189
X29.872 Y68.214
X29.928 Y68.235
X29.938 Y68.238
X29.989 Y68.253
X30.041 Y68.265
X30.098 Y68.275
X30.154 Y68.282
X30.21 Y68.286
X30.267
X71.694
X71.75
X71.807 Y68.282
X71.863 Y68.276
X71.919 Y68.266
X71.972 Y68.254
X72.026 Y68.238
X72.032 Y68.236
X72.089 Y68.215
X72.145 Y68.191
X72.202 Y68.162
X72.258 Y68.128
X72.263 Y68.125
X72.317 Y68.087
X72.371 Y68.044
X72.406 Y68.012
X72.447 Y67.971
X72.484 Y67.93
X72.508 Y67.899
X72.549 Y67.843
X72.584 Y67.786
X72.597 Y67.764
X72.62 Y67.719
X72.64 Y67.674
X72.662 Y67.617
X72.68 Y67.561
X72.694 Y67.504
X72.705 Y67.448
X72.71 Y67.417
X72.717 Y67.335
X72.718 Y67.222
Y54.127
Y54.014
X72.713 Y53.45
X72.712 Y53.337
X72.71 Y53.224
X72.704 Y52.999
X72.701 Y52.886
X72.694 Y52.66
X72.689 Y52.547
X72.664 Y51.983
X72.658 Y51.87
X72.651 Y51.757
X72.621 Y51.305
X72.613 Y51.192
X72.586 Y50.854
X72.577 Y50.741
X72.567 Y50.628
X72.556 Y50.515
X72.499 Y49.951
X72.487 Y49.838
X72.484 Y49.814
X72.473 Y49.725
X72.418 Y49.273
X72.403 Y49.16
X72.357 Y48.822
X72.341 Y48.709
X72.324 Y48.596
X72.307 Y48.483
X72.216 Y47.919
X72.197 Y47.806
X72.176 Y47.693
X72.094 Y47.241
X72.073 Y47.129
X72.028 Y46.903
X72.005 Y46.79
X71.958 Y46.564
X71.935 Y46.451
X71.834 Y46.
X71.808 Y45.887
X71.807 Y45.88
X71.782 Y45.774
X71.642 Y45.209
X71.614 Y45.097
X71.584 Y44.984
X71.581 Y44.971
X71.462 Y44.532
X71.43 Y44.419
X71.355 Y44.157
X71.333 Y44.081
X71.266 Y43.855
X71.242 Y43.778
X71.089 Y43.29
X71.053 Y43.178
X71.016 Y43.067
X70.824 Y42.5
X70.791 Y42.405
X70.784 Y42.387
X70.744 Y42.274
X70.62 Y41.936
X70.578 Y41.823
X70.492 Y41.597
X70.452 Y41.493
X70.339 Y41.206
X70.315 Y41.146
X70.176 Y40.807
X70.129 Y40.694
X70.082 Y40.581
X70.033 Y40.468
X69.835 Y40.017
X69.785 Y39.904
X69.775 Y39.881
X69.523 Y39.339
X69.47 Y39.227
X69.436 Y39.157
X69.415 Y39.114
X69.191 Y38.662
X69.134 Y38.549
X69.076 Y38.436
X69.018 Y38.324
X68.872 Y38.045
X68.839 Y37.985
X68.656 Y37.646
X68.646 Y37.628
X68.593 Y37.533
X68.531 Y37.42
X68.466 Y37.308
X68.272 Y36.969
X68.207 Y36.856
X68.194 Y36.835
X68.139 Y36.743
X67.856 Y36.274
X67.797 Y36.179
X67.511 Y35.727
X67.439 Y35.614
X67.404 Y35.56
X67.365 Y35.501
X67.14 Y35.163
X67.066 Y35.051
X66.953 Y34.886
X66.91 Y34.824
X66.727 Y34.563
X66.673 Y34.485
X66.501 Y34.246
X66.429 Y34.147
X66.275 Y33.937
X66.263 Y33.921
X66.05 Y33.636
X66.009 Y33.582
X65.922 Y33.469
X65.836 Y33.357
X65.57 Y33.018
X65.485 Y32.912
X65.48 Y32.905
X65.389 Y32.792
X65.111 Y32.453
X65.034 Y32.36
X65.017 Y32.341
X64.922 Y32.228
X64.633 Y31.889
X64.582 Y31.831
X64.535 Y31.776
X64.469 Y31.702
X64.131 Y31.322
X64.03 Y31.212
X63.679 Y30.833
X63.611 Y30.76
X63.566 Y30.713
X63.176 Y30.309
X63.115 Y30.245
X63.065 Y30.196
X62.663 Y29.795
X62.612 Y29.744
X62.212 Y29.359
X62.142 Y29.293
X61.76 Y28.938
X61.655 Y28.841
X61.196 Y28.43
X61.149 Y28.39
X60.744 Y28.039
X60.631 Y27.944
X60.293 Y27.66
X60.22 Y27.599
X60.18 Y27.567
X59.941 Y27.374
X59.801 Y27.261
X59.728 Y27.202
X59.659 Y27.148
X59.277 Y26.849
X59.225 Y26.809
X59.164 Y26.763
X58.825 Y26.506
X58.778 Y26.471
X58.712 Y26.423
X58.374 Y26.174
X58.316 Y26.132
X58.261 Y26.092
X57.922 Y25.852
X57.84 Y25.793
X57.809 Y25.772
X57.676 Y25.68
X57.471 Y25.539
X57.358 Y25.461
X57.348 Y25.455
X57.01 Y25.229
X56.906 Y25.16
X56.568 Y24.94
X56.491 Y24.89
X56.455 Y24.868
X56.116 Y24.654
X56.003 Y24.584
X55.665 Y24.377
X55.58 Y24.326
X55.326 Y24.175
X55.213 Y24.108
X54.875 Y23.912
X54.808 Y23.874
X54.762 Y23.848
X54.649 Y23.785
X54.536 Y23.721
Y23.72
X54.552 Y23.719
X54.603 Y23.717 Z-0.836
X54.651 Y23.716 Z-0.816
X54.693 Y23.714 Z-0.784
X54.725 Y23.713 Z-0.743
X54.745 Y23.712 Z-0.694
X54.751 Z-0.643
G0 Z5.
X44.711 Y25.391
Z1.035
G1 Z-0.576 F200.
X44.717 Y25.387 Z-0.626 F17.
X44.732 Y25.377 Z-0.673
X44.757 Y25.36 Z-0.714
X44.79 Y25.338 Z-0.746
X44.828 Y25.312 Z-0.767
X44.872 Y25.284 Z-0.776
X44.941 Y25.237 Z-0.779
X45.054 Y25.163 Z-0.784
X45.299 Y25.003 Z-0.794
X45.393 Y24.942 Z-0.798
X45.474 Y24.89 Z-0.801
X45.506 Y24.87 Z-0.802
X45.731 Y24.727 Z-0.812
X45.831 Y24.664 Z-0.816
X45.844 Y24.656
X45.957 Y24.587 Z-0.821
X46.198 Y24.439 Z-0.831
X46.296 Y24.379 Z-0.835
X46.385 Y24.326 Z-0.838
X46.634 Y24.177 Z-0.849
X46.747 Y24.111 Z-0.853
X47.086 Y23.915 Z-0.867
X47.157 Y23.874 Z-0.87
X47.432 Y23.72 Z-0.881
X47.429 Y23.718
X47.423
X47.416
X47.429 F200.
X47.432 Y23.72
X47.157 Y23.874
X47.086 Y23.915
X46.747 Y24.111
X46.634 Y24.177
X46.385 Y24.326
X46.296 Y24.379
X46.198 Y24.439
X45.957 Y24.587
X45.844 Y24.656
X45.831 Y24.664
X45.731 Y24.727
X45.506 Y24.87
X45.474 Y24.89
X45.393 Y24.942
X45.299 Y25.003
X45.054 Y25.163
X44.941 Y25.237
X44.828 Y25.312
X44.617 Y25.455
X44.603 Y25.464
X44.377 Y25.618
X44.287 Y25.68
X44.264 Y25.697
X44.151 Y25.775
X43.925 Y25.934
X43.812 Y26.014
X43.7 Y26.095
X43.649 Y26.132
X43.339 Y26.358
X43.248 Y26.425
X43.188 Y26.471
X42.888 Y26.696
X42.796 Y26.766
X42.74 Y26.809
X42.305 Y27.148
X42.232 Y27.206
X41.884 Y27.487
X41.781 Y27.57
X41.745 Y27.599
X41.668 Y27.664
X41.329 Y27.947
X41.216 Y28.042
X41.206 Y28.051
X41.103 Y28.14
X40.815 Y28.39
X40.765 Y28.434
X40.687 Y28.503
X40.652 Y28.534
X40.313 Y28.838
X40.31 Y28.841
X40.186 Y28.954
X40.087 Y29.045
X39.822 Y29.293
X39.749 Y29.363
X39.585 Y29.518
X39.523 Y29.579
X39.352 Y29.744
X39.297 Y29.798
X39.071 Y30.022
X39.01 Y30.083
X38.846 Y30.249
X38.788 Y30.309
X38.507 Y30.598
X38.46 Y30.647
X38.353 Y30.76
X38.281 Y30.837
X38.038 Y31.099
X37.943 Y31.202
X37.934 Y31.212
X37.831 Y31.325
X37.491 Y31.707
X37.429 Y31.776
X37.378 Y31.835
X37.331 Y31.889
X36.927 Y32.364
X36.853 Y32.453
X36.475 Y32.917
X36.394 Y33.018
X35.955 Y33.582
X35.911 Y33.641
X35.536 Y34.147
X35.459 Y34.251
X35.054 Y34.824
X35.008 Y34.891
X34.669 Y35.396
X34.598 Y35.501
X34.556 Y35.566
X34.218 Y36.097
X34.166 Y36.179
X34.105 Y36.279
X33.825 Y36.743
X33.766 Y36.841
X33.757 Y36.856
X33.692 Y36.969
X33.427 Y37.432
X33.37 Y37.533
X33.315 Y37.633
X33.065 Y38.098
X33.004 Y38.211
X32.945 Y38.324
X32.888 Y38.436
X32.716 Y38.775
X32.659 Y38.888
X32.549 Y39.114
X32.524 Y39.164
X32.334 Y39.565
X32.299 Y39.641
X32.186 Y39.888
X32.178 Y39.904
X32.028 Y40.243
X31.979 Y40.355
X31.847 Y40.663
X31.834 Y40.694
X31.787 Y40.807
X31.734 Y40.936
X31.694 Y41.033
X31.621 Y41.216
X31.509 Y41.5
X31.471 Y41.597
X31.428 Y41.71
X31.396 Y41.796
X31.22 Y42.274
X31.179 Y42.387
X31.139 Y42.5
X31.101 Y42.613
X30.911 Y43.178
X30.874 Y43.29
X30.664 Y43.968
X30.631 Y44.081
X30.606 Y44.169
X30.471 Y44.645
X30.44 Y44.758
X30.379 Y44.984
X30.35 Y45.097
X30.264 Y45.435
X30.236 Y45.548
X30.154 Y45.893
X30.13 Y46.
X30.078 Y46.225
X30.054 Y46.338
X29.958 Y46.79
X29.935 Y46.903
X29.913 Y47.016
X29.891 Y47.129
X29.787 Y47.693
X29.766 Y47.806
X29.748 Y47.919
X29.657 Y48.483
X29.639 Y48.596
X29.623 Y48.709
X29.607 Y48.822
X29.546 Y49.273
X29.531 Y49.386
X29.49 Y49.725
X29.477 Y49.838
X29.452 Y50.064
X29.441 Y50.176
X29.387 Y50.741
X29.377 Y50.854
X29.368 Y50.967
X29.319 Y51.644
X29.312 Y51.757
X29.306 Y51.87
X29.3 Y51.983
X29.278 Y52.434
X29.274 Y52.547
X29.262 Y52.886
X29.259 Y52.999
X29.254 Y53.224
X29.252 Y53.337
X29.245 Y54.014
Y54.127
Y67.222
X29.246 Y67.335
X29.251 Y67.394
X29.258 Y67.448
X29.269 Y67.504
X29.284 Y67.561
X29.301 Y67.617
X29.323 Y67.674
X29.342 Y67.716
X29.364 Y67.759
X29.379 Y67.786
X29.414 Y67.843
X29.455 Y67.899
X29.477 Y67.926
X29.515 Y67.969
X29.557 Y68.012
X29.59 Y68.041
X29.645 Y68.086
X29.701 Y68.125
X29.702 Y68.126
X29.759 Y68.16
X29.815 Y68.189
X29.872 Y68.214
X29.928 Y68.235
X29.938 Y68.238
X29.989 Y68.253
X30.041 Y68.265
X30.098 Y68.275
X30.154 Y68.282
X30.21 Y68.286
X30.267
X71.694
X71.75
X71.807 Y68.282
X71.863 Y68.276
X71.919 Y68.266
X71.972 Y68.254
X72.026 Y68.238
X72.032 Y68.236
X72.089 Y68.215
X72.145 Y68.191
X72.202 Y68.162
X72.258 Y68.128
X72.263 Y68.125
X72.317 Y68.087
X72.371 Y68.044
X72.406 Y68.012
X72.447 Y67.971
X72.484 Y67.93
X72.508 Y67.899
X72.549 Y67.843
X72.584 Y67.786
X72.597 Y67.764
X72.62 Y67.719
X72.64 Y67.674
X72.662 Y67.617
X72.68 Y67.561
X72.694 Y67.504
X72.705 Y67.448
X72.71 Y67.417
X72.717 Y67.335
X72.718 Y67.222
Y54.127
Y54.014
X72.713 Y53.45
X72.712 Y53.337
X72.71 Y53.224
X72.704 Y52.999
X72.701 Y52.886
X72.694 Y52.66
X72.689 Y52.547
X72.664 Y51.983
X72.658 Y51.87
X72.651 Y51.757
X72.621 Y51.305
X72.613 Y51.192
X72.586 Y50.854
X72.577 Y50.741
X72.567 Y50.628
X72.556 Y50.515
X72.499 Y49.951
X72.487 Y49.838
X72.484 Y49.814
X72.473 Y49.725
X72.418 Y49.273
X72.403 Y49.16
X72.357 Y48.822
X72.341 Y48.709
X72.324 Y48.596
X72.307 Y48.483
X72.216 Y47.919
X72.197 Y47.806
X72.176 Y47.693
X72.094 Y47.241
X72.073 Y47.129
X72.028 Y46.903
X72.005 Y46.79
X71.958 Y46.564
X71.935 Y46.451
X71.834 Y46.
X71.808 Y45.887
X71.807 Y45.88
X71.782 Y45.774
X71.642 Y45.209
X71.614 Y45.097
X71.584 Y44.984
X71.581 Y44.971
X71.462 Y44.532
X71.43 Y44.419
X71.355 Y44.157
X71.333 Y44.081
X71.266 Y43.855
X71.242 Y43.778
X71.089 Y43.29
X71.053 Y43.178
X71.016 Y43.067
X70.824 Y42.5
X70.791 Y42.405
X70.784 Y42.387
X70.744 Y42.274
X70.62 Y41.936
X70.578 Y41.823
X70.492 Y41.597
X70.452 Y41.493
X70.339 Y41.206
X70.315 Y41.146
X70.176 Y40.807
X70.129 Y40.694
X70.082 Y40.581
X70.033 Y40.468
X69.835 Y40.017
X69.785 Y39.904
X69.775 Y39.881
X69.523 Y39.339
X69.47 Y39.227
X69.436 Y39.157
X69.415 Y39.114
X69.191 Y38.662
X69.134 Y38.549
X69.076 Y38.436
X69.018 Y38.324
X68.872 Y38.045
X68.839 Y37.985
X68.656 Y37.646
X68.646 Y37.628
X68.593 Y37.533
X68.531 Y37.42
X68.466 Y37.308
X68.272 Y36.969
X68.207 Y36.856
X68.194 Y36.835
X68.139 Y36.743
X67.856 Y36.274
X67.797 Y36.179
X67.511 Y35.727
X67.439 Y35.614
X67.404 Y35.56
X67.365 Y35.501
X67.14 Y35.163
X67.066 Y35.051
X66.953 Y34.886
X66.91 Y34.824
X66.727 Y34.563
X66.673 Y34.485
X66.501 Y34.246
X66.429 Y34.147
X66.275 Y33.937
X66.263 Y33.921
X66.05 Y33.636
X66.009 Y33.582
X65.922 Y33.469
X65.836 Y33.357
X65.57 Y33.018
X65.485 Y32.912
X65.48 Y32.905
X65.389 Y32.792
X65.111 Y32.453
X65.034 Y32.36
X65.017 Y32.341
X64.922 Y32.228
X64.633 Y31.889
X64.582 Y31.831
X64.535 Y31.776
X64.469 Y31.702
X64.131 Y31.322
X64.03 Y31.212
X63.679 Y30.833
X63.611 Y30.76
X63.566 Y30.713
X63.176 Y30.309
X63.115 Y30.245
X63.065 Y30.196
X62.663 Y29.795
X62.612 Y29.744
X62.212 Y29.359
X62.142 Y29.293
X61.76 Y28.938
X61.655 Y28.841
X61.196 Y28.43
X61.149 Y28.39
X60.744 Y28.039
X60.631 Y27.944
X60.293 Y27.66
X60.22 Y27.599
X60.18 Y27.567
X59.941 Y27.374
X59.801 Y27.261
X59.728 Y27.202
X59.659 Y27.148
X59.277 Y26.849
X59.225 Y26.809
X59.164 Y26.763
X58.825 Y26.506
X58.778 Y26.471
X58.712 Y26.423
X58.374 Y26.174
X58.316 Y26.132
X58.261 Y26.092
X57.922 Y25.852
X57.84 Y25.793
X57.809 Y25.772
X57.676 Y25.68
X57.471 Y25.539
X57.358 Y25.461
X57.348 Y25.455
X57.01 Y25.229
X56.906 Y25.16
X56.568 Y24.94
X56.491 Y24.89
X56.455 Y24.868
X56.116 Y24.654
X56.003 Y24.584
X55.665 Y24.377
X55.58 Y24.326
X55.326 Y24.175
X55.213 Y24.108
X54.875 Y23.912
X54.808 Y23.874
X54.762 Y23.848
X54.649 Y23.785
X54.536 Y23.721
Y23.72
X54.552 Y23.719
X54.603 Y23.717 Z-0.874
X54.651 Y23.716 Z-0.854
X54.693 Y23.714 Z-0.823
X54.725 Y23.713 Z-0.781
X54.745 Y23.712 Z-0.733
X54.751 Z-0.681
G0 Z5.
X44.124 Y25.794
Z1.035
G1 Z-0.676 F200.
X44.127 Y25.792 Z-0.715 F17.
X44.136 Y25.786 Z-0.752
X44.151 Y25.775 Z-0.787
X44.176 Y25.758 Z-0.823
X44.208 Y25.736 Z-0.851
X44.244 Y25.711 Z-0.869
X44.282 Y25.684 Z-0.876
X44.287 Y25.68
X44.377 Y25.618 Z-0.88
X44.603 Y25.464 Z-0.889
X44.617 Y25.455 Z-0.89
X44.828 Y25.312 Z-0.899
X44.941 Y25.237 Z-0.904
X45.054 Y25.163 Z-0.908
X45.299 Y25.003 Z-0.919
X45.393 Y24.942 Z-0.923
X45.474 Y24.89 Z-0.926
X45.506 Y24.87 Z-0.927
X45.731 Y24.727 Z-0.937
X45.831 Y24.664 Z-0.941
X45.844 Y24.656
X45.957 Y24.587 Z-0.946
X46.198 Y24.439 Z-0.956
X46.296 Y24.379 Z-0.96
X46.385 Y24.326 Z-0.963
X46.634 Y24.177 Z-0.973
X46.747 Y24.111 Z-0.978
X46.803 Y24.079 Z-0.98
X46.801 Y24.076
X46.783 Y24.081 Z-0.981
X46.777 Y24.083
X46.801 Y24.076 F200.
X46.803 Y24.079
X46.747 Y24.111
X46.634 Y24.177
X46.385 Y24.326
X46.296 Y24.379
X46.198 Y24.439
X45.957 Y24.587
X45.844 Y24.656
X45.831 Y24.664
X45.731 Y24.727
X45.506 Y24.87
X45.474 Y24.89
X45.393 Y24.942
X45.299 Y25.003
X45.054 Y25.163
X44.941 Y25.237
X44.828 Y25.312
X44.617 Y25.455
X44.603 Y25.464
X44.377 Y25.618
X44.287 Y25.68
X44.264 Y25.697
X44.151 Y25.775
X43.925 Y25.934
X43.812 Y26.014
X43.7 Y26.095
X43.649 Y26.132
X43.339 Y26.358
X43.248 Y26.425
X43.188 Y26.471
X42.888 Y26.696
X42.796 Y26.766
X42.74 Y26.809
X42.305 Y27.148
X42.232 Y27.206
X41.884 Y27.487
X41.781 Y27.57
X41.745 Y27.599
X41.668 Y27.664
X41.329 Y27.947
X41.216 Y28.042
X41.206 Y28.051
X41.103 Y28.14
X40.815 Y28.39
X40.765 Y28.434
X40.687 Y28.503
X40.652 Y28.534
X40.313 Y28.838
X40.31 Y28.841
X40.186 Y28.954
X40.087 Y29.045
X39.822 Y29.293
X39.749 Y29.363
X39.585 Y29.518
X39.523 Y29.579
X39.352 Y29.744
X39.297 Y29.798
X39.071 Y30.022
X39.01 Y30.083
X38.846 Y30.249
X38.788 Y30.309
X38.507 Y30.598
X38.46 Y30.647
X38.353 Y30.76
X38.281 Y30.837
X38.038 Y31.099
X37.943 Y31.202
X37.934 Y31.212
X37.831 Y31.325
X37.491 Y31.707
X37.429 Y31.776
X37.378 Y31.835
X37.331 Y31.889
X36.927 Y32.364
X36.853 Y32.453
X36.475 Y32.917
X36.394 Y33.018
X35.955 Y33.582
X35.911 Y33.641
X35.536 Y34.147
X35.459 Y34.251
X35.054 Y34.824
X35.008 Y34.891
X34.669 Y35.396
X34.598 Y35.501
X34.556 Y35.566
X34.218 Y36.097
X34.166 Y36.179
X34.105 Y36.279
X33.825 Y36.743
X33.766 Y36.841
X33.757 Y36.856
X33.692 Y36.969
X33.427 Y37.432
X33.37 Y37.533
X33.315 Y37.633
X33.065 Y38.098
X33.004 Y38.211
X32.945 Y38.324
X32.888 Y38.436
X32.716 Y38.775
X32.659 Y38.888
X32.549 Y39.114
X32.524 Y39.164
X32.334 Y39.565
X32.299 Y39.641
X32.186 Y39.888
X32.178 Y39.904
X32.028 Y40.243
X31.979 Y40.355
X31.847 Y40.663
X31.834 Y40.694
X31.787 Y40.807
X31.734 Y40.936
X31.694 Y41.033
X31.621 Y41.216
X31.509 Y41.5
X31.471 Y41.597
X31.428 Y41.71
X31.396 Y41.796
X31.22 Y42.274
X31.179 Y42.387
X31.139 Y42.5
X31.101 Y42.613
X30.911 Y43.178
X30.874 Y43.29
X30.664 Y43.968
X30.631 Y44.081
X30.606 Y44.169
X30.471 Y44.645
X30.44 Y44.758
X30.379 Y44.984
X30.35 Y45.097
X30.264 Y45.435
X30.236 Y45.548
X30.154 Y45.893
X30.13 Y46.
X30.078 Y46.225
X30.054 Y46.338
X29.958 Y46.79
X29.935 Y46.903
X29.913 Y47.016
X29.891 Y47.129
X29.787 Y47.693
X29.766 Y47.806
X29.748 Y47.919
X29.657 Y48.483
X29.639 Y48.596
X29.623 Y48.709
X29.607 Y48.822
X29.546 Y49.273
X29.531 Y49.386
X29.49 Y49.725
X29.477 Y49.838
X29.452 Y50.064
X29.441 Y50.176
X29.387 Y50.741
X29.377 Y50.854
X29.368 Y50.967
X29.319 Y51.644
X29.312 Y51.757
X29.306 Y51.87
X29.3 Y51.983
X29.278 Y52.434
X29.274 Y52.547
X29.262 Y52.886
X29.259 Y52.999
X29.254 Y53.224
X29.252 Y53.337
X29.245 Y54.014
Y54.127
Y67.222
X29.246 Y67.335
X29.251 Y67.394
X29.258 Y67.448
X29.269 Y67.504
X29.284 Y67.561
X29.301 Y67.617
X29.323 Y67.674
X29.342 Y67.716
X29.364 Y67.759
X29.379 Y67.786
X29.414 Y67.843
X29.455 Y67.899
X29.477 Y67.926
X29.515 Y67.969
X29.557 Y68.012
X29.59 Y68.041
X29.645 Y68.086
X29.701 Y68.125
X29.702 Y68.126
X29.759 Y68.16
X29.815 Y68.189
X29.872 Y68.214
X29.928 Y68.235
X29.938 Y68.238
X29.989 Y68.253
X30.041 Y68.265
X30.098 Y68.275
X30.154 Y68.282
X30.21 Y68.286
X30.267
X71.694
X71.75
X71.807 Y68.282
X71.863 Y68.276
X71.919 Y68.266
X71.972 Y68.254
X72.026 Y68.238
X72.032 Y68.236
X72.089 Y68.215
X72.145 Y68.191
X72.202 Y68.162
X72.258 Y68.128
X72.263 Y68.125
X72.317 Y68.087
X72.371 Y68.044
X72.406 Y68.012
X72.447 Y67.971
X72.484 Y67.93
X72.508 Y67.899
X72.549 Y67.843
X72.584 Y67.786
X72.597 Y67.764
X72.62 Y67.719
X72.64 Y67.674
X72.662 Y67.617
X72.68 Y67.561
X72.694 Y67.504
X72.705 Y67.448
X72.71 Y67.417
X72.717 Y67.335
X72.718 Y67.222
Y54.127
Y54.014
X72.713 Y53.45
X72.712 Y53.337
X72.71 Y53.224
X72.704 Y52.999
X72.701 Y52.886
X72.694 Y52.66
X72.689 Y52.547
X72.664 Y51.983
X72.658 Y51.87
X72.651 Y51.757
X72.621 Y51.305
X72.613 Y51.192
X72.586 Y50.854
X72.577 Y50.741
X72.567 Y50.628
X72.556 Y50.515
X72.499 Y49.951
X72.487 Y49.838
X72.484 Y49.814
X72.473 Y49.725
X72.418 Y49.273
X72.403 Y49.16
X72.357 Y48.822
X72.341 Y48.709
X72.324 Y48.596
X72.307 Y48.483
X72.216 Y47.919
X72.197 Y47.806
X72.176 Y47.693
X72.094 Y47.241
X72.073 Y47.129
X72.028 Y46.903
X72.005 Y46.79
X71.958 Y46.564
X71.935 Y46.451
X71.834 Y46.
X71.808 Y45.887
X71.807 Y45.88
X71.782 Y45.774
X71.642 Y45.209
X71.614 Y45.097
X71.584 Y44.984
X71.581 Y44.971
X71.462 Y44.532
X71.43 Y44.419
X71.355 Y44.157
X71.333 Y44.081
X71.266 Y43.855
X71.242 Y43.778
X71.089 Y43.29
X71.053 Y43.178
X71.016 Y43.067
X70.824 Y42.5
X70.791 Y42.405
X70.784 Y42.387
X70.744 Y42.274
X70.62 Y41.936
X70.578 Y41.823
X70.492 Y41.597
X70.452 Y41.493
X70.339 Y41.206
X70.315 Y41.146
X70.176 Y40.807
X70.129 Y40.694
X70.082 Y40.581
X70.033 Y40.468
X69.835 Y40.017
X69.785 Y39.904
X69.775 Y39.881
X69.523 Y39.339
X69.47 Y39.227
X69.436 Y39.157
X69.415 Y39.114
X69.191 Y38.662
X69.134 Y38.549
X69.076 Y38.436
X69.018 Y38.324
X68.872 Y38.045
X68.839 Y37.985
X68.656 Y37.646
X68.646 Y37.628
X68.593 Y37.533
X68.531 Y37.42
X68.466 Y37.308
X68.272 Y36.969
X68.207 Y36.856
X68.194 Y36.835
X68.139 Y36.743
X67.856 Y36.274
X67.797 Y36.179
X67.511 Y35.727
X67.439 Y35.614
X67.404 Y35.56
X67.365 Y35.501
X67.14 Y35.163
X67.066 Y35.051
X66.953 Y34.886
X66.91 Y34.824
X66.727 Y34.563
X66.673 Y34.485
X66.501 Y34.246
X66.429 Y34.147
X66.275 Y33.937
X66.263 Y33.921
X66.05 Y33.636
X66.009 Y33.582
X65.922 Y33.469
X65.836 Y33.357
X65.57 Y33.018
X65.485 Y32.912
X65.48 Y32.905
X65.389 Y32.792
X65.111 Y32.453
X65.034 Y32.36
X65.017 Y32.341
X64.922 Y32.228
X64.633 Y31.889
X64.582 Y31.831
X64.535 Y31.776
X64.469 Y31.702
X64.131 Y31.322
X64.03 Y31.212
X63.679 Y30.833
X63.611 Y30.76
X63.566 Y30.713
X63.176 Y30.309
X63.115 Y30.245
X63.065 Y30.196
X62.663 Y29.795
X62.612 Y29.744
X62.212 Y29.359
X62.142 Y29.293
X61.76 Y28.938
X61.655 Y28.841
X61.196 Y28.43
X61.149 Y28.39
X60.744 Y28.039
X60.631 Y27.944
X60.293 Y27.66
X60.22 Y27.599
X60.18 Y27.567
X59.941 Y27.374
X59.801 Y27.261
X59.728 Y27.202
X59.659 Y27.148
X59.277 Y26.849
X59.225 Y26.809
X59.164 Y26.763
X58.825 Y26.506
X58.778 Y26.471
X58.712 Y26.423
X58.374 Y26.174
X58.316 Y26.132
X58.261 Y26.092
X57.922 Y25.852
X57.84 Y25.793
X57.809 Y25.772
X57.676 Y25.68
X57.471 Y25.539
X57.358 Y25.461
X57.348 Y25.455
X57.01 Y25.229
X56.906 Y25.16
X56.568 Y24.94
X56.491 Y24.89
X56.455 Y24.868
X56.116 Y24.654
X56.003 Y24.584
X55.665 Y24.377
X55.58 Y24.326
X55.326 Y24.175
X55.213 Y24.108
X55.164 Y24.08
X55.165 Y24.077
X55.191 Y24.084
X55.207 Y24.088 Z-0.97
X55.217 Y24.091 Z-0.954
X55.221 Y24.092 Z-0.935
G0 Z5.
X44.124 Y25.794
Z1.035
G1 Z-0.715 F200.
X44.127 Y25.792 Z-0.753 F17.
X44.136 Y25.786 Z-0.791
X44.151 Y25.775 Z-0.825
X44.176 Y25.758 Z-0.861
X44.208 Y25.736 Z-0.889
X44.244 Y25.711 Z-0.907
X44.282 Y25.684 Z-0.914
X44.287 Y25.68 Z-0.915
X44.377 Y25.618 Z-0.918
X44.603 Y25.464 Z-0.928
X44.617 Y25.455 Z-0.929
X44.828 Y25.312 Z-0.938
X44.941 Y25.237 Z-0.942
X45.054 Y25.163 Z-0.947
X45.299 Y25.003 Z-0.957
X45.393 Y24.942 Z-0.961
X45.474 Y24.89 Z-0.964
X45.506 Y24.87 Z-0.966
X45.731 Y24.727 Z-0.975
X45.831 Y24.664 Z-0.979
X45.844 Y24.656 Z-0.98
X45.957 Y24.587 Z-0.984
X46.198 Y24.439 Z-0.994
X46.296 Y24.379 Z-0.998
X46.385 Y24.326 Z-1.002
X46.634 Y24.177 Z-1.012
X46.747 Y24.111 Z-1.017
X46.803 Y24.079 Z-1.019
X46.801 Y24.076
X46.783 Y24.081 Z-1.02
X46.777 Y24.083
X46.801 Y24.076 F200.
X46.803 Y24.079
X46.747 Y24.111
X46.634 Y24.177
X46.385 Y24.326
X46.296 Y24.379
X46.198 Y24.439
X45.957 Y24.587
X45.844 Y24.656
X45.831 Y24.664
X45.731 Y24.727
X45.506 Y24.87
X45.474 Y24.89
X45.393 Y24.942
X45.299 Y25.003
X45.054 Y25.163
X44.941 Y25.237
X44.828 Y25.312
X44.617 Y25.455
X44.603 Y25.464
X44.377 Y25.618
X44.287 Y25.68
X44.264 Y25.697
X44.151 Y25.775
X43.925 Y25.934
X43.812 Y26.014
X43.7 Y26.095
X43.649 Y26.132
X43.339 Y26.358
X43.248 Y26.425
X43.188 Y26.471
X42.888 Y26.696
X42.796 Y26.766
X42.74 Y26.809
X42.305 Y27.148
X42.232 Y27.206
X41.884 Y27.487
