(1001)
(T1  D=0.396 CR=0. - ZMIN=-1.02 - FLAT END MILL)
G0 G90 G94 G17
G21
G53 G0 Z0.

(0.4MM  FLATEND  PARALLEL)
M5
M9
T1
S16500 M3
G4 P4.
G55
G0 X69.878 Y32.227
Z15.
Z1.219
G1 Z-1.009 F142.
Z-1.01
Z-1.02
X69.464
X69.455 Z-1.018
X69.447 Z-1.016
X69.206
X69.183 Y32.232
X69.164 Y32.245
X69.151 Y32.264
X69.147 Y32.287
Y32.366
X69.151 Y32.389
X69.164 Y32.408
X69.183 Y32.421
X69.206 Y32.425
X69.215 Z-1.018
X69.224 Z-1.02
X70.045
Z-1.01
X70.085 Y32.473
X70.123 Y32.523
X70.198 Y32.623
X70.197 Z-1.02
X68.988
X68.979 Z-1.018
X68.97 Z-1.016
X68.74
X68.717 Y32.628
X68.698 Y32.641
X68.685 Y32.66
X68.68 Y32.683
Y32.762
X68.685 Y32.785
X68.698 Y32.804
X68.717 Y32.817
X68.74 Y32.821
X68.749 Z-1.018
X68.757 Z-1.02
X70.346
Z-1.01
X70.383 Y32.87
X70.419 Y32.92
X70.455 Y32.969
X70.49 Y33.02
Z-1.02
X68.533
X68.524 Z-1.018
X68.516 Z-1.016
X68.305
X68.282 Y33.024
X68.263 Y33.037
X68.25 Y33.056
X68.245 Y33.079
Y33.158
X68.25 Y33.181
X68.263 Y33.2
X68.282 Y33.213
X68.305 Y33.218
X68.313 Z-1.018
X68.322 Z-1.02
X70.629
Z-1.01
X70.664 Y33.267
X70.734 Y33.366
X70.768 Y33.416
X70.766 Z-1.02
X68.308
X68.299 Z-1.018
X68.29 Z-1.016
X68.268 Y33.42
X68.248 Y33.433
X68.236 Y33.452
X68.231 Y33.475
Y33.554
X68.236 Y33.577
X68.248 Y33.596
X68.268 Y33.609
X68.29 Y33.614
X68.47
X68.479 Z-1.018
X68.487 Z-1.02
X70.899
Z-1.01
X70.932 Y33.663
X70.997 Y33.762
X71.03 Y33.812
X71.029 Z-1.02
X68.672
X68.664 Z-1.018
X68.655 Z-1.016
X68.632 Y33.816
X68.613 Y33.829
X68.6 Y33.849
X68.595 Y33.871
Y33.951
X68.6 Y33.973
X68.613 Y33.993
X68.632 Y34.005
X68.655 Y34.01
X68.827
X68.836 Z-1.018
X68.845 Z-1.02
X71.155
Z-1.01
X71.186 Y34.059
X71.277 Y34.208
X71.276 Z-1.02
X69.008
X69. Z-1.018
X68.991 Z-1.016
X68.968 Y34.213
X68.949 Y34.225
X68.936 Y34.245
X68.932 Y34.267
Y34.347
X68.936 Y34.369
X68.949 Y34.389
X68.968 Y34.402
X68.991 Y34.406
X69.15
X69.159 Z-1.018
X69.168 Z-1.02
X71.396
X71.425 Y34.456
X71.512 Y34.604
X69.315
X69.306 Z-1.018
X69.297 Z-1.016
X69.275 Y34.609
X69.255 Y34.622
X69.243 Y34.641
X69.238 Y34.664
Y34.743
X69.243 Y34.766
X69.255 Y34.785
X69.275 Y34.798
X69.297 Y34.802
X69.445
X69.453 Z-1.018
X69.462 Z-1.02
X71.625
X71.652 Y34.852 Z-1.017
X71.679 Y34.901 Z-1.015
X71.733 Y35. Z-1.01
X71.732 Z-1.02
X69.598
X69.589 Z-1.018
X69.581 Z-1.016
X69.558 Y35.005
X69.539 Y35.018
X69.526 Y35.037
X69.521 Y35.06
Y35.139
X69.526 Y35.162
X69.539 Y35.181
X69.558 Y35.194
X69.581 Y35.199
X69.714
X69.723 Z-1.018
X69.732 Z-1.02
X71.836
X71.837 Z-1.01
X71.863 Y35.248
X71.888 Y35.297
X71.913 Y35.347
X71.938 Y35.397
X71.937 Z-1.02
X69.862
X69.853 Z-1.018
X69.844 Z-1.016
X69.822 Y35.401
X69.802 Y35.414
X69.789 Y35.433
X69.785 Y35.456
Y35.535
X69.789 Y35.558
X69.802 Y35.577
X69.822 Y35.59
X69.844 Y35.595
X69.967
X69.975 Z-1.018
X69.984 Z-1.02
X72.033
X72.034 Z-1.01
X72.058 Y35.644 Z-1.012
X72.081 Y35.694 Z-1.015
X72.104 Y35.743 Z-1.017
X72.126 Y35.793 Z-1.02
X70.107
X70.098 Z-1.018
X70.089 Z-1.016
X70.066 Y35.797
X70.047 Y35.81
X70.034 Y35.829
X70.03 Y35.852
Y35.931
X70.034 Y35.954
X70.047 Y35.973
X70.066 Y35.986
X70.089 Y35.991
X70.205
X70.213 Z-1.018
X70.222 Z-1.02
X72.212
X72.213 Z-1.01
X72.294 Y36.189
X72.293 Z-1.02
X70.335
X70.326 Z-1.018
X70.318 Z-1.016
X70.295 Y36.194
X70.276 Y36.206
X70.263 Y36.226
X70.258 Y36.248
Y36.328
X70.263 Y36.35
X70.276 Y36.37
X70.295 Y36.383
X70.318 Y36.387
X70.429
X70.438 Z-1.018
X70.447 Z-1.02
X72.407
X72.409 Z-1.01
X72.559 Y36.585
X72.558 Z-1.02
X70.552
X70.543 Z-1.018
X70.534 Z-1.016
X70.512 Y36.59
X70.492 Y36.603
X70.48 Y36.622
X70.475 Y36.645
Y36.724
X70.48 Y36.747
X70.492 Y36.766
X70.512 Y36.779
X70.534 Y36.783
X70.639
X70.648 Z-1.018
X70.657 Z-1.02
X72.71
Z-1.01
X72.749 Y36.834
X72.826 Y36.934
X72.868 Y36.981
Z-1.02
X70.758
X70.738 Z-1.014
X70.724 Z-1.
X70.719 Z-0.98
G0 Z5.
X76.233 Y34.802
Z1.219
G1 Z-1.02 F142.
X76.538
X76.546 Z-1.018
X76.555 Z-1.016
X76.65
X76.673 Y34.807
X76.692 Y34.82
X76.705 Y34.839
X76.709 Y34.862
Y34.941
X76.705 Y34.964
X76.692 Y34.983
X76.673 Y34.996
X76.65 Y35.
X76.641 Z-1.018
X76.633 Z-1.02
X75.932
Z-1.01
X75.931 Y35.001 Z-0.996
X75.927 Y35.004 Z-0.984
X75.921 Y35.008 Z-0.973
X75.913 Y35.013 Z-0.963
X75.904 Y35.019 Z-0.956
X75.894 Y35.026 Z-0.952
X75.883 Y35.033 Z-0.95
X75.682 Y35.166
X75.671 Y35.173 Z-0.952
X75.661 Y35.18 Z-0.956
X75.651 Y35.186 Z-0.963
X75.643 Y35.191 Z-0.973
X75.637 Y35.195 Z-0.984
X75.634 Y35.198 Z-0.996
X75.633 Y35.199 Z-1.01
Z-1.02
X76.724
X76.733 Z-1.018
X76.742 Z-1.016
X76.833
X76.856 Y35.203
X76.876 Y35.216
X76.888 Y35.235
X76.893 Y35.258
Y35.337
X76.888 Y35.36
X76.876 Y35.379
X76.856 Y35.392
X76.833 Y35.397
X76.825 Z-1.018
X76.816 Z-1.02
X75.333
Z-1.01
X75.296 Y35.421 Z-1.011
X75.147 Y35.519 Z-1.016
X75.111 Y35.544 Z-1.017
X75.037 Y35.595 Z-1.02
X76.905
X76.913 Z-1.018
X76.922 Z-1.016
X77.01
X77.033 Y35.599
X77.052 Y35.612
X77.065 Y35.631
X77.069 Y35.654
Y35.733
X77.065 Y35.756
X77.052 Y35.775
X77.033 Y35.788
X77.01 Y35.793
X77.001 Z-1.018
X76.993 Z-1.02
X74.748
X74.459 Y35.991
X77.08
X77.088 Z-1.018
X77.097 Z-1.016
X77.181
X77.204 Y35.995
X77.223 Y36.008
X77.236 Y36.028
X77.241 Y36.05
Y36.13
X77.236 Y36.152
X77.223 Y36.172
X77.204 Y36.184
X77.181 Y36.189
X77.173 Z-1.018
X77.164 Z-1.02
X74.175 Z-1.019
Z-1.01
X73.965 Y36.337
X73.895 Y36.387
Z-1.02
X77.248
X77.257 Z-1.018
X77.265 Z-1.016
X77.348
X77.37 Y36.392
X77.39 Y36.404
X77.403 Y36.424
X77.407 Y36.447
Y36.526
X77.403 Y36.548
X77.39 Y36.568
X77.37 Y36.581
X77.348 Y36.585
X77.339 Z-1.018
X77.33 Z-1.02
X73.619
Z-1.01
X73.551 Y36.634
X73.483 Y36.684
X73.416 Y36.733
X73.348 Y36.783
Z-1.02
X77.411
X77.42 Z-1.018
X77.429 Z-1.016
X77.509
X77.532 Y36.788
X77.551 Y36.801
X77.564 Y36.82
X77.569 Y36.843
Y36.922
X77.564 Y36.945
X77.551 Y36.964
X77.532 Y36.977
X77.509 Y36.981
X77.501 Z-1.018
X77.492 Z-1.02
X73.118
Z-1.01
G0 Z5.
X70.817 Y37.179
Z0.98
G1 Z-0.98 F142.
X70.822 Z-1.
X70.836 Z-1.014
X70.856 Z-1.02
X77.57
X77.579 Z-1.018
X77.587 Z-1.016
X77.665
X77.688 Y37.184
X77.707 Y37.197
X77.72 Y37.216
X77.725 Y37.239
Y37.318
X77.72 Y37.341
X77.707 Y37.36
X77.688 Y37.373
X77.665 Y37.378
X77.656 Z-1.018
X77.648 Z-1.02
X70.954
X70.945 Z-1.018
X70.937 Z-1.016
X70.914 Y37.382
X70.895 Y37.395
X70.882 Y37.414
X70.877 Y37.437
Y37.516
X70.882 Y37.539
X70.895 Y37.558
X70.914 Y37.571
X70.937 Y37.576
X71.029
X71.038 Z-1.018
X71.047 Z-1.02
X77.725
X77.733 Z-1.018
X77.742 Z-1.016
X77.817
X77.84 Y37.58
X77.859 Y37.593
X77.872 Y37.612
X77.877 Y37.635
Y37.714
X77.872 Y37.737
X77.859 Y37.756
X77.84 Y37.769
X77.817 Y37.774
X77.808 Z-1.018
X77.8 Z-1.02
X71.139
X71.13 Z-1.018
X71.121 Z-1.016
X71.099 Y37.778
X71.079 Y37.791
X71.066 Y37.81
X71.062 Y37.833
Y37.912
X71.066 Y37.935
X71.079 Y37.954
X71.099 Y37.967
X71.121 Y37.972
X71.212
X71.221 Z-1.018
X71.23 Z-1.02
X77.875
X77.883 Z-1.018
X77.892 Z-1.016
X77.966
X77.988 Y37.976
X78.008 Y37.989
X78.02 Y38.009
X78.025 Y38.031
Y38.11
X78.02 Y38.133
X78.008 Y38.152
X77.988 Y38.165
X77.966 Y38.17
X77.957 Z-1.018
X77.948 Z-1.02
X71.316
X71.307 Z-1.018
X71.299 Z-1.016
X71.276 Y38.174
X71.257 Y38.187
X71.244 Y38.207
X71.239 Y38.229
Y38.309
X71.244 Y38.331
X71.257 Y38.351
X71.276 Y38.363
X71.299 Y38.368
X71.385
X71.394 Z-1.018
X71.402 Z-1.02
X78.021
X78.029 Z-1.018
X78.038 Z-1.016
X78.11
X78.133 Y38.373
X78.152 Y38.385
X78.165 Y38.405
X78.17 Y38.427
Y38.507
X78.165 Y38.529
X78.152 Y38.549
X78.133 Y38.562
X78.11 Y38.566
X78.102 Z-1.018
X78.093 Z-1.02
X71.487
X71.478 Z-1.018
X71.469 Z-1.016
X71.446 Y38.571
X71.427 Y38.583
X71.414 Y38.603
X71.41 Y38.626
Y38.705
X71.414 Y38.727
X71.427 Y38.747
X71.446 Y38.76
X71.469 Y38.764
X71.551
X71.559 Z-1.018
X71.568 Z-1.02
X78.163
X78.172 Z-1.018
X78.18 Z-1.016
X78.25
X78.273 Y38.769
X78.292 Y38.782
X78.305 Y38.801
X78.31 Y38.824
Y38.903
X78.305 Y38.926
X78.292 Y38.945
X78.273 Y38.958
X78.25 Y38.962
X78.242 Z-1.018
X78.233 Z-1.02
X71.649
X71.641 Z-1.018
X71.632 Z-1.016
X71.609 Y38.967
X71.59 Y38.98
X71.577 Y38.999
X71.573 Y39.022
Y39.101
X71.577 Y39.124
X71.59 Y39.143
X71.609 Y39.156
X71.632 Y39.16
X71.71
X71.719 Z-1.018
X71.728 Z-1.02
X78.302
X78.311 Z-1.018
X78.32 Z-1.016
X78.387
X78.41 Y39.165
X78.429 Y39.178
X78.442 Y39.197
X78.447 Y39.22
Y39.299
X78.442 Y39.322
X78.429 Y39.341
X78.41 Y39.354
X78.387 Y39.358
X78.379 Z-1.018
X78.37 Z-1.02
X71.805
X71.796 Z-1.018
X71.787 Z-1.016
X71.765 Y39.363
X71.745 Y39.376
X71.732 Y39.395
X71.728 Y39.418
Y39.497
X71.732 Y39.52
X71.745 Y39.539
X71.765 Y39.552
X71.787 Y39.557
X71.864
X71.873 Z-1.018
X71.882 Z-1.02
X78.438
X78.446 Z-1.018
X78.455 Z-1.016
X78.521
X78.544 Y39.561
X78.563 Y39.574
X78.576 Y39.593
X78.581 Y39.616
Y39.695
X78.576 Y39.718
X78.563 Y39.737
X78.544 Y39.75
X78.521 Y39.755
X78.513 Z-1.018
X78.504 Z-1.02
X71.955
X71.946 Z-1.018
X71.937 Z-1.016
X71.915 Y39.759
X71.895 Y39.772
X71.882 Y39.791
X71.878 Y39.814
Y39.893
X71.882 Y39.916
X71.895 Y39.935
X71.915 Y39.948
X71.937 Y39.953
X72.01
X72.019 Z-1.018
X72.028 Z-1.02
X78.569
X78.578 Z-1.018
X78.587 Z-1.016
X78.652
X78.675 Y39.957
X78.694 Y39.97
X78.707 Y39.989
X78.712 Y40.012
Y40.091
X78.707 Y40.114
X78.694 Y40.133
X78.675 Y40.146
X78.652 Y40.151
X78.644 Z-1.018
X78.635 Z-1.02
X72.1
X72.091 Z-1.018
X72.082 Z-1.016
X72.06 Y40.155
X72.04 Y40.168
X72.027 Y40.188
X72.023 Y40.21
Y40.289
X72.027 Y40.312
X72.04 Y40.332
X72.06 Y40.344
X72.082 Y40.349
X72.151
X72.16 Z-1.018
X72.169 Z-1.02
X78.698
X78.707 Z-1.018
X78.716 Z-1.016
X78.779
X78.802 Y40.353
X78.821 Y40.366
X78.834 Y40.386
X78.839 Y40.408
Y40.488
X78.834 Y40.51
X78.821 Y40.53
X78.802 Y40.542
X78.779 Y40.547
X78.771 Z-1.018
X78.762 Z-1.02
X72.238
X72.229 Z-1.018
X72.22 Z-1.016
X72.198 Y40.552
X72.178 Y40.564
X72.165 Y40.584
X72.161 Y40.606
Y40.686
X72.165 Y40.708
X72.178 Y40.728
X72.198 Y40.741
X72.22 Y40.745
X72.288
X72.297 Z-1.018
X72.305 Z-1.02
X78.825
X78.833 Z-1.018
X78.842 Z-1.016
X78.904
X78.927 Y40.75
X78.946 Y40.763
X78.959 Y40.782
X78.963 Y40.805
Y40.884
X78.959 Y40.907
X78.946 Y40.926
X78.927 Y40.939
X78.904 Y40.943
X78.895 Z-1.018
X78.886 Z-1.02
X72.371
X72.362 Z-1.018
X72.354 Z-1.016
X72.331 Y40.948
X72.311 Y40.961
X72.299 Y40.98
X72.294 Y41.003
Y41.082
X72.299 Y41.105
X72.311 Y41.124
X72.331 Y41.137
X72.354 Y41.141
X72.419
X72.428 Z-1.018
X72.436 Z-1.02
X78.948
X78.957 Z-1.018
X78.965 Z-1.016
X79.025
X79.048 Y41.146
X79.067 Y41.159
X79.08 Y41.178
X79.085 Y41.201
Y41.28
X79.08 Y41.303
X79.067 Y41.322
X79.048 Y41.335
X79.025 Y41.339
X79.017 Z-1.018
X79.008 Z-1.02
X76.001
X75.679
X72.5
X72.491 Z-1.018
X72.482 Z-1.016
X72.46 Y41.344
X72.44 Y41.357
X72.427 Y41.376
X72.423 Y41.399
Y41.478
X72.427 Y41.501
X72.44 Y41.52
X72.46 Y41.533
X72.482 Y41.537
X72.545
X72.554 Z-1.018
X72.562 Z-1.02
X75.593
X75.602 Z-1.018
X75.61 Z-1.016
X75.633 Y41.542
X75.652 Y41.555
X75.665 Y41.574
X75.67 Y41.597
Y41.676
X75.665 Y41.699
X75.652 Y41.718
X75.633 Y41.731
X75.61 Y41.736
X75.532
X75.523 Z-1.018
X75.514 Z-1.02
X72.624
X72.616 Z-1.018
X72.607 Z-1.016
X72.584 Y41.74
X72.565 Y41.753
X72.552 Y41.772
X72.547 Y41.795
Y41.874
X72.552 Y41.897
X72.565 Y41.916
X72.584 Y41.929
X72.607 Y41.934
X72.666
X72.675 Z-1.018
X72.684 Z-1.02
X75.436
X75.444 Z-1.018
X75.453 Z-1.016
X75.476 Y41.938
X75.495 Y41.951
X75.508 Y41.97
X75.513 Y41.993
Y42.072
X75.508 Y42.095
X75.495 Y42.114
X75.476 Y42.127
X75.453 Y42.132
X75.374
X75.366 Z-1.018
X75.357 Z-1.02
X72.743
X72.735 Z-1.018
X72.726 Z-1.016
X72.703 Y42.136
X72.684 Y42.149
X72.671 Y42.168
X72.666 Y42.191
Y42.27
X72.671 Y42.293
X72.684 Y42.312
X72.703 Y42.325
X72.726 Y42.33
X72.784
X72.793 Z-1.018
X72.801 Z-1.02
X75.278
X75.287 Z-1.018
X75.296 Z-1.016
X75.319 Y42.334
X75.338 Y42.347
X75.351 Y42.367
X75.355 Y42.389
Y42.469
X75.351 Y42.491
X75.338 Y42.511
X75.319 Y42.523
X75.296 Y42.528
X75.217
X75.208 Z-1.018
X75.2 Z-1.02
X72.858
X72.849 Z-1.018
X72.841 Z-1.016
X72.818 Y42.532
X72.799 Y42.545
X72.786 Y42.565
X72.781 Y42.587
Y42.667
X72.786 Y42.689
X72.799 Y42.709
X72.818 Y42.722
X72.841 Y42.726
X72.897
X72.906 Z-1.018
X72.915 Z-1.02
X75.121
X75.13 Z-1.018
X75.139 Z-1.016
X75.161 Y42.731
X75.181 Y42.743
X75.194 Y42.763
X75.198 Y42.785
Y42.865
X75.194 Y42.887
X75.181 Y42.907
X75.161 Y42.92
X75.139 Y42.924
X75.06
X75.051 Z-1.018
X75.043 Z-1.02
X72.969
X72.96 Z-1.018
X72.951 Z-1.016
X72.929 Y42.929
X72.909 Y42.942
X72.897 Y42.961
X72.892 Y42.984
Y43.063
X72.897 Y43.086
X72.909 Y43.105
X72.929 Y43.118
X72.951 Y43.122
X73.006
X73.015 Z-1.018
X73.023 Z-1.02
X74.964
X74.973 Z-1.018
X74.981 Z-1.016
X75.004 Y43.127
X75.023 Y43.14
X75.036 Y43.159
X75.041 Y43.182
Y43.261
X75.036 Y43.284
X75.023 Y43.303
X75.004 Y43.316
X74.981 Y43.32
X74.903
X74.894 Z-1.018
X74.885 Z-1.02
X73.076
X73.067 Z-1.018
X73.058 Z-1.016
X73.035 Y43.325
X73.016 Y43.338
X73.003 Y43.357
X72.999 Y43.38
Y43.459
X73.003 Y43.482
X73.016 Y43.501
X73.035 Y43.514
X73.058 Y43.518
X73.11
X73.119 Z-1.018
X73.128 Z-1.02
X74.807
X74.816 Z-1.018
X74.824 Z-1.016
X74.847 Y43.523
X74.866 Y43.536
X74.879 Y43.555
X74.884 Y43.578
Y43.657
X74.879 Y43.68
X74.866 Y43.699
X74.847 Y43.712
X74.824 Y43.716
X74.746
X74.737 Z-1.018
X74.728 Z-1.02
X73.178
X73.169 Z-1.018
X73.161 Z-1.016
X73.138 Y43.721
X73.119 Y43.734
X73.106 Y43.753
X73.101 Y43.776
Y43.855
X73.106 Y43.878
X73.119 Y43.897
X73.138 Y43.91
X73.161 Y43.915
X73.211
X73.219 Z-1.018
X73.228 Z-1.02
X74.65
X74.658 Z-1.018
X74.667 Z-1.016
X74.69 Y43.919
X74.709 Y43.932
X74.722 Y43.951
X74.727 Y43.974
Y44.053
X74.722 Y44.076
X74.709 Y44.095
X74.69 Y44.108
X74.667 Y44.113
X74.589
X74.58 Z-1.018
X74.571 Z-1.02
X73.277
X73.268 Z-1.018
X73.259 Z-1.016
X73.236 Y44.117
X73.217 Y44.13
X73.204 Y44.149
X73.2 Y44.172
Y44.251
X73.204 Y44.274
X73.217 Y44.293
X73.236 Y44.306
X73.259 Y44.311
X73.307
X73.316 Z-1.018
X73.324 Z-1.02
X74.492
X74.501 Z-1.018
X74.51 Z-1.016
X74.533 Y44.315
X74.552 Y44.328
X74.565 Y44.347
X74.569 Y44.37
Y44.449
X74.565 Y44.472
X74.552 Y44.491
X74.533 Y44.504
X74.51 Y44.509
X74.431
X74.423 Z-1.018
X74.414 Z-1.02
X73.371
X73.362 Z-1.018
X73.353 Z-1.016
X73.33 Y44.513
X73.311 Y44.526
X73.298 Y44.546
X73.294 Y44.568
Y44.648
X73.298 Y44.67
X73.311 Y44.69
X73.33 Y44.702
X73.353 Y44.707
X73.399
X73.408 Z-1.018
X73.416 Z-1.02
X74.335
X74.344 Z-1.018
X74.353 Z-1.016
X74.375 Y44.711
X74.395 Y44.724
X74.408 Y44.744
X74.412 Y44.766
Y44.846
X74.408 Y44.868
X74.395 Y44.888
X74.375 Y44.901
X74.353 Y44.905
X74.274
X74.265 Z-1.018
X74.257 Z-1.02
X73.46
X73.452 Z-1.018
X73.443 Z-1.016
X73.42 Y44.91
X73.401 Y44.922
X73.388 Y44.942
X73.384 Y44.964
Y45.044
X73.388 Y45.066
X73.401 Y45.086
X73.42 Y45.099
X73.443 Y45.103
X73.486
X73.495 Z-1.018
X73.503 Z-1.02
X74.178
X74.187 Z-1.018
X74.196 Z-1.016
X74.218 Y45.108
X74.238 Y45.121
X74.251 Y45.14
X74.255 Y45.163
Y45.242
X74.251 Y45.265
X74.238 Y45.284
X74.218 Y45.297
X74.196 Y45.301
X74.117
X74.108 Z-1.018
X74.1 Z-1.02
X73.545
X73.536 Z-1.018
X73.528 Z-1.016
X73.505 Y45.306
X73.486 Y45.319
X73.473 Y45.338
X73.468 Y45.361
Y45.44
X73.473 Y45.463
X73.486 Y45.482
X73.505 Y45.495
X73.528 Y45.499
X73.568
X73.577 Z-1.018
X73.585 Z-1.02
X74.021
X74.03 Z-1.018
X74.038 Z-1.016
X74.061 Y45.504
X74.08 Y45.517
X74.093 Y45.536
X74.098 Y45.559
Y45.638
X74.093 Y45.661
X74.08 Y45.68
X74.061 Y45.693
X74.038 Y45.697
X73.96
X73.951 Z-1.018
X73.942 Z-1.02
X73.623
X73.614 Z-1.018
X73.605 Z-1.016
X73.583 Y45.702
X73.563 Y45.715
X73.55 Y45.734
X73.546 Y45.757
Y45.836
X73.55 Y45.859
X73.563 Y45.878
X73.583 Y45.891
X73.605 Y45.896
X73.641
X73.65 Z-1.018
X73.659 Z-1.02
X73.864
X73.873 Z-1.018
X73.881 Z-1.016
X73.904 Y45.9
X73.923 Y45.913
X73.936 Y45.932
X73.941 Y45.955
Y46.034
X73.936 Y46.057
X73.923 Y46.076
X73.904 Y46.089
X73.881 Y46.094
X73.803
X73.794 Z-1.018
X73.785 Z-1.02
X73.695
X73.672 Y46.089
X73.653 Y46.076
X73.64 Y46.057
X73.635 Y46.034
Y41.597
X73.64 Y41.574
X73.653 Y41.555
X73.672 Y41.542
X73.695 Y41.537
X76.218
X79.068
X79.077 Z-1.018
X79.085 Z-1.016
X79.144
X79.167 Y41.542
X79.186 Y41.555
X79.199 Y41.574
X79.204 Y41.597
Y41.676
X79.199 Y41.699
X79.186 Y41.718
X79.167 Y41.731
X79.144 Y41.736
X79.136 Z-1.018
X79.127 Z-1.02
X76.435
X76.426 Z-1.018
X76.418 Z-1.016
X76.395 Y41.74
X76.376 Y41.753
X76.363 Y41.772
X76.358 Y41.795
Y41.874
X76.363 Y41.897
X76.376 Y41.916
X76.395 Y41.929
X76.418 Y41.934
X76.634
X76.643 Z-1.018
X76.652 Z-1.02
X79.185
X79.194 Z-1.018
X79.202 Z-1.016
X79.26
X79.283 Y41.938
X79.302 Y41.951
X79.315 Y41.97
X79.32 Y41.993
Y42.072
X79.315 Y42.095
X79.302 Y42.114
X79.283 Y42.127
X79.26 Y42.132
X79.252 Z-1.018
X79.243 Z-1.02
X76.869
X76.86 Z-1.018
X76.851 Z-1.016
X76.829 Y42.136
X76.809 Y42.149
X76.796 Y42.168
X76.792 Y42.191
Y42.27
X76.796 Y42.293
X76.809 Y42.312
X76.829 Y42.325
X76.851 Y42.33
X77.068
X77.077 Z-1.018
X77.086 Z-1.02
X79.299
X79.308 Z-1.018
X79.317 Z-1.016
X79.373
X79.396 Y42.334
X79.415 Y42.347
X79.428 Y42.367
X79.433 Y42.389
Y42.469
X79.428 Y42.491
X79.415 Y42.511
X79.396 Y42.523
X79.373 Y42.528
X79.365 Z-1.018
X79.356 Z-1.02
X77.302
X77.294 Z-1.018
X77.285 Z-1.016
X77.262 Y42.532
X77.243 Y42.545
X77.23 Y42.565
X77.225 Y42.587
Y42.667
X77.23 Y42.689
X77.243 Y42.709
X77.262 Y42.722
X77.285 Y42.726
X77.502
X77.51 Z-1.018
X77.519 Z-1.02
X79.411
X79.42 Z-1.018
X79.429 Z-1.016
X79.484
X79.506 Y42.731
X79.526 Y42.743
X79.539 Y42.763
X79.543 Y42.785
Y42.865
X79.539 Y42.887
X79.526 Y42.907
X79.506 Y42.92
X79.484 Y42.924
X79.475 Z-1.018
X79.466 Z-1.02
X77.736
X77.727 Z-1.018
X77.719 Z-1.016
X77.696 Y42.929
X77.677 Y42.942
X77.664 Y42.961
X77.659 Y42.984
Y43.063
X77.664 Y43.086
X77.677 Y43.105
X77.696 Y43.118
X77.719 Y43.122
X77.935
X77.944 Z-1.018
X77.953 Z-1.02
X79.52
X79.529 Z-1.018
X79.537 Z-1.016
X79.591
X79.614 Y43.127
X79.633 Y43.14
X79.646 Y43.159
X79.65 Y43.182
Y43.261
X79.646 Y43.284
X79.633 Y43.303
X79.614 Y43.316
X79.591 Y43.32
X79.582 Z-1.018
X79.573 Z-1.02
X78.17
X78.161 Z-1.018
X78.152 Z-1.016
X78.129 Y43.325
X78.11 Y43.338
X78.097 Y43.357
X78.093 Y43.38
Y43.459
X78.097 Y43.482
X78.11 Y43.501
X78.129 Y43.514
X78.152 Y43.518
X78.369
X78.378 Z-1.018
X78.386 Z-1.02
X79.626
X79.635 Z-1.018
X79.643 Z-1.016
X79.695
X79.718 Y43.523
X79.737 Y43.536
X79.75 Y43.555
X79.754 Y43.578
Y43.657
X79.75 Y43.68
X79.737 Y43.699
X79.718 Y43.712
X79.695 Y43.716
X79.686 Z-1.018
X79.677 Z-1.02
X78.603
X78.594 Z-1.018
X78.586 Z-1.016
X78.563 Y43.721
X78.544 Y43.734
X78.531 Y43.753
X78.526 Y43.776
Y43.855
X78.531 Y43.878
X78.544 Y43.897
X78.563 Y43.91
X78.586 Y43.915
X78.802
X78.811 Z-1.018
X78.82 Z-1.02
X79.728
X79.737 Z-1.018
X79.746 Z-1.016
X79.796
X79.818 Y43.919
X79.838 Y43.932
X79.851 Y43.951
X79.855 Y43.974
Y44.053
X79.851 Y44.076
X79.838 Y44.095
X79.818 Y44.108
X79.796 Y44.113
X79.787 Z-1.018
X79.778 Z-1.02
X79.037
X79.028 Z-1.018
X79.019 Z-1.016
X78.997 Y44.117
X78.977 Y44.13
X78.964 Y44.149
X78.96 Y44.172
Y44.251
X78.964 Y44.274
X78.977 Y44.293
X78.997 Y44.306
X79.019 Y44.311
X79.236
X79.245 Z-1.018
X79.254 Z-1.02
X79.827
X79.836 Z-1.018
X79.844 Z-1.016
X79.891
X79.914 Y44.315
X79.933 Y44.328
X79.946 Y44.347
X79.951 Y44.37
Y44.449
X79.946 Y44.472
X79.933 Y44.491
X79.914 Y44.504
X79.891 Y44.509
X79.883 Z-1.018
X79.874 Z-1.02
X79.47
X79.462 Z-1.018
X79.453 Z-1.016
X79.43 Y44.513
X79.411 Y44.526
X79.398 Y44.546
X79.393 Y44.568
Y44.648
X79.398 Y44.67
X79.411 Y44.69
X79.43 Y44.702
X79.453 Y44.707
X79.67
X79.678 Z-1.018
X79.687 Z-1.02
X79.92
X79.929 Z-1.018
X79.938 Z-1.016
X79.984
X80.006 Y44.711
X80.026 Y44.724
X80.039 Y44.744
X80.043 Y44.766
Y44.846
X80.039 Y44.868
X80.026 Y44.888
X80.006 Y44.901
X79.984 Y44.905
X79.975 Z-1.018
X79.966 Z-1.02
X79.904
X79.884 Z-1.014
X79.87 Z-1.
X79.864 Z-0.98
G0 Z15.

G53 Z0.
M30
