(1001)
(T1  D=0.396 CR=0. - ZMIN=-0.791 - FLAT END MILL)
G0 G90 G94 G17
G21
G53 G0 Z0.

(0.4MM  FLATEND  CONTOUR)
M5
M9
T1
S12000 M3
G4 P4.
G55
G0 X29.194 Y32.336
Z15.
Z0.964
G1 Z-0.085 F50.
X29.197 Y32.332 Z-0.105
X29.207 Y32.32 Z-0.12
X29.219 Y32.304 Z-0.125
X29.265 Y32.245
X29.282 Y32.233
X29.303 Y32.231
X29.322 Y32.239
X29.367 Y32.275
X29.378 Y32.283
X29.39 Y32.291
X29.402 Y32.298
X29.415 Y32.303
X29.427 Y32.308
X29.44 Y32.312
X29.452 Y32.315
X29.465 Y32.318
X29.477 Y32.319
X29.49 Y32.32
X29.502 Y32.319
X29.515 Y32.318
X29.527 Y32.317
X29.54 Y32.314
X29.552 Y32.311
X29.565 Y32.306
X29.577 Y32.301
X29.59 Y32.294
X29.604 Y32.285
X29.611 Y32.28
X29.619 Y32.275
X29.629 Y32.265
X29.64 Y32.255
X29.663 Y32.225
X30.196 Y31.524
X30.234 Y31.474
X30.24 Y31.465
X30.246 Y31.455
X30.252 Y31.444
X30.256 Y31.434
X30.26 Y31.424
X30.264 Y31.412
X30.267 Y31.399
X30.269 Y31.387
X30.271 Y31.374
Y31.36
Y31.353
Y31.35
Y31.348
X30.274 Y31.346
X30.276
X30.281
X30.29
X30.303 Y31.345
X30.315 Y31.343
X30.328 Y31.34
X30.34 Y31.337
X30.355 Y31.331
X30.37 Y31.324
X30.38 Y31.319
X30.39 Y31.312
X30.401 Y31.305
X30.411 Y31.296
X30.423 Y31.285
X30.433 Y31.274
X32.031 Y29.523
X32.041 Y29.511
X32.049 Y29.501
X32.055 Y29.492
X32.061 Y29.482
X32.066 Y29.473
X32.071 Y29.46
X32.076 Y29.448
X32.079 Y29.435
X32.082 Y29.423
X32.084 Y29.41
X32.085 Y29.398
Y29.385
Y29.373
X32.084 Y29.36
X32.082 Y29.348
X32.079 Y29.335
X32.075 Y29.323
X32.07 Y29.31
X32.065 Y29.298
X32.058 Y29.285
X32.05 Y29.273
X32.041 Y29.262
X32.005 Y29.223
X31.987 Y29.204
X31.977 Y29.186
X31.978 Y29.165
X31.989 Y29.147
G0 Z5.
X29.823 Y30.606
Z0.964
G1 Z-0.085 F50.
X29.827 Y30.602 Z-0.105
X29.837 Y30.591 Z-0.12
X29.851 Y30.577 Z-0.125
X29.902 Y30.522
X29.919 Y30.511
X29.94 Y30.51
X29.958 Y30.52
X29.99 Y30.549
X30.016 Y30.574
X30.09 Y30.643
X30.12 Y30.674
X30.163 Y30.718
X30.165 Y30.72
X30.194 Y30.759
X30.196 Y30.761
X30.2 Y30.771
Y30.774
X30.192 Y30.797
X30.191 Y30.799
X30.149 Y30.864
X30.14 Y30.876
X30.1 Y30.924
X30.09 Y30.936
X30.057 Y30.974
X30.048 Y30.988
X30.04 Y31.002
X30.035 Y31.013
X30.03 Y31.024
X30.026 Y31.036
X30.023 Y31.049
X30.021 Y31.061
X30.019 Y31.074
X30.018 Y31.091
X30.019 Y31.099
Y31.103
Y31.105
X30.017 Y31.107
X30.015
X30.011
X30.004
X29.99 Y31.108
X29.977 Y31.11
X29.965 Y31.112
X29.952 Y31.115
X29.94 Y31.119
X29.928 Y31.124
X29.919 Y31.128
X29.909 Y31.134
X29.899 Y31.14
X29.89 Y31.146
X29.857 Y31.174
X29.818 Y31.208
X29.817 Y31.21
X29.776 Y31.232
X29.774 Y31.233
X29.729 Y31.247
X29.727
X29.676 Y31.252
X29.674
X29.612 Y31.25
X29.61 Y31.249
X29.54 Y31.239
X29.533 Y31.237
X29.527 Y31.236
X29.39 Y31.202
X29.339 Y31.189
X29.307 Y31.18
X29.287 Y31.167
X29.278 Y31.146
X29.281 Y31.124
X29.297 Y31.107
X29.319 Y31.101
X29.341 Y31.109
X29.355 Y31.127
X29.365 Y31.142
X29.382 Y31.151
X29.401 Y31.152
G2 X29.318 Y30.784 I-0.041 J-0.184
X29.244 Y30.82 I0.041 J0.184
G1 X29.243 Y30.821
G2 X29.476 Y31.116 Z-0.146 I0.117 J0.147
X29.243 Y30.821 Z-0.167 I-0.117 J-0.147
X29.178 Y30.917 Z-0.171 I0.117 J0.147
G1 Y30.918
X29.172 Y30.942
G2 X29.307 Y31.18 I0.186 J0.051
G1 X29.339 Y31.189
X29.39 Y31.202
X29.49 Y31.226
X29.54 Y31.239
X29.61 Y31.249
X29.612 Y31.25
X29.674 Y31.252
X29.676
X29.727 Y31.247
X29.729
X29.774 Y31.233
X29.776 Y31.232
X29.817 Y31.21
X29.818 Y31.208
X29.857 Y31.174
X29.89 Y31.146
X29.899 Y31.14
X29.909 Y31.134
X29.919 Y31.128
X29.928 Y31.124
X29.94 Y31.119
X29.952 Y31.115
X29.965 Y31.112
X29.977 Y31.11
X29.99 Y31.108
X30.004 Y31.107
X30.011
X30.015
X30.017
X30.019 Y31.105
Y31.103
Y31.099
X30.018 Y31.091
X30.019 Y31.074
X30.021 Y31.061
X30.023 Y31.049
X30.026 Y31.036
X30.03 Y31.024
X30.035 Y31.013
X30.04 Y31.002
X30.048 Y30.988
X30.057 Y30.974
X30.09 Y30.936
X30.1 Y30.924
X30.14 Y30.876
X30.149 Y30.864
X30.191 Y30.799
X30.192 Y30.797
X30.2 Y30.774
Y30.771
X30.196 Y30.761
X30.194 Y30.759
X30.165 Y30.72
X30.163 Y30.718
X30.162 Y30.716
X30.12 Y30.674
X30.09 Y30.643
X30.016 Y30.574
X29.99 Y30.549
X29.958 Y30.52
X29.94 Y30.51
X29.919 Y30.511
X29.902 Y30.522
X29.722 Y30.719
X29.708 Y30.734 Z-0.165
X29.698 Y30.745 Z-0.151
X29.695 Y30.749 Z-0.131
G0 Z5.
X29.265 Y32.246
Z0.974
G1 Z-0.171 F50.
X29.282 Y32.233
X29.302 Y32.231
X29.322 Y32.239
X29.367 Y32.275
X29.378 Y32.283
X29.39 Y32.291
X29.402 Y32.298
X29.415 Y32.303
X29.427 Y32.308
X29.44 Y32.312
X29.452 Y32.315
X29.465 Y32.318
X29.477 Y32.319
X29.49 Y32.32
X29.502 Y32.319
X29.515 Y32.318
X29.527 Y32.317
X29.54 Y32.314
X29.552 Y32.311
X29.565 Y32.306
X29.577 Y32.301
X29.59 Y32.294
X29.604 Y32.285
X29.611 Y32.28
X29.619 Y32.275
X29.629 Y32.265
X29.64 Y32.255
X29.663 Y32.225
X30.196 Y31.524
X30.234 Y31.474
X30.24 Y31.465
X30.246 Y31.455
X30.252 Y31.444
X30.256 Y31.434
X30.26 Y31.424
X30.264 Y31.412
X30.267 Y31.399
X30.269 Y31.387
X30.271 Y31.374
Y31.36
Y31.353
Y31.35
Y31.348
X30.274 Y31.346
X30.276
X30.281
X30.29
X30.303 Y31.345
X30.315 Y31.343
X30.328 Y31.34
X30.34 Y31.337
X30.355 Y31.331
X30.37 Y31.324
X30.38 Y31.319
X30.39 Y31.312
X30.401 Y31.305
X30.411 Y31.296
X30.423 Y31.285
X30.433 Y31.274
X32.031 Y29.523
X32.041 Y29.511
X32.049 Y29.501
X32.055 Y29.492
X32.061 Y29.482
X32.066 Y29.473
X32.071 Y29.46
X32.076 Y29.448
X32.079 Y29.435
X32.082 Y29.423
X32.084 Y29.41
X32.085 Y29.398
Y29.385
Y29.373
X32.084 Y29.36
X32.082 Y29.348
X32.079 Y29.335
X32.075 Y29.323
X32.07 Y29.31
X32.065 Y29.298
X32.058 Y29.285
X32.05 Y29.273
X32.041 Y29.262
X32.005 Y29.223
X31.987 Y29.204
X31.977 Y29.186
X31.978 Y29.165
X31.989 Y29.147
G0 Z5.
Z0.974
G1 Z-0.221 F50.
X31.978 Y29.165
X31.977 Y29.186
X31.987 Y29.204
X32.005 Y29.223
X32.041 Y29.262
X32.05 Y29.273
X32.058 Y29.285
X32.065 Y29.298
X32.07 Y29.31
X32.075 Y29.323
X32.079 Y29.335
X32.082 Y29.348
X32.084 Y29.36
X32.085 Y29.373
Y29.385
Y29.398
X32.084 Y29.41
X32.082 Y29.423
X32.079 Y29.435
X32.076 Y29.448
X32.071 Y29.46
X32.066 Y29.473
X32.061 Y29.482
X32.055 Y29.492
X32.049 Y29.501
X32.041 Y29.511
X32.031 Y29.523
X30.433 Y31.274
X30.423 Y31.285
X30.411 Y31.296
X30.401 Y31.305
X30.39 Y31.312
X30.38 Y31.319
X30.37 Y31.324
X30.355 Y31.331
X30.34 Y31.337
X30.328 Y31.34
X30.315 Y31.343
X30.303 Y31.345
X30.29 Y31.346
X30.281
X30.276
X30.274
X30.271 Y31.348
Y31.35
Y31.353
Y31.36
Y31.374
X30.269 Y31.387
X30.267 Y31.399
X30.264 Y31.412
X30.26 Y31.424
X30.256 Y31.434
X30.252 Y31.444
X30.246 Y31.455
X30.24 Y31.465
X30.234 Y31.474
X30.196 Y31.524
X29.663 Y32.225
X29.64 Y32.255
X29.629 Y32.265
X29.619 Y32.275
X29.611 Y32.28
X29.604 Y32.285
X29.59 Y32.294
X29.577 Y32.301
X29.565 Y32.306
X29.552 Y32.311
X29.54 Y32.314
X29.527 Y32.317
X29.515 Y32.318
X29.502 Y32.319
X29.49 Y32.32
X29.477 Y32.319
X29.465 Y32.318
X29.452 Y32.315
X29.44 Y32.312
X29.427 Y32.308
X29.415 Y32.303
X29.402 Y32.298
X29.39 Y32.291
X29.378 Y32.283
X29.367 Y32.275
X29.322 Y32.239
X29.302 Y32.231
X29.282 Y32.233
X29.265 Y32.246
G0 Z5.
X29.392 Y30.717
Z0.868
G1 Z-0.181 F50.
X29.391 Y30.722 Z-0.201
X29.387 Y30.736 Z-0.215
X29.382 Y30.755 Z-0.221
X29.279 Y31.13
Y31.151
X29.289 Y31.169
X29.307 Y31.18
X29.339 Y31.189
X29.39 Y31.202
X29.49 Y31.226
X29.54 Y31.239
X29.59 Y31.246
X29.602 Y31.248
X29.608 Y31.249
X29.612 Y31.25
X29.613
X29.674 Y31.252
X29.676
X29.727 Y31.247
X29.729
X29.774 Y31.233
X29.776 Y31.232
X29.817 Y31.21
X29.818 Y31.208
X29.857 Y31.174
X29.89 Y31.146
X29.899 Y31.14
X29.909 Y31.134
X29.919 Y31.128
X29.928 Y31.124
X29.94 Y31.119
X29.952 Y31.115
X29.965 Y31.112
X29.977 Y31.11
X29.99 Y31.108
X30.004 Y31.107
X30.011
X30.015
X30.017
X30.019 Y31.105
Y31.103
Y31.099
X30.018 Y31.091
X30.019 Y31.074
X30.021 Y31.061
X30.023 Y31.049
X30.026 Y31.036
X30.03 Y31.024
X30.035 Y31.013
X30.04 Y31.002
X30.048 Y30.988
X30.057 Y30.974
X30.09 Y30.936
X30.1 Y30.924
X30.14 Y30.876
X30.147 Y30.868
X30.149 Y30.864
X30.151 Y30.861
X30.191 Y30.799
X30.192 Y30.797
X30.2 Y30.774
Y30.771
X30.196 Y30.761
X30.194 Y30.759
X30.165 Y30.72
X30.163 Y30.718
X30.154 Y30.709
X30.12 Y30.674
X30.09 Y30.643
X30.069 Y30.624
X30.016 Y30.574
X29.99 Y30.549
X29.958 Y30.52
X29.938 Y30.509
X29.915 Y30.512
X29.897 Y30.527
X29.891 Y30.549
X29.898 Y30.571
X29.916 Y30.586
X29.939 Y30.588
X29.958 Y30.589
X29.974 Y30.598
X29.984 Y30.614
G3 X29.649 Y30.78 I-0.178 J0.061
G1 X29.648 Y30.779
G3 X29.964 Y30.573 Z-0.241 I0.158 J-0.103
X29.648 Y30.779 Z-0.262 I-0.158 J0.103
X29.667 Y30.549 Z-0.271 I0.158 J-0.103
G1 X29.668 Y30.548
X29.685 Y30.529
G3 X29.958 Y30.52 I0.141 J0.132
G1 X29.99 Y30.549
X30.016 Y30.574
X30.069 Y30.624
X30.09 Y30.643
X30.12 Y30.674
X30.14 Y30.694
X30.154 Y30.709
X30.163 Y30.718
X30.165 Y30.72
X30.194 Y30.759
X30.196 Y30.761
X30.2 Y30.771
Y30.774
X30.192 Y30.797
X30.191 Y30.799
X30.159 Y30.849
X30.151 Y30.861
X30.142 Y30.874
X30.14 Y30.876
X30.1 Y30.924
X30.09 Y30.936
X30.057 Y30.974
X30.048 Y30.988
X30.04 Y31.002
X30.035 Y31.013
X30.03 Y31.024
X30.026 Y31.036
X30.023 Y31.049
X30.021 Y31.061
X30.019 Y31.074
X30.018 Y31.091
X30.019 Y31.099
Y31.103
Y31.105
X30.017 Y31.107
X30.015
X30.011
X30.004
X29.99 Y31.108
X29.977 Y31.11
X29.965 Y31.112
X29.952 Y31.115
X29.94 Y31.119
X29.928 Y31.124
X29.919 Y31.128
X29.909 Y31.134
X29.899 Y31.14
X29.89 Y31.146
X29.857 Y31.174
X29.818 Y31.208
X29.817 Y31.21
X29.776 Y31.232
X29.774 Y31.233
X29.73 Y31.246
X29.729 Y31.247
X29.727
X29.677 Y31.252
X29.676
X29.671
X29.665
X29.613 Y31.25
X29.612
X29.602 Y31.248
X29.59 Y31.246
X29.54 Y31.238
X29.48 Y31.224
X29.44 Y31.214
X29.39 Y31.202
X29.339 Y31.189
X29.307 Y31.18
X29.289 Y31.169
X29.278 Y31.151
X29.279 Y31.13
G0 Z5.
X29.265 Y32.246
Z0.974
G1 Z-0.271 F50.
X29.282 Y32.233
X29.302 Y32.231
X29.322 Y32.239
X29.367 Y32.275
X29.378 Y32.283
X29.39 Y32.291
X29.402 Y32.298
X29.415 Y32.303
X29.427 Y32.308
X29.44 Y32.312
X29.452 Y32.315
X29.465 Y32.318
X29.477 Y32.319
X29.49 Y32.32
X29.502 Y32.319
X29.515 Y32.318
X29.527 Y32.317
X29.54 Y32.314
X29.552 Y32.311
X29.565 Y32.306
X29.577 Y32.301
X29.59 Y32.294
X29.604 Y32.285
X29.611 Y32.28
X29.619 Y32.275
X29.629 Y32.265
X29.64 Y32.255
X29.663 Y32.225
X30.196 Y31.524
X30.234 Y31.474
X30.24 Y31.465
X30.246 Y31.455
X30.252 Y31.444
X30.256 Y31.434
X30.26 Y31.424
X30.264 Y31.412
X30.267 Y31.399
X30.269 Y31.387
X30.271 Y31.374
Y31.36
Y31.353
Y31.35
Y31.348
X30.274 Y31.346
X30.276
X30.281
X30.29
X30.303 Y31.345
X30.315 Y31.343
X30.328 Y31.34
X30.34 Y31.337
X30.355 Y31.331
X30.37 Y31.324
X30.38 Y31.319
X30.39 Y31.312
X30.401 Y31.305
X30.411 Y31.296
X30.423 Y31.285
X30.433 Y31.274
X32.031 Y29.523
X32.041 Y29.511
X32.049 Y29.501
X32.055 Y29.492
X32.061 Y29.482
X32.066 Y29.473
X32.071 Y29.46
X32.076 Y29.448
X32.079 Y29.435
X32.082 Y29.423
X32.084 Y29.41
X32.085 Y29.398
Y29.385
Y29.373
X32.084 Y29.36
X32.082 Y29.348
X32.079 Y29.335
X32.075 Y29.323
X32.07 Y29.31
X32.065 Y29.298
X32.058 Y29.285
X32.05 Y29.273
X32.041 Y29.262
X32.005 Y29.223
X31.987 Y29.204
X31.977 Y29.186
X31.978 Y29.165
X31.989 Y29.147
Z-0.309
X31.978 Y29.165
X31.977 Y29.186
X31.987 Y29.204
X32.005 Y29.223
X32.041 Y29.262
X32.05 Y29.273
X32.058 Y29.285
X32.065 Y29.298
X32.07 Y29.31
X32.075 Y29.323
X32.079 Y29.335
X32.082 Y29.348
X32.084 Y29.36
X32.085 Y29.373
Y29.385
Y29.398
X32.084 Y29.41
X32.082 Y29.423
X32.079 Y29.435
X32.076 Y29.448
X32.071 Y29.46
X32.066 Y29.473
X32.061 Y29.482
X32.055 Y29.492
X32.049 Y29.501
X32.041 Y29.511
X32.031 Y29.523
X30.433 Y31.274
X30.423 Y31.285
X30.411 Y31.296
X30.401 Y31.305
X30.39 Y31.312
X30.38 Y31.319
X30.37 Y31.324
X30.355 Y31.331
X30.34 Y31.337
X30.328 Y31.34
X30.315 Y31.343
X30.303 Y31.345
X30.29 Y31.346
X30.281
X30.276
X30.274
X30.271 Y31.348
Y31.35
Y31.353
Y31.36
Y31.374
X30.269 Y31.387
X30.267 Y31.399
X30.264 Y31.412
X30.26 Y31.424
X30.256 Y31.434
X30.252 Y31.444
X30.246 Y31.455
X30.24 Y31.465
X30.234 Y31.474
X30.196 Y31.524
X29.663 Y32.225
X29.64 Y32.255
X29.629 Y32.265
X29.619 Y32.275
X29.611 Y32.28
X29.604 Y32.285
X29.59 Y32.294
X29.577 Y32.301
X29.565 Y32.306
X29.552 Y32.311
X29.54 Y32.314
X29.527 Y32.317
X29.515 Y32.318
X29.502 Y32.319
X29.49 Y32.32
X29.477 Y32.319
X29.465 Y32.318
X29.452 Y32.315
X29.44 Y32.312
X29.427 Y32.308
X29.415 Y32.303
X29.402 Y32.298
X29.39 Y32.291
X29.378 Y32.283
X29.367 Y32.275
X29.322 Y32.239
X29.302 Y32.231
X29.282 Y32.233
X29.265 Y32.246
G0 Z5.
X29.279 Y31.13
Z0.974
G1 Z-0.309 F50.
X29.278 Y31.151
X29.289 Y31.169
X29.307 Y31.18
X29.339 Y31.189
X29.39 Y31.202
X29.44 Y31.214
X29.48 Y31.224
X29.54 Y31.238
X29.59 Y31.246
X29.602 Y31.248
X29.612 Y31.25
X29.613
X29.665 Y31.252
X29.676
X29.677
X29.715 Y31.248
X29.727 Y31.247
X29.729
X29.73 Y31.246
X29.771 Y31.234
X29.774 Y31.233
X29.776 Y31.232
X29.817 Y31.21
X29.818 Y31.208
X29.857 Y31.174
X29.89 Y31.146
X29.899 Y31.14
X29.909 Y31.134
X29.919 Y31.128
X29.928 Y31.124
X29.94 Y31.119
X29.952 Y31.115
X29.965 Y31.112
X29.977 Y31.11
X29.99 Y31.108
X30.004 Y31.107
X30.011
X30.015
X30.017
X30.019 Y31.105
Y31.103
Y31.099
X30.018 Y31.091
X30.019 Y31.074
X30.021 Y31.061
X30.023 Y31.049
X30.026 Y31.036
X30.03 Y31.024
X30.035 Y31.013
X30.04 Y31.002
X30.048 Y30.988
X30.057 Y30.974
X30.09 Y30.936
X30.1 Y30.924
X30.14 Y30.876
X30.142 Y30.874
X30.151 Y30.861
X30.159 Y30.849
X30.191 Y30.799
X30.192 Y30.797
X30.2 Y30.774
Y30.771
X30.196 Y30.761
X30.194 Y30.759
X30.165 Y30.72
X30.163 Y30.718
X30.154 Y30.709
X30.14 Y30.694
X30.12 Y30.674
X30.09 Y30.643
X30.069 Y30.624
X30.016 Y30.574
X29.99 Y30.549
X29.958 Y30.52
X29.938 Y30.509
X29.915 Y30.512
X29.897 Y30.527
X29.891 Y30.549
X29.898 Y30.571
X29.916 Y30.586
X29.939 Y30.588
X29.958 Y30.589
X29.974 Y30.598
X29.984 Y30.614
G3 X29.649 Y30.78 I-0.178 J0.061
G1 X29.648 Y30.779
G3 X29.964 Y30.573 Z-0.33 I0.158 J-0.103
X29.648 Y30.779 Z-0.35 I-0.158 J0.103
X29.667 Y30.549 Z-0.359 I0.158 J-0.103
G1 X29.668 Y30.548
X29.685 Y30.529
G3 X29.958 Y30.52 I0.141 J0.132
G1 X29.99 Y30.549
X30.016 Y30.574
X30.04 Y30.596
X30.09 Y30.643
X30.12 Y30.674
X30.14 Y30.694
X30.163 Y30.718
X30.165 Y30.72
X30.19 Y30.754
X30.194 Y30.759
X30.195 Y30.761
X30.197 Y30.764
X30.2 Y30.771
Y30.774
X30.193 Y30.794
X30.192 Y30.797
X30.191 Y30.799
X30.19 Y30.801
X30.159 Y30.849
X30.151 Y30.861
X30.142 Y30.874
X30.14 Y30.876
X30.1 Y30.924
X30.09 Y30.935
X30.057 Y30.974
X30.048 Y30.988
X30.04 Y31.002
X30.035 Y31.013
X30.03 Y31.024
X30.026 Y31.036
X30.023 Y31.049
X30.021 Y31.061
X30.019 Y31.074
X30.018 Y31.091
X30.019 Y31.099
Y31.103
Y31.105
X30.017 Y31.107
X30.015
X30.011
X30.004
X29.99 Y31.108
X29.977 Y31.11
X29.965 Y31.112
X29.952 Y31.115
X29.94 Y31.119
X29.928 Y31.124
X29.919 Y31.128
X29.909 Y31.134
X29.899 Y31.14
X29.89 Y31.146
X29.857 Y31.174
X29.818 Y31.208
X29.817 Y31.209
X29.815 Y31.21
X29.776 Y31.232
X29.774 Y31.233
X29.771 Y31.234
X29.765 Y31.236
X29.73 Y31.246
X29.729 Y31.247
X29.727
X29.715 Y31.248
X29.677 Y31.252
X29.676
X29.665
X29.64 Y31.251
X29.613 Y31.25
X29.612 Y31.249
X29.59 Y31.246
X29.565 Y31.242
X29.54 Y31.238
X29.44 Y31.214
X29.39 Y31.202
X29.339 Y31.189
X29.307 Y31.18
X29.289 Y31.169
X29.278 Y31.151
X29.279 Y31.13
G0 Z5.
X29.265 Y32.246
Z0.974
G1 Z-0.359 F50.
X29.282 Y32.233
X29.302 Y32.231
X29.322 Y32.239
X29.367 Y32.275
X29.378 Y32.283
X29.39 Y32.291
X29.402 Y32.298
X29.415 Y32.303
X29.427 Y32.308
X29.44 Y32.312
X29.452 Y32.315
X29.465 Y32.318
X29.477 Y32.319
X29.49 Y32.32
X29.502 Y32.319
X29.515 Y32.318
X29.527 Y32.317
X29.54 Y32.314
X29.552 Y32.311
X29.565 Y32.306
X29.577 Y32.301
X29.59 Y32.294
X29.604 Y32.285
X29.611 Y32.28
X29.619 Y32.275
X29.629 Y32.265
X29.64 Y32.255
X29.663 Y32.225
X30.196 Y31.524
X30.234 Y31.474
X30.24 Y31.465
X30.246 Y31.455
X30.252 Y31.444
X30.256 Y31.434
X30.26 Y31.424
X30.264 Y31.412
X30.267 Y31.399
X30.269 Y31.387
X30.271 Y31.374
Y31.36
Y31.353
Y31.35
Y31.348
X30.274 Y31.346
X30.276
X30.281
X30.29
X30.303 Y31.345
X30.315 Y31.343
X30.328 Y31.34
X30.34 Y31.337
X30.355 Y31.331
X30.37 Y31.324
X30.38 Y31.319
X30.39 Y31.312
X30.401 Y31.305
X30.411 Y31.296
X30.423 Y31.285
X30.433 Y31.274
X32.031 Y29.523
X32.041 Y29.511
X32.049 Y29.501
X32.055 Y29.492
X32.061 Y29.482
X32.066 Y29.473
X32.071 Y29.46
X32.076 Y29.448
X32.079 Y29.435
X32.082 Y29.423
X32.084 Y29.41
X32.085 Y29.398
Y29.385
Y29.373
X32.084 Y29.36
X32.082 Y29.348
X32.079 Y29.335
X32.075 Y29.323
X32.07 Y29.31
X32.065 Y29.298
X32.058 Y29.285
X32.05 Y29.273
X32.041 Y29.262
X32.005 Y29.223
X31.987 Y29.204
X31.977 Y29.186
X31.978 Y29.165
X31.989 Y29.147
Z-0.409
X31.978 Y29.165
X31.977 Y29.186
X31.987 Y29.204
X32.005 Y29.223
X32.041 Y29.262
X32.05 Y29.273
X32.058 Y29.285
X32.065 Y29.298
X32.07 Y29.31
X32.075 Y29.323
X32.079 Y29.335
X32.082 Y29.348
X32.084 Y29.36
X32.085 Y29.373
Y29.385
Y29.398
X32.084 Y29.41
X32.082 Y29.423
X32.079 Y29.435
X32.076 Y29.448
X32.071 Y29.46
X32.066 Y29.473
X32.061 Y29.482
X32.055 Y29.492
X32.049 Y29.501
X32.041 Y29.511
X32.031 Y29.523
X30.433 Y31.274
X30.423 Y31.285
X30.411 Y31.296
X30.401 Y31.305
X30.39 Y31.312
X30.38 Y31.319
X30.37 Y31.324
X30.355 Y31.331
X30.34 Y31.337
X30.328 Y31.34
X30.315 Y31.343
X30.303 Y31.345
X30.29 Y31.346
X30.281
X30.276
X30.274
X30.271 Y31.348
Y31.35
Y31.353
Y31.36
Y31.374
X30.269 Y31.387
X30.267 Y31.399
X30.264 Y31.412
X30.26 Y31.424
X30.256 Y31.434
X30.252 Y31.444
X30.246 Y31.455
X30.24 Y31.465
X30.234 Y31.474
X30.196 Y31.524
X29.663 Y32.225
X29.64 Y32.255
X29.629 Y32.265
X29.619 Y32.275
X29.611 Y32.28
X29.604 Y32.285
X29.59 Y32.294
X29.577 Y32.301
X29.565 Y32.306
X29.552 Y32.311
X29.54 Y32.314
X29.527 Y32.317
X29.515 Y32.318
X29.502 Y32.319
X29.49 Y32.32
X29.477 Y32.319
X29.465 Y32.318
X29.452 Y32.315
X29.44 Y32.312
X29.427 Y32.308
X29.415 Y32.303
X29.402 Y32.298
X29.39 Y32.291
X29.378 Y32.283
X29.367 Y32.275
X29.322 Y32.239
X29.302 Y32.231
X29.282 Y32.233
X29.265 Y32.246
G0 Z5.
X29.279 Y31.13
Z0.974
G1 Z-0.409 F50.
X29.278 Y31.151
X29.289 Y31.169
X29.307 Y31.18
X29.339 Y31.189
X29.39 Y31.202
X29.44 Y31.214
X29.54 Y31.238
X29.565 Y31.242
X29.59 Y31.246
X29.613 Y31.25
X29.615
X29.64 Y31.251
X29.665 Y31.252
X29.677
X29.679
X29.715 Y31.248
X29.73 Y31.246
X29.732
X29.765 Y31.236
X29.776 Y31.232
X29.777
X29.791 Y31.224
X29.815 Y31.21
X29.817 Y31.209
X29.818 Y31.208
X29.857 Y31.174
X29.89 Y31.146
X29.899 Y31.14
X29.909 Y31.134
X29.919 Y31.128
X29.928 Y31.124
X29.94 Y31.119
X29.952 Y31.115
X29.965 Y31.112
X29.977 Y31.11
X29.99 Y31.108
X30.004 Y31.107
X30.011
X30.015
X30.017
X30.019 Y31.105
Y31.103
Y31.099
X30.018 Y31.091
X30.019 Y31.074
X30.021 Y31.061
X30.023 Y31.049
X30.026 Y31.036
X30.03 Y31.024
X30.035 Y31.013
X30.04 Y31.002
X30.048 Y30.988
X30.057 Y30.974
X30.09 Y30.935
X30.1 Y30.924
X30.14 Y30.876
X30.142 Y30.874
X30.159 Y30.849
X30.19 Y30.801
X30.191 Y30.799
X30.193 Y30.794
X30.195 Y30.787
X30.2 Y30.774
Y30.771
X30.197 Y30.764
X30.195 Y30.761
X30.19 Y30.754
X30.168 Y30.724
X30.165 Y30.72
X30.163 Y30.718
X30.14 Y30.694
X30.12 Y30.674
X30.09 Y30.643
X30.04 Y30.596
X30.016 Y30.574
X29.99 Y30.549
X29.958 Y30.52
X29.938 Y30.509
X29.915 Y30.512
X29.897 Y30.527
X29.891 Y30.549
X29.898 Y30.571
X29.916 Y30.586
X29.939 Y30.588
X29.958 Y30.589
X29.974 Y30.598
X29.984 Y30.614
G3 X29.649 Y30.78 I-0.178 J0.061
G1 X29.648 Y30.779
G3 X29.964 Y30.573 Z-0.43 I0.158 J-0.103
X29.648 Y30.779 Z-0.45 I-0.158 J0.103
X29.667 Y30.549 Z-0.459 I0.158 J-0.103
G1 X29.668 Y30.548
X29.685 Y30.529
G3 X29.958 Y30.52 I0.141 J0.132
G1 X29.99 Y30.549
X30.016 Y30.574
X30.09 Y30.643
X30.12 Y30.674
X30.14 Y30.694
X30.165 Y30.72
X30.166 Y30.722
X30.168 Y30.724
X30.19 Y30.754
X30.195 Y30.761
X30.197 Y30.764
X30.2 Y30.771
Y30.774
X30.195 Y30.787
X30.193 Y30.794
X30.19 Y30.801
X30.175 Y30.824
X30.159 Y30.849
X30.142 Y30.874
X30.14 Y30.876
X30.1 Y30.924
X30.09 Y30.935
X30.057 Y30.974
X30.048 Y30.988
X30.04 Y31.002
X30.035 Y31.013
X30.03 Y31.024
X30.026 Y31.036
X30.023 Y31.049
X30.021 Y31.061
X30.019 Y31.074
X30.018 Y31.091
X30.019 Y31.099
Y31.103
Y31.105
X30.017 Y31.107
X30.015
X30.011
X30.004
X29.99 Y31.108
X29.977 Y31.11
X29.965 Y31.112
X29.952 Y31.115
X29.94 Y31.119
X29.928 Y31.124
X29.919 Y31.128
X29.909 Y31.134
X29.899 Y31.14
X29.89 Y31.146
X29.857 Y31.174
X29.818 Y31.208
X29.817 Y31.209
X29.815 Y31.21
X29.791 Y31.224
X29.777 Y31.232
X29.776
X29.765 Y31.236
X29.74 Y31.244
X29.732 Y31.246
X29.73
X29.715 Y31.248
X29.69 Y31.251
X29.679 Y31.252
X29.677
X29.665
X29.64 Y31.251
X29.615 Y31.25
X29.613
X29.59 Y31.246
X29.565 Y31.242
X29.54 Y31.238
X29.44 Y31.214
X29.39 Y31.202
X29.339 Y31.189
X29.307 Y31.18
X29.289 Y31.169
X29.278 Y31.151
X29.279 Y31.13
G0 Z5.
X29.265 Y32.246
Z0.974
G1 Z-0.459 F50.
X29.282 Y32.233
X29.302 Y32.231
X29.322 Y32.239
X29.367 Y32.275
X29.378 Y32.283
X29.39 Y32.291
X29.402 Y32.298
X29.415 Y32.303
X29.427 Y32.308
X29.44 Y32.312
X29.452 Y32.315
X29.465 Y32.318
X29.477 Y32.319
X29.49 Y32.32
X29.502 Y32.319
X29.515 Y32.318
X29.527 Y32.317
X29.54 Y32.314
X29.552 Y32.311
X29.565 Y32.306
X29.577 Y32.301
X29.59 Y32.294
X29.604 Y32.285
X29.611 Y32.28
X29.619 Y32.275
X29.629 Y32.265
X29.64 Y32.255
X29.663 Y32.225
X30.196 Y31.524
X30.234 Y31.474
X30.24 Y31.465
X30.246 Y31.455
X30.252 Y31.444
X30.256 Y31.434
X30.26 Y31.424
X30.264 Y31.412
X30.267 Y31.399
X30.269 Y31.387
X30.271 Y31.374
Y31.36
Y31.353
Y31.35
Y31.348
X30.274 Y31.346
X30.276
X30.281
X30.29
X30.303 Y31.345
X30.315 Y31.343
X30.328 Y31.34
X30.34 Y31.337
X30.355 Y31.331
X30.37 Y31.324
X30.38 Y31.319
X30.39 Y31.312
X30.401 Y31.305
X30.411 Y31.296
X30.423 Y31.285
X30.433 Y31.274
X32.031 Y29.523
X32.041 Y29.511
X32.049 Y29.501
X32.055 Y29.492
X32.061 Y29.482
X32.066 Y29.473
X32.071 Y29.46
X32.076 Y29.448
X32.079 Y29.435
X32.082 Y29.423
X32.084 Y29.41
X32.085 Y29.398
Y29.385
Y29.373
X32.084 Y29.36
X32.082 Y29.348
X32.079 Y29.335
X32.075 Y29.323
X32.07 Y29.31
X32.065 Y29.298
X32.058 Y29.285
X32.05 Y29.273
X32.041 Y29.262
X32.005 Y29.223
X31.987 Y29.204
X31.977 Y29.186
X31.978 Y29.165
X31.989 Y29.147
Z-0.509
X31.978 Y29.165
X31.977 Y29.186
X31.987 Y29.204
X32.005 Y29.223
X32.041 Y29.262
X32.05 Y29.273
X32.058 Y29.285
X32.065 Y29.298
X32.07 Y29.31
X32.075 Y29.323
X32.079 Y29.335
X32.082 Y29.348
X32.084 Y29.36
X32.085 Y29.373
Y29.385
Y29.398
X32.084 Y29.41
X32.082 Y29.423
X32.079 Y29.435
X32.076 Y29.448
X32.071 Y29.46
X32.066 Y29.473
X32.061 Y29.482
X32.055 Y29.492
X32.049 Y29.501
X32.041 Y29.511
X32.031 Y29.523
X30.433 Y31.274
X30.423 Y31.285
X30.411 Y31.296
X30.401 Y31.305
X30.39 Y31.312
X30.38 Y31.319
X30.37 Y31.324
X30.355 Y31.331
X30.34 Y31.337
X30.328 Y31.34
X30.315 Y31.343
X30.303 Y31.345
X30.29 Y31.346
X30.281
X30.276
X30.274
X30.271 Y31.348
Y31.35
Y31.353
Y31.36
Y31.374
X30.269 Y31.387
X30.267 Y31.399
X30.264 Y31.412
X30.26 Y31.424
X30.256 Y31.434
X30.252 Y31.444
X30.246 Y31.455
X30.24 Y31.465
X30.234 Y31.474
X30.196 Y31.524
X29.663 Y32.225
X29.64 Y32.255
X29.629 Y32.265
X29.619 Y32.275
X29.611 Y32.28
X29.604 Y32.285
X29.59 Y32.294
X29.577 Y32.301
X29.565 Y32.306
X29.552 Y32.311
X29.54 Y32.314
X29.527 Y32.317
X29.515 Y32.318
X29.502 Y32.319
X29.49 Y32.32
X29.477 Y32.319
X29.465 Y32.318
X29.452 Y32.315
X29.44 Y32.312
X29.427 Y32.308
X29.415 Y32.303
X29.402 Y32.298
X29.39 Y32.291
X29.378 Y32.283
X29.367 Y32.275
X29.322 Y32.239
X29.302 Y32.231
X29.282 Y32.233
X29.265 Y32.246
G0 Z5.
X29.279 Y31.13
Z0.974
G1 Z-0.509 F50.
X29.278 Y31.151
X29.289 Y31.169
X29.307 Y31.18
X29.339 Y31.189
X29.39 Y31.202
X29.54 Y31.238
X29.565 Y31.242
X29.59 Y31.246
X29.613 Y31.25
X29.615
X29.64 Y31.251
X29.665 Y31.252
X29.677
X29.679
X29.69 Y31.251
X29.715 Y31.248
X29.732 Y31.246
X29.74 Y31.244
X29.765 Y31.236
X29.776 Y31.232
X29.777
X29.791 Y31.224
X29.815 Y31.21
X29.818 Y31.208
X29.82 Y31.207
X29.857 Y31.174
X29.89 Y31.146
X29.899 Y31.14
X29.909 Y31.134
X29.919 Y31.128
X29.928 Y31.124
X29.94 Y31.119
X29.952 Y31.115
X29.965 Y31.112
X29.977 Y31.11
X29.99 Y31.108
X30.004 Y31.107
X30.011
X30.015
X30.017
X30.019 Y31.105
Y31.103
Y31.099
X30.018 Y31.091
X30.019 Y31.074
X30.021 Y31.061
X30.023 Y31.049
X30.026 Y31.036
X30.03 Y31.024
X30.035 Y31.013
X30.04 Y31.002
X30.048 Y30.988
X30.057 Y30.974
X30.09 Y30.935
X30.14 Y30.876
X30.142 Y30.874
X30.159 Y30.849
X30.175 Y30.824
X30.189 Y30.802
X30.19 Y30.8
X30.2 Y30.774
Y30.771
X30.199 Y30.769
X30.197 Y30.764
X30.195 Y30.761
X30.19 Y30.754
X30.168 Y30.724
X30.166 Y30.722
X30.165 Y30.72
X30.14 Y30.694
X30.12 Y30.674
X30.09 Y30.643
X30.016 Y30.574
X29.99 Y30.549
X29.958 Y30.52
X29.938 Y30.509
X29.915 Y30.512
X29.897 Y30.527
X29.891 Y30.549
X29.898 Y30.571
X29.916 Y30.586
X29.939 Y30.588
X29.958 Y30.589
X29.974 Y30.598
X29.984 Y30.614
G3 X29.628 Y30.737 I-0.178 J0.061
X29.634 Y30.601 I0.178 J-0.061
G1 Y30.599
G3 X29.978 Y30.752 Z-0.53 I0.172 J0.076
X29.634 Y30.599 Z-0.55 I-0.172 J-0.076
X29.667 Y30.549 Z-0.553 I0.172 J0.076
G1 X29.668 Y30.548
X29.685 Y30.529
G3 X29.958 Y30.52 I0.141 J0.132
G1 X29.99 Y30.549
X30.016 Y30.574
X30.09 Y30.643
X30.12 Y30.674
X30.165 Y30.72
X30.166 Y30.722
X30.168 Y30.724
X30.19 Y30.754
X30.195 Y30.762
X30.197 Y30.764
X30.199 Y30.769
Y30.771
X30.2 Y30.774
Y30.775
X30.198 Y30.78
X30.195 Y30.787
X30.189 Y30.802
Y30.803
X30.175 Y30.824
X30.159 Y30.849
X30.146 Y30.868
X30.144 Y30.871
X30.142 Y30.874
X30.09 Y30.935
X30.057 Y30.974
X30.048 Y30.988
X30.04 Y31.002
X30.035 Y31.013
X30.03 Y31.024
X30.026 Y31.036
X30.023 Y31.049
X30.021 Y31.061
X30.019 Y31.074
X30.018 Y31.091
X30.019 Y31.099
Y31.103
Y31.105
X30.017 Y31.107
X30.015
X30.011
X30.004
X29.99 Y31.108
X29.977 Y31.11
X29.965 Y31.112
X29.952 Y31.115
X29.94 Y31.119
X29.928 Y31.124
X29.919 Y31.128
X29.909 Y31.134
X29.899 Y31.14
X29.89 Y31.146
X29.857 Y31.174
X29.82 Y31.207
X29.818 Y31.208
X29.815 Y31.21
X29.791 Y31.224
X29.779 Y31.231
X29.777
X29.765 Y31.236
X29.74 Y31.244
X29.734 Y31.245
X29.732 Y31.246
X29.715 Y31.248
X29.69 Y31.251
X29.68 Y31.252
X29.679
X29.665
X29.64 Y31.251
X29.615 Y31.25
X29.613
X29.59 Y31.246
X29.565 Y31.242
X29.54 Y31.238
X29.39 Y31.202
X29.339 Y31.189
X29.307 Y31.18
X29.289 Y31.169
X29.278 Y31.151
X29.279 Y31.13
G0 Z5.
X29.265 Y32.246
Z0.974
G1 Z-0.553 F50.
X29.282 Y32.233
X29.302 Y32.231
X29.322 Y32.239
X29.367 Y32.275
X29.378 Y32.283
X29.39 Y32.291
X29.402 Y32.298
X29.415 Y32.303
X29.427 Y32.308
X29.44 Y32.312
X29.452 Y32.315
X29.465 Y32.318
X29.477 Y32.319
X29.49 Y32.32
X29.502 Y32.319
X29.515 Y32.318
X29.527 Y32.317
X29.54 Y32.314
X29.552 Y32.311
X29.565 Y32.306
X29.577 Y32.301
X29.59 Y32.294
X29.604 Y32.285
X29.611 Y32.28
X29.619 Y32.275
X29.629 Y32.265
X29.64 Y32.255
X29.663 Y32.225
X30.196 Y31.524
X30.234 Y31.474
X30.24 Y31.465
X30.246 Y31.455
X30.252 Y31.444
X30.256 Y31.434
X30.26 Y31.424
X30.264 Y31.412
X30.267 Y31.399
X30.269 Y31.387
X30.271 Y31.374
Y31.36
Y31.353
Y31.35
Y31.348
X30.274 Y31.346
X30.276
X30.281
X30.29
X30.303 Y31.345
X30.315 Y31.343
X30.328 Y31.34
X30.34 Y31.337
X30.355 Y31.331
X30.37 Y31.324
X30.38 Y31.319
X30.39 Y31.312
X30.401 Y31.305
X30.411 Y31.296
X30.423 Y31.285
X30.433 Y31.274
X32.031 Y29.523
X32.041 Y29.511
X32.049 Y29.501
X32.055 Y29.492
X32.061 Y29.482
X32.066 Y29.473
X32.071 Y29.46
X32.076 Y29.448
X32.079 Y29.435
X32.082 Y29.423
X32.084 Y29.41
X32.085 Y29.398
Y29.385
Y29.373
X32.084 Y29.36
X32.082 Y29.348
X32.079 Y29.335
X32.075 Y29.323
X32.07 Y29.31
X32.065 Y29.298
X32.058 Y29.285
X32.05 Y29.273
X32.041 Y29.262
X32.005 Y29.223
X31.987 Y29.204
X31.977 Y29.186
X31.978 Y29.165
X31.989 Y29.147
Z-0.603
X31.978 Y29.165
X31.977 Y29.186
X31.987 Y29.204
X32.005 Y29.223
X32.041 Y29.262
X32.05 Y29.273
X32.058 Y29.285
X32.065 Y29.298
X32.07 Y29.31
X32.075 Y29.323
X32.079 Y29.335
X32.082 Y29.348
X32.084 Y29.36
X32.085 Y29.373
Y29.385
Y29.398
X32.084 Y29.41
X32.082 Y29.423
X32.079 Y29.435
X32.076 Y29.448
X32.071 Y29.46
X32.066 Y29.473
X32.061 Y29.482
X32.055 Y29.492
X32.049 Y29.501
X32.041 Y29.511
X32.031 Y29.523
X30.433 Y31.274
X30.423 Y31.285
X30.411 Y31.296
X30.401 Y31.305
X30.39 Y31.312
X30.38 Y31.319
X30.37 Y31.324
X30.355 Y31.331
X30.34 Y31.337
X30.328 Y31.34
X30.315 Y31.343
X30.303 Y31.345
X30.29 Y31.346
X30.281
X30.276
X30.274
X30.271 Y31.348
Y31.35
Y31.353
Y31.36
Y31.374
X30.269 Y31.387
X30.267 Y31.399
X30.264 Y31.412
X30.26 Y31.424
X30.256 Y31.434
X30.252 Y31.444
X30.246 Y31.455
X30.24 Y31.465
X30.234 Y31.474
X30.196 Y31.524
X29.663 Y32.225
X29.64 Y32.255
X29.629 Y32.265
X29.619 Y32.275
X29.611 Y32.28
X29.604 Y32.285
X29.59 Y32.294
X29.577 Y32.301
X29.565 Y32.306
X29.552 Y32.311
X29.54 Y32.314
X29.527 Y32.317
X29.515 Y32.318
X29.502 Y32.319
X29.49 Y32.32
X29.477 Y32.319
X29.465 Y32.318
X29.452 Y32.315
X29.44 Y32.312
X29.427 Y32.308
X29.415 Y32.303
X29.402 Y32.298
X29.39 Y32.291
X29.378 Y32.283
X29.367 Y32.275
X29.322 Y32.239
X29.302 Y32.231
X29.282 Y32.233
X29.265 Y32.246
G0 Z5.
X29.279 Y31.13
Z0.974
G1 Z-0.603 F50.
X29.278 Y31.151
X29.289 Y31.169
X29.307 Y31.18
X29.339 Y31.189
X29.39 Y31.202
X29.54 Y31.238
X29.565 Y31.242
X29.59 Y31.246
X29.613 Y31.25
X29.615
X29.64 Y31.251
X29.679 Y31.252
X29.68
X29.69 Y31.251
X29.715 Y31.248
X29.732 Y31.246
X29.734 Y31.245
X29.74 Y31.244
X29.765 Y31.236
X29.777 Y31.231
X29.779
X29.791 Y31.224
X29.815 Y31.21
X29.818 Y31.208
X29.82 Y31.207
X29.857 Y31.174
X29.89 Y31.146
X29.899 Y31.14
X29.909 Y31.134
X29.919 Y31.128
X29.928 Y31.124
X29.94 Y31.119
X29.952 Y31.115
X29.965 Y31.112
X29.977 Y31.11
X29.99 Y31.108
X30.004 Y31.107
X30.011
X30.015
X30.017
X30.019 Y31.105
Y31.103
Y31.099
X30.018 Y31.091
X30.019 Y31.074
X30.021 Y31.061
X30.023 Y31.049
X30.026 Y31.036
X30.03 Y31.024
X30.035 Y31.013
X30.04 Y31.002
X30.048 Y30.988
X30.057 Y30.974
X30.09 Y30.935
X30.142 Y30.874
X30.144 Y30.871
X30.146 Y30.868
X30.159 Y30.849
X30.175 Y30.824
X30.189 Y30.803
Y30.802
X30.195 Y30.787
X30.198 Y30.78
X30.2 Y30.775
Y30.774
X30.199 Y30.771
Y30.769
X30.197 Y30.764
X30.195 Y30.762
X30.19 Y30.754
X30.168 Y30.724
X30.166 Y30.722
X30.165 Y30.72
X30.12 Y30.674
X30.09 Y30.643
X30.016 Y30.574
X29.99 Y30.549
X29.958 Y30.52
X29.938 Y30.509
X29.915 Y30.512
X29.897 Y30.527
X29.891 Y30.549
X29.898 Y30.571
X29.916 Y30.586
X29.939 Y30.588
X29.958 Y30.589
X29.974 Y30.598
X29.984 Y30.614
G3 X29.649 Y30.78 I-0.178 J0.061
G1 X29.648 Y30.779
G3 X29.964 Y30.573 Z-0.623 I0.158 J-0.103
X29.648 Y30.779 Z-0.644 I-0.158 J0.103
X29.667 Y30.549 Z-0.653 I0.158 J-0.103
G1 X29.668 Y30.548
X29.685 Y30.529
G3 X29.958 Y30.52 I0.141 J0.132
G1 X29.99 Y30.549
X30.016 Y30.574
X30.09 Y30.643
X30.12 Y30.674
X30.165 Y30.72
X30.166 Y30.722
X30.168 Y30.724
X30.19 Y30.754
X30.195 Y30.762
X30.197 Y30.764
X30.199 Y30.769
Y30.771
X30.2 Y30.774
Y30.775
X30.198 Y30.78
X30.195 Y30.787
X30.189 Y30.802
Y30.803
X30.175 Y30.824
X30.159 Y30.849
X30.146 Y30.868
X30.144 Y30.871
X30.142 Y30.874
X30.09 Y30.935
X30.057 Y30.974
X30.048 Y30.988
X30.04 Y31.002
X30.035 Y31.013
X30.03 Y31.024
X30.026 Y31.036
X30.023 Y31.049
X30.021 Y31.061
X30.019 Y31.074
X30.018 Y31.091
X30.019 Y31.099
Y31.103
Y31.105
X30.017 Y31.107
X30.015
X30.011
X30.004
X29.99 Y31.108
X29.977 Y31.11
X29.965 Y31.112
X29.952 Y31.115
X29.94 Y31.119
X29.928 Y31.124
X29.919 Y31.128
X29.909 Y31.134
X29.899 Y31.14
X29.89 Y31.146
X29.857 Y31.174
X29.82 Y31.207
X29.818 Y31.208
X29.815 Y31.21
X29.791 Y31.224
X29.779 Y31.231
X29.777
X29.765 Y31.236
X29.74 Y31.244
X29.734 Y31.245
X29.732 Y31.246
X29.715 Y31.248
X29.69 Y31.251
X29.68 Y31.252
X29.679
X29.64 Y31.251
X29.615 Y31.25
X29.613
X29.59 Y31.246
X29.565 Y31.242
X29.54 Y31.238
X29.39 Y31.202
X29.339 Y31.189
X29.307 Y31.18
X29.289 Y31.169
X29.278 Y31.151
X29.279 Y31.13
G0 Z5.
X29.265 Y32.246
Z0.974
G1 Z-0.653 F50.
X29.282 Y32.233
X29.302 Y32.231
X29.322 Y32.239
X29.367 Y32.275
X29.378 Y32.283
X29.39 Y32.291
X29.402 Y32.298
X29.415 Y32.303
X29.427 Y32.308
X29.44 Y32.312
X29.452 Y32.315
X29.465 Y32.318
X29.477 Y32.319
X29.49 Y32.32
X29.502 Y32.319
X29.515 Y32.318
X29.527 Y32.317
X29.54 Y32.314
X29.552 Y32.311
X29.565 Y32.306
X29.577 Y32.301
X29.59 Y32.294
X29.604 Y32.285
X29.611 Y32.28
X29.619 Y32.275
X29.629 Y32.265
X29.64 Y32.255
X29.663 Y32.225
X30.196 Y31.524
X30.234 Y31.474
X30.24 Y31.465
X30.246 Y31.455
X30.252 Y31.444
X30.256 Y31.434
X30.26 Y31.424
X30.264 Y31.412
X30.267 Y31.399
X30.269 Y31.387
X30.271 Y31.374
Y31.36
Y31.353
Y31.35
Y31.348
X30.274 Y31.346
X30.276
X30.281
X30.29
X30.303 Y31.345
X30.315 Y31.343
X30.328 Y31.34
X30.34 Y31.337
X30.355 Y31.331
X30.37 Y31.324
X30.38 Y31.319
X30.39 Y31.312
X30.401 Y31.305
X30.411 Y31.296
X30.423 Y31.285
X30.433 Y31.274
X32.031 Y29.523
X32.041 Y29.511
X32.049 Y29.501
X32.055 Y29.492
X32.061 Y29.482
X32.066 Y29.473
X32.071 Y29.46
X32.076 Y29.448
X32.079 Y29.435
X32.082 Y29.423
X32.084 Y29.41
X32.085 Y29.398
Y29.385
Y29.373
X32.084 Y29.36
X32.082 Y29.348
X32.079 Y29.335
X32.075 Y29.323
X32.07 Y29.31
X32.065 Y29.298
X32.058 Y29.285
X32.05 Y29.273
X32.041 Y29.262
X32.005 Y29.223
X31.987 Y29.204
X31.977 Y29.186
X31.978 Y29.165
X31.989 Y29.147
Z-0.703
X31.978 Y29.165
X31.977 Y29.186
X31.987 Y29.204
X32.005 Y29.223
X32.041 Y29.262
X32.05 Y29.273
X32.058 Y29.285
X32.065 Y29.298
X32.07 Y29.31
X32.075 Y29.323
X32.079 Y29.335
X32.082 Y29.348
X32.084 Y29.36
X32.085 Y29.373
Y29.385
Y29.398
X32.084 Y29.41
X32.082 Y29.423
X32.079 Y29.435
X32.076 Y29.448
X32.071 Y29.46
X32.066 Y29.473
X32.061 Y29.482
X32.055 Y29.492
X32.049 Y29.501
X32.041 Y29.511
X32.031 Y29.523
X30.433 Y31.274
X30.423 Y31.285
X30.411 Y31.296
X30.401 Y31.305
X30.39 Y31.312
X30.38 Y31.319
X30.37 Y31.324
X30.355 Y31.331
X30.34 Y31.337
X30.328 Y31.34
X30.315 Y31.343
X30.303 Y31.345
X30.29 Y31.346
X30.281
X30.276
X30.274
X30.271 Y31.348
Y31.35
Y31.353
Y31.36
Y31.374
X30.269 Y31.387
X30.267 Y31.399
X30.264 Y31.412
X30.26 Y31.424
X30.256 Y31.434
X30.252 Y31.444
X30.246 Y31.455
X30.24 Y31.465
X30.234 Y31.474
X30.196 Y31.524
X29.663 Y32.225
X29.64 Y32.255
X29.629 Y32.265
X29.619 Y32.275
X29.611 Y32.28
X29.604 Y32.285
X29.59 Y32.294
X29.577 Y32.301
X29.565 Y32.306
X29.552 Y32.311
X29.54 Y32.314
X29.527 Y32.317
X29.515 Y32.318
X29.502 Y32.319
X29.49 Y32.32
X29.477 Y32.319
X29.465 Y32.318
X29.452 Y32.315
X29.44 Y32.312
X29.427 Y32.308
X29.415 Y32.303
X29.402 Y32.298
X29.39 Y32.291
X29.378 Y32.283
X29.367 Y32.275
X29.322 Y32.239
X29.302 Y32.231
X29.282 Y32.233
X29.265 Y32.246
G0 Z5.
X29.279 Y31.13
Z0.974
G1 Z-0.703 F50.
X29.278 Y31.151
X29.289 Y31.169
X29.307 Y31.18
X29.339 Y31.189
X29.39 Y31.202
X29.54 Y31.238
X29.565 Y31.242
X29.59 Y31.246
X29.613 Y31.25
X29.615
X29.64 Y31.251
X29.679 Y31.252
X29.68
X29.69 Y31.251
X29.715 Y31.248
X29.732 Y31.246
X29.734 Y31.245
X29.74 Y31.244
X29.765 Y31.236
X29.777 Y31.231
X29.779
X29.791 Y31.224
X29.815 Y31.21
X29.818 Y31.208
X29.82 Y31.207
X29.857 Y31.174
X29.89 Y31.146
X29.899 Y31.14
X29.909 Y31.134
X29.919 Y31.128
X29.928 Y31.124
X29.94 Y31.119
X29.952 Y31.115
X29.965 Y31.112
X29.977 Y31.11
X29.99 Y31.108
X30.004 Y31.107
X30.011
X30.015
X30.017
X30.019 Y31.105
Y31.103
Y31.099
X30.018 Y31.091
X30.019 Y31.074
X30.021 Y31.061
X30.023 Y31.049
X30.026 Y31.036
X30.03 Y31.024
X30.035 Y31.013
X30.04 Y31.002
X30.048 Y30.988
X30.057 Y30.974
X30.09 Y30.935
X30.142 Y30.874
X30.144 Y30.871
X30.146 Y30.868
X30.159 Y30.849
X30.175 Y30.824
X30.189 Y30.803
Y30.802
X30.195 Y30.787
X30.198 Y30.78
X30.2 Y30.775
Y30.774
X30.199 Y30.771
Y30.769
X30.197 Y30.764
X30.195 Y30.762
X30.19 Y30.754
X30.168 Y30.724
X30.166 Y30.722
X30.165 Y30.72
X30.12 Y30.674
X30.09 Y30.643
X30.016 Y30.574
X29.99 Y30.549
X29.958 Y30.52
X29.938 Y30.509
X29.915 Y30.512
X29.897 Y30.527
X29.891 Y30.549
X29.898 Y30.571
X29.916 Y30.586
X29.939 Y30.588
X29.958 Y30.589
X29.974 Y30.598
X29.984 Y30.614
G3 X29.628 Y30.737 I-0.178 J0.061
X29.676 Y30.54 I0.178 J-0.061
G1 X29.677 Y30.539
G3 X29.936 Y30.812 Z-0.723 I0.13 J0.137
X29.667 Y30.549 Z-0.743 I-0.13 J-0.137
G1 X29.668 Y30.548
X29.685 Y30.529
G3 X29.958 Y30.52 I0.141 J0.132
G1 X29.99 Y30.549
X30.016 Y30.574
X30.09 Y30.643
X30.12 Y30.674
X30.165 Y30.72
X30.166 Y30.722
X30.168 Y30.724
X30.19 Y30.754
X30.195 Y30.762
X30.197 Y30.764
X30.199 Y30.769
Y30.771
X30.2 Y30.774
Y30.775
X30.198 Y30.78
X30.195 Y30.787
X30.189 Y30.802
Y30.803
X30.175 Y30.824
X30.159 Y30.849
X30.146 Y30.868
X30.144 Y30.871
X30.142 Y30.874
X30.09 Y30.935
X30.057 Y30.974
X30.048 Y30.988
X30.04 Y31.002
X30.035 Y31.013
X30.03 Y31.024
X30.026 Y31.036
X30.023 Y31.049
X30.021 Y31.061
X30.019 Y31.074
X30.018 Y31.091
X30.019 Y31.099
Y31.103
Y31.105
X30.017 Y31.107
X30.015
X30.011
X30.004
X29.99 Y31.108
X29.977 Y31.11
X29.965 Y31.112
X29.952 Y31.115
X29.94 Y31.119
X29.928 Y31.124
X29.919 Y31.128
X29.909 Y31.134
X29.899 Y31.14
X29.89 Y31.146
X29.857 Y31.174
X29.82 Y31.207
X29.818 Y31.208
X29.815 Y31.21
X29.791 Y31.224
X29.779 Y31.231
X29.777
X29.765 Y31.236
X29.74 Y31.244
X29.734 Y31.245
X29.732 Y31.246
X29.715 Y31.248
X29.69 Y31.251
X29.68 Y31.252
X29.679
X29.64 Y31.251
X29.615 Y31.25
X29.613
X29.59 Y31.246
X29.565 Y31.242
X29.54 Y31.238
X29.39 Y31.202
X29.339 Y31.189
X29.307 Y31.18
X29.289 Y31.169
X29.278 Y31.151
X29.279 Y31.13
G0 Z5.
X29.265 Y32.246
Z0.974
G1 Z-0.743 F50.
X29.282 Y32.233
X29.302 Y32.231
X29.322 Y32.239
X29.367 Y32.275
X29.378 Y32.283
X29.39 Y32.291
X29.402 Y32.298
X29.415 Y32.303
X29.427 Y32.308
X29.44 Y32.312
X29.452 Y32.315
X29.465 Y32.318
X29.477 Y32.319
X29.49 Y32.32
X29.502 Y32.319
X29.515 Y32.318
X29.527 Y32.317
X29.54 Y32.314
X29.552 Y32.311
X29.565 Y32.306
X29.577 Y32.301
X29.59 Y32.294
X29.604 Y32.285
X29.611 Y32.28
X29.619 Y32.275
X29.629 Y32.265
X29.64 Y32.255
X29.663 Y32.225
X30.196 Y31.524
X30.234 Y31.474
X30.24 Y31.465
X30.246 Y31.455
X30.252 Y31.444
X30.256 Y31.434
X30.26 Y31.424
X30.264 Y31.412
X30.267 Y31.399
X30.269 Y31.387
X30.271 Y31.374
Y31.36
Y31.353
Y31.35
Y31.348
X30.274 Y31.346
X30.276
X30.281
X30.29
X30.303 Y31.345
X30.315 Y31.343
X30.328 Y31.34
X30.34 Y31.337
X30.355 Y31.331
X30.37 Y31.324
X30.38 Y31.319
X30.39 Y31.312
X30.401 Y31.305
X30.411 Y31.296
X30.423 Y31.285
X30.433 Y31.274
X32.031 Y29.523
X32.041 Y29.511
X32.049 Y29.501
X32.055 Y29.492
X32.061 Y29.482
X32.066 Y29.473
X32.071 Y29.46
X32.076 Y29.448
X32.079 Y29.435
X32.082 Y29.423
X32.084 Y29.41
X32.085 Y29.398
Y29.385
Y29.373
X32.084 Y29.36
X32.082 Y29.348
X32.079 Y29.335
X32.075 Y29.323
X32.07 Y29.31
X32.065 Y29.298
X32.058 Y29.285
X32.05 Y29.273
X32.041 Y29.262
X32.005 Y29.223
X31.987 Y29.204
X31.977 Y29.186
X31.978 Y29.165
X31.989 Y29.147
Z-0.791
X31.978 Y29.165
X31.977 Y29.186
X31.987 Y29.204
X32.005 Y29.223
X32.041 Y29.262
X32.05 Y29.273
X32.058 Y29.285
X32.065 Y29.298
X32.07 Y29.31
X32.075 Y29.323
X32.079 Y29.335
X32.082 Y29.348
X32.084 Y29.36
X32.085 Y29.373
Y29.385
Y29.398
X32.084 Y29.41
X32.082 Y29.423
X32.079 Y29.435
X32.076 Y29.448
X32.071 Y29.46
X32.066 Y29.473
X32.061 Y29.482
X32.055 Y29.492
X32.049 Y29.501
X32.041 Y29.511
X32.031 Y29.523
X30.433 Y31.274
X30.423 Y31.285
X30.411 Y31.296
X30.401 Y31.305
X30.39 Y31.312
X30.38 Y31.319
X30.37 Y31.324
X30.355 Y31.331
X30.34 Y31.337
X30.328 Y31.34
X30.315 Y31.343
X30.303 Y31.345
X30.29 Y31.346
X30.281
X30.276
X30.274
X30.271 Y31.348
Y31.35
Y31.353
Y31.36
Y31.374
X30.269 Y31.387
X30.267 Y31.399
X30.264 Y31.412
X30.26 Y31.424
X30.256 Y31.434
X30.252 Y31.444
X30.246 Y31.455
X30.24 Y31.465
X30.234 Y31.474
X30.196 Y31.524
X29.663 Y32.225
X29.64 Y32.255
X29.629 Y32.265
X29.619 Y32.275
X29.611 Y32.28
X29.604 Y32.285
X29.59 Y32.294
X29.577 Y32.301
X29.565 Y32.306
X29.552 Y32.311
X29.54 Y32.314
X29.527 Y32.317
X29.515 Y32.318
X29.502 Y32.319
X29.49 Y32.32
X29.477 Y32.319
X29.465 Y32.318
X29.452 Y32.315
X29.44 Y32.312
X29.427 Y32.308
X29.415 Y32.303
X29.402 Y32.298
X29.39 Y32.291
X29.378 Y32.283
X29.367 Y32.275
X29.322 Y32.239
X29.302 Y32.231
X29.282 Y32.233
X29.265 Y32.246
G0 Z5.
X29.279 Y31.13
Z0.974
G1 Z-0.791 F50.
X29.278 Y31.151
X29.289 Y31.169
X29.307 Y31.18
X29.339 Y31.189
X29.39 Y31.202
X29.54 Y31.238
X29.565 Y31.242
X29.59 Y31.246
X29.613 Y31.25
X29.615
X29.64 Y31.251
X29.679 Y31.252
X29.68
X29.69 Y31.251
X29.715 Y31.248
X29.732 Y31.246
X29.734 Y31.245
X29.74 Y31.244
X29.765 Y31.236
X29.777 Y31.231
X29.779
X29.791 Y31.224
X29.815 Y31.21
X29.818 Y31.208
X29.82 Y31.207
X29.857 Y31.174
X29.89 Y31.146
X29.899 Y31.14
X29.909 Y31.134
X29.919 Y31.128
X29.928 Y31.124
X29.94 Y31.119
X29.952 Y31.115
X29.965 Y31.112
X29.977 Y31.11
X29.99 Y31.108
X30.004 Y31.107
X30.011
X30.015
X30.017
X30.019 Y31.105
Y31.103
Y31.099
X30.018 Y31.091
X30.019 Y31.074
X30.021 Y31.061
X30.023 Y31.049
X30.026 Y31.036
X30.03 Y31.024
X30.035 Y31.013
X30.04 Y31.002
X30.048 Y30.988
X30.057 Y30.974
X30.09 Y30.935
X30.142 Y30.874
X30.144 Y30.871
X30.146 Y30.868
X30.159 Y30.849
X30.175 Y30.824
X30.189 Y30.803
Y30.802
X30.195 Y30.787
X30.198 Y30.78
X30.2 Y30.775
Y30.774
X30.199 Y30.771
Y30.769
X30.197 Y30.764
X30.195 Y30.762
X30.19 Y30.754
X30.168 Y30.724
X30.166 Y30.722
X30.165 Y30.72
X30.12 Y30.674
X30.09 Y30.643
X30.016 Y30.574
X29.99 Y30.549
X29.958 Y30.52
X29.94 Y30.51
X29.919 Y30.511
X29.902 Y30.522
G0 Z5.
X56.995 Y10.666
Z0.964
G1 Z-0.085 F50.
X57. Z-0.105
X57.015 Y10.668 Z-0.12
X57.035 Y10.671 Z-0.125
X57.109 Y10.682
X57.128 Y10.69
X57.141 Y10.706
X57.143 Y10.727
X57.135 Y10.786
X57.133 Y10.799
Y10.811
Y10.824
X57.134 Y10.836
X57.135 Y10.849
X57.138 Y10.861
X57.141 Y10.874
X57.145 Y10.886
X57.15 Y10.899
X57.157 Y10.911
X57.159 Y10.916
X57.167 Y10.927
X57.175 Y10.939
X57.184 Y10.95
X57.195 Y10.961
X57.202 Y10.967
X57.209 Y10.973
X57.222 Y10.982
X57.234 Y10.99
X57.247 Y10.996
X57.26 Y11.001
X57.268 Y11.004
X57.277 Y11.007
X57.286 Y11.009
X57.295 Y11.011
X57.31 Y11.013
X59.136 Y11.281
X59.148 Y11.283
X59.161 Y11.284
X59.173
X59.186 Y11.283
X59.198 Y11.282
X59.211 Y11.279
X59.223 Y11.276
X59.236 Y11.272
X59.248 Y11.267
X59.26 Y11.261
X59.261
X59.273 Y11.254
X59.286 Y11.245
X59.298 Y11.235
X59.305 Y11.229
X59.311 Y11.223
X59.322 Y11.211
X59.331 Y11.199
X59.339 Y11.186
X59.346 Y11.174
X59.351 Y11.161
X59.357 Y11.146
X59.361 Y11.131
X59.362 Y11.125
X59.365 Y11.111
X59.38 Y11.011
X59.388 Y10.961
Y10.949
Y10.936
X59.387 Y10.924
X59.385 Y10.911
X59.383 Y10.899
X59.379 Y10.886
X59.375 Y10.874
X59.37 Y10.861
X59.366 Y10.853
X59.361 Y10.845
X59.356 Y10.836
X59.35 Y10.828
X59.343 Y10.82
X59.336 Y10.811
X59.33 Y10.805
X59.324 Y10.799
X59.311 Y10.788
X59.299 Y10.78
X59.287 Y10.772
X59.275 Y10.766
X59.263 Y10.761
X59.261 Y10.76
X59.248 Y10.756
X59.236 Y10.752
X59.211 Y10.748
X59.111 Y10.73
X59.061 Y10.719
X59.011 Y10.708
X58.961 Y10.692
X58.928 Y10.682
X58.926 Y10.681
X58.868 Y10.656
X58.865 Y10.655
X58.823 Y10.629
X58.822 Y10.628
X58.792 Y10.604
X58.79 Y10.602
X58.77 Y10.579
X58.755 Y10.552
X58.754 Y10.55
X58.741 Y10.516
Y10.514
X58.731 Y10.469
X58.725 Y10.411
Y10.361
X58.727 Y10.311
X58.738 Y10.161
X58.745 Y10.111
X58.765 Y9.961
X58.772 Y9.911
X58.778 Y9.87
X58.787 Y9.849
X58.806 Y9.837
X58.828
X58.897 Y9.857
X58.916 Y9.863 Z-0.12
X58.93 Y9.867 Z-0.105
X58.936 Y9.868 Z-0.085
G0 Z5.
X60.448 Y10.322
Z0.975
G1 Z-0.033 F50.
X60.447 Y10.327 Z-0.052
X60.442 Y10.34 Z-0.067
X60.437 Y10.359 Z-0.073
X60.436 Y10.361
X60.412 Y10.439 Z-0.076
X60.405 Y10.461 Z-0.077
X60.389 Y10.511 Z-0.078
X60.373 Y10.561 Z-0.08
X60.362 Y10.595 Z-0.081
X60.339 Y10.661 Z-0.084
X60.319 Y10.711 Z-0.086
X60.312 Y10.73 Z-0.087
X60.298 Y10.761 Z-0.088
X60.277 Y10.806 Z-0.089
X60.276 Y10.808
X60.25 Y10.852 Z-0.091
X60.249 Y10.854
X60.228 Y10.881 Z-0.093
X60.226 Y10.884
X60.207 Y10.901 Z-0.094
X60.204 Y10.903
X60.186 Y10.915
X60.184 Y10.916 Z-0.095
X60.16 Y10.925
X60.158 Y10.926
X60.122 Y10.932 Z-0.097
X60.121
X60.071 Y10.934 Z-0.099
X60.069
X60.001 Y10.928 Z-0.101
X59.961 Y10.921 Z-0.102
X59.911 Y10.912 Z-0.104
X59.811 Y10.888 Z-0.108
X59.761 Y10.873 Z-0.11
X59.686 Y10.851 Z-0.112
X59.674 Y10.848 Z-0.113
X59.661 Y10.845
X59.649 Y10.844 Z-0.114
X59.636 Y10.843
X59.624 Y10.842 Z-0.115
X59.611 Y10.843
X59.599 Y10.845
X59.586 Y10.847 Z-0.116
X59.574 Y10.85
X59.561 Y10.854 Z-0.117
X59.553 Y10.857
X59.544 Y10.861
X59.536 Y10.865 Z-0.118
X59.528 Y10.87
X59.519 Y10.875
X59.511 Y10.881 Z-0.119
X59.503 Y10.887
X59.495 Y10.894 Z-0.12
X59.486 Y10.903
X59.478 Y10.911
X59.469 Y10.923 Z-0.121
X59.461 Y10.934
X59.453 Y10.948 Z-0.122
X59.447 Y10.961
X59.442 Y10.974 Z-0.123
X59.437 Y10.986
X59.42 Y11.041 Z-0.125
Y11.042
X59.437 Y10.986
X59.442 Y10.974
X59.447 Y10.961
X59.453 Y10.948
X59.461 Y10.934
X59.469 Y10.923
X59.478 Y10.911
X59.486 Y10.903
X59.495 Y10.894
X59.503 Y10.887
X59.511 Y10.881
X59.519 Y10.875
X59.528 Y10.87
X59.536 Y10.865
X59.544 Y10.861
X59.553 Y10.857
X59.561 Y10.854
X59.574 Y10.85
X59.586 Y10.847
X59.599 Y10.845
X59.611 Y10.843
X59.624 Y10.842
X59.636 Y10.843
X59.649 Y10.844
X59.661 Y10.845
X59.674 Y10.848
X59.686 Y10.851
X59.761 Y10.873
X59.811 Y10.888
X59.911 Y10.912
X59.961 Y10.921
X60.001 Y10.928
X60.069 Y10.934
X60.071
X60.121 Y10.932
X60.122
X60.158 Y10.926
X60.16 Y10.925
X60.184 Y10.916
X60.186 Y10.915
X60.204 Y10.903
X60.207 Y10.901
X60.226 Y10.884
X60.228 Y10.881
X60.249 Y10.854
X60.25 Y10.852
X60.276 Y10.808
X60.277 Y10.806
X60.298 Y10.761
X60.312 Y10.73
X60.319 Y10.711
X60.339 Y10.661
X60.362 Y10.595
X60.373 Y10.561
X60.389 Y10.511
X60.405 Y10.461
X60.412 Y10.439
X60.436 Y10.361
X60.452 Y10.311
Y10.288
X60.44 Y10.269
X60.42 Y10.259
X60.349 Y10.248
X60.33 Y10.245 Z-0.12
X60.315 Y10.242 Z-0.105
X60.31 Y10.241 Z-0.085
G0 Z5.
X60.641 Y11.724
Z0.975
G1 Z-0.033 F50.
X60.636 Y11.722 Z-0.052
X60.623 Y11.718 Z-0.067
X60.604 Y11.712 Z-0.073
X59.561 Y11.382 Z-0.111
X59.511 Y11.366 Z-0.113
X59.502 Y11.361
X59.491 Y11.356 Z-0.114
X59.481 Y11.351
X59.471 Y11.344
X59.461 Y11.336 Z-0.115
X59.455 Y11.331
X59.448 Y11.325 Z-0.116
X59.441 Y11.318
X59.435 Y11.311
X59.428 Y11.303 Z-0.117
X59.422 Y11.294
X59.416 Y11.286
X59.411 Y11.277 Z-0.118
X59.407 Y11.269
X59.403 Y11.261
X59.398 Y11.249 Z-0.119
X59.394 Y11.236
X59.391 Y11.224 Z-0.12
X59.389 Y11.211
X59.387 Y11.199 Z-0.121
X59.386 Y11.186
X59.387 Y11.174
Y11.161 Z-0.122
X59.389 Y11.151
X59.391 Y11.14 Z-0.123
X59.395 Y11.125
X59.399 Y11.111 Z-0.124
X59.413 Y11.064 Z-0.125
X59.414 Y11.063
X59.399 Y11.111
X59.395 Y11.125
X59.391 Y11.14
X59.389 Y11.151
X59.387 Y11.161
Y11.174
X59.386 Y11.186
X59.387 Y11.199
X59.389 Y11.211
X59.391 Y11.224
X59.394 Y11.236
X59.398 Y11.249
X59.403 Y11.261
X59.407 Y11.269
X59.411 Y11.277
X59.416 Y11.286
X59.422 Y11.294
X59.428 Y11.303
X59.435 Y11.311
X59.441 Y11.318
X59.448 Y11.325
X59.455 Y11.331
X59.461 Y11.336
X59.471 Y11.344
X59.481 Y11.351
X59.491 Y11.356
X59.502 Y11.361
X59.511 Y11.366
X59.561 Y11.382
X62.363 Y12.268
X62.413 Y12.282
X62.454 Y12.292
X62.474 Y12.304
X62.484 Y12.325
X62.481 Y12.348
X62.466 Y12.365
X62.444 Y12.371
X62.422 Y12.364
X62.407 Y12.346
X62.396 Y12.331
X62.379 Y12.323
X62.36
G2 X62.452 Y12.688 I0.046 J0.183
X62.526 Y12.651 I-0.046 J-0.183
G1 X62.527 Y12.65
G2 X62.286 Y12.361 Z-0.146 I-0.121 J-0.145
X62.527 Y12.65 Z-0.167 I0.121 J0.145
X62.589 Y12.552 Z-0.171 I-0.121 J-0.145
G1 Y12.551
X62.595 Y12.526
G2 X62.454 Y12.292 I-0.188 J-0.046
G1 X62.438 Y12.289
X62.413 Y12.282
X62.363 Y12.268
X59.561 Y11.382
X59.511 Y11.366
X59.502 Y11.361
X59.491 Y11.356
X59.481 Y11.351
X59.471 Y11.344
X59.461 Y11.336
X59.455 Y11.331
X59.448 Y11.325
X59.441 Y11.318
X59.435 Y11.311
X59.428 Y11.303
X59.422 Y11.294
X59.416 Y11.286
X59.411 Y11.277
X59.407 Y11.269
X59.403 Y11.261
X59.398 Y11.249
X59.394 Y11.236
X59.391 Y11.224
X59.389 Y11.211
X59.387 Y11.199
X59.386 Y11.186
X59.387 Y11.174
Y11.161
X59.389 Y11.151
X59.391 Y11.14
X59.395 Y11.125
X59.399 Y11.111
X59.414 Y11.063
X59.42 Y11.042
X59.437 Y10.986
X59.442 Y10.974
X59.447 Y10.961
X59.453 Y10.948
X59.461 Y10.934
X59.469 Y10.923
X59.478 Y10.911
X59.486 Y10.903
X59.495 Y10.894
X59.503 Y10.887
X59.511 Y10.881
X59.519 Y10.875
X59.528 Y10.87
X59.536 Y10.865
X59.544 Y10.861
X59.553 Y10.857
X59.561 Y10.854
X59.574 Y10.85
X59.586 Y10.847
X59.599 Y10.845
X59.611 Y10.843
X59.624 Y10.842
X59.636 Y10.843
X59.649 Y10.844
X59.661 Y10.845
X59.674 Y10.848
X59.686 Y10.851
X59.761 Y10.873
X59.811 Y10.888
X59.911 Y10.912
X59.961 Y10.921
X60.001 Y10.928
X60.069 Y10.934
X60.071
X60.121 Y10.932
X60.122
X60.158 Y10.926
X60.16 Y10.925
X60.184 Y10.916
X60.186 Y10.915
X60.204 Y10.903
X60.207 Y10.901
X60.226 Y10.884
X60.228 Y10.881
X60.249 Y10.854
X60.25 Y10.852
X60.276 Y10.808
X60.277 Y10.806
X60.298 Y10.761
X60.312 Y10.73
X60.319 Y10.711
X60.339 Y10.661
X60.362 Y10.595
X60.373 Y10.561
X60.389 Y10.511
X60.405 Y10.461
X60.412 Y10.439
X60.436 Y10.361
X60.452 Y10.311
Y10.29
X60.442 Y10.271
X60.424 Y10.26
X58.827 Y9.837
X58.805
X58.787 Y9.85
X58.778 Y9.87
X58.772 Y9.911
X58.765 Y9.961
X58.745 Y10.111
X58.738 Y10.161
X58.727 Y10.311
X58.725 Y10.361
Y10.411
X58.73 Y10.461
X58.731 Y10.469
X58.741 Y10.514
Y10.516
X58.754 Y10.55
X58.755 Y10.552
X58.77 Y10.579
X58.79 Y10.602
X58.792 Y10.604
X58.822 Y10.628
X58.823 Y10.629
X58.865 Y10.655
X58.868 Y10.656
X58.926 Y10.681
X58.928 Y10.682
X58.961 Y10.692
X59.011 Y10.708
X59.061 Y10.719
X59.111 Y10.73
X59.211 Y10.748
X59.236 Y10.752
X59.248 Y10.756
X59.261 Y10.76
X59.263 Y10.761
X59.275 Y10.766
X59.287 Y10.772
X59.299 Y10.78
X59.311 Y10.788
X59.324 Y10.799
X59.33 Y10.805
X59.336 Y10.811
X59.343 Y10.82
X59.35 Y10.828
X59.356 Y10.836
X59.361 Y10.845
X59.366 Y10.853
X59.37 Y10.861
X59.375 Y10.874
X59.379 Y10.886
X59.383 Y10.899
X59.385 Y10.911
X59.387 Y10.924
X59.388 Y10.936
Y10.949
Y10.961
X59.38 Y11.011
X59.365 Y11.111
X59.362 Y11.125
X59.361 Y11.131
X59.357 Y11.146
X59.351 Y11.161
X59.346 Y11.174
X59.339 Y11.186
X59.331 Y11.199
X59.322 Y11.211
X59.311 Y11.223
X59.305 Y11.229
X59.298 Y11.235
X59.286 Y11.245
X59.273 Y11.254
X59.261 Y11.261
X59.26
X59.248 Y11.267
X59.236 Y11.272
X59.223 Y11.276
X59.211 Y11.279
X59.198 Y11.282
X59.186 Y11.283
X59.173 Y11.284
X59.161
X59.148 Y11.283
X59.136 Y11.281
X57.31 Y11.013
X57.295 Y11.011
X57.286 Y11.009
X57.277 Y11.007
X57.268 Y11.004
X57.26 Y11.001
X57.247 Y10.996
X57.234 Y10.99
X57.222 Y10.982
X57.209 Y10.973
X57.202 Y10.967
X57.195 Y10.961
X57.184 Y10.95
X57.175 Y10.939
X57.167 Y10.927
X57.159 Y10.916
X57.157 Y10.911
X57.15 Y10.899
X57.145 Y10.886
X57.141 Y10.874
X57.138 Y10.861
X57.135 Y10.849
X57.134 Y10.836
X57.133 Y10.824
Y10.811
Y10.799
X57.135 Y10.786
X57.143 Y10.727
X57.14 Y10.704
X57.124 Y10.687
X57.102 Y10.681
X57.08 Y10.689
X57.066 Y10.707
X57.064 Y10.73
X57.076 Y10.75
X57.086 Y10.766
X57.087 Y10.785
X57.08 Y10.802
G3 X56.753 Y10.623 I-0.152 J-0.11
G1 Y10.622
G3 X57.103 Y10.762 Z-0.191 I0.175 J0.07
X56.753 Y10.622 Z-0.212 I-0.175 J-0.07
X56.952 Y10.505 Z-0.221 I0.175 J0.07
G1 X56.954
X56.978 Y10.509
G3 X57.143 Y10.727 I-0.027 J0.191
G1 X57.135 Y10.786
X57.133 Y10.799
Y10.811
Y10.824
X57.134 Y10.836
X57.135 Y10.849
X57.138 Y10.861
X57.141 Y10.874
X57.145 Y10.886
X57.15 Y10.899
X57.157 Y10.911
X57.159 Y10.916
X57.167 Y10.927
X57.175 Y10.939
X57.184 Y10.95
X57.195 Y10.961
X57.202 Y10.967
X57.209 Y10.973
X57.222 Y10.982
X57.234 Y10.99
X57.247 Y10.996
X57.26 Y11.001
X57.268 Y11.004
X57.277 Y11.007
X57.286 Y11.009
X57.295 Y11.011
X57.31 Y11.013
X59.136 Y11.281
X59.148 Y11.283
X59.161 Y11.284
X59.173
X59.186 Y11.283
X59.198 Y11.282
X59.211 Y11.279
X59.223 Y11.276
X59.236 Y11.272
X59.248 Y11.267
X59.26 Y11.261
X59.261
X59.273 Y11.254
X59.286 Y11.245
X59.298 Y11.235
X59.305 Y11.229
X59.311 Y11.223
X59.322 Y11.211
X59.331 Y11.199
X59.339 Y11.186
X59.346 Y11.174
X59.351 Y11.161
X59.357 Y11.146
X59.361 Y11.131
X59.362 Y11.125
X59.365 Y11.111
X59.38 Y11.011
X59.388 Y10.961
Y10.949
Y10.936
X59.387 Y10.924
X59.385 Y10.911
X59.383 Y10.899
X59.379 Y10.886
X59.375 Y10.874
X59.37 Y10.861
X59.366 Y10.853
X59.361 Y10.845
X59.356 Y10.836
X59.35 Y10.828
X59.343 Y10.82
X59.336 Y10.811
X59.33 Y10.805
X59.324 Y10.799
X59.311 Y10.788
X59.299 Y10.78
X59.287 Y10.772
X59.275 Y10.766
X59.263 Y10.761
X59.261 Y10.76
X59.248 Y10.756
X59.236 Y10.752
X59.211 Y10.748
X59.111 Y10.73
X59.061 Y10.719
X59.011 Y10.708
X58.961 Y10.692
X58.929 Y10.682
X58.928
X58.926 Y10.681
X58.868 Y10.656
X58.865 Y10.655
X58.823 Y10.629
X58.822 Y10.628
X58.792 Y10.604
X58.79 Y10.602
X58.77 Y10.579
X58.755 Y10.552
X58.754 Y10.55
X58.741 Y10.516
Y10.514
X58.731 Y10.469
X58.73 Y10.461
X58.726 Y10.411
X58.725 Y10.361
X58.727 Y10.311
X58.734 Y10.211
X58.738 Y10.161
X58.745 Y10.111
X58.765 Y9.961
X58.772 Y9.911
X58.778 Y9.87
X58.786 Y9.85
X58.804 Y9.838
X58.826 Y9.837
X59.202 Y9.922
X59.221 Y9.927 Z-0.215
X59.236 Y9.93 Z-0.201
X59.241 Y9.931 Z-0.181
G0 Z5.
X60.448 Y10.322
Z0.975
G1 Z-0.128 F50.
X60.447 Y10.327 Z-0.148
X60.442 Y10.34 Z-0.162
X60.437 Y10.359 Z-0.168
X60.436 Y10.361
X60.412 Y10.439 Z-0.171
X60.405 Y10.461 Z-0.172
X60.389 Y10.511 Z-0.174
X60.373 Y10.561 Z-0.176
X60.362 Y10.595 Z-0.177
X60.339 Y10.661 Z-0.179
X60.319 Y10.711 Z-0.181
X60.312 Y10.73 Z-0.182
X60.298 Y10.761 Z-0.183
X60.277 Y10.806 Z-0.185
X60.276 Y10.808
X60.25 Y10.852 Z-0.187
X60.249 Y10.854
X60.228 Y10.881 Z-0.188
X60.226 Y10.884
X60.207 Y10.901 Z-0.189
X60.204 Y10.903
X60.186 Y10.915 Z-0.19
X60.184 Y10.916
X60.16 Y10.925 Z-0.191
X60.158 Y10.926
X60.122 Y10.932 Z-0.192
X60.121
X60.071 Y10.934 Z-0.194
X60.069
X60.002 Y10.928 Z-0.196
X60.001
X59.999 Z-0.197
X59.961 Y10.921 Z-0.198
X59.911 Y10.912 Z-0.2
X59.811 Y10.888 Z-0.203
X59.761 Y10.873 Z-0.205
X59.686 Y10.851 Z-0.208
X59.674 Y10.848
X59.661 Y10.845 Z-0.209
X59.649 Y10.844
X59.636 Y10.843 Z-0.21
X59.624 Y10.842
X59.611 Y10.843
X59.599 Y10.845 Z-0.211
X59.586 Y10.847
X59.574 Y10.85 Z-0.212
X59.561 Y10.854
X59.553 Y10.857 Z-0.213
X59.544 Y10.861
X59.536 Y10.865
X59.528 Y10.87 Z-0.214
X59.519 Y10.875
X59.511 Y10.881
X59.503 Y10.887 Z-0.215
X59.495 Y10.894
X59.486 Y10.903
X59.478 Y10.911 Z-0.216
X59.469 Y10.923
X59.461 Y10.934 Z-0.217
X59.453 Y10.948
X59.447 Y10.961 Z-0.218
X59.442 Y10.974
X59.437 Y10.986 Z-0.219
X59.42 Y11.041 Z-0.221
Y11.042
X59.437 Y10.986
X59.442 Y10.974
X59.447 Y10.961
X59.453 Y10.948
X59.461 Y10.934
X59.469 Y10.923
X59.478 Y10.911
X59.486 Y10.903
X59.495 Y10.894
X59.503 Y10.887
X59.511 Y10.881
X59.519 Y10.875
X59.528 Y10.87
X59.536 Y10.865
X59.544 Y10.861
X59.553 Y10.857
X59.561 Y10.854
X59.574 Y10.85
X59.586 Y10.847
X59.599 Y10.845
X59.611 Y10.843
X59.624 Y10.842
X59.636 Y10.843
X59.649 Y10.844
X59.661 Y10.845
X59.674 Y10.848
X59.686 Y10.851
X59.761 Y10.873
X59.811 Y10.888
X59.911 Y10.912
X59.961 Y10.921
X59.999 Y10.928
X60.001
X60.002
X60.069 Y10.934
X60.071
X60.121 Y10.932
X60.122
X60.158 Y10.926
X60.16 Y10.925
X60.184 Y10.916
X60.186 Y10.915
X60.204 Y10.903
X60.207 Y10.901
X60.226 Y10.884
X60.228 Y10.881
X60.249 Y10.854
X60.25 Y10.852
X60.276 Y10.808
X60.277 Y10.806
X60.298 Y10.761
X60.312 Y10.73
X60.319 Y10.711
X60.339 Y10.661
X60.362 Y10.595
X60.373 Y10.561
X60.389 Y10.511
X60.405 Y10.461
X60.412 Y10.439
X60.436 Y10.361
X60.452 Y10.311
Y10.289
X60.441 Y10.27
X60.422 Y10.26
X60.046 Y10.175
X60.027 Y10.171 Z-0.215
X60.012 Y10.168 Z-0.201
X60.007 Y10.167 Z-0.181
G0 Z5.
X60.641 Y11.724
Z0.975
G1 Z-0.128 F50.
X60.636 Y11.722 Z-0.148
X60.623 Y11.718 Z-0.162
X60.604 Y11.712 Z-0.168
X59.561 Y11.382 Z-0.206
X59.511 Y11.366 Z-0.208
X59.502 Y11.361 Z-0.209
X59.491 Y11.356
X59.481 Y11.351
X59.471 Y11.344 Z-0.21
X59.461 Y11.336
X59.455 Y11.331 Z-0.211
X59.448 Y11.325
X59.441 Y11.318
X59.435 Y11.311 Z-0.212
X59.428 Y11.303
X59.422 Y11.294
X59.416 Y11.286 Z-0.213
X59.411 Y11.277
X59.407 Y11.269
X59.403 Y11.261 Z-0.214
X59.398 Y11.249
X59.394 Y11.236 Z-0.215
X59.391 Y11.224
X59.389 Y11.211 Z-0.216
X59.387 Y11.199
X59.386 Y11.186
X59.387 Y11.174 Z-0.217
Y11.161
X59.389 Y11.151 Z-0.218
X59.391 Y11.14
X59.395 Y11.125 Z-0.219
X59.399 Y11.111
X59.413 Y11.064 Z-0.221
X59.414 Y11.063
X59.399 Y11.111
X59.395 Y11.125
X59.391 Y11.14
X59.389 Y11.151
X59.387 Y11.161
Y11.174
X59.386 Y11.186
X59.387 Y11.199
X59.389 Y11.211
X59.391 Y11.224
X59.394 Y11.236
X59.398 Y11.249
X59.403 Y11.261
X59.407 Y11.269
X59.411 Y11.277
X59.416 Y11.286
X59.422 Y11.294
X59.428 Y11.303
X59.435 Y11.311
X59.441 Y11.318
X59.448 Y11.325
X59.455 Y11.331
X59.461 Y11.336
X59.471 Y11.344
X59.481 Y11.351
X59.491 Y11.356
X59.502 Y11.361
X59.511 Y11.366
X59.561 Y11.382
X62.363 Y12.268
X62.413 Y12.282
X62.438 Y12.289
X62.454 Y12.293
X62.474 Y12.304
X62.484 Y12.325
X62.481 Y12.348
X62.465 Y12.365
X62.443 Y12.371
X62.421 Y12.364
X62.407 Y12.346
X62.396 Y12.33
X62.379 Y12.322
X62.361
G2 X62.401 Y12.693 I0.043 J0.183
G1 X62.403
G2 X62.404 Y12.317 Z-0.241 I0.001 J-0.188
X62.403 Y12.693 Z-0.262 I-0.001 J0.188
X62.586 Y12.552 Z-0.271 I0.001 J-0.188
G1 Y12.551
X62.592 Y12.527
G2 X62.452 Y12.292 I-0.187 J-0.048
G1 X62.413 Y12.282
X62.363 Y12.268
X59.561 Y11.382
X59.511 Y11.366
X59.502 Y11.361
X59.491 Y11.356
X59.481 Y11.351
X59.471 Y11.344
X59.461 Y11.336
X59.455 Y11.331
X59.448 Y11.325
X59.441 Y11.318
X59.435 Y11.311
X59.428 Y11.303
X59.422 Y11.294
X59.416 Y11.286
X59.411 Y11.277
X59.407 Y11.269
X59.403 Y11.261
X59.398 Y11.249
X59.394 Y11.236
X59.391 Y11.224
X59.389 Y11.211
X59.387 Y11.199
X59.386 Y11.186
X59.387 Y11.174
Y11.161
X59.389 Y11.151
X59.391 Y11.14
X59.395 Y11.125
X59.399 Y11.111
X59.414 Y11.063
X59.42 Y11.042
X59.437 Y10.986
X59.442 Y10.974
X59.447 Y10.961
X59.453 Y10.948
X59.461 Y10.934
X59.469 Y10.923
X59.478 Y10.911
X59.486 Y10.903
X59.495 Y10.894
X59.503 Y10.887
X59.511 Y10.881
X59.519 Y10.875
X59.528 Y10.87
X59.536 Y10.865
X59.544 Y10.861
X59.553 Y10.857
X59.561 Y10.854
X59.574 Y10.85
X59.586 Y10.847
X59.599 Y10.845
X59.611 Y10.843
X59.624 Y10.842
X59.636 Y10.843
X59.649 Y10.844
X59.661 Y10.845
X59.674 Y10.848
X59.686 Y10.851
X59.761 Y10.873
X59.811 Y10.888
X59.861 Y10.9
X59.911 Y10.912
X59.961 Y10.921
X59.999 Y10.928
X60.002
X60.005
X60.069 Y10.934
X60.071
X60.121 Y10.932
X60.122
X60.158 Y10.926
X60.16 Y10.925
X60.184 Y10.916
X60.186 Y10.915
X60.204 Y10.903
X60.207 Y10.901
X60.226 Y10.884
X60.228 Y10.881
X60.249 Y10.854
X60.25 Y10.852
X60.274 Y10.811
X60.278 Y10.805
X60.281 Y10.799
X60.298 Y10.761
X60.312 Y10.73
X60.319 Y10.711
X60.339 Y10.661
X60.362 Y10.595
X60.373 Y10.561
X60.389 Y10.511
X60.405 Y10.461
X60.412 Y10.439
X60.436 Y10.361
X60.452 Y10.311
Y10.29
X60.442 Y10.271
X60.424 Y10.26
X58.827 Y9.837
X58.805
X58.787 Y9.85
X58.778 Y9.87
X58.772 Y9.911
X58.765 Y9.961
X58.745 Y10.111
X58.738 Y10.161
X58.734 Y10.211
X58.727 Y10.311
X58.725 Y10.361
X58.726 Y10.411
X58.73 Y10.461
X58.731 Y10.469
X58.741 Y10.514
Y10.516
X58.754 Y10.55
X58.755 Y10.552
X58.77 Y10.579
X58.79 Y10.602
X58.792 Y10.604
X58.822 Y10.628
X58.823 Y10.629
X58.865 Y10.655
X58.868 Y10.656
X58.926 Y10.681
X58.936 Y10.684
X58.961 Y10.692
X59.011 Y10.708
X59.026 Y10.711
X59.061 Y10.719
X59.111 Y10.73
X59.161 Y10.739
X59.211 Y10.748
X59.236 Y10.752
X59.248 Y10.756
X59.261 Y10.76
X59.263 Y10.761
X59.275 Y10.766
X59.287 Y10.772
X59.299 Y10.78
X59.311 Y10.788
X59.324 Y10.799
X59.33 Y10.805
X59.336 Y10.811
X59.343 Y10.82
X59.35 Y10.828
X59.356 Y10.836
X59.361 Y10.845
X59.366 Y10.853
X59.37 Y10.861
X59.375 Y10.874
X59.379 Y10.886
X59.383 Y10.899
X59.385 Y10.911
X59.387 Y10.924
X59.388 Y10.936
Y10.949
Y10.961
X59.38 Y11.011
X59.365 Y11.111
X59.362 Y11.125
X59.361 Y11.131
X59.357 Y11.146
X59.351 Y11.161
X59.346 Y11.174
X59.339 Y11.186
X59.331 Y11.199
X59.322 Y11.211
X59.311 Y11.223
X59.305 Y11.229
X59.298 Y11.235
X59.286 Y11.245
X59.273 Y11.254
X59.261 Y11.261
X59.26
X59.248 Y11.267
X59.236 Y11.272
X59.223 Y11.276
X59.211 Y11.279
X59.198 Y11.282
X59.186 Y11.283
X59.173 Y11.284
X59.161
X59.148 Y11.283
X59.136 Y11.281
X57.31 Y11.013
X57.295 Y11.011
X57.286 Y11.009
X57.277 Y11.007
X57.268 Y11.004
X57.26 Y11.001
X57.247 Y10.996
X57.234 Y10.99
X57.222 Y10.982
X57.209 Y10.973
X57.202 Y10.967
X57.195 Y10.961
X57.184 Y10.95
X57.175 Y10.939
X57.167 Y10.927
X57.159 Y10.916
X57.157 Y10.911
X57.15 Y10.899
X57.145 Y10.886
X57.141 Y10.874
X57.138 Y10.861
X57.135 Y10.849
X57.134 Y10.836
X57.133 Y10.824
Y10.811
Y10.799
X57.135 Y10.786
X57.143 Y10.727
X57.14 Y10.704
X57.124 Y10.687
X57.102 Y10.681
X57.08 Y10.689
X57.066 Y10.707
X57.064 Y10.73
X57.076 Y10.75
X57.086 Y10.766
X57.087 Y10.785
X57.08 Y10.802
G3 X56.775 Y10.581 I-0.152 J-0.11
X57.032 Y10.535 I0.152 J0.11
G1 X57.033 Y10.536
G3 X56.822 Y10.848 Z-0.291 I-0.105 J0.156
X56.952 Y10.505 Z-0.309 I0.105 J-0.156
G1 X56.954
X56.978 Y10.509
G3 X57.143 Y10.727 I-0.027 J0.191
G1 X57.135 Y10.786
X57.133 Y10.799
Y10.811
Y10.824
X57.134 Y10.836
X57.135 Y10.849
X57.138 Y10.861
X57.141 Y10.874
X57.145 Y10.886
X57.15 Y10.899
X57.157 Y10.911
X57.159 Y10.916
X57.167 Y10.927
X57.175 Y10.939
X57.184 Y10.95
X57.195 Y10.961
X57.202 Y10.967
X57.209 Y10.973
X57.222 Y10.982
X57.234 Y10.99
X57.247 Y10.996
X57.26 Y11.001
X57.268 Y11.004
X57.277 Y11.007
X57.286 Y11.009
X57.295 Y11.011
X57.31 Y11.013
X59.136 Y11.281
X59.148 Y11.283
X59.161 Y11.284
X59.173
X59.186 Y11.283
X59.198 Y11.282
X59.211 Y11.279
X59.223 Y11.276
X59.236 Y11.272
X59.248 Y11.267
X59.26 Y11.261
X59.261
X59.273 Y11.254
X59.286 Y11.245
X59.298 Y11.235
X59.305 Y11.229
X59.311 Y11.223
X59.322 Y11.211
X59.331 Y11.199
X59.339 Y11.186
X59.346 Y11.174
X59.351 Y11.161
X59.357 Y11.146
X59.361 Y11.131
X59.362 Y11.125
X59.365 Y11.111
X59.38 Y11.011
X59.388 Y10.961
Y10.949
Y10.936
X59.387 Y10.924
X59.385 Y10.911
X59.383 Y10.899
X59.379 Y10.886
X59.375 Y10.874
X59.37 Y10.861
X59.366 Y10.853
X59.361 Y10.845
X59.356 Y10.836
X59.35 Y10.828
X59.343 Y10.82
X59.336 Y10.811
X59.33 Y10.805
X59.324 Y10.799
X59.311 Y10.788
X59.299 Y10.78
X59.287 Y10.772
X59.275 Y10.766
X59.263 Y10.761
X59.261 Y10.76
X59.248 Y10.756
X59.236 Y10.752
X59.211 Y10.748
X59.161 Y10.739
X59.111 Y10.73
X59.061 Y10.719
X59.026 Y10.711
X59.011 Y10.707
X58.961 Y10.692
X58.936 Y10.684
X58.926 Y10.681
X58.925 Y10.68
X58.87 Y10.657
X58.868 Y10.656
X58.865 Y10.655
X58.823 Y10.629
X58.822 Y10.628
X58.792 Y10.604
X58.79 Y10.602
X58.77 Y10.579
X58.755 Y10.552
X58.754 Y10.55
X58.741 Y10.516
Y10.514
X58.731 Y10.47
Y10.469
Y10.467
X58.73 Y10.461
X58.726 Y10.411
X58.725 Y10.361
X58.727 Y10.311
X58.734 Y10.211
X58.738 Y10.161
X58.745 Y10.111
X58.765 Y9.961
X58.772 Y9.911
X58.778 Y9.87
X58.786 Y9.85
X58.804 Y9.838
X58.825 Y9.836
X59.349 Y9.947
X59.369 Y9.951 Z-0.304
X59.383 Y9.954 Z-0.289
X59.389 Y9.955 Z-0.269
G0 Z5.
X60.448 Y10.322
Z0.975
G1 Z-0.217 F50.
X60.447 Y10.327 Z-0.236
X60.442 Y10.34 Z-0.251
X60.437 Y10.359 Z-0.257
X60.436 Y10.361
X60.412 Y10.439 Z-0.259
X60.405 Y10.461 Z-0.26
X60.389 Y10.511 Z-0.262
X60.373 Y10.561 Z-0.264
X60.362 Y10.595 Z-0.265
X60.339 Y10.661 Z-0.268
X60.319 Y10.711 Z-0.27
X60.312 Y10.73
X60.298 Y10.761 Z-0.271
X60.281 Y10.799 Z-0.273
X60.278 Y10.805
X60.274 Y10.811
X60.251 Y10.85 Z-0.275
X60.25 Y10.852
X60.249 Y10.854
X60.228 Y10.881 Z-0.276
X60.226 Y10.884
X60.207 Y10.901 Z-0.277
X60.204 Y10.903
X60.186 Y10.915 Z-0.278
X60.184 Y10.916
X60.16 Y10.925 Z-0.279
X60.158 Y10.926
X60.122 Y10.932 Z-0.28
X60.121 Z-0.281
X60.074 Y10.934 Z-0.282
X60.071
X60.068
X60.011 Y10.929 Z-0.284
X59.999 Y10.928 Z-0.285
X59.986 Y10.926
X59.961 Y10.921 Z-0.286
X59.911 Y10.912 Z-0.288
X59.861 Y10.9 Z-0.29
X59.811 Y10.888 Z-0.292
X59.761 Y10.873 Z-0.293
X59.686 Y10.851 Z-0.296
X59.674 Y10.848 Z-0.297
X59.661 Y10.845
X59.649 Y10.844
X59.636 Y10.843 Z-0.298
X59.624 Y10.842
X59.611 Y10.843 Z-0.299
X59.599 Y10.845
X59.586 Y10.847 Z-0.3
X59.574 Y10.85
X59.561 Y10.854
X59.553 Y10.857 Z-0.301
X59.544 Y10.861
X59.536 Y10.865
X59.528 Y10.87 Z-0.302
X59.519 Y10.875
X59.511 Y10.881
X59.503 Y10.887 Z-0.303
X59.495 Y10.894
X59.486 Y10.903 Z-0.304
X59.478 Y10.911
X59.469 Y10.923 Z-0.305
X59.461 Y10.934
X59.453 Y10.948 Z-0.306
X59.447 Y10.961
X59.442 Y10.974 Z-0.307
X59.437 Y10.986
X59.42 Y11.041 Z-0.309
Y11.042
X59.437 Y10.986
X59.442 Y10.974
X59.447 Y10.961
X59.453 Y10.948
X59.461 Y10.934
X59.469 Y10.923
X59.478 Y10.911
X59.486 Y10.903
X59.495 Y10.894
X59.503 Y10.887
X59.511 Y10.881
X59.519 Y10.875
X59.528 Y10.87
X59.536 Y10.865
X59.544 Y10.861
X59.553 Y10.857
X59.561 Y10.854
X59.574 Y10.85
X59.586 Y10.847
X59.599 Y10.845
X59.611 Y10.843
X59.624 Y10.842
X59.636 Y10.843
X59.649 Y10.844
X59.661 Y10.845
X59.674 Y10.848
X59.686 Y10.851
X59.761 Y10.873
X59.811 Y10.888
X59.861 Y10.9
X59.911 Y10.912
X59.961 Y10.921
X59.986 Y10.926
X59.999 Y10.928
X60.011 Y10.929
X60.068 Y10.934
X60.071
X60.074
X60.121 Y10.932
X60.122
X60.158 Y10.926
X60.16 Y10.925
X60.184 Y10.916
X60.186 Y10.915
X60.204 Y10.903
X60.207 Y10.901
X60.226 Y10.884
X60.228 Y10.881
X60.249 Y10.854
X60.25 Y10.852
X60.251 Y10.85
X60.274 Y10.811
X60.278 Y10.805
X60.281 Y10.799
X60.298 Y10.761
X60.312 Y10.73
X60.319 Y10.711
X60.339 Y10.661
X60.362 Y10.595
X60.373 Y10.561
X60.389 Y10.511
X60.405 Y10.461
X60.412 Y10.439
X60.436 Y10.361
X60.452 Y10.311
Y10.289
X60.442 Y10.271
X60.423 Y10.26
X59.902 Y10.134
X59.883 Y10.13 Z-0.304
X59.869 Y10.126 Z-0.289
X59.864 Y10.125 Z-0.269
G0 Z5.
X60.641 Y11.724
Z0.975
G1 Z-0.217 F50.
X60.636 Y11.722 Z-0.236
X60.623 Y11.718 Z-0.251
X60.604 Y11.712 Z-0.257
X59.561 Y11.382 Z-0.295
X59.511 Y11.366 Z-0.297
X59.502 Y11.361
X59.491 Y11.356
X59.481 Y11.351 Z-0.298
X59.471 Y11.344
X59.461 Y11.336 Z-0.299
X59.455 Y11.331
X59.448 Y11.325
X59.441 Y11.318 Z-0.3
X59.435 Y11.311
X59.428 Y11.303
X59.422 Y11.294 Z-0.301
X59.416 Y11.286
X59.411 Y11.277
X59.407 Y11.269 Z-0.302
X59.403 Y11.261
X59.398 Y11.249
X59.394 Y11.236 Z-0.303
X59.391 Y11.224
X59.389 Y11.211 Z-0.304
X59.387 Y11.199
X59.386 Y11.186 Z-0.305
X59.387 Y11.174
Y11.161 Z-0.306
X59.389 Y11.151
X59.391 Y11.14
X59.395 Y11.125 Z-0.307
X59.399 Y11.111
X59.413 Y11.064 Z-0.309
X59.414 Y11.063
X59.399 Y11.111
X59.395 Y11.125
X59.391 Y11.14
X59.389 Y11.151
X59.387 Y11.161
Y11.174
X59.386 Y11.186
X59.387 Y11.199
X59.389 Y11.211
X59.391 Y11.224
X59.394 Y11.236
X59.398 Y11.249
X59.403 Y11.261
X59.407 Y11.269
X59.411 Y11.277
X59.416 Y11.286
X59.422 Y11.294
X59.428 Y11.303
X59.435 Y11.311
X59.441 Y11.318
X59.448 Y11.325
X59.455 Y11.331
X59.461 Y11.336
X59.471 Y11.344
X59.481 Y11.351
X59.491 Y11.356
X59.502 Y11.361
X59.511 Y11.366
X59.561 Y11.382
X62.363 Y12.268
X62.413 Y12.282
X62.452 Y12.292
X62.472 Y12.304
X62.482 Y12.325
X62.479 Y12.348
X62.464 Y12.365
X62.442 Y12.371
X62.42 Y12.364
X62.405 Y12.346
X62.394 Y12.331
X62.378 Y12.322
X62.359
G2 X62.401 Y12.693 I0.045 J0.183
G1 X62.403
G2 X62.404 Y12.317 Z-0.33 I0.001 J-0.188
X62.403 Y12.693 Z-0.35 I-0.001 J0.188
X62.586 Y12.552 Z-0.359 I0.001 J-0.188
G1 Y12.551
X62.592 Y12.527
G2 X62.452 Y12.292 I-0.187 J-0.048
G1 X62.413 Y12.282
X62.363 Y12.268
X59.561 Y11.382
X59.511 Y11.366
X59.502 Y11.361
X59.491 Y11.356
X59.481 Y11.351
X59.471 Y11.344
X59.461 Y11.336
X59.455 Y11.331
X59.448 Y11.325
X59.441 Y11.318
X59.435 Y11.311
X59.428 Y11.303
X59.422 Y11.294
X59.416 Y11.286
X59.411 Y11.277
X59.407 Y11.269
X59.403 Y11.261
X59.398 Y11.249
X59.394 Y11.236
X59.391 Y11.224
X59.389 Y11.211
X59.387 Y11.199
X59.386 Y11.186
X59.387 Y11.174
Y11.161
X59.389 Y11.151
X59.391 Y11.14
X59.395 Y11.125
X59.399 Y11.111
X59.414 Y11.063
X59.42 Y11.042
X59.437 Y10.986
X59.442 Y10.974
X59.447 Y10.961
X59.453 Y10.948
X59.461 Y10.934
X59.469 Y10.923
X59.478 Y10.911
X59.486 Y10.903
X59.495 Y10.894
X59.503 Y10.887
X59.511 Y10.881
X59.519 Y10.875
X59.528 Y10.87
X59.536 Y10.865
X59.544 Y10.861
X59.553 Y10.857
X59.561 Y10.854
X59.574 Y10.85
X59.586 Y10.847
X59.599 Y10.845
X59.611 Y10.843
X59.624 Y10.842
X59.636 Y10.843
X59.649 Y10.844
X59.661 Y10.845
X59.674 Y10.848
X59.686 Y10.851
X59.761 Y10.873
X59.811 Y10.888
X59.861 Y10.9
X59.907 Y10.911
X59.911 Y10.912
X59.961 Y10.921
X59.986 Y10.926
X59.999 Y10.928
X60.011 Y10.929
X60.068 Y10.934
X60.071
X60.074
X60.121 Y10.932
X60.122
X60.124
X60.158 Y10.926
X60.16 Y10.925
X60.184 Y10.916
X60.186 Y10.915
X60.204 Y10.903
X60.207 Y10.901
X60.226 Y10.884
X60.228 Y10.881
X60.249 Y10.854
X60.25 Y10.852
X60.251 Y10.85
X60.253 Y10.847
X60.274 Y10.811
X60.278 Y10.805
X60.281 Y10.799
X60.298 Y10.761
X60.312 Y10.73
X60.319 Y10.711
X60.339 Y10.661
X60.356 Y10.611
X60.362 Y10.595
X60.373 Y10.561
X60.389 Y10.511
X60.405 Y10.461
X60.412 Y10.439
X60.436 Y10.361
X60.452 Y10.311
Y10.29
X60.442 Y10.271
X60.424 Y10.26
X58.827 Y9.837
X58.805
X58.787 Y9.85
X58.778 Y9.87
X58.772 Y9.911
X58.765 Y9.961
X58.745 Y10.111
X58.738 Y10.161
X58.734 Y10.211
X58.727 Y10.311
X58.725 Y10.361
X58.726 Y10.411
X58.73 Y10.461
X58.731 Y10.467
Y10.469
Y10.47
X58.732 Y10.473
X58.741 Y10.514
Y10.516
X58.754 Y10.55
X58.755 Y10.552
X58.77 Y10.579
X58.79 Y10.602
X58.792 Y10.604
X58.822 Y10.628
X58.823 Y10.629
X58.836 Y10.637
X58.865 Y10.655
X58.87 Y10.657
X58.88 Y10.661
X58.925 Y10.68
X58.926 Y10.681
X58.936 Y10.684
X58.961 Y10.692
X59.011 Y10.707
X59.026 Y10.711
X59.061 Y10.719
X59.111 Y10.73
X59.161 Y10.739
X59.211 Y10.748
X59.236 Y10.752
X59.248 Y10.756
X59.261 Y10.76
X59.263 Y10.761
X59.275 Y10.766
X59.287 Y10.772
X59.299 Y10.78
X59.311 Y10.788
X59.324 Y10.799
X59.33 Y10.805
X59.336 Y10.811
X59.343 Y10.82
X59.35 Y10.828
X59.356 Y10.836
X59.361 Y10.845
X59.366 Y10.853
X59.37 Y10.861
X59.375 Y10.874
X59.379 Y10.886
X59.383 Y10.899
X59.385 Y10.911
X59.387 Y10.924
X59.388 Y10.936
Y10.949
Y10.961
X59.38 Y11.011
X59.365 Y11.111
X59.362 Y11.125
X59.361 Y11.131
X59.357 Y11.146
X59.351 Y11.161
X59.346 Y11.174
X59.339 Y11.186
X59.331 Y11.199
X59.322 Y11.211
X59.311 Y11.223
X59.305 Y11.229
X59.298 Y11.235
X59.286 Y11.245
X59.273 Y11.254
X59.261 Y11.261
X59.26
X59.248 Y11.267
X59.236 Y11.272
X59.223 Y11.276
X59.211 Y11.279
X59.198 Y11.282
X59.186 Y11.283
X59.173 Y11.284
X59.161
X59.148 Y11.283
X59.136 Y11.281
X57.31 Y11.013
X57.295 Y11.011
X57.286 Y11.009
X57.277 Y11.007
X57.268 Y11.004
X57.26 Y11.001
X57.247 Y10.996
X57.234 Y10.99
X57.222 Y10.982
X57.209 Y10.973
X57.202 Y10.967
X57.195 Y10.961
X57.184 Y10.95
X57.175 Y10.939
X57.167 Y10.927
X57.159 Y10.916
X57.157 Y10.911
X57.15 Y10.899
X57.145 Y10.886
X57.141 Y10.874
X57.138 Y10.861
X57.135 Y10.849
X57.134 Y10.836
X57.133 Y10.824
Y10.811
Y10.799
X57.135 Y10.786
X57.143 Y10.727
X57.14 Y10.704
X57.124 Y10.687
X57.102 Y10.681
X57.08 Y10.689
X57.066 Y10.707
X57.064 Y10.73
X57.076 Y10.75
X57.086 Y10.766
X57.087 Y10.785
X57.08 Y10.802
G3 X56.753 Y10.623 I-0.152 J-0.11
G1 Y10.622
G3 X57.103 Y10.762 Z-0.38 I0.175 J0.07
X56.753 Y10.622 Z-0.4 I-0.175 J-0.07
X56.952 Y10.505 Z-0.409 I0.175 J0.07
G1 X56.954
X56.978 Y10.509
G3 X57.143 Y10.727 I-0.027 J0.191
G1 X57.135 Y10.786
X57.133 Y10.799
Y10.811
Y10.824
X57.134 Y10.836
X57.135 Y10.849
X57.138 Y10.861
X57.141 Y10.874
X57.145 Y10.886
X57.15 Y10.899
X57.157 Y10.911
X57.159 Y10.916
X57.167 Y10.927
X57.175 Y10.939
X57.184 Y10.95
X57.195 Y10.961
X57.202 Y10.967
X57.209 Y10.973
X57.222 Y10.982
X57.234 Y10.99
X57.247 Y10.996
X57.26 Y11.001
X57.268 Y11.004
X57.277 Y11.007
X57.286 Y11.009
X57.295 Y11.011
X57.31 Y11.013
X59.136 Y11.281
X59.148 Y11.283
X59.161 Y11.284
X59.173
X59.186 Y11.283
X59.198 Y11.282
X59.211 Y11.279
X59.223 Y11.276
X59.236 Y11.272
X59.248 Y11.267
X59.26 Y11.261
X59.261
X59.273 Y11.254
X59.286 Y11.245
X59.298 Y11.235
X59.305 Y11.229
X59.311 Y11.223
X59.322 Y11.211
X59.331 Y11.199
X59.339 Y11.186
X59.346 Y11.174
X59.351 Y11.161
X59.357 Y11.146
X59.361 Y11.131
X59.362 Y11.125
X59.365 Y11.111
X59.38 Y11.011
X59.388 Y10.961
Y10.949
Y10.936
X59.387 Y10.924
X59.385 Y10.911
X59.383 Y10.899
X59.379 Y10.886
X59.375 Y10.874
X59.37 Y10.861
X59.366 Y10.853
X59.361 Y10.845
X59.356 Y10.836
X59.35 Y10.828
X59.343 Y10.82
X59.336 Y10.811
X59.33 Y10.805
X59.324 Y10.799
X59.311 Y10.788
X59.299 Y10.78
X59.287 Y10.772
X59.275 Y10.766
X59.263 Y10.761
X59.261 Y10.76
X59.248 Y10.756
X59.236 Y10.752
X59.211 Y10.748
X59.161 Y10.739
X59.111 Y10.73
X59.061 Y10.719
X59.026 Y10.711
X59.011 Y10.707
X58.961 Y10.692
X58.936 Y10.684
X58.926 Y10.681
X58.925 Y10.68
X58.88 Y10.661
X58.87 Y10.657
X58.865 Y10.655
X58.863 Y10.653
X58.836 Y10.637
X58.823 Y10.629
X58.822 Y10.628
X58.794 Y10.606
X58.792 Y10.604
X58.79 Y10.602
X58.772 Y10.58
X58.77 Y10.579
X58.768 Y10.574
X58.755 Y10.552
X58.754 Y10.55
X58.744 Y10.523
X58.742 Y10.517
X58.741 Y10.516
Y10.514
X58.732 Y10.473
X58.731 Y10.469
Y10.467
X58.73 Y10.461
X58.727 Y10.411
X58.725 Y10.361
X58.727 Y10.311
X58.734 Y10.211
X58.738 Y10.161
X58.745 Y10.111
X58.765 Y9.961
X58.772 Y9.911
X58.778 Y9.87
X58.786 Y9.851
X58.802 Y9.838
X58.823 Y9.836
X59.474 Y9.933
X59.493 Y9.936 Z-0.404
X59.508 Y9.938 Z-0.389
X59.513 Z-0.369
G0 Z5.
X60.448 Y10.322
Z0.975
G1 Z-0.317 F50.
X60.447 Y10.327 Z-0.336
X60.443 Y10.34 Z-0.351
X60.437 Y10.359 Z-0.357
X60.436 Y10.361
X60.412 Y10.439 Z-0.359
X60.405 Y10.461 Z-0.36
X60.389 Y10.511 Z-0.362
X60.373 Y10.561 Z-0.364
X60.362 Y10.595 Z-0.365
X60.356 Y10.611 Z-0.366
X60.339 Y10.661 Z-0.368
X60.319 Y10.711 Z-0.37
X60.312 Y10.73
X60.298 Y10.761 Z-0.371
X60.287 Y10.786 Z-0.372
X60.281 Y10.799 Z-0.373
X60.274 Y10.811
X60.253 Y10.847 Z-0.375
X60.25 Y10.852
X60.249 Y10.854
X60.229 Y10.879 Z-0.376
X60.226 Y10.884
X60.207 Y10.901 Z-0.377
X60.204 Y10.903
X60.186 Y10.915 Z-0.378
X60.184 Y10.916
X60.16 Y10.925 Z-0.379
X60.158 Y10.926
X60.137 Y10.93 Z-0.38
X60.124 Y10.932
X60.122
X60.121 Z-0.381
X60.087 Y10.933 Z-0.382
X60.074 Y10.934
X60.062 Y10.933 Z-0.383
X60.011 Y10.929 Z-0.384
X59.999 Y10.928 Z-0.385
X59.986 Y10.926
X59.961 Y10.921 Z-0.386
X59.911 Y10.912 Z-0.388
X59.907 Y10.911
X59.861 Y10.9 Z-0.39
X59.811 Y10.888 Z-0.392
X59.761 Y10.873 Z-0.393
X59.686 Y10.851 Z-0.396
X59.674 Y10.848 Z-0.397
X59.661 Y10.845
X59.649 Y10.844
X59.636 Y10.843 Z-0.398
X59.624 Y10.842
X59.611 Y10.843 Z-0.399
X59.599 Y10.845
X59.586 Y10.847 Z-0.4
X59.574 Y10.85
X59.561 Y10.854
X59.553 Y10.857 Z-0.401
X59.544 Y10.861
X59.536 Y10.865
X59.528 Y10.87 Z-0.402
X59.519 Y10.875
X59.511 Y10.881
X59.503 Y10.887 Z-0.403
X59.495 Y10.894
X59.486 Y10.903 Z-0.404
X59.478 Y10.911
X59.469 Y10.923 Z-0.405
X59.461 Y10.934
X59.453 Y10.948 Z-0.406
X59.447 Y10.961
X59.442 Y10.974 Z-0.407
X59.437 Y10.986
X59.42 Y11.041 Z-0.409
Y11.042
X59.437 Y10.986
X59.442 Y10.974
X59.447 Y10.961
X59.453 Y10.948
X59.461 Y10.934
X59.469 Y10.923
X59.478 Y10.911
X59.486 Y10.903
X59.495 Y10.894
X59.503 Y10.887
X59.511 Y10.881
X59.519 Y10.875
X59.528 Y10.87
X59.536 Y10.865
X59.544 Y10.861
X59.553 Y10.857
X59.561 Y10.854
X59.574 Y10.85
X59.586 Y10.847
X59.599 Y10.845
X59.611 Y10.843
X59.624 Y10.842
X59.636 Y10.843
X59.649 Y10.844
X59.661 Y10.845
X59.674 Y10.848
X59.686 Y10.851
X59.761 Y10.873
X59.811 Y10.888
X59.861 Y10.9
X59.907 Y10.911
X59.911 Y10.912
X59.961 Y10.921
X59.986 Y10.926
X59.999 Y10.928
X60.011 Y10.929
X60.062 Y10.933
X60.074 Y10.934
X60.087 Y10.933
X60.121 Y10.932
X60.122
X60.124
X60.137 Y10.93
X60.158 Y10.926
X60.16 Y10.925
X60.184 Y10.916
X60.186 Y10.915
X60.204 Y10.903
X60.207 Y10.901
X60.226 Y10.884
X60.229 Y10.879
X60.249 Y10.854
X60.25 Y10.852
X60.253 Y10.847
X60.274 Y10.811
X60.281 Y10.799
X60.287 Y10.786
X60.298 Y10.761
X60.312 Y10.73
X60.319 Y10.711
X60.339 Y10.661
X60.356 Y10.611
X60.362 Y10.595
X60.373 Y10.561
X60.389 Y10.511
X60.405 Y10.461
X60.412 Y10.439
X60.436 Y10.361
X60.452 Y10.311
Y10.29
X60.443 Y10.272
X60.425 Y10.261
X59.798 Y10.074
X59.779 Y10.069 Z-0.404
X59.765 Y10.065 Z-0.389
X59.76 Y10.063 Z-0.369
G0 Z5.
X60.641 Y11.724
Z0.975
G1 Z-0.317 F50.
X60.636 Y11.722 Z-0.336
X60.623 Y11.718 Z-0.351
X60.604 Y11.712 Z-0.357
X59.561 Y11.382 Z-0.395
X59.511 Y11.366 Z-0.397
X59.502 Y11.361
X59.491 Y11.356
X59.481 Y11.351 Z-0.398
X59.471 Y11.344
X59.461 Y11.336 Z-0.399
X59.455 Y11.331
X59.448 Y11.325
X59.441 Y11.318 Z-0.4
X59.435 Y11.311
X59.428 Y11.303
X59.422 Y11.294 Z-0.401
X59.416 Y11.286
X59.411 Y11.277
X59.407 Y11.269 Z-0.402
X59.403 Y11.261
X59.398 Y11.249
X59.394 Y11.236 Z-0.403
X59.391 Y11.224
X59.389 Y11.211 Z-0.404
X59.387 Y11.199
X59.386 Y11.186 Z-0.405
X59.387 Y11.174
Y11.161 Z-0.406
X59.389 Y11.151
X59.391 Y11.14
X59.395 Y11.125 Z-0.407
X59.399 Y11.111
X59.413 Y11.064 Z-0.409
X59.414 Y11.063
X59.399 Y11.111
X59.395 Y11.125
X59.391 Y11.14
X59.389 Y11.151
X59.387 Y11.161
Y11.174
X59.386 Y11.186
X59.387 Y11.199
X59.389 Y11.211
X59.391 Y11.224
X59.394 Y11.236
X59.398 Y11.249
X59.403 Y11.261
X59.407 Y11.269
X59.411 Y11.277
X59.416 Y11.286
X59.422 Y11.294
X59.428 Y11.303
X59.435 Y11.311
X59.441 Y11.318
X59.448 Y11.325
X59.455 Y11.331
X59.461 Y11.336
X59.471 Y11.344
X59.481 Y11.351
X59.491 Y11.356
X59.502 Y11.361
X59.511 Y11.366
X59.561 Y11.382
X62.363 Y12.268
X62.413 Y12.282
X62.452 Y12.292
X62.472 Y12.304
X62.482 Y12.325
X62.479 Y12.348
X62.464 Y12.365
X62.442 Y12.371
X62.42 Y12.364
X62.405 Y12.346
X62.394 Y12.331
X62.378 Y12.322
X62.359
G2 X62.401 Y12.693 I0.045 J0.183
G1 X62.403
G2 X62.404 Y12.317 Z-0.43 I0.001 J-0.188
X62.403 Y12.693 Z-0.45 I-0.001 J0.188
X62.586 Y12.552 Z-0.459 I0.001 J-0.188
G1 Y12.551
X62.592 Y12.527
G2 X62.452 Y12.292 I-0.187 J-0.048
G1 X62.413 Y12.282
X62.363 Y12.268
X59.561 Y11.382
X59.511 Y11.366
X59.502 Y11.361
X59.491 Y11.356
X59.481 Y11.351
X59.471 Y11.344
X59.461 Y11.336
X59.455 Y11.331
X59.448 Y11.325
X59.441 Y11.318
X59.435 Y11.311
X59.428 Y11.303
X59.422 Y11.294
X59.416 Y11.286
X59.411 Y11.277
X59.407 Y11.269
X59.403 Y11.261
X59.398 Y11.249
X59.394 Y11.236
X59.391 Y11.224
X59.389 Y11.211
X59.387 Y11.199
X59.386 Y11.186
X59.387 Y11.174
Y11.161
X59.389 Y11.151
X59.391 Y11.14
X59.395 Y11.125
X59.399 Y11.111
X59.414 Y11.063
X59.42 Y11.042
X59.437 Y10.986
X59.442 Y10.974
X59.447 Y10.961
X59.453 Y10.948
X59.461 Y10.934
X59.469 Y10.923
X59.478 Y10.911
X59.486 Y10.903
X59.495 Y10.894
X59.503 Y10.887
X59.511 Y10.881
X59.519 Y10.875
X59.528 Y10.87
X59.536 Y10.865
X59.544 Y10.861
X59.553 Y10.857
X59.561 Y10.854
X59.574 Y10.85
X59.586 Y10.847
X59.599 Y10.845
X59.611 Y10.843
X59.624 Y10.842
X59.636 Y10.843
X59.649 Y10.844
X59.661 Y10.845
X59.674 Y10.848
X59.686 Y10.851
X59.761 Y10.873
X59.811 Y10.888
X59.861 Y10.9
X59.907 Y10.911
X59.911 Y10.912
X59.961 Y10.921
X60.011 Y10.929
X60.062 Y10.933
X60.074 Y10.934
X60.087 Y10.933
X60.119 Y10.932
X60.121
X60.124
X60.137 Y10.93
X60.158 Y10.926
X60.16 Y10.925
X60.184 Y10.916
X60.186 Y10.915
X60.204 Y10.903
X60.207 Y10.901
X60.224 Y10.885
X60.226 Y10.884
X60.229 Y10.879
X60.249 Y10.854
X60.25 Y10.852
X60.253 Y10.847
X60.262 Y10.833
X60.274 Y10.811
X60.281 Y10.799
X60.287 Y10.786
X60.298 Y10.761
X60.312 Y10.73
X60.319 Y10.711
X60.339 Y10.661
X60.356 Y10.611
X60.362 Y10.595
X60.373 Y10.561
X60.389 Y10.511
X60.405 Y10.461
X60.421 Y10.411
X60.436 Y10.361
X60.452 Y10.311
Y10.29
X60.442 Y10.271
X60.424 Y10.26
X58.827 Y9.837
X58.805
X58.787 Y9.85
X58.778 Y9.87
X58.772 Y9.911
X58.765 Y9.961
X58.745 Y10.111
X58.738 Y10.161
X58.734 Y10.211
X58.725 Y10.336
Y10.348
Y10.361
X58.727 Y10.411
X58.73 Y10.461
X58.731 Y10.466
Y10.467
X58.732 Y10.473
X58.735 Y10.486
X58.74 Y10.511
X58.741 Y10.514
X58.742 Y10.517
X58.744 Y10.523
X58.754 Y10.55
X58.755 Y10.552
X58.756 Y10.555
X58.769 Y10.577
X58.77 Y10.579
X58.772 Y10.58
X58.777 Y10.586
X58.79 Y10.602
X58.792 Y10.604
X58.794 Y10.606
X58.8 Y10.611
X58.82 Y10.627
X58.822 Y10.628
X58.823 Y10.629
X58.836 Y10.637
X58.863 Y10.653
X58.865 Y10.655
X58.88 Y10.661
X58.925 Y10.68
X58.926 Y10.681
X58.936 Y10.684
X58.961 Y10.692
X59.011 Y10.707
X59.026 Y10.711
X59.061 Y10.719
X59.111 Y10.73
X59.161 Y10.739
X59.211 Y10.748
X59.236 Y10.752
X59.248 Y10.756
X59.261 Y10.76
X59.263 Y10.761
X59.275 Y10.766
X59.287 Y10.772
X59.299 Y10.78
X59.311 Y10.788
X59.324 Y10.799
X59.33 Y10.805
X59.336 Y10.811
X59.343 Y10.82
X59.35 Y10.828
X59.356 Y10.836
X59.361 Y10.845
X59.366 Y10.853
X59.37 Y10.861
X59.375 Y10.874
X59.379 Y10.886
X59.383 Y10.899
X59.385 Y10.911
X59.387 Y10.924
X59.388 Y10.936
Y10.949
Y10.961
X59.38 Y11.011
X59.365 Y11.111
X59.362 Y11.125
X59.361 Y11.131
X59.357 Y11.146
X59.351 Y11.161
X59.346 Y11.174
X59.339 Y11.186
X59.331 Y11.199
X59.322 Y11.211
X59.311 Y11.223
X59.305 Y11.229
X59.298 Y11.235
X59.286 Y11.245
X59.273 Y11.254
X59.261 Y11.261
X59.26
X59.248 Y11.267
X59.236 Y11.272
X59.223 Y11.276
X59.211 Y11.279
X59.198 Y11.282
X59.186 Y11.283
X59.173 Y11.284
X59.161
X59.148 Y11.283
X59.136 Y11.281
X57.31 Y11.013
X57.295 Y11.011
X57.286 Y11.009
X57.277 Y11.007
X57.268 Y11.004
X57.26 Y11.001
X57.247 Y10.996
X57.234 Y10.99
X57.222 Y10.982
X57.209 Y10.973
X57.202 Y10.967
X57.195 Y10.961
X57.184 Y10.95
X57.175 Y10.939
X57.167 Y10.927
X57.159 Y10.916
X57.157 Y10.911
X57.15 Y10.899
X57.145 Y10.886
X57.141 Y10.874
X57.138 Y10.861
X57.135 Y10.849
X57.134 Y10.836
X57.133 Y10.824
Y10.811
Y10.799
X57.135 Y10.786
X57.143 Y10.727
X57.14 Y10.704
X57.124 Y10.687
X57.102 Y10.681
X57.08 Y10.689
X57.066 Y10.707
X57.064 Y10.73
X57.076 Y10.75
X57.086 Y10.766
X57.087 Y10.785
X57.08 Y10.802
G3 X56.753 Y10.623 I-0.152 J-0.11
G1 Y10.622
G3 X57.103 Y10.762 Z-0.48 I0.175 J0.07
X56.753 Y10.622 Z-0.5 I-0.175 J-0.07
X56.952 Y10.505 Z-0.509 I0.175 J0.07
G1 X56.954
X56.978 Y10.509
G3 X57.143 Y10.727 I-0.027 J0.191
G1 X57.135 Y10.786
X57.133 Y10.799
Y10.811
Y10.824
X57.134 Y10.836
X57.135 Y10.849
X57.138 Y10.861
X57.141 Y10.874
X57.145 Y10.886
X57.15 Y10.899
X57.157 Y10.911
X57.159 Y10.916
X57.167 Y10.927
X57.175 Y10.939
X57.184 Y10.95
X57.195 Y10.961
X57.202 Y10.967
X57.209 Y10.973
X57.222 Y10.982
X57.234 Y10.99
X57.247 Y10.996
X57.26 Y11.001
X57.268 Y11.004
X57.277 Y11.007
X57.286 Y11.009
X57.295 Y11.011
X57.31 Y11.013
X59.136 Y11.281
X59.148 Y11.283
X59.161 Y11.284
X59.173
X59.186 Y11.283
X59.198 Y11.282
X59.211 Y11.279
X59.223 Y11.276
X59.236 Y11.272
X59.248 Y11.267
X59.26 Y11.261
X59.261
X59.273 Y11.254
X59.286 Y11.245
X59.298 Y11.235
X59.305 Y11.229
X59.311 Y11.223
X59.322 Y11.211
X59.331 Y11.199
X59.339 Y11.186
X59.346 Y11.174
X59.351 Y11.161
X59.357 Y11.146
X59.361 Y11.131
X59.362 Y11.125
X59.365 Y11.111
X59.38 Y11.011
X59.388 Y10.961
Y10.949
Y10.936
X59.387 Y10.924
X59.385 Y10.911
X59.383 Y10.899
X59.379 Y10.886
X59.375 Y10.874
X59.37 Y10.861
X59.366 Y10.853
X59.361 Y10.845
X59.356 Y10.836
X59.35 Y10.828
X59.343 Y10.82
X59.336 Y10.811
X59.33 Y10.805
X59.324 Y10.799
X59.311 Y10.788
X59.299 Y10.78
X59.287 Y10.772
X59.275 Y10.766
X59.263 Y10.761
X59.261 Y10.76
X59.248 Y10.756
X59.236 Y10.752
X59.211 Y10.748
X59.161 Y10.739
X59.111 Y10.73
X59.061 Y10.719
X59.026 Y10.711
X59.011 Y10.707
X58.961 Y10.692
X58.936 Y10.684
X58.926 Y10.681
X58.925 Y10.68
X58.911 Y10.674
X58.88 Y10.661
X58.866 Y10.655
X58.863 Y10.653
X58.836 Y10.637
X58.823 Y10.629
X58.822 Y10.628
X58.82 Y10.627
X58.8 Y10.611
X58.794 Y10.605
X58.792 Y10.604
X58.79 Y10.602
X58.777 Y10.586
X58.772 Y10.58
X58.771 Y10.579
X58.769 Y10.577
X58.76 Y10.561
X58.756 Y10.555
X58.754 Y10.55
X58.753 Y10.548
X58.744 Y10.523
X58.742 Y10.517
X58.741 Y10.514
X58.74 Y10.512
X58.735 Y10.486
X58.732 Y10.473
X58.731 Y10.467
Y10.466
X58.73 Y10.461
X58.727 Y10.411
X58.725 Y10.361
Y10.348
Y10.336
X58.734 Y10.211
X58.738 Y10.161
X58.745 Y10.111
X58.765 Y9.961
X58.772 Y9.911
X58.778 Y9.87
X58.786 Y9.851
X58.802 Y9.838
X58.823 Y9.836
G0 Z5.
X60.448 Y10.322
Z0.975
G1 Z-0.417 F50.
X60.447 Y10.327 Z-0.436
X60.443 Y10.34 Z-0.451
X60.437 Y10.359 Z-0.457
X60.436 Y10.361
X60.421 Y10.411 Z-0.458
X60.405 Y10.461 Z-0.46
X60.389 Y10.511 Z-0.462
X60.373 Y10.561 Z-0.464
X60.362 Y10.595 Z-0.465
X60.356 Y10.611 Z-0.466
X60.339 Y10.661 Z-0.468
X60.319 Y10.711 Z-0.47
X60.312 Y10.73
X60.298 Y10.761 Z-0.471
X60.287 Y10.786 Z-0.472
X60.281 Y10.799 Z-0.473
X60.274 Y10.811
X60.262 Y10.833 Z-0.474
X60.253 Y10.847 Z-0.475
X60.249 Y10.854
X60.247 Y10.856
X60.243 Y10.861
X60.229 Y10.879 Z-0.476
X60.225 Y10.884
X60.223 Y10.886 Z-0.477
X60.212 Y10.897
X60.207 Y10.901
X60.204 Y10.903
X60.192 Y10.911 Z-0.478
X60.184 Y10.916
X60.182 Y10.917
X60.162 Y10.924 Z-0.479
X60.158 Y10.925
X60.157 Y10.926
X60.137 Y10.93 Z-0.48
X60.124 Y10.932
X60.121 Z-0.481
X60.119
X60.087 Y10.933 Z-0.482
X60.074 Y10.934
X60.062 Y10.933 Z-0.483
X60.011 Y10.929 Z-0.484
X59.961 Y10.921 Z-0.486
X59.911 Y10.912 Z-0.488
X59.907 Y10.911
X59.861 Y10.9 Z-0.49
X59.811 Y10.888 Z-0.492
X59.761 Y10.873 Z-0.493
X59.686 Y10.851 Z-0.496
X59.674 Y10.848 Z-0.497
X59.661 Y10.845
X59.649 Y10.844
X59.636 Y10.843 Z-0.498
X59.624 Y10.842
X59.611 Y10.843 Z-0.499
X59.599 Y10.845
X59.586 Y10.847 Z-0.5
X59.574 Y10.85
X59.561 Y10.854
X59.553 Y10.857 Z-0.501
X59.544 Y10.861
X59.536 Y10.865
X59.528 Y10.87 Z-0.502
X59.519 Y10.875
X59.511 Y10.881
X59.503 Y10.887 Z-0.503
X59.495 Y10.894
X59.486 Y10.903 Z-0.504
X59.478 Y10.911
X59.469 Y10.923 Z-0.505
X59.461 Y10.934
X59.453 Y10.948 Z-0.506
X59.447 Y10.961
X59.442 Y10.974 Z-0.507
X59.437 Y10.986
X59.42 Y11.041 Z-0.509
Y11.042
X59.437 Y10.986
X59.442 Y10.974
X59.447 Y10.961
X59.453 Y10.948
X59.461 Y10.934
X59.469 Y10.923
X59.478 Y10.911
X59.486 Y10.903
X59.495 Y10.894
X59.503 Y10.887
X59.511 Y10.881
X59.519 Y10.875
X59.528 Y10.87
X59.536 Y10.865
X59.544 Y10.861
X59.553 Y10.857
X59.561 Y10.854
X59.574 Y10.85
X59.586 Y10.847
X59.599 Y10.845
X59.611 Y10.843
X59.624 Y10.842
X59.636 Y10.843
X59.649 Y10.844
X59.661 Y10.845
X59.674 Y10.848
X59.686 Y10.851
X59.761 Y10.873
X59.811 Y10.888
X59.861 Y10.9
X59.907 Y10.911
X59.911 Y10.912
X59.961 Y10.921
X60.011 Y10.929
X60.062 Y10.933
X60.074 Y10.934
X60.087 Y10.933
X60.119 Y10.932
X60.121
X60.124
X60.137 Y10.93
X60.157 Y10.926
X60.158 Y10.925
X60.162 Y10.924
X60.182 Y10.917
X60.184 Y10.916
X60.192 Y10.911
X60.204 Y10.903
X60.207 Y10.901
X60.212 Y10.897
X60.223 Y10.886
X60.225 Y10.884
X60.229 Y10.879
X60.243 Y10.861
X60.247 Y10.856
X60.249 Y10.854
X60.253 Y10.847
X60.262 Y10.833
X60.274 Y10.811
X60.281 Y10.799
X60.287 Y10.786
X60.298 Y10.761
X60.312 Y10.73
X60.319 Y10.711
X60.339 Y10.661
X60.356 Y10.611
X60.362 Y10.595
X60.373 Y10.561
X60.389 Y10.511
X60.405 Y10.461
X60.421 Y10.411
X60.436 Y10.361
X60.452 Y10.311
Y10.29
X60.443 Y10.272
X60.425 Y10.261
G0 Z5.
X60.641 Y11.724
Z0.975
G1 Z-0.417 F50.
X60.636 Y11.722 Z-0.436
X60.623 Y11.718 Z-0.451
X60.604 Y11.712 Z-0.457
X59.561 Y11.382 Z-0.495
X59.511 Y11.366 Z-0.497
X59.502 Y11.361
X59.491 Y11.356
X59.481 Y11.351 Z-0.498
X59.471 Y11.344
X59.461 Y11.336 Z-0.499
X59.455 Y11.331
X59.448 Y11.325
X59.441 Y11.318 Z-0.5
X59.435 Y11.311
X59.428 Y11.303
X59.422 Y11.294 Z-0.501
X59.416 Y11.286
X59.411 Y11.277
X59.407 Y11.269 Z-0.502
X59.403 Y11.261
X59.398 Y11.249
X59.394 Y11.236 Z-0.503
X59.391 Y11.224
X59.389 Y11.211 Z-0.504
X59.387 Y11.199
X59.386 Y11.186 Z-0.505
X59.387 Y11.174
Y11.161 Z-0.506
X59.389 Y11.151
X59.391 Y11.14
X59.395 Y11.125 Z-0.507
X59.399 Y11.111
X59.413 Y11.064 Z-0.509
X59.414 Y11.063
X59.399 Y11.111
X59.395 Y11.125
X59.391 Y11.14
X59.389 Y11.151
X59.387 Y11.161
Y11.174
X59.386 Y11.186
X59.387 Y11.199
X59.389 Y11.211
X59.391 Y11.224
X59.394 Y11.236
X59.398 Y11.249
X59.403 Y11.261
X59.407 Y11.269
X59.411 Y11.277
X59.416 Y11.286
X59.422 Y11.294
X59.428 Y11.303
X59.435 Y11.311
X59.441 Y11.318
X59.448 Y11.325
X59.455 Y11.331
X59.461 Y11.336
X59.471 Y11.344
X59.481 Y11.351
X59.491 Y11.356
X59.502 Y11.361
X59.511 Y11.366
X59.561 Y11.382
X62.363 Y12.268
X62.413 Y12.282
X62.452 Y12.292
X62.472 Y12.304
X62.482 Y12.325
X62.479 Y12.348
X62.464 Y12.365
X62.442 Y12.371
X62.42 Y12.364
X62.405 Y12.346
X62.394 Y12.331
X62.378 Y12.322
X62.359
G2 X62.448 Y12.688 I0.045 J0.183
X62.56 Y12.609 I-0.045 J-0.183
G1 X62.561 Y12.608
G2 X62.246 Y12.402 Z-0.53 I-0.157 J-0.103
X62.561 Y12.608 Z-0.55 I0.157 J0.103
X62.586 Y12.552 Z-0.553 I-0.157 J-0.103
G1 Y12.551
X62.592 Y12.527
G2 X62.452 Y12.292 I-0.187 J-0.048
G1 X62.413 Y12.282
X62.363 Y12.268
X59.561 Y11.382
X59.511 Y11.366
X59.502 Y11.361
X59.491 Y11.356
X59.481 Y11.351
X59.471 Y11.344
X59.461 Y11.336
X59.455 Y11.331
X59.448 Y11.325
X59.441 Y11.318
X59.435 Y11.311
X59.428 Y11.303
X59.422 Y11.294
X59.416 Y11.286
X59.411 Y11.277
X59.407 Y11.269
X59.403 Y11.261
X59.398 Y11.249
X59.394 Y11.236
X59.391 Y11.224
X59.389 Y11.211
X59.387 Y11.199
X59.386 Y11.186
X59.387 Y11.174
Y11.161
X59.389 Y11.151
X59.391 Y11.14
X59.395 Y11.125
X59.399 Y11.111
X59.414 Y11.063
X59.42 Y11.042
X59.437 Y10.986
X59.442 Y10.974
X59.447 Y10.961
X59.453 Y10.948
X59.461 Y10.934
X59.469 Y10.923
X59.478 Y10.911
X59.486 Y10.903
X59.495 Y10.894
X59.503 Y10.887
X59.511 Y10.881
X59.519 Y10.875
X59.528 Y10.87
X59.536 Y10.865
X59.544 Y10.861
X59.553 Y10.857
X59.561 Y10.854
X59.574 Y10.85
X59.586 Y10.847
X59.599 Y10.845
X59.611 Y10.843
X59.624 Y10.842
X59.636 Y10.843
X59.649 Y10.844
X59.661 Y10.845
X59.674 Y10.848
X59.686 Y10.851
X59.761 Y10.873
X59.811 Y10.888
X59.861 Y10.9
X59.907 Y10.911
X59.911 Y10.912
X59.961 Y10.921
X60.011 Y10.929
X60.062 Y10.933
X60.074 Y10.934
X60.087 Y10.933
X60.118 Y10.932
X60.119
X60.124
X60.137 Y10.93
X60.157 Y10.926
X60.158 Y10.925
X60.162 Y10.924
X60.177 Y10.919
X60.182 Y10.917
X60.184 Y10.916
X60.192 Y10.911
X60.202 Y10.905
X60.204 Y10.903
X60.207 Y10.901
X60.212 Y10.897
X60.223 Y10.886
X60.226 Y10.883
X60.229 Y10.879
X60.243 Y10.861
X60.247 Y10.856
X60.249 Y10.854
X60.253 Y10.847
X60.262 Y10.833
X60.274 Y10.811
X60.281 Y10.799
X60.287 Y10.786
X60.298 Y10.761
X60.312 Y10.73
X60.319 Y10.711
X60.339 Y10.661
X60.356 Y10.611
X60.362 Y10.595
X60.373 Y10.561
X60.389 Y10.511
X60.405 Y10.461
X60.421 Y10.411
X60.436 Y10.361
X60.452 Y10.311
Y10.29
X60.442 Y10.271
X60.424 Y10.26
X58.827 Y9.837
X58.805
X58.787 Y9.85
X58.778 Y9.87
X58.772 Y9.911
X58.765 Y9.961
X58.745 Y10.111
X58.738 Y10.161
X58.734 Y10.211
X58.725 Y10.336
Y10.342
Y10.348
X58.727 Y10.411
X58.73 Y10.461
X58.731 Y10.466
Y10.467
X58.732 Y10.473
X58.735 Y10.486
X58.74 Y10.512
X58.741 Y10.514
X58.744 Y10.523
X58.753 Y10.548
X58.754 Y10.55
X58.757 Y10.555
X58.76 Y10.561
X58.769 Y10.577
X58.771 Y10.579
X58.772 Y10.58
X58.777 Y10.586
X58.79 Y10.602
X58.792 Y10.604
X58.794 Y10.605
X58.8 Y10.611
X58.82 Y10.627
X58.822 Y10.628
X58.836 Y10.637
X58.863 Y10.653
X58.866 Y10.654
X58.88 Y10.661
X58.911 Y10.674
X58.925 Y10.68
X58.926 Y10.681
X58.936 Y10.684
X58.961 Y10.692
X59.011 Y10.707
X59.026 Y10.711
X59.061 Y10.719
X59.111 Y10.73
X59.161 Y10.739
X59.211 Y10.748
X59.236 Y10.752
X59.248 Y10.756
X59.261 Y10.76
X59.263 Y10.761
X59.275 Y10.766
X59.287 Y10.772
X59.299 Y10.78
X59.311 Y10.788
X59.324 Y10.799
X59.33 Y10.805
X59.336 Y10.811
X59.343 Y10.82
X59.35 Y10.828
X59.356 Y10.836
X59.361 Y10.845
X59.366 Y10.853
X59.37 Y10.861
X59.375 Y10.874
X59.379 Y10.886
X59.383 Y10.899
X59.385 Y10.911
X59.387 Y10.924
X59.388 Y10.936
Y10.949
Y10.961
X59.38 Y11.011
X59.365 Y11.111
X59.362 Y11.125
X59.361 Y11.131
X59.357 Y11.146
X59.351 Y11.161
X59.346 Y11.174
X59.339 Y11.186
X59.331 Y11.199
X59.322 Y11.211
X59.311 Y11.223
X59.305 Y11.229
X59.298 Y11.235
X59.286 Y11.245
X59.273 Y11.254
X59.261 Y11.261
X59.26
X59.248 Y11.267
X59.236 Y11.272
X59.223 Y11.276
X59.211 Y11.279
X59.198 Y11.282
X59.186 Y11.283
X59.173 Y11.284
X59.161
X59.148 Y11.283
X59.136 Y11.281
X57.31 Y11.013
X57.295 Y11.011
X57.286 Y11.009
X57.277 Y11.007
X57.268 Y11.004
X57.26 Y11.001
X57.247 Y10.996
X57.234 Y10.99
X57.222 Y10.982
X57.209 Y10.973
X57.202 Y10.967
X57.195 Y10.961
X57.184 Y10.95
X57.175 Y10.939
X57.167 Y10.927
X57.159 Y10.916
X57.157 Y10.911
X57.15 Y10.899
X57.145 Y10.886
X57.141 Y10.874
X57.138 Y10.861
X57.135 Y10.849
X57.134 Y10.836
X57.133 Y10.824
Y10.811
Y10.799
X57.135 Y10.786
X57.143 Y10.727
X57.14 Y10.704
X57.124 Y10.687
X57.102 Y10.681
X57.08 Y10.689
X57.066 Y10.707
X57.064 Y10.73
X57.076 Y10.75
X57.086 Y10.766
X57.087 Y10.785
X57.08 Y10.802
G3 X56.753 Y10.623 I-0.152 J-0.11
G1 Y10.622
G3 X57.103 Y10.762 Z-0.573 I0.175 J0.07
X56.753 Y10.622 Z-0.594 I-0.175 J-0.07
X56.952 Y10.505 Z-0.603 I0.175 J0.07
G1 X56.954
X56.978 Y10.509
G3 X57.143 Y10.727 I-0.027 J0.191
G1 X57.135 Y10.786
X57.133 Y10.799
Y10.811
Y10.824
X57.134 Y10.836
X57.135 Y10.849
X57.138 Y10.861
X57.141 Y10.874
X57.145 Y10.886
X57.15 Y10.899
X57.157 Y10.911
X57.159 Y10.916
X57.167 Y10.927
X57.175 Y10.939
X57.184 Y10.95
X57.195 Y10.961
X57.202 Y10.967
X57.209 Y10.973
X57.222 Y10.982
X57.234 Y10.99
X57.247 Y10.996
X57.26 Y11.001
X57.268 Y11.004
X57.277 Y11.007
X57.286 Y11.009
X57.295 Y11.011
X57.31 Y11.013
X59.136 Y11.281
X59.148 Y11.283
X59.161 Y11.284
X59.173
X59.186 Y11.283
X59.198 Y11.282
X59.211 Y11.279
X59.223 Y11.276
X59.236 Y11.272
X59.248 Y11.267
X59.26 Y11.261
X59.261
X59.273 Y11.254
X59.286 Y11.245
X59.298 Y11.235
X59.305 Y11.229
X59.311 Y11.223
X59.322 Y11.211
X59.331 Y11.199
X59.339 Y11.186
X59.346 Y11.174
X59.351 Y11.161
X59.357 Y11.146
X59.361 Y11.131
X59.362 Y11.125
X59.365 Y11.111
X59.38 Y11.011
X59.388 Y10.961
Y10.949
Y10.936
X59.387 Y10.924
X59.385 Y10.911
X59.383 Y10.899
X59.379 Y10.886
X59.375 Y10.874
X59.37 Y10.861
X59.366 Y10.853
X59.361 Y10.845
X59.356 Y10.836
X59.35 Y10.828
X59.343 Y10.82
X59.336 Y10.811
X59.33 Y10.805
X59.324 Y10.799
X59.311 Y10.788
X59.299 Y10.78
X59.287 Y10.772
X59.275 Y10.766
X59.263 Y10.761
X59.261 Y10.76
X59.248 Y10.756
X59.236 Y10.752
X59.211 Y10.748
X59.111 Y10.73
X59.061 Y10.719
X59.026 Y10.711
X59.011 Y10.707
X58.961 Y10.692
X58.925 Y10.68
X58.911 Y10.674
X58.88 Y10.661
X58.866 Y10.654
X58.863 Y10.653
X58.836 Y10.637
X58.822 Y10.628
X58.82 Y10.627
X58.8 Y10.611
X58.792 Y10.604
X58.79 Y10.602
X58.777 Y10.586
X58.772 Y10.58
X58.769 Y10.577
X58.768 Y10.574
X58.76 Y10.561
X58.757 Y10.555
X58.754 Y10.55
X58.753 Y10.548
X58.749 Y10.536
X58.744 Y10.523
X58.74 Y10.512
Y10.511
X58.735 Y10.486
X58.732 Y10.473
X58.731 Y10.466
X58.73 Y10.464
Y10.461
X58.728 Y10.411
X58.725 Y10.339
Y10.337
Y10.336
X58.734 Y10.211
X58.738 Y10.161
X58.745 Y10.111
X58.765 Y9.961
X58.772 Y9.911
X58.778 Y9.87
X58.786 Y9.851
X58.802 Y9.838
X58.823 Y9.836
G0 Z5.
X60.448 Y10.322
Z0.975
G1 Z-0.51 F50.
X60.447 Y10.327 Z-0.53
X60.443 Y10.34 Z-0.544
X60.437 Y10.359 Z-0.55
X60.436 Y10.361
X60.421 Y10.411 Z-0.552
X60.405 Y10.461 Z-0.554
X60.389 Y10.511 Z-0.556
X60.373 Y10.561 Z-0.557
X60.362 Y10.595 Z-0.559
X60.356 Y10.611
X60.339 Y10.661 Z-0.561
X60.319 Y10.711 Z-0.563
X60.312 Y10.73 Z-0.564
X60.298 Y10.761 Z-0.565
X60.287 Y10.786 Z-0.566
X60.274 Y10.811 Z-0.567
X60.262 Y10.833 Z-0.568
X60.253 Y10.847
X60.249 Y10.854 Z-0.569
X60.247 Y10.856
X60.243 Y10.861
X60.229 Y10.879 Z-0.57
X60.226 Y10.883
X60.224 Y10.886
X60.212 Y10.897 Z-0.571
X60.207 Y10.901
X60.204 Y10.903
X60.202 Y10.905
X60.192 Y10.911
X60.184 Y10.916 Z-0.572
X60.182 Y10.917
X60.177 Y10.919
X60.162 Y10.924 Z-0.573
X60.157 Y10.926
X60.155
X60.137 Y10.93
X60.124 Y10.932 Z-0.574
X60.119
X60.118
X60.087 Y10.933 Z-0.575
X60.074 Z-0.576
X60.062
X60.011 Y10.929 Z-0.578
X59.961 Y10.921 Z-0.58
X59.911 Y10.912 Z-0.581
X59.907 Y10.911 Z-0.582
X59.861 Y10.9 Z-0.583
X59.811 Y10.888 Z-0.585
X59.761 Y10.873 Z-0.587
X59.686 Y10.851 Z-0.59
X59.674 Y10.848
X59.661 Y10.845
X59.649 Y10.844 Z-0.591
X59.636 Y10.843
X59.624 Y10.842 Z-0.592
X59.611 Y10.843
X59.599 Y10.845 Z-0.593
X59.586 Y10.847
X59.574 Y10.85
X59.561 Y10.854 Z-0.594
X59.553 Y10.857
X59.544 Y10.861 Z-0.595
X59.536 Y10.865
X59.528 Y10.87
X59.519 Y10.875 Z-0.596
X59.511 Y10.881
X59.503 Y10.887
X59.495 Y10.894 Z-0.597
X59.486 Y10.903
X59.478 Y10.911 Z-0.598
X59.469 Y10.923
X59.461 Y10.934 Z-0.599
X59.453 Y10.948
X59.447 Y10.961 Z-0.6
X59.442 Y10.974
X59.437 Y10.986 Z-0.601
X59.42 Y11.041 Z-0.603
Y11.042
X59.437 Y10.986
X59.442 Y10.974
X59.447 Y10.961
X59.453 Y10.948
X59.461 Y10.934
X59.469 Y10.923
X59.478 Y10.911
X59.486 Y10.903
X59.495 Y10.894
X59.503 Y10.887
X59.511 Y10.881
X59.519 Y10.875
X59.528 Y10.87
X59.536 Y10.865
X59.544 Y10.861
X59.553 Y10.857
X59.561 Y10.854
X59.574 Y10.85
X59.586 Y10.847
X59.599 Y10.845
X59.611 Y10.843
X59.624 Y10.842
X59.636 Y10.843
X59.649 Y10.844
X59.661 Y10.845
X59.674 Y10.848
X59.686 Y10.851
X59.761 Y10.873
X59.811 Y10.888
X59.861 Y10.9
X59.907 Y10.911
X59.911 Y10.912
X59.961 Y10.921
X60.011 Y10.929
X60.062 Y10.933
X60.074
X60.087
X60.118 Y10.932
X60.119
X60.124
X60.137 Y10.93
X60.155 Y10.926
X60.157
X60.162 Y10.924
X60.177 Y10.919
X60.182 Y10.917
X60.184 Y10.916
X60.192 Y10.911
X60.202 Y10.905
X60.204 Y10.903
X60.207 Y10.901
X60.212 Y10.897
X60.224 Y10.886
X60.226 Y10.883
X60.229 Y10.879
X60.243 Y10.861
X60.247 Y10.856
X60.249 Y10.854
X60.253 Y10.847
X60.262 Y10.833
X60.274 Y10.811
X60.287 Y10.786
X60.298 Y10.761
X60.312 Y10.73
X60.319 Y10.711
X60.339 Y10.661
X60.356 Y10.611
X60.362 Y10.595
X60.373 Y10.561
X60.389 Y10.511
X60.405 Y10.461
X60.421 Y10.411
X60.436 Y10.361
X60.452 Y10.311
Y10.29
X60.443 Y10.272
X60.425 Y10.261
G0 Z5.
X60.641 Y11.724
Z0.975
G1 Z-0.51 F50.
