(1001)
(T1  D=2. CR=0. - ZMIN=-3.332 - FLAT END MILL)
G0 G90 G94 G17
G21
G53 G0 Z0.

(2MM  FLATEND  MORPHED-SPIRAL)
M5
M9
T1
S12000 M3
G4 P4.
G55
G0 X29.971 Y43.964
Z15.
Z1.512
G1 Z-1.12 F200.
X29.972 Y43.957 Z-1.171
X29.977 Y43.938 Z-1.22
X29.985 Y43.907 Z-1.261
X29.995 Y43.867 Z-1.293
X30.006 Y43.82 Z-1.313
X30.019 Y43.77 Z-1.32
X30.202 Y43.032
X30.423 Y42.257
X30.688 Y41.448
X30.821 Y41.078
X30.838 Y41.03 Z-1.313
X30.855 Y40.984 Z-1.293
X30.869 Y40.945 Z-1.261
X30.879 Y40.915 Z-1.22
X30.886 Y40.897 Z-1.171
X30.889 Y40.89 Z-1.12
G0 Z5.
X70.915 Y40.435
Z1.477
G1 Z-1.12 F200.
X70.917 Y40.441 Z-1.171
X70.924 Y40.46 Z-1.22
X70.935 Y40.49 Z-1.261
X70.95 Y40.528 Z-1.293
X70.967 Y40.574 Z-1.313
X70.985 Y40.622 Z-1.32
X71.256 Y41.345
X71.502 Y42.079
X71.74 Y42.888
X71.92 Y43.581
X72.079 Y44.299
X72.09 Y44.349 Z-1.313
X72.1 Y44.397 Z-1.293
X72.109 Y44.437 Z-1.261
X72.116 Y44.468 Z-1.22
X72.12 Y44.488 Z-1.171
X72.122 Y44.494 Z-1.12
G0 Z5.
X29.683 Y45.187
Z1.519
G1 Z-1.12 F200.
X29.685 Y45.181 Z-1.171
X29.689 Y45.161 Z-1.22
X29.695 Y45.13 Z-1.261
X29.703 Y45.089 Z-1.293
X29.712 Y45.042 Z-1.313
X29.722 Y44.991 Z-1.32
X29.881 Y44.175
X30.054 Y43.42
X30.237 Y42.722
X30.47 Y41.949
X30.72 Y41.216
X31.02 Y40.434
X31.249 Y39.887
X31.27 Y39.839 Z-1.313
X31.288 Y39.794 Z-1.293
X31.304 Y39.756 Z-1.261
X31.317 Y39.727 Z-1.22
X31.324 Y39.708 Z-1.171
X31.327 Y39.702 Z-1.12
G0 Z5.
X70.501 Y39.369
Z1.462
G1 Z-1.12 F200.
X70.504 Y39.375 Z-1.171
X70.512 Y39.393 Z-1.22
X70.524 Y39.423 Z-1.261
X70.541 Y39.461 Z-1.293
X70.56 Y39.505 Z-1.313
X70.581 Y39.552 Z-1.32
X70.928 Y40.356
X71.222 Y41.11
X71.501 Y41.92
X71.755 Y42.763
X71.965 Y43.569
X72.159 Y44.456
X72.308 Y45.282
Z-1.31
G0 Z5.
X29.566 Y45.67
Z1.519
G1 Z-1.31 F200.
Z-1.32
X29.692 Y44.891
X29.867 Y44.015
X30.045 Y43.262
X30.244 Y42.528
X30.472 Y41.789
X30.753 Y40.989
X31.064 Y40.202
X31.366 Y39.509
X31.583 Y39.051
X31.605 Y39.004 Z-1.313
X31.625 Y38.961 Z-1.293
X31.643 Y38.923 Z-1.261
X31.657 Y38.894 Z-1.22
X31.665 Y38.876 Z-1.171
X31.668 Y38.87 Z-1.12
G0 Z5.
X70.17 Y38.591
Z1.452
G1 Z-1.12 F200.
X70.173 Y38.597 Z-1.171
X70.181 Y38.615 Z-1.22
X70.195 Y38.644 Z-1.261
X70.213 Y38.681 Z-1.293
X70.234 Y38.724 Z-1.313
X70.257 Y38.771 Z-1.32
X70.608 Y39.499
X70.972 Y40.337
X71.266 Y41.094
X71.544 Y41.899
X71.79 Y42.713
X72.011 Y43.557
X72.205 Y44.447
X72.36 Y45.308
X72.435 Y45.81
Z-1.31
Z-1.309
G0 Z5.
X29.45 Y46.186
Z1.519
G1 Z-1.305 F200.
Z-1.31
Y46.185 Z-1.32
X29.568 Y45.343
X29.696 Y44.613
X29.854 Y43.855
X30.065 Y42.997
X30.287 Y42.218
X30.526 Y41.482
X30.819 Y40.683
X31.141 Y39.899
X31.454 Y39.209
X31.833 Y38.452
X31.898 Y38.329
X31.923 Y38.283 Z-1.313
X31.945 Y38.24 Z-1.293
X31.964 Y38.204 Z-1.261
X31.979 Y38.176 Z-1.22
X31.989 Y38.158 Z-1.171
X31.992 Y38.152 Z-1.12
G0 Z5.
X69.877 Y37.947
Z1.442
G1 Z-1.12 F200.
X69.88 Y37.953 Z-1.171
X69.89 Y37.97 Z-1.22
X69.904 Y37.999 Z-1.261
X69.924 Y38.035 Z-1.293
X69.946 Y38.078 Z-1.313
X69.97 Y38.124 Z-1.32
X70.34 Y38.833
X70.651 Y39.478
X71.015 Y40.319
X71.31 Y41.078
X71.588 Y41.882
X71.835 Y42.7
X72.057 Y43.545
X72.251 Y44.437
X72.406 Y45.301
X72.516 Y46.067
X72.546 Y46.312
Z-1.31
G0 Z5.
X29.35 Y46.655
Z1.519
G1 Z-1.304 F200.
Z-1.31
Y46.654 Z-1.32
X29.453 Y45.796
X29.571 Y45.031
X29.71 Y44.301
X29.896 Y43.47
X30.1 Y42.687
X30.334 Y41.91
X30.583 Y41.177
X30.888 Y40.382
X31.222 Y39.599
X31.58 Y38.842
X31.974 Y38.089
X32.229 Y37.636
X32.254 Y37.59 Z-1.313
X32.278 Y37.548 Z-1.293
X32.298 Y37.512 Z-1.261
X32.314 Y37.485 Z-1.22
X32.324 Y37.467 Z-1.171
X32.327 Y37.461 Z-1.12
G0 Z5.
X69.554 Y37.297
Z1.435
G1 Z-1.12 F200.
X69.557 Y37.303 Z-1.171
X69.567 Y37.32 Z-1.22
X69.583 Y37.348 Z-1.261
X69.603 Y37.384 Z-1.293
X69.627 Y37.426 Z-1.313
X69.653 Y37.471 Z-1.32
X70.031 Y38.136
X70.383 Y38.811
X70.725 Y39.528
X71.059 Y40.3
X71.355 Y41.061
X71.633 Y41.866
X71.881 Y42.687
X72.102 Y43.533
X72.297 Y44.427
X72.456 Y45.313
X72.579 Y46.189
X72.643 Y46.775
Z-1.31
Z-1.309
G0 Z5.
X29.26 Y47.116
Z1.519
G1 Z-1.307 F200.
Z-1.31
Z-1.32
X29.357 Y46.175
X29.474 Y45.33
X29.603 Y44.596
X29.761 Y43.838
X29.973 Y42.974
X30.196 Y42.192
X30.435 Y41.456
X30.73 Y40.651
X31.053 Y39.865
X31.368 Y39.17
X31.713 Y38.477
X32.113 Y37.742
X32.552 Y37.005
X32.593 Y36.94
X32.62 Y36.897 Z-1.313
X32.646 Y36.856 Z-1.293
X32.667 Y36.82 Z-1.261
X32.684 Y36.794 Z-1.22
X32.695 Y36.777 Z-1.171
X32.699 Y36.771 Z-1.12
G0 Z5.
X69.162 Y36.584
Z1.432
G1 Z-1.12 F200.
X69.166 Y36.59 Z-1.171
X69.176 Y36.607 Z-1.22
X69.193 Y36.634 Z-1.261
X69.215 Y36.669 Z-1.293
X69.24 Y36.71 Z-1.313
X69.267 Y36.754 Z-1.32
X69.704 Y37.464
X70.072 Y38.113
X70.425 Y38.789
X70.784 Y39.543
X71.102 Y40.282
X71.409 Y41.072
X71.683 Y41.868
X71.938 Y42.716
X72.148 Y43.521
X72.344 Y44.417
X72.5 Y45.286
X72.61 Y46.052
X72.698 Y46.85
X72.732 Y47.242
Z-1.31
G0 Z5.
X29.176 Y47.566
Z1.519
G1 Z-1.225 F200.
X29.177 Y47.559 Z-1.261
X29.179 Y47.538 Z-1.292
X29.182 Y47.508 Z-1.312
X29.185 Y47.471 Z-1.32
X29.266 Y46.556
X29.375 Y45.674
X29.504 Y44.866
X29.681 Y43.981
X29.878 Y43.152
X30.106 Y42.327
X30.34 Y41.59
X30.63 Y40.779
X30.948 Y39.99
X31.292 Y39.221
X31.666 Y38.466
X32.072 Y37.719
X32.471 Y37.046
X32.932 Y36.33
X33.036 Y36.177
X33.053 Y36.125
X33.04 Y36.072
X33.027 Y36.013
X33.051 Y35.957
X34.355 Y34.439
X34.68 Y34.06
X34.714 Y34.02 Z-1.313
X34.745 Y33.984 Z-1.293
X34.772 Y33.952 Z-1.261
X34.793 Y33.928 Z-1.22
X34.806 Y33.913 Z-1.171
X34.81 Y33.908 Z-1.12
G0 Z5.
X67.133 Y33.868
Z1.499
G1 Z-1.12 F200.
X67.137 Y33.873 Z-1.171
X67.15 Y33.889 Z-1.22
X67.171 Y33.913 Z-1.261
X67.198 Y33.944 Z-1.293
X67.229 Y33.981 Z-1.313
X67.263 Y34.02 Z-1.32
X67.749 Y34.591
X67.784 Y34.617
X67.827 Y34.626
X67.875 Y34.637
X67.912 Y34.67
X68.73 Y35.873
X69.21 Y36.579
X69.654 Y37.289
X70.094 Y38.055
X70.467 Y38.768
X70.826 Y39.522
X71.146 Y40.263
X71.453 Y41.056
X71.733 Y41.87
X71.987 Y42.717
X72.194 Y43.509
X72.39 Y44.408
X72.546 Y45.279
X72.656 Y46.045
X72.745 Y46.846
X72.799 Y47.509
X72.803 Y47.553 Z-1.314
X72.806 Y47.595 Z-1.297
X72.809 Y47.631 Z-1.269
X72.812 Y47.658 Z-1.233
X72.813 Y47.675 Z-1.192
Y47.681 Z-1.147
G0 Z5.
X29.115 Y47.754
Z1.515
G1 Z-1.12 F200.
X29.116 Y47.747 Z-1.171
X29.117 Y47.727 Z-1.22
X29.12 Y47.695 Z-1.261
X29.124 Y47.654 Z-1.293
X29.128 Y47.606 Z-1.313
X29.132 Y47.554 Z-1.32
X29.203 Y46.706
X29.309 Y45.81
X29.444 Y44.936
X29.602 Y44.124
X29.775 Y43.369
X29.995 Y42.54
X30.245 Y41.723
X30.532 Y40.907
X30.859 Y40.079
X31.151 Y39.412
X31.486 Y38.714
X31.879 Y37.967
X32.264 Y37.295
X32.721 Y36.564
X33.199 Y35.86
X33.704 Y35.174
X34.235 Y34.509
X34.772 Y33.884
X34.806 Y33.845 Z-1.313
X34.838 Y33.808 Z-1.293
X34.865 Y33.777 Z-1.261
X34.885 Y33.753 Z-1.22
X34.898 Y33.738 Z-1.171
X34.903 Y33.732 Z-1.12
G0 Z5.
X67.042 Y33.696
Z1.493
G1 Z-1.12 F200.
X67.046 Y33.701 Z-1.171
X67.059 Y33.717 Z-1.22
X67.08 Y33.741 Z-1.261
X67.107 Y33.772 Z-1.293
X67.139 Y33.808 Z-1.313
X67.172 Y33.848 Z-1.32
X67.68 Y34.434
X68.167 Y35.036
X68.659 Y35.692
X69.144 Y36.392
X69.533 Y36.998
X69.984 Y37.761
X70.368 Y38.47
X70.756 Y39.255
X71.107 Y40.048
X71.416 Y40.821
X71.706 Y41.634
X71.948 Y42.409
X72.184 Y43.272
X72.362 Y44.045
X72.53 Y44.898
X72.662 Y45.731
X72.761 Y46.533
X72.843 Y47.459
X72.852 Y47.583
X72.855 Y47.635 Z-1.313
X72.859 Y47.683 Z-1.293
X72.862 Y47.725 Z-1.261
X72.864 Y47.756 Z-1.22
X72.865 Y47.776 Z-1.171
X72.866 Y47.783 Z-1.12
G0 Z5.
X29.064 Y47.82
Z1.508
G1 Z-1.12 F200.
X29.065 Y47.813 Z-1.171
X29.066 Y47.793 Z-1.22
X29.069 Y47.761 Z-1.261
X29.072 Y47.72 Z-1.293
X29.076 Y47.672 Z-1.313
X29.081 Y47.62 Z-1.32
X29.156 Y46.702
X29.262 Y45.803
X29.397 Y44.93
X29.556 Y44.115
X29.728 Y43.361
X29.949 Y42.528
X30.2 Y41.71
X30.481 Y40.908
X30.807 Y40.08
X31.108 Y39.392
X31.443 Y38.694
X31.838 Y37.944
X32.223 Y37.273
X32.688 Y36.527
X33.159 Y35.835
X33.663 Y35.149
X34.194 Y34.484
X34.746 Y33.843
X34.818 Y33.762
X34.853 Y33.723 Z-1.313
X34.885 Y33.688 Z-1.293
X34.913 Y33.657 Z-1.261
X34.934 Y33.633 Z-1.22
X34.947 Y33.618 Z-1.171
X34.952 Y33.613 Z-1.12
G0 Z5.
X66.995 Y33.575
Z1.485
G1 Z-1.12 F200.
X66.999 Y33.58 Z-1.171
X67.013 Y33.595 Z-1.22
X67.034 Y33.619 Z-1.261
X67.061 Y33.65 Z-1.293
X67.092 Y33.687 Z-1.313
X67.126 Y33.726 Z-1.32
X67.678 Y34.358
X68.203 Y35.005
X68.697 Y35.664
X69.182 Y36.364
X69.573 Y36.973
X70.025 Y37.737
X70.428 Y38.483
X70.798 Y39.235
X71.151 Y40.03
X71.46 Y40.802
X71.713 Y41.507
X71.948 Y42.244
X72.191 Y43.11
X72.371 Y43.862
X72.556 Y44.775
X72.7 Y45.666
X72.808 Y46.528
X72.89 Y47.455
X72.903 Y47.645
X72.906 Y47.696 Z-1.313
X72.91 Y47.745 Z-1.293
X72.913 Y47.786 Z-1.261
X72.915 Y47.818 Z-1.22
X72.916 Y47.838 Z-1.171
X72.917 Y47.844 Z-1.12
G0 Z5.
X29.014 Y47.875
Z1.5
G1 Z-1.12 F200.
X29.015 Y47.868 Z-1.171
X29.016 Y47.848 Z-1.22
X29.019 Y47.816 Z-1.261
X29.022 Y47.775 Z-1.293
X29.026 Y47.727 Z-1.313
X29.03 Y47.675 Z-1.32
X29.101 Y46.784
X29.188 Y46.001
X29.318 Y45.115
X29.48 Y44.249
X29.682 Y43.352
X29.903 Y42.516
X30.154 Y41.697
X30.437 Y40.892
X30.763 Y40.062
X31.065 Y39.373
X31.4 Y38.675
X31.796 Y37.922
X32.181 Y37.25
X32.598 Y36.58
X33.073 Y35.874
X33.576 Y35.186
X34.104 Y34.518
X34.658 Y33.87
X34.845 Y33.662
X34.88 Y33.623 Z-1.313
X34.912 Y33.587 Z-1.293
X34.94 Y33.557 Z-1.261
X34.961 Y33.533 Z-1.22
X34.974 Y33.518 Z-1.171
X34.979 Y33.513 Z-1.12
G0 Z5.
X66.965 Y33.473
Z1.475
G1 Z-1.12 F200.
X66.969 Y33.478 Z-1.171
X66.983 Y33.493 Z-1.22
X67.004 Y33.517 Z-1.261
X67.031 Y33.548 Z-1.293
X67.063 Y33.584 Z-1.313
X67.097 Y33.623 Z-1.32
X67.652 Y34.253
X68.207 Y34.933
X68.735 Y35.635
X69.22 Y36.335
X69.613 Y36.947
X70.009 Y37.613
X70.381 Y38.291
X70.775 Y39.074
X71.095 Y39.779
X71.42 Y40.567
X71.72 Y41.381
X71.948 Y42.08
X72.189 Y42.921
X72.383 Y43.699
X72.56 Y44.538
X72.71 Y45.41
X72.819 Y46.215
X72.909 Y47.104
X72.953 Y47.697
X72.957 Y47.748 Z-1.313
X72.961 Y47.796 Z-1.293
X72.964 Y47.838 Z-1.261
X72.966 Y47.869 Z-1.22
X72.968 Y47.889 Z-1.171
Y47.896 Z-1.12
G0 Z5.
X28.965 Y47.923
Z1.491
G1 Z-1.12 F200.
X28.966 Y47.916 Z-1.171
X28.967 Y47.896 Z-1.22
X28.969 Y47.864 Z-1.261
X28.973 Y47.823 Z-1.293
X28.976 Y47.775 Z-1.313
X28.98 Y47.723 Z-1.32
X29.039 Y46.935
X29.141 Y45.996
X29.271 Y45.109
X29.433 Y44.24
X29.635 Y43.344
X29.857 Y42.504
X30.109 Y41.684
X30.392 Y40.875
X30.719 Y40.045
X31.022 Y39.353
X31.357 Y38.655
X31.755 Y37.899
X32.14 Y37.227
X32.557 Y36.555
X33.044 Y35.833
X33.535 Y35.161
X34.063 Y34.493
X34.623 Y33.838
X34.866 Y33.569
X34.9 Y33.531 Z-1.313
X34.933 Y33.495 Z-1.293
X34.961 Y33.464 Z-1.261
X34.982 Y33.44 Z-1.22
X34.995 Y33.426 Z-1.171
X35. Y33.421 Z-1.12
G0 Z5.
X66.948 Y33.385
Z1.464
G1 Z-1.12 F200.
X66.952 Y33.39 Z-1.171
X66.966 Y33.405 Z-1.22
X66.987 Y33.429 Z-1.261
X67.014 Y33.46 Z-1.293
X67.046 Y33.496 Z-1.313
X67.081 Y33.535 Z-1.32
X67.637 Y34.163
X68.181 Y34.823
X68.636 Y35.419
X69.128 Y36.114
X69.612 Y36.856
X70.05 Y37.589
X70.422 Y38.267
X70.817 Y39.054
X71.137 Y39.758
X71.436 Y40.476
X71.739 Y41.292
X71.992 Y42.064
X72.235 Y42.908
X72.429 Y43.687
X72.606 Y44.53
X72.756 Y45.402
X72.866 Y46.21
X72.956 Y47.101
X73.003 Y47.742
X73.007 Y47.794 Z-1.313
X73.011 Y47.842 Z-1.293
X73.014 Y47.883 Z-1.261
X73.016 Y47.915 Z-1.22
X73.017 Y47.935 Z-1.171
X73.018 Y47.942 Z-1.12
G0 Z5.
X28.916 Y47.964
Z1.48
G1 Z-1.12 F200.
Y47.957 Z-1.171
X28.918 Y47.937 Z-1.22
X28.92 Y47.905 Z-1.261
X28.923 Y47.864 Z-1.293
X28.927 Y47.816 Z-1.313
X28.931 Y47.764 Z-1.32
X28.992 Y46.932
X29.094 Y45.991
X29.218 Y45.141
X29.354 Y44.393
X29.535 Y43.561
X29.759 Y42.679
X30.004 Y41.856
X30.281 Y41.04
X30.602 Y40.207
X30.943 Y39.412
X31.296 Y38.67
X31.713 Y37.876
X32.098 Y37.205
X32.517 Y36.531
X32.992 Y35.824
X33.494 Y35.137
X33.973 Y34.528
X34.536 Y33.865
X34.877 Y33.487
X34.912 Y33.449 Z-1.313
X34.944 Y33.413 Z-1.293
X34.972 Y33.382 Z-1.261
X34.993 Y33.358 Z-1.22
X35.006 Y33.344 Z-1.171
X35.011 Y33.338 Z-1.12
G0 Z5.
X66.938 Y33.306
Z1.451
G1 Z-1.12 F200.
X66.943 Y33.311 Z-1.171
X66.956 Y33.326 Z-1.22
X66.977 Y33.349 Z-1.261
X67.005 Y33.38 Z-1.293
X67.037 Y33.416 Z-1.313
X67.071 Y33.455 Z-1.32
X67.648 Y34.102
X68.217 Y34.793
X68.674 Y35.391
X69.166 Y36.086
X69.652 Y36.83
X70.091 Y37.565
X70.463 Y38.244
X70.86 Y39.033
X71.18 Y39.738
X71.479 Y40.458
X71.744 Y41.166
X71.991 Y41.9
X72.24 Y42.745
X72.422 Y43.449
X72.621 Y44.359
X72.779 Y45.242
X72.902 Y46.117
X72.993 Y46.981
X73.053 Y47.78
X73.057 Y47.832 Z-1.313
X73.06 Y47.88 Z-1.293
X73.063 Y47.921 Z-1.261
X73.066 Y47.953 Z-1.22
X73.067 Y47.973 Z-1.171
X73.068 Y47.98 Z-1.12
G0 Z5.
X28.867 Y48.
Z1.468
G1 Z-1.12 F200.
Y47.993 Z-1.171
X28.869 Y47.974 Z-1.22
X28.871 Y47.942 Z-1.261
X28.874 Y47.901 Z-1.293
X28.878 Y47.852 Z-1.313
X28.881 Y47.801 Z-1.32
X28.945 Y46.93
X29.048 Y45.986
X29.171 Y45.134
X29.308 Y44.384
X29.47 Y43.628
X29.693 Y42.742
X29.924 Y41.953
X30.167 Y41.219
X30.476 Y40.393
X30.807 Y39.601
X31.167 Y38.824
X31.564 Y38.052
X31.987 Y37.299
X32.435 Y36.571
X32.908 Y35.863
X33.407 Y35.174
X33.944 Y34.489
X34.513 Y33.819
X34.883 Y33.41
X34.918 Y33.372 Z-1.313
X34.95 Y33.336 Z-1.293
X34.978 Y33.306 Z-1.261
X34.999 Y33.282 Z-1.22
X35.013 Y33.267 Z-1.171
X35.017 Y33.262 Z-1.12
G0 Z5.
X66.93 Y33.228
Z1.437
G1 Z-1.12 F200.
X66.934 Y33.233 Z-1.171
X66.948 Y33.248 Z-1.22
X66.969 Y33.272 Z-1.261
X66.997 Y33.303 Z-1.293
X67.029 Y33.338 Z-1.313
X67.063 Y33.377 Z-1.32
X67.608 Y33.983
X68.157 Y34.641
X68.666 Y35.3
X69.178 Y36.019
X69.671 Y36.772
X70.054 Y37.408
X70.459 Y38.135
X70.835 Y38.873
X71.161 Y39.575
X71.494 Y40.368
X71.789 Y41.15
X72.035 Y41.883
X72.285 Y42.732
X72.494 Y43.55
X72.693 Y44.483
X72.826 Y45.235
X72.945 Y46.075
X73.04 Y46.977
X73.102 Y47.814
X73.106 Y47.866 Z-1.313
X73.109 Y47.914 Z-1.293
X73.112 Y47.955 Z-1.261
X73.115 Y47.987 Z-1.22
X73.116 Y48.007 Z-1.171
X73.117 Y48.013 Z-1.12
G0 Z5.
X28.818 Y48.032
Z1.454
G1 Z-1.12 F200.
X28.819 Y48.025 Z-1.171
X28.82 Y48.005 Z-1.22
X28.822 Y47.974 Z-1.261
X28.825 Y47.932 Z-1.293
X28.829 Y47.884 Z-1.313
X28.833 Y47.832 Z-1.32
X28.898 Y46.927
X29.001 Y45.981
X29.125 Y45.128
X29.261 Y44.376
X29.424 Y43.619
X29.647 Y42.73
X29.878 Y41.94
X30.122 Y41.206
X30.432 Y40.376
X30.763 Y39.584
X31.124 Y38.805
X31.521 Y38.031
X31.936 Y37.293
X32.394 Y36.546
X32.867 Y35.838
X33.366 Y35.149
X33.891 Y34.479
X34.455 Y33.813
X34.887 Y33.337
X34.922 Y33.298 Z-1.313
X34.954 Y33.263 Z-1.293
X34.982 Y33.232 Z-1.261
X35.003 Y33.208 Z-1.22
X35.016 Y33.194 Z-1.171
X35.021 Y33.189 Z-1.12
G0 Z5.
X66.928 Y33.157
Z1.421
G1 Z-1.12 F200.
X66.933 Y33.162 Z-1.171
X66.946 Y33.177 Z-1.22
X66.967 Y33.201 Z-1.261
X66.995 Y33.232 Z-1.293
X67.027 Y33.268 Z-1.313
X67.062 Y33.306 Z-1.32
X67.643 Y33.952
X68.193 Y34.611
X68.724 Y35.299
X69.231 Y36.013
X69.711 Y36.746
X70.134 Y37.451
X70.509 Y38.128
X70.877 Y38.852
X71.203 Y39.554
X71.538 Y40.349
X71.833 Y41.134
X72.103 Y41.941
X72.351 Y42.794
X72.559 Y43.621
X72.745 Y44.505
X72.896 Y45.38
X73.016 Y46.271
X73.1 Y47.128
X73.151 Y47.844
X73.154 Y47.896 Z-1.313
X73.158 Y47.944 Z-1.293
X73.161 Y47.985 Z-1.261
X73.163 Y48.017 Z-1.22
X73.164 Y48.037 Z-1.171
X73.165 Y48.044 Z-1.12
G0 Z5.
X28.77 Y48.059
Z1.439
G1 Z-1.12 F200.
Y48.053 Z-1.171
X28.772 Y48.033 Z-1.22
X28.774 Y48.001 Z-1.261
X28.777 Y47.96 Z-1.293
X28.78 Y47.912 Z-1.313
X28.784 Y47.86 Z-1.32
X28.851 Y46.924
X28.954 Y45.976
X29.078 Y45.122
X29.215 Y44.368
X29.378 Y43.611
X29.562 Y42.868
X29.787 Y42.075
X30.051 Y41.266
X30.331 Y40.504
X30.657 Y39.709
X30.98 Y38.995
X31.335 Y38.283
X31.74 Y37.538
X32.148 Y36.849
X32.565 Y36.198
X33.05 Y35.498
X33.561 Y34.817
X34.097 Y34.156
X34.635 Y33.541
X34.886 Y33.268
X34.922 Y33.23 Z-1.313
X34.954 Y33.194 Z-1.293
X34.982 Y33.164 Z-1.261
X35.004 Y33.14 Z-1.22
X35.017 Y33.126 Z-1.171
X35.022 Y33.121 Z-1.12
G0 Z5.
X66.931 Y33.091
Z1.404
G1 Z-1.12 F200.
X66.935 Y33.096 Z-1.171
X66.949 Y33.111 Z-1.22
X66.97 Y33.135 Z-1.261
X66.998 Y33.165 Z-1.293
X67.03 Y33.201 Z-1.313
X67.065 Y33.24 Z-1.32
X67.654 Y33.892
X68.242 Y34.596
X68.764 Y35.275
X69.274 Y35.992
X69.75 Y36.72
X70.175 Y37.427
X70.586 Y38.173
X70.987 Y38.971
X71.308 Y39.676
X71.61 Y40.402
X71.877 Y41.117
X72.124 Y41.851
X72.376 Y42.706
X72.592 Y43.555
X72.792 Y44.496
X72.943 Y45.373
X73.063 Y46.266
X73.153 Y47.201
X73.199 Y47.871
X73.203 Y47.923 Z-1.313
X73.206 Y47.971 Z-1.293
X73.209 Y48.012 Z-1.261
X73.211 Y48.044 Z-1.22
X73.213 Y48.064 Z-1.171
Y48.07 Z-1.12
G0 Z5.
X28.722 Y48.083
Z1.423
G1 Z-1.12 F200.
Y48.077 Z-1.171
X28.724 Y48.057 Z-1.22
X28.726 Y48.025 Z-1.261
X28.729 Y47.984 Z-1.293
X28.732 Y47.936 Z-1.313
X28.736 Y47.884 Z-1.32
X28.791 Y47.076
X28.883 Y46.17
X29.007 Y45.269
X29.153 Y44.435
X29.331 Y43.602
X29.536 Y42.781
X29.776 Y41.951
X30.031 Y41.18
X30.287 Y40.488
X30.613 Y39.691
X30.937 Y38.975
X31.293 Y38.261
X31.698 Y37.515
X32.107 Y36.825
X32.525 Y36.173
X33.01 Y35.473
X33.52 Y34.792
X34.057 Y34.131
X34.599 Y33.51
X34.881 Y33.204
X34.916 Y33.166 Z-1.313
X34.949 Y33.13 Z-1.293
X34.977 Y33.1 Z-1.261
X34.999 Y33.077 Z-1.22
X35.012 Y33.062 Z-1.171
X35.017 Y33.057 Z-1.12
G0 Z5.
X66.937 Y33.03
Z1.386
G1 Z-1.12 F200.
X66.942 Y33.035 Z-1.171
X66.955 Y33.049 Z-1.22
X66.977 Y33.073 Z-1.261
X67.004 Y33.104 Z-1.293
X67.037 Y33.139 Z-1.313
X67.072 Y33.178 Z-1.32
X67.664 Y33.831
X68.242 Y34.52
X68.733 Y35.153
X69.23 Y35.844
X69.687 Y36.531
X70.124 Y37.246
X70.481 Y37.876
X70.845 Y38.573
X71.161 Y39.231
X71.478 Y39.954
X71.765 Y40.673
X72.06 Y41.503
X72.303 Y42.279
X72.53 Y43.101
X72.708 Y43.854
X72.888 Y44.754
X73.029 Y45.633
X73.142 Y46.559
X73.223 Y47.506
X73.248 Y47.893
X73.251 Y47.945 Z-1.313
X73.254 Y47.993 Z-1.293
X73.257 Y48.034 Z-1.261
X73.259 Y48.066 Z-1.22
X73.26 Y48.086 Z-1.171
Y48.093 Z-1.12
G0 Z5.
X28.674 Y48.105
Z1.404
G1 Z-1.12 F200.
Y48.098 Z-1.171
X28.676 Y48.078 Z-1.22
X28.678 Y48.046 Z-1.261
X28.681 Y48.005 Z-1.293
X28.684 Y47.957 Z-1.313
X28.687 Y47.905 Z-1.32
X28.744 Y47.073
X28.836 Y46.165
X28.96 Y45.263
X29.092 Y44.502
X29.267 Y43.669
X29.47 Y42.844
X29.708 Y42.012
X29.96 Y41.24
X30.242 Y40.472
X30.581 Y39.647
X30.944 Y38.851
X31.322 Y38.103
X31.733 Y37.358
X32.149 Y36.669
X32.571 Y36.02
X33.08 Y35.296
X33.617 Y34.592
X34.166 Y33.929
X34.733 Y33.294
X34.876 Y33.14
X34.912 Y33.102 Z-1.313
X34.945 Y33.067 Z-1.293
X34.973 Y33.037 Z-1.261
X34.994 Y33.014 Z-1.22
X35.008 Y32.999 Z-1.171
X35.013 Y32.994 Z-1.12
G0 Z5.
X66.946 Y32.971
Z1.365
G1 Z-1.12 F200.
X66.951 Y32.976 Z-1.171
X66.964 Y32.99 Z-1.22
X66.986 Y33.014 Z-1.261
X67.013 Y33.045 Z-1.293
X67.046 Y33.08 Z-1.313
X67.081 Y33.118 Z-1.32
X67.649 Y33.742
X68.23 Y34.43
X68.724 Y35.063
X69.224 Y35.752
X69.642 Y36.376
X70.052 Y37.032
X70.504 Y37.819
X70.887 Y38.552
X71.204 Y39.21
X71.521 Y39.935
X71.808 Y40.654
X72.105 Y41.487
X72.348 Y42.263
X72.575 Y43.089
X72.753 Y43.842
X72.934 Y44.746
X73.07 Y45.588
X73.182 Y46.486
X73.265 Y47.425
X73.296 Y47.912
X73.299 Y47.964 Z-1.313
X73.302 Y48.012 Z-1.293
X73.305 Y48.053 Z-1.261
X73.307 Y48.085 Z-1.22
X73.308 Y48.105 Z-1.171
X73.309 Y48.111 Z-1.12
G0 Z5.
X28.626 Y48.122
Z1.384
G1 Z-1.12 F200.
Y48.115 Z-1.171
X28.628 Y48.095 Z-1.22
X28.63 Y48.064 Z-1.261
X28.633 Y48.022 Z-1.293
X28.636 Y47.974 Z-1.313
X28.639 Y47.923 Z-1.32
X28.697 Y47.07
X28.789 Y46.16
X28.913 Y45.257
X29.046 Y44.494
X29.221 Y43.661
X29.424 Y42.832
X29.662 Y41.999
X29.915 Y41.227
X30.219 Y40.401
X30.556 Y39.585
X30.918 Y38.796
X31.28 Y38.081
X31.692 Y37.336
X32.108 Y36.644
X32.53 Y35.995
X33.019 Y35.298
X33.556 Y34.593
X34.025 Y34.022
X34.528 Y33.447
X34.869 Y33.079
X34.904 Y33.041 Z-1.313
X34.937 Y33.006 Z-1.293
X34.965 Y32.975 Z-1.261
X34.986 Y32.952 Z-1.22
X35. Y32.937 Z-1.171
X35.005 Y32.932 Z-1.12
G0 Z5.
X66.955 Y32.912
Z1.343
G1 Z-1.12 F200.
X66.96 Y32.917 Z-1.171
X66.973 Y32.931 Z-1.22
X66.995 Y32.955 Z-1.261
X67.023 Y32.985 Z-1.293
X67.055 Y33.021 Z-1.313
X67.09 Y33.059 Z-1.32
X67.669 Y33.693
X68.241 Y34.369
X68.762 Y35.034
X69.273 Y35.74
X69.766 Y36.48
X70.209 Y37.204
X70.637 Y37.965
X71.048 Y38.77
X71.373 Y39.472
X71.735 Y40.333
X72.01 Y41.069
X72.257 Y41.802
X72.512 Y42.667
X72.714 Y43.453
X72.898 Y44.301
X73.052 Y45.16
X73.178 Y46.041
X73.261 Y46.804
X73.332 Y47.73
X73.344 Y47.929
X73.347 Y47.981 Z-1.313
X73.35 Y48.029 Z-1.293
X73.352 Y48.071 Z-1.261
X73.354 Y48.102 Z-1.22
X73.355 Y48.122 Z-1.171
Y48.129 Z-1.12
G0 Z5.
X28.578 Y48.137
Z1.363
G1 Z-1.12 F200.
X28.579 Y48.13 Z-1.171
X28.58 Y48.111 Z-1.22
X28.582 Y48.079 Z-1.261
X28.585 Y48.037 Z-1.293
X28.588 Y47.989 Z-1.313
X28.591 Y47.938 Z-1.32
X28.65 Y47.068
X28.742 Y46.155
X28.866 Y45.25
X29. Y44.486
X29.192 Y43.577
X29.414 Y42.69
X29.651 Y41.875
X29.895 Y41.14
X30.154 Y40.439
X30.481 Y39.639
X30.841 Y38.847
X31.22 Y38.094
X31.641 Y37.33
X32.068 Y36.619
X32.49 Y35.971
X32.979 Y35.274
X33.506 Y34.581
X34.059 Y33.908
X34.597 Y33.302
X34.858 Y33.022
X34.893 Y32.984 Z-1.313
X34.926 Y32.948 Z-1.293
X34.954 Y32.918 Z-1.261
X34.976 Y32.895 Z-1.22
X34.99 Y32.88 Z-1.171
X34.994 Y32.875 Z-1.12
G0 Z5.
X66.967 Y32.856
Z1.319
G1 Z-1.12 F200.
X66.972 Y32.861 Z-1.171
X66.985 Y32.876 Z-1.22
X67.007 Y32.9 Z-1.261
X67.035 Y32.93 Z-1.293
X67.068 Y32.966 Z-1.313
X67.103 Y33.004 Z-1.32
X67.638 Y33.587
X68.229 Y34.279
X68.753 Y34.944
X69.275 Y35.66
X69.722 Y36.324
X70.132 Y36.981
X70.583 Y37.767
X70.971 Y38.509
X71.289 Y39.169
X71.608 Y39.898
X71.895 Y40.617
X72.181 Y41.418
X72.44 Y42.242
X72.667 Y43.065
X72.845 Y43.818
X73.02 Y44.691
X73.152 Y45.496
X73.259 Y46.322
X73.347 Y47.263
X73.392 Y47.943
X73.395 Y47.995 Z-1.313
X73.398 Y48.043 Z-1.293
X73.401 Y48.084 Z-1.261
X73.403 Y48.116 Z-1.22
X73.404 Y48.136 Z-1.171
X73.405 Y48.143 Z-1.12
G0 Z5.
X28.531 Y48.15
Z1.339
G1 Z-1.12 F200.
Y48.143 Z-1.171
X28.532 Y48.123 Z-1.22
X28.534 Y48.091 Z-1.261
X28.537 Y48.05 Z-1.293
X28.54 Y48.002 Z-1.313
X28.544 Y47.95 Z-1.32
X28.603 Y47.065
X28.695 Y46.15
X28.82 Y45.244
X28.953 Y44.477
X29.145 Y43.568
X29.368 Y42.678
X29.606 Y41.862
X29.875 Y41.054
X30.189 Y40.219
X30.53 Y39.409
X30.9 Y38.618
X31.306 Y37.833
X31.687 Y37.157
X32.11 Y36.464
X32.58 Y35.754
X33.076 Y35.062
X33.549 Y34.45
X34.043 Y33.854
X34.638 Y33.186
X34.844 Y32.968
X34.879 Y32.93 Z-1.313
X34.912 Y32.895 Z-1.293
X34.941 Y32.865 Z-1.261
X34.962 Y32.841 Z-1.22
X34.976 Y32.827 Z-1.171
X34.981 Y32.822 Z-1.12
G0 Z5.
X66.981 Y32.803
Z1.292
G1 Z-1.12 F200.
X66.986 Y32.808 Z-1.171
X66.999 Y32.822 Z-1.22
X67.021 Y32.846 Z-1.261
X67.049 Y32.876 Z-1.293
X67.082 Y32.912 Z-1.313
X67.117 Y32.95 Z-1.32
X67.673 Y33.555
X68.265 Y34.249
X68.793 Y34.918
X69.293 Y35.603
X69.762 Y36.299
X70.172 Y36.955
X70.571 Y37.646
X70.979 Y38.418
X71.331 Y39.148
X71.652 Y39.88
X71.939 Y40.599
X72.201 Y41.328
X72.459 Y42.14
X72.673 Y42.903
X72.857 Y43.655
X73.024 Y44.454
X73.176 Y45.336
X73.297 Y46.24
X73.388 Y47.182
X73.439 Y47.955
X73.443 Y48.006 Z-1.313
X73.446 Y48.055 Z-1.293
X73.449 Y48.096 Z-1.261
X73.451 Y48.128 Z-1.22
X73.452 Y48.147 Z-1.171
Y48.154 Z-1.12
G0 Z5.
X28.483 Y48.16
Z1.313
G1 Z-1.12 F200.
Y48.153 Z-1.171
X28.485 Y48.133 Z-1.22
X28.487 Y48.102 Z-1.261
X28.49 Y48.06 Z-1.293
X28.493 Y48.012 Z-1.313
X28.496 Y47.961 Z-1.32
X28.556 Y47.062
X28.648 Y46.145
X28.773 Y45.238
X28.907 Y44.469
X29.099 Y43.56
X29.322 Y42.666
X29.56 Y41.849
X29.804 Y41.114
X30.065 Y40.407
X30.393 Y39.604
X30.755 Y38.808
X31.118 Y38.085
X31.49 Y37.402
X31.905 Y36.702
X32.323 Y36.05
X32.762 Y35.413
X33.287 Y34.706
X33.827 Y34.035
X34.317 Y33.469
X34.829 Y32.915
X34.864 Y32.877 Z-1.313
X34.897 Y32.841 Z-1.293
X34.925 Y32.811 Z-1.261
X34.946 Y32.787 Z-1.22
X34.96 Y32.773 Z-1.171
X34.965 Y32.768 Z-1.12
G0 Z5.
X66.998 Y32.751
Z1.264
G1 Z-1.12 F200.
X67.002 Y32.756 Z-1.171
X67.016 Y32.771 Z-1.22
X67.038 Y32.794 Z-1.261
X67.066 Y32.825 Z-1.293
X67.098 Y32.86 Z-1.313
X67.133 Y32.899 Z-1.32
X67.725 Y33.542
X68.252 Y34.159
X68.735 Y34.764
X69.264 Y35.48
X69.76 Y36.209
X70.212 Y36.93
X70.612 Y37.622
X71.021 Y38.396
X71.374 Y39.128
X71.695 Y39.861
X71.982 Y40.58
X72.245 Y41.312
X72.509 Y42.142
X72.758 Y43.041
X72.936 Y43.794
X73.113 Y44.674
X73.245 Y45.482
X73.352 Y46.312
X73.441 Y47.255
X73.487 Y47.964
X73.49 Y48.015 Z-1.313
X73.493 Y48.064 Z-1.293
X73.496 Y48.105 Z-1.261
X73.498 Y48.137 Z-1.22
X73.499 Y48.157 Z-1.171
X73.5 Y48.163 Z-1.12
G0 Z5.
X28.436 Y48.168
Z1.285
G1 Z-1.12 F200.
Y48.161 Z-1.171
X28.437 Y48.141 Z-1.22
X28.44 Y48.11 Z-1.261
X28.442 Y48.068 Z-1.293
X28.445 Y48.02 Z-1.313
X28.449 Y47.969 Z-1.32
X28.509 Y47.059
X28.602 Y46.14
X28.726 Y45.232
X28.86 Y44.46
X29.052 Y43.551
X29.272 Y42.673
X29.515 Y41.836
X29.758 Y41.101
X30.021 Y40.39
X30.349 Y39.587
X30.712 Y38.788
X31.076 Y38.063
X31.449 Y37.379
X31.865 Y36.677
X32.282 Y36.025
X32.721 Y35.388
X33.253 Y34.674
X33.811 Y33.981
X34.385 Y33.322
X34.813 Y32.862
X34.848 Y32.825 Z-1.313
X34.881 Y32.789 Z-1.293
X34.909 Y32.759 Z-1.261
X34.931 Y32.736 Z-1.22
X34.945 Y32.721 Z-1.171
X34.949 Y32.716 Z-1.12
G0 Z5.
X67.017 Y32.703
Z1.233
G1 Z-1.12 F200.
X67.021 Y32.708 Z-1.171
X67.035 Y32.723 Z-1.22
X67.057 Y32.746 Z-1.261
X67.085 Y32.776 Z-1.293
X67.117 Y32.812 Z-1.313
X67.152 Y32.85 Z-1.32
X67.743 Y33.491
X68.289 Y34.128
X68.771 Y34.733
X69.302 Y35.452
X69.791 Y36.171
X70.251 Y36.904
X70.653 Y37.599
X71.067 Y38.383
X71.416 Y39.107
X71.739 Y39.843
X72.026 Y40.562
X72.29 Y41.296
X72.554 Y42.126
X72.806 Y43.04
X72.982 Y43.782
X73.159 Y44.666
X73.292 Y45.474
X73.399 Y46.306
X73.488 Y47.252
X73.534 Y47.97
X73.537 Y48.022 Z-1.313
X73.54 Y48.07 Z-1.293
X73.543 Y48.112 Z-1.261
X73.545 Y48.143 Z-1.22
X73.546 Y48.163 Z-1.171
X73.547 Y48.17 Z-1.12
G0 Z5.
X28.388 Y48.174
Z1.255
G1 Z-1.12 F200.
X28.389 Y48.167 Z-1.171
X28.39 Y48.147 Z-1.22
X28.392 Y48.115 Z-1.261
X28.395 Y48.074 Z-1.293
X28.398 Y48.026 Z-1.313
X28.402 Y47.974 Z-1.32
X28.465 Y47.018
X28.56 Y46.09
X28.679 Y45.226
X28.814 Y44.452
X29.006 Y43.543
X29.226 Y42.661
X29.47 Y41.823
X29.713 Y41.088
X29.976 Y40.374
X30.305 Y39.57
X30.669 Y38.769
X31.034 Y38.042
X31.407 Y37.357
X31.824 Y36.652
X32.242 Y36.001
X32.748 Y35.269
X33.236 Y34.618
X33.77 Y33.956
X34.349 Y33.291
X34.796 Y32.812
X34.831 Y32.774 Z-1.313
X34.864 Y32.739 Z-1.293
X34.892 Y32.709 Z-1.261
X34.914 Y32.685 Z-1.22
X34.927 Y32.671 Z-1.171
X34.932 Y32.666 Z-1.12
G0 Z5.
X67.037 Y32.657
Z1.199
G1 Z-1.12 F200.
X67.042 Y32.662 Z-1.171
X67.055 Y32.676 Z-1.22
X67.077 Y32.7 Z-1.261
X67.105 Y32.73 Z-1.293
X67.138 Y32.765 Z-1.313
X67.173 Y32.803 Z-1.32
X67.675 Y33.343
X68.226 Y33.979
X68.713 Y34.581
X69.25 Y35.297
X69.713 Y35.965
X70.13 Y36.614
X70.541 Y37.305
X70.914 Y37.984
X71.26 Y38.667
X71.586 Y39.369
X71.9 Y40.111
X72.18 Y40.842
X72.461 Y41.666
X72.718 Y42.527
X72.942 Y43.393
X73.143 Y44.326
X73.291 Y45.161
X73.415 Y46.042
X73.509 Y46.939
X73.579 Y47.923
X73.581 Y47.975
X73.584 Y48.026 Z-1.313
X73.586 Y48.074 Z-1.293
X73.588 Y48.116 Z-1.261
X73.59 Y48.148 Z-1.22
X73.591 Y48.168 Z-1.171
Y48.174 Z-1.12
G0 Z5.
X28.341 Y48.177
Z1.222
G1 Z-1.12 F200.
X28.342 Y48.17 Z-1.171
X28.343 Y48.15 Z-1.22
X28.345 Y48.118 Z-1.261
X28.348 Y48.077 Z-1.293
X28.351 Y48.029 Z-1.313
X28.354 Y47.977 Z-1.32
X28.415 Y47.054
X28.508 Y46.129
X28.633 Y45.22
X28.768 Y44.443
X28.959 Y43.534
X29.18 Y42.65
X29.424 Y41.81
X29.667 Y41.075
X29.932 Y40.358
X30.261 Y39.552
X30.626 Y38.749
X30.956 Y38.089
X31.366 Y37.334
X31.784 Y36.628
X32.201 Y35.976
X32.708 Y35.244
X33.242 Y34.532
X33.779 Y33.872
X34.314 Y33.26
X34.777 Y32.763
X34.812 Y32.726 Z-1.313
X34.845 Y32.69 Z-1.293
X34.873 Y32.66 Z-1.261
X34.895 Y32.637 Z-1.22
X34.908 Y32.622 Z-1.171
X34.913 Y32.617 Z-1.12
G0 Z5.
X67.057 Y32.609
Z1.163
G1 Z-1.12 F200.
X67.061 Y32.614 Z-1.171
X67.075 Y32.629 Z-1.22
X67.097 Y32.652 Z-1.261
X67.125 Y32.682 Z-1.293
X67.158 Y32.718 Z-1.313
X67.193 Y32.755 Z-1.32
X67.71 Y33.311
X68.262 Y33.949
X68.75 Y34.55
X69.288 Y35.269
X69.75 Y35.937
X70.17 Y36.588
X70.582 Y37.282
X70.955 Y37.96
X71.337 Y38.716
X71.629 Y39.348
X71.944 Y40.092
X72.224 Y40.825
X72.506 Y41.649
X72.764 Y42.514
X72.988 Y43.381
X73.189 Y44.317
X73.338 Y45.154
X73.464 Y46.049
X73.556 Y46.935
X73.626 Y47.921
X73.628 Y47.976
X73.631 Y48.028 Z-1.313
X73.633 Y48.076 Z-1.293
X73.635 Y48.118 Z-1.261
X73.637 Y48.149 Z-1.22
X73.638 Y48.169 Z-1.171
Y48.176 Z-1.12
G0 Z5.
X28.294 Y48.178
Z1.187
G1 Z-1.12 F200.
X28.295 Y48.172 Z-1.171
X28.296 Y48.152 Z-1.22
X28.298 Y48.12 Z-1.261
X28.301 Y48.079 Z-1.293
X28.304 Y48.03 Z-1.313
X28.307 Y47.979 Z-1.32
X28.368 Y47.051
X28.461 Y46.124
X28.586 Y45.214
X28.721 Y44.435
X28.913 Y43.526
X29.124 Y42.675
X29.333 Y41.945
X29.571 Y41.209
X29.832 Y40.486
X30.156 Y39.677
X30.484 Y38.94
X30.823 Y38.244
X31.248 Y37.446
X31.637 Y36.777
X32.076 Y36.081
X32.51 Y35.44
X32.966 Y34.815
X33.516 Y34.115
X34.072 Y33.46
X34.665 Y32.812
X34.755 Y32.717
X34.791 Y32.68 Z-1.313
X34.824 Y32.645 Z-1.293
X34.853 Y32.615 Z-1.261
X34.875 Y32.592 Z-1.22
X34.889 Y32.578 Z-1.171
X34.893 Y32.573 Z-1.12
G0 Z5.
X67.078 Y32.563
Z1.124
G1 Z-1.12 F200.
X67.083 Y32.568 Z-1.171
X67.097 Y32.583 Z-1.22
X67.118 Y32.606 Z-1.261
X67.147 Y32.636 Z-1.293
X67.179 Y32.672 Z-1.313
X67.215 Y32.709 Z-1.32
X67.745 Y33.279
X68.299 Y33.919
X68.786 Y34.52
X69.303 Y35.209
X69.788 Y35.909
X70.21 Y36.563
X70.623 Y37.258
X70.996 Y37.936
X71.345 Y38.625
X71.671 Y39.327
X71.987 Y40.074
X72.268 Y40.809
X72.55 Y41.633
X72.809 Y42.501
X73.034 Y43.369
X73.236 Y44.308
X73.39 Y45.184
X73.513 Y46.066
X73.603 Y46.932
X73.673 Y47.919
X73.675 Y47.977
X73.678 Y48.029 Z-1.313
X73.68 Y48.077 Z-1.293
X73.683 Y48.118 Z-1.261
X73.684 Y48.15 Z-1.22
X73.685 Y48.17 Z-1.171
Y48.177 Z-1.12
G0 Z5.
X28.247
Z1.148
G1 Z-1.12 F200.
X28.248 Y48.17 Z-1.171
X28.249 Y48.15 Z-1.22
X28.251 Y48.118 Z-1.261
X28.254 Y48.077 Z-1.293
X28.257 Y48.029 Z-1.313
X28.26 Y47.977 Z-1.32
X28.321 Y47.049
X28.414 Y46.119
X28.539 Y45.207
X28.675 Y44.426
X28.866 Y43.517
X29.079 Y42.663
X29.288 Y41.932
X29.526 Y41.196
X29.788 Y40.47
X30.112 Y39.66
X30.441 Y38.92
X30.78 Y38.224
X31.207 Y37.424
X31.596 Y36.755
X32.035 Y36.056
X32.47 Y35.415
X32.925 Y34.79
X33.402 Y34.18
X33.949 Y33.528
X34.524 Y32.892
X34.732 Y32.673
X34.768 Y32.636 Z-1.313
X34.801 Y32.601 Z-1.293
X34.829 Y32.571 Z-1.261
X34.851 Y32.548 Z-1.22
X34.865 Y32.533 Z-1.171
X34.87 Y32.528 Z-1.12
G0 Z5.
X67.102 Y32.52
Z1.082
G1 Z-1.12 F200.
X67.107 Y32.525 Z-1.171
X67.121 Y32.539 Z-1.22
X67.142 Y32.563 Z-1.261
X67.171 Y32.593 Z-1.293
X67.203 Y32.628 Z-1.313
X67.239 Y32.666 Z-1.32
X67.78 Y33.247
X68.335 Y33.888
X68.822 Y34.49
X69.341 Y35.181
X69.826 Y35.88
X70.249 Y36.537
X70.664 Y37.234
X71.037 Y37.913
X71.388 Y38.605
X71.714 Y39.307
X72.031 Y40.055
X72.313 Y40.793
X72.588 Y41.598
X72.834 Y42.414
X73.061 Y43.282
X73.236 Y44.071
X73.385 Y44.861
X73.521 Y45.751
X73.627 Y46.677
X73.697 Y47.545
X73.722 Y47.975
X73.725 Y48.027 Z-1.313
X73.728 Y48.075 Z-1.293
X73.731 Y48.116 Z-1.261
X73.733 Y48.148 Z-1.22
X73.734 Y48.168 Z-1.171
Y48.175 Z-1.12
G0 Z5.
X28.2 Y48.174
Z1.107
G1 Z-1.12 F200.
X28.201 Y48.167 Z-1.171
X28.202 Y48.147 Z-1.22
X28.204 Y48.115 Z-1.261
X28.207 Y48.074 Z-1.293
X28.21 Y48.026 Z-1.313
X28.213 Y47.974 Z-1.32
X28.274 Y47.046
X28.368 Y46.114
X28.492 Y45.201
X28.628 Y44.418
X28.82 Y43.509
X29.033 Y42.652
X29.242 Y41.919
X29.48 Y41.182
X29.743 Y40.454
X30.068 Y39.643
X30.398 Y38.901
X30.737 Y38.205
X31.165 Y37.401
X31.554 Y36.732
X31.995 Y36.031
X32.429 Y35.391
X32.885 Y34.765
X33.41 Y34.095
X33.959 Y33.444
X34.489 Y32.86
X34.707 Y32.631
X34.743 Y32.593 Z-1.313
X34.776 Y32.558 Z-1.293
X34.804 Y32.528 Z-1.261
X34.826 Y32.505 Z-1.22
X34.84 Y32.491 Z-1.171
X34.845 Y32.486 Z-1.12
G0 Z5.
X67.128 Y32.478
Z1.035
G1 Z-1.12 F200.
X67.133 Y32.483 Z-1.171
X67.146 Y32.498 Z-1.22
X67.168 Y32.521 Z-1.261
X67.196 Y32.551 Z-1.293
X67.229 Y32.587 Z-1.313
X67.264 Y32.625 Z-1.32
X67.815 Y33.215
X68.372 Y33.858
X68.859 Y34.459
X69.379 Y35.152
X69.864 Y35.852
X70.289 Y36.511
X70.705 Y37.211
X71.078 Y37.889
X71.43 Y38.584
X71.756 Y39.286
X72.074 Y40.037
X72.357 Y40.777
X72.633 Y41.582
X72.879 Y42.401
X73.107 Y43.27
X73.311 Y44.204
X73.453 Y44.979
X73.582 Y45.859
X73.683 Y46.77
X73.754 Y47.696
X73.769 Y47.971
X73.772 Y48.023 Z-1.313
X73.775 Y48.071 Z-1.293
X73.777 Y48.112 Z-1.261
X73.779 Y48.144 Z-1.22
X73.78 Y48.164 Z-1.171
Y48.171 Z-1.12
G0 Z5.
X28.153 Y48.168
Z1.061
G1 Z-1.12 F200.
X28.154 Y48.161 Z-1.171
X28.155 Y48.141 Z-1.22
X28.157 Y48.11 Z-1.261
X28.16 Y48.068 Z-1.293
X28.163 Y48.02 Z-1.313
X28.167 Y47.969 Z-1.32
X28.23 Y47.005
X28.326 Y46.065
X28.445 Y45.195
X28.582 Y44.409
X28.773 Y43.5
X28.987 Y42.64
X29.197 Y41.906
X29.435 Y41.169
X29.699 Y40.437
X30.024 Y39.625
X30.355 Y38.881
X30.694 Y38.185
X31.124 Y37.378
X31.513 Y36.709
X31.954 Y36.007
X32.389 Y35.366
X32.844 Y34.74
X33.369 Y34.07
X33.918 Y33.419
X34.454 Y32.828
X34.681 Y32.589
X34.717 Y32.551 Z-1.313
X34.75 Y32.517 Z-1.293
X34.779 Y32.487 Z-1.261
X34.801 Y32.463 Z-1.22
X34.814 Y32.449 Z-1.171
X34.819 Y32.444 Z-1.12
G0 Z5.
X67.155 Y32.438
Z0.985
G1 Z-1.12 F200.
X67.159 Y32.443 Z-1.171
X67.173 Y32.457 Z-1.22
X67.195 Y32.48 Z-1.261
X67.223 Y32.511 Z-1.293
X67.256 Y32.546 Z-1.313
X67.291 Y32.584 Z-1.32
X67.85 Y33.183
X68.408 Y33.828
X68.895 Y34.429
X69.417 Y35.124
X69.902 Y35.823
X70.329 Y36.486
X70.746 Y37.187
X71.119 Y37.865
X71.473 Y38.564
X71.799 Y39.266
X72.118 Y40.018
X72.402 Y40.76
X72.677 Y41.566
X72.924 Y42.388
X73.153 Y43.258
X73.355 Y44.184
X73.499 Y44.971
X73.629 Y45.852
X73.73 Y46.766
X73.801 Y47.692
X73.816 Y47.964
X73.819 Y48.016 Z-1.313
X73.822 Y48.064 Z-1.293
X73.824 Y48.105 Z-1.261
X73.826 Y48.137 Z-1.22
X73.827 Y48.157 Z-1.171
Y48.164 Z-1.12
G0 Z5.
X28.107 Y48.16
Z1.011
G1 Z-1.12 F200.
Y48.154 Z-1.171
X28.109 Y48.134 Z-1.22
X28.111 Y48.102 Z-1.261
X28.113 Y48.061 Z-1.293
X28.116 Y48.012 Z-1.313
X28.12 Y47.961 Z-1.32
X28.183 Y47.002
X28.279 Y46.06
X28.399 Y45.189
X28.536 Y44.401
X28.727 Y43.492
X28.941 Y42.628
X29.174 Y41.819
X29.44 Y41.01
X29.71 Y40.276
X30.041 Y39.465
X30.377 Y38.721
X30.746 Y37.981
X31.158 Y37.221
X31.582 Y36.505
X31.999 Y35.853
X32.505 Y35.121
X33.039 Y34.408
X33.575 Y33.747
X34.135 Y33.104
X34.655 Y32.548
X34.69 Y32.51 Z-1.313
X34.723 Y32.475 Z-1.293
X34.751 Y32.445 Z-1.261
X34.773 Y32.422 Z-1.22
X34.787 Y32.407 Z-1.171
X34.791 Y32.402 Z-1.12
G0 Z5.
X67.294 Y32.519
Z0.923
G1 Z-3.193 F200.
X67.297 Y32.522 Z-3.211
X67.306 Y32.531 Z-3.224
X67.319 Y32.544 Z-3.228
X67.325 Y32.551
X67.327 Y32.553 Z-1.32
X67.885 Y33.152
X68.444 Y33.797
X68.932 Y34.399
X69.454 Y35.095
X69.94 Y35.795
X70.369 Y36.46
X70.787 Y37.163
X71.16 Y37.842
X71.516 Y38.543
X71.841 Y39.245
X72.161 Y40.
X72.446 Y40.744
X72.722 Y41.55
X72.98 Y42.412
X73.198 Y43.246
X73.398 Y44.156
X73.546 Y44.964
X73.676 Y45.844
X73.777 Y46.762
X73.848 Y47.688
X73.863 Y47.955
X73.865 Y48.007 Z-1.313
X73.868 Y48.055 Z-1.293
X73.87 Y48.096 Z-1.261
X73.872 Y48.128 Z-1.22
X73.873 Y48.148 Z-1.171
X73.874 Y48.155 Z-1.12
G0 Z5.
X28.06 Y48.15
Z0.956
G1 Z-1.12 F200.
X28.061 Y48.143 Z-1.171
X28.062 Y48.123 Z-1.22
X28.064 Y48.092 Z-1.261
X28.067 Y48.05 Z-1.293
X28.07 Y48.002 Z-1.313
X28.073 Y47.951 Z-1.32
X28.133 Y47.038
X28.227 Y46.098
X28.352 Y45.183
X28.489 Y44.392
X28.68 Y43.483
X28.896 Y42.616
X29.106 Y41.88
X29.344 Y41.143
X29.61 Y40.405
X29.936 Y39.591
X30.269 Y38.842
X30.607 Y38.146
X30.966 Y37.468
X31.35 Y36.797
X31.789 Y36.087
X32.263 Y35.38
X32.763 Y34.691
X33.287 Y34.02
X33.836 Y33.369
X34.384 Y32.764
X34.621 Y32.515
X34.624 Y32.512 Z-3.228
X34.627 Y32.508
X34.663 Y32.471 Z-3.222
X34.697 Y32.436 Z-3.202
X34.726 Y32.407 Z-3.17
X34.748 Y32.384 Z-3.128
X34.762 Y32.369 Z-3.08
X34.766 Y32.365 Z-3.028
G0 Z5.
X67.16 Y32.312
Z0.914
G1 Z-3.041 F200.
X67.165 Y32.317 Z-3.095
X67.18 Y32.333 Z-3.145
X67.204 Y32.358 Z-3.188
X67.236 Y32.39 Z-3.219
X67.272 Y32.427 Z-3.237
X67.31 Y32.467 Z-3.24
X67.347 Y32.505 Z-3.228
X67.353 Y32.511 Z-3.225
X67.355 Y32.514 Z-1.32
X67.92 Y33.12
X68.481 Y33.767
X68.968 Y34.368
X69.492 Y35.067
X69.978 Y35.766
X70.409 Y36.435
X70.828 Y37.14
X71.201 Y37.818
X71.558 Y38.522
X71.884 Y39.224
X72.204 Y39.981
X72.49 Y40.728
X72.766 Y41.533
X73.026 Y42.399
X73.257 Y43.29
X73.452 Y44.184
X73.592 Y44.957
X73.717 Y45.799
X73.809 Y46.604
X73.885 Y47.53
X73.909 Y47.944
X73.912 Y47.995 Z-1.313
X73.915 Y48.043 Z-1.293
X73.917 Y48.085 Z-1.261
X73.919 Y48.117 Z-1.22
X73.92 Y48.137 Z-1.171
X73.921 Y48.143 Z-1.12
G0 Z5.
X28.018 Y48.127
Z0.919
G1 Z-3.039 F200.
Y48.121 Z-3.088
X28.019 Y48.102 Z-3.134
X28.02 Y48.072 Z-3.173
X28.022 Y48.032 Z-3.203
X28.025 Y47.987 Z-3.222
X28.027 Y47.938 Z-3.228
Y47.929
Z-1.32
X28.086 Y47.035
X28.18 Y46.093
X28.305 Y45.177
X28.457 Y44.308
X28.651 Y43.399
X28.87 Y42.53
X29.106 Y41.719
X29.374 Y40.911
X29.678 Y40.1
X30.015 Y39.289
X30.358 Y38.543
X30.733 Y37.8
X31.152 Y37.041
X31.583 Y36.324
X32.004 Y35.675
X32.447 Y35.04
X32.957 Y34.359
X33.493 Y33.697
X34.064 Y33.042
X34.592 Y32.477
Z-3.228
X34.599 Y32.469
X34.635 Y32.432 Z-3.222
X34.669 Y32.397 Z-3.202
X34.697 Y32.368 Z-3.17
X34.719 Y32.345 Z-3.128
X34.733 Y32.33 Z-3.08
X34.738 Y32.326 Z-3.028
G0 Z5.
X67.237 Y32.323
Z0.888
G1 Z-3.028 F200.
X67.242 Y32.328 Z-3.08
X67.255 Y32.343 Z-3.128
X67.278 Y32.365 Z-3.17
X67.306 Y32.395 Z-3.202
X67.34 Y32.43 Z-3.222
X67.376 Y32.467 Z-3.228
X67.382 Y32.474
X67.383 Z-1.32
X67.955 Y33.088
X68.517 Y33.737
X69.004 Y34.338
X69.53 Y35.039
X70.016 Y35.738
X70.448 Y36.409
X70.869 Y37.116
X71.242 Y37.794
X71.601 Y38.502
X71.927 Y39.204
X72.248 Y39.963
X72.535 Y40.712
X72.81 Y41.517
X73.071 Y42.386
X73.303 Y43.278
X73.498 Y44.174
X73.639 Y44.949
X73.764 Y45.791
X73.856 Y46.6
X73.932 Y47.526
X73.955 Y47.921
Z-3.228
X73.956 Y47.931
X73.958 Y47.983 Z-3.222
X73.961 Y48.031 Z-3.202
X73.963 Y48.072 Z-3.17
X73.964 Y48.104 Z-3.128
X73.965 Y48.124 Z-3.08
Y48.131 Z-3.028
G0 Z5.
X27.971 Y48.124
Z0.897
G1 Z-3.028 F200.
Y48.117 Z-3.08
X27.972 Y48.097 Z-3.128
X27.974 Y48.065 Z-3.17
X27.976 Y48.024 Z-3.202
X27.978 Y47.976 Z-3.222
X27.981 Y47.924 Z-3.228
Y47.914
Y47.909 Z-1.32
X28.039 Y47.032
X28.133 Y46.088
X28.258 Y45.171
X28.396 Y44.375
X28.587 Y43.466
X28.784 Y42.668
X29.015 Y41.854
X29.253 Y41.117
X29.521 Y40.372
X29.849 Y39.556
X30.183 Y38.803
X30.521 Y38.107
X30.883 Y37.423
X31.267 Y36.751
X31.708 Y36.038
X32.182 Y35.331
X32.682 Y34.641
X33.206 Y33.97
X33.754 Y33.319
X34.314 Y32.7
X34.562 Y32.44
Z-3.228
X34.568 Y32.433
X34.604 Y32.396 Z-3.222
X34.638 Y32.361 Z-3.202
X34.667 Y32.331 Z-3.17
X34.689 Y32.308 Z-3.128
X34.703 Y32.294 Z-3.08
X34.707 Y32.289 Z-3.028
G0 Z5.
X67.268 Y32.287
Z0.864
G1 Z-3.028 F200.
X67.272 Y32.292 Z-3.08
X67.286 Y32.306 Z-3.128
X67.308 Y32.329 Z-3.17
X67.337 Y32.359 Z-3.202
X67.371 Y32.393 Z-3.222
X67.407 Y32.431 Z-3.228
X67.413 Y32.437
Z-1.32
X67.99 Y33.056
X68.554 Y33.706
X69.041 Y34.308
X69.568 Y35.01
X70.054 Y35.709
X70.488 Y36.383
X70.91 Y37.092
X71.283 Y37.771
X71.643 Y38.481
X71.969 Y39.183
X72.291 Y39.944
X72.579 Y40.695
X72.831 Y41.427
X73.063 Y42.187
X73.298 Y43.06
X73.481 Y43.861
X73.637 Y44.658
X73.779 Y45.554
X73.893 Y46.495
X73.968 Y47.368
X74.001 Y47.905
Y47.906 Z-3.228
X74.002 Y47.915
X74.004 Y47.966 Z-3.222
X74.007 Y48.015 Z-3.202
X74.009 Y48.056 Z-3.17
X74.011 Y48.088 Z-3.128
X74.012 Y48.108 Z-3.08
Y48.114 Z-3.028
G0 Z5.
X27.924 Y48.106
Z0.872
G1 Z-3.028 F200.
X27.925 Y48.099 Z-3.08
X27.926 Y48.079 Z-3.128
X27.927 Y48.047 Z-3.17
X27.929 Y48.006 Z-3.202
X27.932 Y47.958 Z-3.222
X27.934 Y47.906 Z-3.228
X27.935 Y47.897
Y47.893 Z-1.32
X27.992 Y47.03
X28.087 Y46.083
X28.212 Y45.164
X28.35 Y44.367
X28.541 Y43.458
X28.739 Y42.656
X28.97 Y41.841
X29.207 Y41.104
X29.477 Y40.356
X29.816 Y39.512
X30.139 Y38.783
X30.478 Y38.087
X30.841 Y37.401
X31.225 Y36.729
X31.668 Y36.013
X32.142 Y35.306
X32.641 Y34.616
X33.165 Y33.945
X33.713 Y33.294
X34.279 Y32.668
X34.53 Y32.405
X34.531 Y32.404 Z-3.228
X34.536 Y32.398
X34.572 Y32.361 Z-3.222
X34.605 Y32.326 Z-3.202
X34.634 Y32.297 Z-3.17
X34.656 Y32.274 Z-3.128
X34.67 Y32.259 Z-3.08
X34.675 Y32.255 Z-3.028
G0 Z5.
X67.3 Y32.252
Z0.837
G1 Z-3.028 F200.
X67.305 Y32.257 Z-3.08
X67.319 Y32.272 Z-3.128
X67.341 Y32.294 Z-3.17
X67.37 Y32.324 Z-3.202
X67.403 Y32.359 Z-3.222
X67.439 Y32.396 Z-3.228
X67.445 Y32.402
Y32.403 Z-1.32
X68.025 Y33.024
X68.59 Y33.676
X69.077 Y34.277
X69.606 Y34.982
X70.092 Y35.681
X70.528 Y36.358
X70.989 Y37.136
X71.396 Y37.884
X71.786 Y38.67
X72.13 Y39.435
X72.449 Y40.214
X72.727 Y40.971
X72.992 Y41.78
X73.233 Y42.621
X73.417 Y43.349
X73.62 Y44.307
X73.769 Y45.164
X73.891 Y46.048
X73.978 Y46.901
X74.047 Y47.886
Z-3.228
X74.048 Y47.896
X74.051 Y47.948 Z-3.222
X74.053 Y47.996 Z-3.202
X74.055 Y48.037 Z-3.17
X74.057 Y48.069 Z-3.128
X74.058 Y48.089 Z-3.08
Y48.096 Z-3.028
G0 Z5.
X27.878 Y48.087
Z0.845
G1 Z-3.028 F200.
Y48.08 Z-3.08
X27.879 Y48.06 Z-3.128
X27.881 Y48.028 Z-3.17
X27.883 Y47.987 Z-3.202
X27.886 Y47.939 Z-3.222
X27.888 Y47.887 Z-3.228
X27.889 Y47.877
Y47.873 Z-1.32
X27.945 Y47.027
X28.04 Y46.078
X28.165 Y45.158
X28.304 Y44.358
X28.495 Y43.449
X28.693 Y42.644
X28.925 Y41.828
X29.187 Y41.018
X29.488 Y40.195
X29.821 Y39.379
X30.162 Y38.624
X30.535 Y37.873
X30.951 Y37.108
X31.4 Y36.349
X31.883 Y35.601
X32.325 Y34.966
X32.835 Y34.284
X33.37 Y33.622
X33.957 Y32.948
X34.496 Y32.371
X34.498 Y32.37 Z-3.228
X34.503 Y32.365
X34.539 Y32.327 Z-3.222
X34.572 Y32.293 Z-3.202
X34.601 Y32.263 Z-3.17
X34.623 Y32.24 Z-3.128
X34.637 Y32.226 Z-3.08
X34.642 Y32.221 Z-3.028
G0 Z5.
X67.333 Y32.218
Z0.809
G1 Z-3.028 F200.
X67.337 Y32.223 Z-3.08
X67.351 Y32.237 Z-3.128
X67.373 Y32.26 Z-3.17
X67.402 Y32.29 Z-3.202
X67.436 Y32.324 Z-3.222
X67.472 Y32.361 Z-3.228
X67.478 Y32.368
Z-1.32
X68.06 Y32.992
X68.626 Y33.646
X69.114 Y34.247
X69.655 Y34.969
X70.13 Y35.652
X70.568 Y36.332
X71.03 Y37.112
X71.437 Y37.86
X71.829 Y38.649
X72.173 Y39.417
X72.492 Y40.195
X72.771 Y40.955
X73.045 Y41.791
X73.293 Y42.663
X73.494 Y43.473
X73.692 Y44.432
X73.845 Y45.348
X73.961 Y46.244
X74.05 Y47.206
X74.093 Y47.865
Z-3.228
X74.094 Y47.875
X74.097 Y47.926 Z-3.222
X74.099 Y47.975 Z-3.202
X74.101 Y48.016 Z-3.17
X74.103 Y48.048 Z-3.128
X74.104 Y48.068 Z-3.08
Y48.074 Z-3.028
G0 Z5.
X27.832 Y48.064
Z0.816
G1 Z-3.028 F200.
Y48.057 Z-3.08
X27.833 Y48.037 Z-3.128
X27.835 Y48.006 Z-3.17
X27.837 Y47.964 Z-3.202
X27.84 Y47.916 Z-3.222
X27.842 Y47.865 Z-3.228
X27.843 Y47.854
Z-1.32
X27.898 Y47.024
X27.993 Y46.072
X28.118 Y45.152
X28.257 Y44.35
X28.448 Y43.441
X28.647 Y42.632
X28.879 Y41.815
X29.116 Y41.078
X29.388 Y40.323
X29.717 Y39.504
X30.053 Y38.744
X30.392 Y38.048
X30.758 Y37.355
X31.142 Y36.683
X31.587 Y35.964
X32.017 Y35.32
X32.536 Y34.598
X33.083 Y33.896
X33.631 Y33.244
X34.209 Y32.604
X34.461 Y32.339 Z-1.321
X34.463 Y32.338 Z-3.228
X34.468 Y32.332
X34.504 Y32.295 Z-3.222
X34.537 Y32.261 Z-3.202
X34.566 Y32.231 Z-3.17
X34.588 Y32.208 Z-3.128
X34.602 Y32.194 Z-3.08
X34.607 Y32.189 Z-3.028
G0 Z5.
X67.365 Y32.183
Z0.778
G1 Z-3.028 F200.
X67.37 Y32.188 Z-3.08
X67.384 Y32.202 Z-3.128
X67.406 Y32.225 Z-3.17
X67.435 Y32.255 Z-3.202
X67.468 Y32.29 Z-3.222
X67.504 Y32.327 Z-3.228
X67.511 Y32.334
X67.513 Y32.336 Z-1.32
X68.095 Y32.96
X68.663 Y33.615
X69.15 Y34.217
X69.694 Y34.943
X70.168 Y35.624
X70.607 Y36.306
X71.071 Y37.089
X71.478 Y37.837
X71.871 Y38.629
X72.217 Y39.398
X72.536 Y40.177
X72.841 Y41.011
X73.103 Y41.821
X73.348 Y42.687
X73.542 Y43.476
X73.74 Y44.433
X73.893 Y45.35
X74.014 Y46.292
X74.097 Y47.202
X74.139 Y47.841
Y47.843 Z-3.228
X74.14 Y47.851
X74.142 Y47.903 Z-3.222
X74.145 Y47.951 Z-3.202
X74.147 Y47.992 Z-3.17
X74.149 Y48.024 Z-3.128
X74.15 Y48.044 Z-3.08
Y48.051 Z-3.028
G0 Z5.
X27.786 Y48.039
Z0.784
G1 Z-3.028 F200.
Y48.032 Z-3.08
X27.787 Y48.012 Z-3.128
X27.789 Y47.981 Z-3.17
X27.791 Y47.939 Z-3.202
X27.794 Y47.891 Z-3.222
X27.797 Y47.84 Z-3.228
Y47.828
Z-1.32
X27.851 Y47.021
X27.946 Y46.067
X28.074 Y45.127
X28.211 Y44.341
X28.402 Y43.432
X28.601 Y42.621
X28.834 Y41.802
X29.071 Y41.065
X29.344 Y40.307
X29.673 Y39.486
X30.01 Y38.725
X30.349 Y38.029
X30.717 Y37.333
X31.101 Y36.661
X31.547 Y35.939
X31.976 Y35.296
X32.473 Y34.604
X33.018 Y33.901
X33.59 Y33.219
X34.174 Y32.572
X34.425 Y32.308 Z-1.323
Z-3.228
X34.432 Y32.301
X34.468 Y32.264 Z-3.222
X34.501 Y32.229 Z-3.202
X34.53 Y32.2 Z-3.17
X34.552 Y32.177 Z-3.128
X34.566 Y32.162 Z-3.08
X34.571 Y32.158 Z-3.028
G0 Z5.
X67.399 Y32.15
Z0.744
G1 Z-3.028 F200.
X67.404 Y32.155 Z-3.08
X67.418 Y32.17 Z-3.128
X67.44 Y32.192 Z-3.17
X67.469 Y32.222 Z-3.202
X67.502 Y32.257 Z-3.222
X67.538 Y32.294 Z-3.228
X67.545 Y32.301
X67.547 Y32.303 Z-1.32
X68.13 Y32.928
X68.699 Y33.585
X69.186 Y34.186
X69.731 Y34.912
X70.205 Y35.596
X70.647 Y36.281
X71.112 Y37.065
X71.519 Y37.813
X71.914 Y38.608
X72.261 Y39.38
X72.579 Y40.158
X72.886 Y40.995
X73.148 Y41.805
X73.385 Y42.639
X73.554 Y43.313
X73.751 Y44.239
X73.897 Y45.065
X74.016 Y45.908
X74.105 Y46.736
X74.176 Y47.662
X74.185 Y47.814
Z-3.228
Y47.825
X74.188 Y47.877 Z-3.222
X74.191 Y47.925 Z-3.202
X74.193 Y47.966 Z-3.17
X74.195 Y47.998 Z-3.128
X74.196 Y48.018 Z-3.08
Y48.025 Z-3.028
G0 Z5.
X27.74 Y48.01
Z0.749
G1 Z-3.028 F200.
X27.741 Y48.003 Z-3.08
X27.742 Y47.983 Z-3.128
X27.744 Y47.951 Z-3.17
X27.746 Y47.91 Z-3.202
X27.748 Y47.862 Z-3.222
X27.751 Y47.81 Z-3.228
X27.752 Y47.8
Y47.797 Z-1.32
X27.817 Y46.864
X27.918 Y45.905
X28.049 Y44.987
X28.194 Y44.181
X28.39 Y43.273
X28.616 Y42.385
X28.871 Y41.521
X29.153 Y40.687
X29.467 Y39.863
X29.814 Y39.043
X30.167 Y38.286
X30.553 Y37.534
X30.98 Y36.771
X31.444 Y36.013
X31.936 Y35.271
X32.432 Y34.579
X32.953 Y33.906
X33.498 Y33.252
X34.034 Y32.653
X34.389 Y32.277 Z-1.321
X34.39 Z-3.228
X34.396 Y32.27
X34.432 Y32.233 Z-3.222
X34.466 Y32.198 Z-3.202
X34.494 Y32.168 Z-3.17
X34.516 Y32.146 Z-3.128
X34.53 Y32.131 Z-3.08
X34.535 Y32.126 Z-3.028
G0 Z5.
X67.434 Y32.118
Z0.713
G1 Z-3.028 F200.
X67.439 Y32.123 Z-3.08
X67.453 Y32.138 Z-3.128
X67.475 Y32.16 Z-3.17
X67.504 Y32.19 Z-3.202
X67.537 Y32.225 Z-3.222
X67.573 Y32.262 Z-3.228
X67.579 Y32.268
X67.581 Y32.27 Z-1.32
X68.165 Y32.896
X68.736 Y33.555
X69.223 Y34.156
X69.757 Y34.868
X70.243 Y35.567
X70.728 Y36.321
X71.191 Y37.109
X71.588 Y37.844
X71.956 Y38.587
X72.304 Y39.362
X72.623 Y40.139
X72.93 Y40.979
X73.192 Y41.789
X73.43 Y42.628
X73.599 Y43.301
X73.803 Y44.258
X73.943 Y45.058
X74.053 Y45.824
X74.152 Y46.732
X74.227 Y47.73
X74.23 Y47.784
Z-3.228
X74.231 Y47.795
X74.234 Y47.847 Z-3.222
X74.236 Y47.895 Z-3.202
X74.239 Y47.936 Z-3.17
X74.24 Y47.968 Z-3.128
X74.241 Y47.988 Z-3.08
X74.242 Y47.995 Z-3.028
G0 Z5.
X27.695 Y47.979
Z0.711
G1 Z-3.028 F200.
Y47.972 Z-3.08
X27.696 Y47.952 Z-3.128
X27.698 Y47.92 Z-3.17
X27.7 Y47.879 Z-3.202
X27.703 Y47.831 Z-3.222
X27.706 Y47.779 Z-3.228
Y47.767
X27.707 Y47.764 Z-1.32
X27.77 Y46.862
X27.871 Y45.9
X28.002 Y44.981
X28.147 Y44.172
X28.344 Y43.264
X28.57 Y42.373
X28.826 Y41.508
X29.108 Y40.674
X29.423 Y39.845
X29.77 Y39.026
X30.124 Y38.267
X30.511 Y37.513
X30.939 Y36.749
X31.382 Y36.021
X31.873 Y35.278
X32.391 Y34.555
X32.912 Y33.881
X33.407 Y33.286
X33.999 Y32.621
X34.354 Y32.246 Z-1.321
Y32.245 Z-3.228
X34.36 Y32.239
X34.396 Y32.202 Z-3.222
X34.43 Y32.167 Z-3.202
X34.459 Y32.137 Z-3.17
X34.481 Y32.114 Z-3.128
X34.495 Y32.1 Z-3.08
X34.499 Y32.095 Z-3.028
G0 Z5.
X67.468 Y32.085
Z0.731
G1 Z-3.028 F200.
X67.473 Y32.09 Z-3.08
X67.487 Y32.105 Z-3.128
X67.509 Y32.128 Z-3.17
X67.538 Y32.157 Z-3.202
X67.571 Y32.192 Z-3.222
X67.607 Y32.229 Z-3.228
X67.614 Y32.236
X67.615 Y32.237 Z-1.32
X68.2 Y32.864
X68.784 Y33.539
X69.259 Y34.126
X69.795 Y34.84
X70.281 Y35.539
X70.767 Y36.295
X71.232 Y37.085
X71.648 Y37.857
X72.032 Y38.637
X72.374 Y39.404
X72.694 Y40.193
X72.999 Y41.036
X73.27 Y41.884
X73.515 Y42.763
X73.696 Y43.515
X73.888 Y44.455
X74.037 Y45.356
X74.157 Y46.3
X74.238 Y47.191
X74.275 Y47.75
Y47.754 Z-3.228
X74.276 Y47.761
X74.279 Y47.813 Z-3.222
X74.282 Y47.861 Z-3.202
X74.284 Y47.902 Z-3.17
X74.286 Y47.934 Z-3.128
X74.287 Y47.954 Z-3.08
Y47.961 Z-3.028
G0 Z5.
X27.65 Y47.943
Z0.67
G1 Z-3.028 F200.
Y47.936 Z-3.08
X27.651 Y47.916 Z-3.128
X27.653 Y47.884 Z-3.17
X27.655 Y47.843 Z-3.202
X27.658 Y47.795 Z-3.222
X27.661 Y47.743 Z-3.228
Y47.731
Y47.728 Z-1.32
X27.723 Y46.859
X27.825 Y45.895
X27.955 Y44.975
X28.101 Y44.164
X28.297 Y43.256
X28.525 Y42.361
X28.781 Y41.495
X29.062 Y40.661
X29.364 Y39.864
X29.694 Y39.079
X30.064 Y38.282
X30.469 Y37.491
X30.897 Y36.726
X31.342 Y35.996
X31.811 Y35.285
X32.328 Y34.561
X32.872 Y33.856
X33.366 Y33.261
X33.964 Y32.589
X34.318 Y32.215 Z-1.321
X34.319 Y32.213 Z-3.228
X34.325 Y32.208
X34.36 Y32.171 Z-3.222
X34.394 Y32.136 Z-3.202
X34.423 Y32.106 Z-3.17
X34.445 Y32.083 Z-3.128
X34.459 Y32.069 Z-3.08
X34.463 Y32.064 Z-3.028
G0 Z5.
X67.503 Y32.053
Z0.746
G1 Z-3.028 F200.
X67.508 Y32.058 Z-3.08
X67.522 Y32.073 Z-3.128
X67.544 Y32.096 Z-3.17
X67.573 Y32.125 Z-3.202
X67.606 Y32.16 Z-3.222
X67.642 Y32.197 Z-3.228
X67.649 Y32.204
Z-1.32
X68.235 Y32.832
X68.808 Y33.494
X69.296 Y34.095
X69.833 Y34.811
X70.319 Y35.51
X70.807 Y36.27
X71.273 Y37.061
X71.69 Y37.835
X72.087 Y38.642
X72.448 Y39.457
X72.765 Y40.247
X73.069 Y41.093
X73.325 Y41.905
X73.58 Y42.826
X73.759 Y43.579
X73.941 Y44.485
X74.083 Y45.349
X74.203 Y46.295
X74.285 Y47.187
X74.32 Y47.712
Y47.715 Z-3.228
X74.321 Y47.724
X74.324 Y47.776 Z-3.222
X74.327 Y47.824 Z-3.202
X74.329 Y47.865 Z-3.17
X74.331 Y47.897 Z-3.128
X74.332 Y47.917 Z-3.08
Y47.924 Z-3.028
G0 Z5.
X27.605 Y47.903
Z0.624
G1 Z-3.028 F200.
Y47.896 Z-3.08
X27.606 Y47.876 Z-3.128
X27.608 Y47.844 Z-3.17
X27.61 Y47.803 Z-3.202
X27.613 Y47.755 Z-3.222
X27.616 Y47.703 Z-3.228
Y47.691
X27.617 Y47.687 Z-1.32
X27.676 Y46.856
X27.773 Y45.928
X27.884 Y45.121
X28.025 Y44.307
X28.216 Y43.398
X28.419 Y42.574
X28.652 Y41.75
X28.889 Y41.013
X29.194 Y40.17
X29.497 Y39.417
X29.838 Y38.647
X30.225 Y37.855
X30.659 Y37.047
X31.094 Y36.305
X31.554 Y35.582
X32.037 Y34.88
X32.544 Y34.197
X33.075 Y33.532
X33.639 Y32.876
X34.248 Y32.219
X34.282 Y32.183 Z-1.321
X34.284 Y32.181 Z-3.228
X34.289 Y32.177
X34.325 Y32.139 Z-3.222
X34.358 Y32.105 Z-3.202
X34.387 Y32.075 Z-3.17
X34.409 Y32.052 Z-3.128
X34.423 Y32.038 Z-3.08
X34.428 Y32.033 Z-3.028
G0 Z5.
X67.538 Y32.021
Z0.76
G1 Z-3.028 F200.
X67.543 Y32.026 Z-3.08
X67.557 Y32.041 Z-3.128
X67.579 Y32.064 Z-3.17
X67.608 Y32.093 Z-3.202
X67.641 Y32.128 Z-3.222
X67.677 Y32.165 Z-3.228
X67.684 Y32.172
Z-1.32
X68.27 Y32.8
X68.845 Y33.464
X69.332 Y34.065
X69.826 Y34.72
X70.271 Y35.353
X70.724 Y36.047
X71.16 Y36.769
X71.538 Y37.445
X71.923 Y38.193
X72.246 Y38.877
X72.581 Y39.653
X72.897 Y40.465
X73.186 Y41.297
X73.426 Y42.082
X73.664 Y42.964
X73.85 Y43.783
X74.008 Y44.591
X74.152 Y45.495
X74.259 Y46.367
X74.343 Y47.338
X74.365 Y47.669
Z-3.228
Y47.682
X74.368 Y47.733 Z-3.222
X74.371 Y47.781 Z-3.202
X74.374 Y47.823 Z-3.17
X74.376 Y47.855 Z-3.128
X74.377 Y47.874 Z-3.08
Y47.881 Z-3.028
G0 Z5.
X27.56 Y47.858
Z0.58
G1 Z-3.028 F200.
Y47.851 Z-3.08
X27.561 Y47.831 Z-3.128
X27.563 Y47.799 Z-3.17
X27.566 Y47.758 Z-3.202
X27.568 Y47.71 Z-3.222
X27.571 Y47.658 Z-3.228
X27.572 Y47.645
Z-1.32
X27.643 Y46.699
X27.736 Y45.846
X27.862 Y44.962
X28.008 Y44.147
X28.204 Y43.239
X28.433 Y42.338
X28.69 Y41.469
X28.971 Y40.635
X29.277 Y39.829
X29.606 Y39.044
X29.978 Y38.243
X30.385 Y37.448
X30.814 Y36.681
X31.282 Y35.914
X31.774 Y35.172
X32.224 Y34.543
X32.766 Y33.837
X33.284 Y33.211
X33.811 Y32.615
X34.247 Y32.152
X34.249 Y32.15 Z-3.228
X34.253 Y32.145
X34.289 Y32.108 Z-3.222
X34.322 Y32.073 Z-3.202
X34.351 Y32.044 Z-3.17
X34.373 Y32.021 Z-3.128
X34.387 Y32.006 Z-3.08
X34.392 Y32.002 Z-3.028
G0 Z5.
X67.574 Y31.99
Z0.773
G1 Z-3.028 F200.
X67.579 Y31.995 Z-3.08
X67.593 Y32.01 Z-3.128
X67.615 Y32.032 Z-3.17
X67.644 Y32.062 Z-3.202
X67.677 Y32.097 Z-3.222
X67.713 Y32.134 Z-3.228
X67.719 Y32.14
X67.722 Y32.143 Z-1.32
X68.305 Y32.768
X68.881 Y33.433
X69.368 Y34.035
X69.864 Y34.692
X70.309 Y35.325
X70.764 Y36.021
X71.201 Y36.745
X71.579 Y37.421
X71.966 Y38.172
X72.289 Y38.856
X72.624 Y39.634
X72.942 Y40.449
X73.23 Y41.281
X73.472 Y42.069
X73.709 Y42.952
X73.903 Y43.802
X74.068 Y44.659
X74.211 Y45.583
X74.321 Y46.516
X74.4 Y47.488
X74.409 Y47.621
Y47.623 Z-3.228
X74.41 Y47.634
X74.413 Y47.686 Z-3.222
X74.416 Y47.734 Z-3.202
X74.418 Y47.775 Z-3.17
X74.42 Y47.807 Z-3.128
X74.421 Y47.827 Z-3.08
X74.422 Y47.834 Z-3.028
G0 Z5.
X27.515 Y47.808
Z0.58
G1 Z-3.028 F200.
X27.516 Y47.801 Z-3.08
X27.517 Y47.781 Z-3.128
X27.519 Y47.749 Z-3.17
X27.521 Y47.708 Z-3.202
X27.524 Y47.66 Z-3.222
X27.527 Y47.608 Z-3.228
X27.528 Y47.593
Z-1.32
X27.596 Y46.697
X27.689 Y45.841
X27.815 Y44.956
X27.962 Y44.138
X28.158 Y43.23
X28.387 Y42.326
X28.645 Y41.455
X28.926 Y40.622
X29.233 Y39.812
X29.562 Y39.027
X29.918 Y38.258
X30.325 Y37.46
X30.763 Y36.675
X31.221 Y35.922
X31.689 Y35.211
X32.183 Y34.518
X32.725 Y33.812
X33.293 Y33.127
X33.859 Y32.493
X34.211 Y32.121
X34.215 Y32.117 Z-3.228
X34.217 Y32.114
X34.253 Y32.077 Z-3.222
X34.287 Y32.042 Z-3.202
X34.315 Y32.012 Z-3.17
X34.337 Y31.99 Z-3.128
X34.351 Y31.975 Z-3.08
X34.356 Y31.97 Z-3.028
G0 Z5.
X67.609 Y31.958
Z0.784
G1 Z-3.028 F200.
X67.614 Y31.963 Z-3.08
X67.628 Y31.978 Z-3.128
X67.65 Y32. Z-3.17
X67.679 Y32.03 Z-3.202
X67.712 Y32.065 Z-3.222
X67.748 Y32.102 Z-3.228
X67.755 Y32.109
Z-1.32
X68.34 Y32.736
X68.93 Y33.418
X69.405 Y34.004
X69.947 Y34.726
X70.465 Y35.473
X70.927 Y36.193
X71.396 Y36.99
X71.798 Y37.736
X72.186 Y38.519
X72.522 Y39.27
X72.84 Y40.047
X73.155 Y40.907
X73.414 Y41.708
X73.659 Y42.569
X73.862 Y43.392
X74.045 Y44.27
X74.201 Y45.183
X74.324 Y46.106
X74.413 Y47.021
X74.453 Y47.567
Y47.571 Z-3.228
Y47.581
X74.457 Y47.633 Z-3.222
X74.46 Y47.681 Z-3.202
X74.462 Y47.722 Z-3.17
X74.464 Y47.754 Z-3.128
X74.465 Y47.774 Z-3.08
X74.466 Y47.781 Z-3.028
G0 Z5.
X27.471 Y47.749
Z0.58
G1 Z-3.028 F200.
X27.472 Y47.743 Z-3.08
X27.473 Y47.723 Z-3.128
X27.475 Y47.691 Z-3.17
X27.477 Y47.65 Z-3.202
X27.48 Y47.601 Z-3.222
X27.483 Y47.55 Z-3.228
X27.484 Y47.535
Z-1.32
X27.556 Y46.615
X27.662 Y45.683
X27.8 Y44.759
X27.969 Y43.864
X28.165 Y42.996
X28.383 Y42.165
X28.608 Y41.415
X28.88 Y40.609
X29.189 Y39.795
X29.518 Y39.01
X29.875 Y38.239
X30.283 Y37.439
X30.721 Y36.652
X31.18 Y35.898
X31.649 Y35.187
X32.142 Y34.493
X32.684 Y33.787
X33.252 Y33.102
X33.824 Y32.461
X34.175 Y32.089
X34.178 Y32.087 Z-3.228
X34.181 Y32.083
X34.217 Y32.046 Z-3.222
X34.251 Y32.011 Z-3.202
X34.28 Y31.981 Z-3.17
X34.302 Y31.958 Z-3.128
X34.316 Y31.944 Z-3.08
X34.32 Y31.939 Z-3.028
G0 Z5.
X67.644 Y31.926
Z0.793
G1 Z-3.028 F200.
X67.649 Y31.931 Z-3.08
X67.663 Y31.946 Z-3.128
X67.685 Y31.968 Z-3.17
X67.714 Y31.998 Z-3.202
X67.747 Y32.033 Z-3.222
X67.783 Y32.07 Z-3.228
X67.79 Y32.077
X67.793 Y32.08 Z-1.32
X68.375 Y32.704
X68.954 Y33.373
X69.441 Y33.974
X69.985 Y34.697
X70.492 Y35.429
X70.966 Y36.167
X71.437 Y36.967
X71.84 Y37.714
X72.228 Y38.499
X72.566 Y39.252
X72.884 Y40.028
X73.196 Y40.881
X73.459 Y41.691
X73.705 Y42.557
X73.908 Y43.38
X74.091 Y44.261
X74.248 Y45.176
X74.364 Y46.044
X74.448 Y46.863
X74.496 Y47.504
Z-3.228
X74.497 Y47.52
X74.5 Y47.572 Z-3.222
X74.503 Y47.62 Z-3.202
X74.506 Y47.662 Z-3.17
X74.508 Y47.693 Z-3.128
X74.509 Y47.713 Z-3.08
X74.51 Y47.72 Z-3.028
G0 Z5.
X27.428 Y47.684
Z0.58
G1 Z-3.028 F200.
Y47.677 Z-3.08
X27.429 Y47.657 Z-3.128
X27.431 Y47.625 Z-3.17
X27.434 Y47.584 Z-3.202
X27.437 Y47.536 Z-3.222
X27.44 Y47.484 Z-3.228
X27.441 Y47.466
Z-1.32
X27.517 Y46.528
X27.612 Y45.699
X27.75 Y44.78
X27.921 Y43.867
X28.125 Y42.961
X28.359 Y42.079
X28.61 Y41.255
X28.861 Y40.523
X29.173 Y39.705
X29.505 Y38.921
X29.866 Y38.15
X30.259 Y37.383
X30.69 Y36.613
X31.14 Y35.873
X31.641 Y35.114
X32.102 Y34.468
X32.656 Y33.747
X33.237 Y33.047
X33.789 Y32.429
X34.139 Y32.058
X34.142 Y32.055 Z-3.228
X34.146 Y32.051
X34.182 Y32.014 Z-3.222
X34.216 Y31.979 Z-3.202
X34.245 Y31.949 Z-3.17
X34.267 Y31.926 Z-3.128
X34.281 Y31.912 Z-3.08
X34.285 Y31.907 Z-3.028
G0 Z5.
X67.68 Y31.895
Z0.801
G1 Z-3.028 F200.
X67.685 Y31.9 Z-3.08
X67.699 Y31.914 Z-3.128
X67.721 Y31.937 Z-3.17
X67.75 Y31.967 Z-3.202
X67.783 Y32.002 Z-3.222
X67.819 Y32.039 Z-3.228
X67.825 Y32.045
X67.826 Y32.046 Z-1.32
X68.41 Y32.672
X68.99 Y33.342
X69.537 Y34.02
X70.068 Y34.732
X70.509 Y35.368
X71.001 Y36.133
X71.402 Y36.809
X71.811 Y37.555
X72.221 Y38.373
X72.542 Y39.077
X72.871 Y39.866
X73.164 Y40.646
X73.411 Y41.379
X73.651 Y42.179
X73.883 Y43.066
X74.083 Y43.972
X74.244 Y44.853
X74.374 Y45.734
X74.466 Y46.551
X74.538 Y47.431
Z-3.228
X74.539 Y47.449
X74.543 Y47.501 Z-3.222
X74.546 Y47.549 Z-3.202
X74.549 Y47.59 Z-3.17
X74.551 Y47.622 Z-3.128
X74.552 Y47.642 Z-3.08
X74.553 Y47.649 Z-3.028
G0 Z5.
X27.385 Y47.605
Z0.58
G1 Z-3.028 F200.
Y47.598 Z-3.08
X27.387 Y47.578 Z-3.128
X27.389 Y47.547 Z-3.17
X27.391 Y47.505 Z-3.202
X27.395 Y47.457 Z-3.222
X27.398 Y47.405 Z-3.228
X27.399 Y47.385
X27.4 Y47.38 Z-1.32
X27.482 Y46.409
X27.594 Y45.478
X27.729 Y44.622
X27.905 Y43.711
X28.115 Y42.806
X28.337 Y41.982
X28.564 Y41.242
X28.815 Y40.51
X29.101 Y39.76
X29.399 Y39.046
X29.772 Y38.235
X30.18 Y37.43
X30.619 Y36.64
X31.079 Y35.881
X31.568 Y35.137
X32.061 Y34.444
X32.615 Y33.722
X33.196 Y33.022
X33.754 Y32.397
X34.104 Y32.027 Z-1.321
X34.107 Y32.024 Z-3.228
X34.111 Y32.02
X34.147 Y31.983 Z-3.222
X34.18 Y31.948 Z-3.202
X34.209 Y31.918 Z-3.17
X34.231 Y31.895 Z-3.128
X34.245 Y31.881 Z-3.08
X34.249 Y31.876 Z-3.028
G0 Z5.
X67.715 Y31.863
Z0.807
G1 Z-3.028 F200.
X67.72 Y31.868 Z-3.08
X67.734 Y31.882 Z-3.128
X67.756 Y31.905 Z-3.17
X67.785 Y31.935 Z-3.202
X67.818 Y31.97 Z-3.222
X67.854 Y32.007 Z-3.228
X67.861 Y32.014
X67.862 Y32.015 Z-1.32
X68.445 Y32.64
X69.027 Y33.312
X69.562 Y33.975
X70.106 Y34.703
X70.547 Y35.34
X71.043 Y36.112
X71.443 Y36.785
X71.852 Y37.531
X72.263 Y38.352
X72.585 Y39.057
X72.914 Y39.847
X73.208 Y40.63
X73.455 Y41.363
X73.696 Y42.166
X73.929 Y43.054
X74.135 Y43.99
X74.291 Y44.846
X74.421 Y45.727
X74.521 Y46.624
X74.579 Y47.342
Z-3.228
X74.581 Y47.363
X74.584 Y47.415 Z-3.222
X74.588 Y47.463 Z-3.202
X74.59 Y47.504 Z-3.17
X74.593 Y47.536 Z-3.128
X74.594 Y47.556 Z-3.08
Y47.563 Z-3.028
G0 Z5.
X27.343 Y47.508
Z0.58
G1 Z-3.028 F200.
X27.344 Y47.501 Z-3.08
X27.345 Y47.481 Z-3.128
X27.348 Y47.45 Z-3.17
X27.35 Y47.408 Z-3.202
X27.354 Y47.36 Z-3.222
X27.358 Y47.308 Z-3.228
X27.359 Y47.286
Y47.282 Z-1.32
X27.435 Y46.405
X27.539 Y45.535
X27.682 Y44.617
X27.858 Y43.705
X28.068 Y42.801
X28.292 Y41.969
X28.519 Y41.229
X28.77 Y40.497
X29.057 Y39.743
X29.355 Y39.028
X29.712 Y38.25
X30.102 Y37.477
X30.529 Y36.701
X30.977 Y35.955
X31.44 Y35.241
X31.929 Y34.544
X32.442 Y33.864
X32.979 Y33.204
X33.529 Y32.574
X34.067 Y31.996
X34.071 Y31.993 Z-3.228
X34.075 Y31.989
X34.111 Y31.951 Z-3.222
X34.144 Y31.917 Z-3.202
X34.173 Y31.887 Z-3.17
X34.195 Y31.864 Z-3.128
X34.209 Y31.85 Z-3.08
X34.214 Y31.845 Z-3.028
G0 Z5.
X67.751 Y31.832
Z0.812
G1 Z-3.028 F200.
X67.756 Y31.837 Z-3.08
X67.77 Y31.851 Z-3.128
X67.792 Y31.874 Z-3.17
X67.82 Y31.904 Z-3.202
X67.854 Y31.939 Z-3.222
X67.89 Y31.976 Z-3.228
X67.897 Y31.983
X67.898 Y31.984 Z-1.32
X68.48 Y32.608
X69.063 Y33.282
X69.598 Y33.944
X70.144 Y34.675
X70.585 Y35.311
X71.081 Y36.082
X71.484 Y36.761
X71.893 Y37.508
X72.306 Y38.332
X72.627 Y39.036
X72.958 Y39.829
X73.252 Y40.613
X73.5 Y41.347
X73.741 Y42.153
X73.975 Y43.042
X74.175 Y43.952
X74.338 Y44.839
X74.452 Y45.604
X74.56 Y46.543
X74.619 Y47.241
Z-3.228
X74.621 Y47.263
X74.624 Y47.314 Z-3.222
X74.628 Y47.363 Z-3.202
X74.631 Y47.404 Z-3.17
X74.633 Y47.436 Z-3.128
X74.635 Y47.456 Z-3.08
Y47.462 Z-3.028
G0 Z5.
X27.303 Y47.408
Z0.58
G1 Z-3.028 F200.
Y47.401 Z-3.08
X27.305 Y47.381 Z-3.128
X27.307 Y47.35 Z-3.17
X27.31 Y47.308 Z-3.202
X27.314 Y47.26 Z-3.222
X27.318 Y47.209 Z-3.228
X27.319 Y47.186
Y47.183 Z-1.32
X27.408 Y46.209
X27.514 Y45.377
X27.662 Y44.46
X27.843 Y43.549
X28.058 Y42.645
X28.29 Y41.807
X28.522 Y41.069
X28.802 Y40.273
X29.129 Y39.438
X29.472 Y38.651
X29.805 Y37.952
X29.984 Y37.601
Z-1.31
G0 Z5.
X30.221 Y37.155
Z0.819
G1 Z-1.307 F200.
Z-1.31
Z-1.32
X30.643 Y36.411
X31.102 Y35.669
X31.531 Y35.024
X32.049 Y34.301
X32.594 Y33.597
X33.139 Y32.943
X33.75 Y32.262
X34.032 Y31.964 Z-1.321
X34.035 Y31.961 Z-3.228
X34.039 Y31.957
X34.075 Y31.92 Z-3.222
X34.108 Y31.885 Z-3.202
X34.137 Y31.856 Z-3.17
X34.159 Y31.833 Z-3.128
X34.173 Y31.818 Z-3.08
X34.178 Y31.814 Z-3.028
G0 Z5.
X67.787 Y31.801
Z0.816
G1 Z-3.028 F200.
X67.792 Y31.806 Z-3.08
X67.805 Y31.82 Z-3.128
X67.828 Y31.843 Z-3.17
X67.856 Y31.873 Z-3.202
X67.89 Y31.907 Z-3.222
X67.926 Y31.945 Z-3.228
X67.932 Y31.951
X67.933 Y31.952 Z-1.32
X68.515 Y32.576
X69.1 Y33.251
X69.635 Y33.914
X70.181 Y34.647
X70.623 Y35.283
X71.12 Y36.056
X71.592 Y36.855
X72.009 Y37.628
X72.349 Y38.311
X72.67 Y39.015
X73.001 Y39.81
X73.297 Y40.597
X73.544 Y41.331
X73.787 Y42.14
X74.02 Y43.03
X74.206 Y43.867
X74.36 Y44.685
X74.499 Y45.597
X74.607 Y46.54
X74.659 Y47.141
Z-3.228
X74.661 Y47.163
X74.664 Y47.215 Z-3.222
X74.668 Y47.263 Z-3.202
X74.671 Y47.304 Z-3.17
X74.674 Y47.336 Z-3.128
X74.675 Y47.356 Z-3.08
X74.676 Y47.362 Z-3.028
G0 Z5.
X27.263 Y47.308
Z0.58
G1 Z-3.028 F200.
Y47.301 Z-3.08
X27.265 Y47.281 Z-3.128
X27.267 Y47.249 Z-3.17
X27.27 Y47.208 Z-3.202
X27.274 Y47.16 Z-3.222
X27.278 Y47.108 Z-3.228
X27.28 Y47.085
Z-1.32
X27.366 Y46.166
X27.467 Y45.372
X27.615 Y44.455
X27.796 Y43.544
X28.011 Y42.64
X28.245 Y41.794
X28.476 Y41.056
X28.757 Y40.257
X29.085 Y39.421
X29.429 Y38.631
X29.762 Y37.933
X29.877 Y37.705
Z-1.31
G0 Z5.
X30.326 Y36.866
Z0.819
G1 Z-1.292 F200.
X30.327 Y36.865 Z-1.31
X30.328 Y36.864 Z-1.32
X30.761 Y36.123
X31.23 Y35.385
X31.712 Y34.683
X32.242 Y33.968
X32.81 Y33.258
X33.354 Y32.626
X33.968 Y31.963
X33.997 Y31.933 Z-1.321
X34. Y31.93 Z-3.228
X34.003 Y31.926
X34.039 Y31.889 Z-3.222
X34.073 Y31.854 Z-3.202
X34.101 Y31.824 Z-3.17
X34.123 Y31.802 Z-3.128
X34.137 Y31.787 Z-3.08
X34.142 Y31.782 Z-3.028
G0 Z5.
X67.823 Y31.77
Z0.818
G1 Z-3.028 F200.
X67.827 Y31.775 Z-3.08
X67.841 Y31.789 Z-3.128
X67.863 Y31.812 Z-3.17
X67.892 Y31.842 Z-3.202
X67.926 Y31.876 Z-3.222
X67.962 Y31.913 Z-3.228
X67.968 Y31.92
X67.969 Y31.921 Z-1.32
X68.549 Y32.544
X69.136 Y33.221
X69.671 Y33.884
X70.219 Y34.618
X70.66 Y35.254
X71.155 Y36.023
X71.565 Y36.714
X71.939 Y37.392
X72.324 Y38.151
X72.65 Y38.853
X72.987 Y39.648
X73.289 Y40.435
X73.541 Y41.167
X73.79 Y41.978
X74.029 Y42.868
X74.22 Y43.706
X74.379 Y44.524
X74.524 Y45.436
X74.633 Y46.325
X74.698 Y47.041
Y47.042 Z-3.228
X74.7 Y47.064
X74.704 Y47.115 Z-3.222
X74.708 Y47.163 Z-3.202
X74.711 Y47.204 Z-3.17
X74.714 Y47.236 Z-3.128
X74.715 Y47.256 Z-3.08
X74.716 Y47.263 Z-3.028
G0 Z5.
X27.222 Y47.207
Z0.58
G1 Z-3.028 F200.
X27.223 Y47.2 Z-3.08
X27.225 Y47.18 Z-3.128
X27.227 Y47.149 Z-3.17
X27.23 Y47.107 Z-3.202
X27.234 Y47.059 Z-3.222
X27.238 Y47.008 Z-3.228
X27.24 Y46.986
Z-1.32
X27.327 Y46.086
X27.451 Y45.156
X27.596 Y44.297
X27.783 Y43.388
X28.004 Y42.479
X28.243 Y41.633
X28.48 Y40.896
X28.767 Y40.096
X29.101 Y39.261
X29.451 Y38.471
X29.791 Y37.769
Z-1.31
G0 Z5.
X30.425 Y36.597
Z0.819
G1 Z-1.292 F200.
Z-1.31
X30.426 Y36.595 Z-1.32
X30.855 Y35.881
X31.276 Y35.231
X31.717 Y34.595
X32.225 Y33.912
X32.782 Y33.218
X33.318 Y32.595
X33.933 Y31.931
X33.961 Y31.902 Z-1.321
X33.964 Y31.899 Z-3.228
X33.967 Y31.895
X34.003 Y31.858 Z-3.222
X34.037 Y31.823 Z-3.202
X34.066 Y31.793 Z-3.17
X34.088 Y31.77 Z-3.128
X34.102 Y31.756 Z-3.08
X34.106 Y31.751 Z-3.028
G0 Z5.
X67.859 Y31.739
Z0.819
G1 Z-3.028 F200.
X67.863 Y31.743 Z-3.08
X67.877 Y31.758 Z-3.128
X67.899 Y31.781 Z-3.17
X67.928 Y31.81 Z-3.202
X67.962 Y31.845 Z-3.222
X67.998 Y31.882 Z-3.228
X68.004 Y31.889
Z-1.32
X68.584 Y32.512
X69.172 Y33.191
X69.66 Y33.792
X70.167 Y34.464
X70.655 Y35.161
X71.082 Y35.816
X71.529 Y36.556
X71.907 Y37.232
X72.302 Y37.999
X72.629 Y38.691
X72.972 Y39.486
X73.28 Y40.274
X73.537 Y41.004
X73.77 Y41.742
X73.997 Y42.556
X74.197 Y43.374
X74.37 Y44.211
X74.526 Y45.122
X74.645 Y46.012
X74.738 Y46.942
Y46.943 Z-3.228
X74.739 Y46.964
X74.744 Y47.016 Z-3.222
X74.748 Y47.064 Z-3.202
X74.751 Y47.105 Z-3.17
X74.753 Y47.137 Z-3.128
X74.755 Y47.157 Z-3.08
X74.756 Y47.164 Z-3.028
G0 Z5.
X27.183 Y47.108
Z0.58
G1 Z-3.028 F200.
Y47.101 Z-3.08
X27.185 Y47.081 Z-3.128
X27.187 Y47.049 Z-3.17
X27.191 Y47.008 Z-3.202
X27.195 Y46.96 Z-3.222
X27.199 Y46.909 Z-3.228
X27.201 Y46.887
Z-1.32
X27.297 Y45.937
X27.426 Y45.007
X27.589 Y44.083
X27.77 Y43.231
X27.961 Y42.456
X28.198 Y41.62
X28.434 Y40.883
X28.723 Y40.079
X29.057 Y39.243
X29.407 Y38.452
X29.715 Y37.815
Z-1.31
G0 Z5.
X30.532 Y36.321
Z0.819
G1 Z-1.307 F200.
Z-1.31
Z-1.32
X30.981 Y35.595
X31.409 Y34.95
X31.904 Y34.258
X32.423 Y33.583
X32.915 Y32.985
X33.49 Y32.334
X33.925 Y31.87
X33.928 Y31.868 Z-3.228
X33.932 Y31.864
X33.968 Y31.827 Z-3.222
X34.001 Y31.792 Z-3.202
X34.03 Y31.762 Z-3.17
X34.052 Y31.739 Z-3.128
X34.066 Y31.725 Z-3.08
X34.07 Y31.72 Z-3.028
G0 Z5.
X67.894 Y31.707
Z0.819
G1 Z-3.028 F200.
X67.899 Y31.712 Z-3.08
X67.913 Y31.727 Z-3.128
X67.935 Y31.749 Z-3.17
X67.964 Y31.779 Z-3.202
X67.997 Y31.814 Z-3.222
X68.033 Y31.851 Z-3.228
X68.04 Y31.858
X68.041 Y31.859 Z-1.32
X68.645 Y32.509
X69.234 Y33.19
X69.696 Y33.762
X70.204 Y34.436
X70.65 Y35.069
X71.122 Y35.791
X71.565 Y36.523
Z-1.31
G0 Z5.
X71.747 Y36.842
Z0.819
G1 Z-1.307 F200.
Z-1.31
Z-1.32
X72.135 Y37.563
X72.476 Y38.249
X72.797 Y38.953
X73.132 Y39.755
X73.43 Y40.548
X73.677 Y41.282
X73.923 Y42.101
X74.157 Y42.994
X74.344 Y43.838
X74.499 Y44.66
X74.638 Y45.575
X74.742 Y46.469
X74.777 Y46.844
Z-3.228
X74.778 Y46.865
X74.783 Y46.917 Z-3.222
X74.787 Y46.965 Z-3.202
X74.79 Y47.006 Z-3.17
X74.793 Y47.038 Z-3.128
X74.795 Y47.058 Z-3.08
Y47.065 Z-3.028
G0 Z5.
X27.143 Y47.01
Z0.58
G1 Z-3.028 F200.
Y47.003 Z-3.08
X27.145 Y46.983 Z-3.128
X27.148 Y46.952 Z-3.17
X27.152 Y46.91 Z-3.202
X27.156 Y46.862 Z-3.222
X27.16 Y46.811 Z-3.228
X27.162 Y46.788
Z-1.32
X27.262 Y45.836
X27.372 Y45.05
X27.53 Y44.135
X27.722 Y43.226
X27.916 Y42.444
X28.153 Y41.607
X28.389 Y40.87
X28.678 Y40.063
X29.013 Y39.226
X29.364 Y38.432
X29.645 Y37.85
Z-1.31
G0 Z5.
X30.682 Y35.981
Z0.819
G1 Z-1.308 F200.
Z-1.31
Z-1.32
X31.109 Y35.311
X31.546 Y34.672
X32.003 Y34.047
X32.479 Y33.437
X32.975 Y32.843
X33.545 Y32.205
X33.89 Y31.839
X33.892 Y31.837 Z-3.228
X33.896 Y31.833
X33.932 Y31.795 Z-3.222
X33.965 Y31.761 Z-3.202
X33.994 Y31.731 Z-3.17
X34.016 Y31.708 Z-3.128
X34.03 Y31.694 Z-3.08
X34.035 Y31.689 Z-3.028
G0 Z5.
X67.93 Y31.676
Z0.819
G1 Z-3.028 F200.
X67.935 Y31.681 Z-3.08
X67.949 Y31.695 Z-3.128
X67.971 Y31.718 Z-3.17
X68. Y31.748 Z-3.202
X68.033 Y31.783 Z-3.222
X68.069 Y31.82 Z-3.228
X68.076 Y31.827
X68.078 Y31.829 Z-1.32
X68.654 Y32.448
X69.245 Y33.13
X69.733 Y33.731
X70.242 Y34.407
X70.688 Y35.041
X71.162 Y35.765
X71.432 Y36.205
G0 Z5.
X71.943 Y37.099
Z0.819
G1 Z-1.31 F200.
Z-1.32
X72.317 Y37.817
X72.65 Y38.509
X73. Y39.306
X73.287 Y40.025
X73.576 Y40.825
X73.814 Y41.561
X74.05 Y42.387
X74.256 Y43.209
X74.458 Y44.167
X74.595 Y44.955
X74.724 Y45.874
X74.815 Y46.746
Z-3.228
X74.817 Y46.768
X74.822 Y46.819 Z-3.222
X74.826 Y46.867 Z-3.202
X74.83 Y46.909 Z-3.17
X74.832 Y46.94 Z-3.128
X74.834 Y46.96 Z-3.08
X74.835 Y46.967 Z-3.028
G0 Z5.
X27.104 Y46.912
Z0.58
G1 Z-3.028 F200.
Y46.905 Z-3.08
X27.106 Y46.885 Z-3.128
X27.109 Y46.854 Z-3.17
X27.113 Y46.812 Z-3.202
X27.117 Y46.764 Z-3.222
X27.122 Y46.713 Z-3.228
X27.124 Y46.691
Y46.689 Z-1.32
X27.218 Y45.812
X27.349 Y44.892
X27.513 Y43.978
X27.71 Y43.07
X27.91 Y42.283
X28.153 Y41.446
X28.394 Y40.71
X28.689 Y39.902
X29.03 Y39.066
X29.387 Y38.273
X29.578 Y37.877
Z-1.31
G0 Z5.
X30.883 Y35.572
Z0.819
G1 Z-1.308 F200.
Z-1.31
Z-1.32
X31.31 Y34.927
X31.758 Y34.296
X32.226 Y33.679
X32.713 Y33.078
X33.315 Y32.386
X33.854 Y31.808
X33.856 Y31.805 Z-3.228
X33.861 Y31.801
X33.897 Y31.763 Z-3.222
X33.93 Y31.729 Z-3.202
X33.959 Y31.699 Z-3.17
X33.981 Y31.676 Z-3.128
X33.995 Y31.662 Z-3.08
X34. Y31.657 Z-3.028
G0 Z5.
X67.966 Y31.645
Z0.819
G1 Z-3.028 F200.
X67.971 Y31.65 Z-3.08
X67.985 Y31.664 Z-3.128
X68.007 Y31.687 Z-3.17
X68.036 Y31.717 Z-3.202
X68.069 Y31.752 Z-3.222
X68.105 Y31.789 Z-3.228
X68.112 Y31.796
X68.113 Y31.798 Z-1.32
X68.689 Y32.416
X69.282 Y33.1
X69.769 Y33.701
X70.28 Y34.379
X70.725 Y35.012
X71.202 Y35.739
X71.253 Y35.821
G0 Z5.
X72.123 Y37.335
Z0.819
G1 Z-1.307 F200.
Z-1.31
Y37.336 Z-1.32
X72.494 Y38.069
X72.82 Y38.77
X73.161 Y39.574
X73.466 Y40.37
X73.718 Y41.102
X73.971 Y41.926
X74.216 Y42.839
X74.413 Y43.704
X74.578 Y44.567
X74.71 Y45.407
X74.82 Y46.304
X74.854 Y46.649
Z-3.228
X74.856 Y46.671
X74.861 Y46.723 Z-3.222
X74.865 Y46.771 Z-3.202
X74.869 Y46.812 Z-3.17
X74.872 Y46.844 Z-3.128
X74.873 Y46.864 Z-3.08
X74.874 Y46.87 Z-3.028
G0 Z5.
X27.065 Y46.814
Z0.58
G1 Z-3.028 F200.
Y46.807 Z-3.08
X27.067 Y46.788 Z-3.128
X27.07 Y46.756 Z-3.17
X27.074 Y46.715 Z-3.202
X27.079 Y46.667 Z-3.222
X27.084 Y46.615 Z-3.228
X27.086 Y46.594
Y46.592 Z-1.32
X27.171 Y45.806
X27.302 Y44.887
X27.466 Y43.973
X27.663 Y43.065
X27.864 Y42.271
X28.107 Y41.433
X28.348 Y40.697
X28.645 Y39.886
X28.986 Y39.049
X29.344 Y38.253
X29.515 Y37.898
Z-1.31
G0 Z5.
X31.152 Y35.076
Z0.819
G1 Z-1.31 F200.
X31.157 Y35.068 Z-1.32
X31.645 Y34.371
X32.11 Y33.752
X32.594 Y33.148
X33.175 Y32.471
X33.793 Y31.803
X33.818 Y31.777 Z-1.321
X33.823 Y31.771 Z-3.228
X33.825 Y31.77
X33.861 Y31.732 Z-3.222
X33.894 Y31.698 Z-3.202
X33.923 Y31.668 Z-3.17
X33.945 Y31.645 Z-3.128
X33.959 Y31.63 Z-3.08
X33.964 Y31.625 Z-3.028
G0 Z5.
X68.003 Y31.615
Z0.819
G1 Z-3.028 F200.
X68.008 Y31.62 Z-3.08
X68.021 Y31.634 Z-3.128
X68.044 Y31.657 Z-3.17
X68.072 Y31.687 Z-3.202
X68.106 Y31.721 Z-3.222
X68.142 Y31.759 Z-3.228
X68.148 Y31.765
X68.149 Y31.766 Z-1.32
X68.724 Y32.384
X69.318 Y33.07
X69.805 Y33.671
X70.318 Y34.351
X70.763 Y34.984
X71.023 Y35.373
Z-1.31
G0 Z5.
X72.273 Y37.521
Z0.819
G1 Z-1.3 F200.
Z-1.31
Y37.522 Z-1.32
X72.67 Y38.327
X73.026 Y39.127
X73.319 Y39.843
X73.614 Y40.646
X73.857 Y41.381
X74.1 Y42.211
X74.312 Y43.034
X74.513 Y43.96
X74.664 Y44.787
X74.798 Y45.706
X74.892 Y46.552
Y46.555 Z-3.228
X74.894 Y46.573
X74.899 Y46.625 Z-3.222
X74.904 Y46.673 Z-3.202
X74.907 Y46.714 Z-3.17
X74.91 Y46.746 Z-3.128
X74.912 Y46.766 Z-3.08
X74.913 Y46.772 Z-3.028
G0 Z5.
X27.026 Y46.718
Z0.58
G1 Z-3.028 F200.
X27.027 Y46.711 Z-3.08
X27.029 Y46.691 Z-3.128
X27.032 Y46.659 Z-3.17
X27.036 Y46.618 Z-3.202
X27.041 Y46.57 Z-3.222
X27.045 Y46.519 Z-3.228
X27.047 Y46.498
Z-1.32
X27.144 Y45.648
X27.28 Y44.729
X27.449 Y43.816
X27.652 Y42.909
X27.859 Y42.11
X28.108 Y41.272
X28.354 Y40.538
X28.657 Y39.726
X29.003 Y38.889
X29.367 Y38.094
X29.455 Y37.913
Z-1.31
G0 Z5.
X31.501 Y34.489
Z0.819
G1 Z-1.31 F200.
X31.503 Y34.487 Z-1.32
X31.974 Y33.849
X32.504 Y33.182
X33.037 Y32.555
X33.651 Y31.883
X33.783 Y31.745 Z-1.321
X33.784 Y31.743 Z-3.228
X33.789 Y31.738
X33.825 Y31.701 Z-3.222
X33.859 Y31.666 Z-3.202
X33.887 Y31.636 Z-3.17
X33.909 Y31.614 Z-3.128
X33.923 Y31.599 Z-3.08
X33.928 Y31.594 Z-3.028
G0 Z5.
X68.039 Y31.584
Z0.819
G1 Z-3.028 F200.
X68.043 Y31.589 Z-3.08
X68.057 Y31.603 Z-3.128
X68.079 Y31.626 Z-3.17
X68.108 Y31.656 Z-3.202
X68.142 Y31.69 Z-3.222
X68.178 Y31.728 Z-3.228
X68.184 Y31.734
Z-1.32
X68.759 Y32.352
X69.338 Y33.019
X69.842 Y33.64
X70.356 Y34.322
X70.713 Y34.826 Z-1.319
X70.717 Y34.831 Z-1.303
G0 Z5.
X72.372 Y37.611
Z0.819
G1 Z-1.295 F200.
Z-1.31
X72.373 Y37.612 Z-1.32
X72.713 Y38.307
X73.07 Y39.108
X73.362 Y39.825
X73.659 Y40.629
X73.901 Y41.364
X74.146 Y42.198
X74.367 Y43.06
X74.56 Y43.95
X74.71 Y44.78
X74.844 Y45.699
X74.93 Y46.456
X74.931 Y46.46 Z-3.228
X74.932 Y46.477
X74.937 Y46.529 Z-3.222
X74.942 Y46.577 Z-3.202
X74.946 Y46.618 Z-3.17
X74.949 Y46.65 Z-3.128
X74.951 Y46.67 Z-3.08
X74.952 Y46.677 Z-3.028
G0 Z5.
X26.988 Y46.622
Z0.58
G1 Z-3.028 F200.
Y46.616 Z-3.08
X26.99 Y46.596 Z-3.128
X26.993 Y46.564 Z-3.17
X26.997 Y46.523 Z-3.202
X27.002 Y46.475 Z-3.222
X27.007 Y46.423 Z-3.228
X27.009 Y46.402
X27.01 Y46.399 Z-1.32
X27.117 Y45.489
X27.259 Y44.571
X27.434 Y43.659
X27.641 Y42.754
X27.877 Y41.872
X28.11 Y41.112
X28.36 Y40.379
X28.661 Y39.586
X28.959 Y38.872
X29.324 Y38.074
X29.397 Y37.925
Z-1.31
G0 Z5.
X31.976 Y33.77
Z0.819
G1 Z-1.307 F200.
Z-1.31
Z-1.32
X32.457 Y33.164
X33.001 Y32.524
X33.616 Y31.851
X33.747 Y31.714 Z-1.321
X33.749 Y31.712 Z-3.228
X33.754 Y31.707
X33.789 Y31.67 Z-3.222
X33.823 Y31.635 Z-3.202
X33.852 Y31.605 Z-3.17
X33.874 Y31.582 Z-3.128
X33.888 Y31.568 Z-3.08
X33.892 Y31.563 Z-3.028
G0 Z5.
X68.075 Y31.552
Z0.819
G1 Z-3.028 F200.
X68.079 Y31.557 Z-3.08
X68.093 Y31.572 Z-3.128
X68.115 Y31.595 Z-3.17
X68.144 Y31.624 Z-3.202
X68.177 Y31.659 Z-3.222
X68.213 Y31.696 Z-3.228
X68.22 Y31.703
X68.221 Y31.705 Z-1.32
X68.84 Y32.37
X69.441 Y33.068
X69.973 Y33.732
X70.323 Y34.197
Z-1.31
G0 Z5.
X72.455 Y37.67
Z0.819
G1 Z-1.29 F200.
Z-1.31
X72.456 Y37.671 Z-1.32
X72.82 Y38.426
X73.174 Y39.232
X73.461 Y39.951
X73.753 Y40.76
X73.992 Y41.496
X74.232 Y42.334
X74.439 Y43.161
X74.643 Y44.134
X74.781 Y44.925
X74.91 Y45.845
X74.968 Y46.361
X74.969 Y46.366 Z-3.228
X74.97 Y46.383
X74.976 Y46.434 Z-3.222
X74.98 Y46.482 Z-3.202
X74.985 Y46.523 Z-3.17
X74.988 Y46.555 Z-3.128
X74.99 Y46.575 Z-3.08
Y46.582 Z-3.028
G0 Z5.
X26.949 Y46.527
Z0.58
G1 Z-3.028 F200.
X26.95 Y46.52 Z-3.08
X26.952 Y46.5 Z-3.128
X26.955 Y46.469 Z-3.17
X26.959 Y46.428 Z-3.202
X26.964 Y46.38 Z-3.222
X26.97 Y46.328 Z-3.228
X26.972 Y46.307
Z-1.32
X27.07 Y45.484
X27.212 Y44.566
X27.387 Y43.654
X27.594 Y42.749
X27.832 Y41.859
X28.064 Y41.099
X28.315 Y40.366
X28.617 Y39.569
X28.915 Y38.855
X29.281 Y38.055
X29.341 Y37.932
Z-1.31
G0 Z5.
X32.555 Y32.972
Z0.819
G1 Z-1.307 F200.
Z-1.31
Z-1.32
X33.068 Y32.377
X33.688 Y31.707
X33.711 Y31.683 Z-1.321
X33.712 Y31.682 Z-3.228
X33.718 Y31.676
X33.754 Y31.639 Z-3.222
X33.787 Y31.604 Z-3.202
X33.816 Y31.574 Z-3.17
X33.838 Y31.551 Z-3.128
X33.852 Y31.537 Z-3.08
X33.856 Y31.532 Z-3.028
G0 Z5.
X68.111 Y31.522
Z0.819
G1 Z-3.028 F200.
X68.116 Y31.527 Z-3.08
X68.13 Y31.541 Z-3.128
X68.152 Y31.564 Z-3.17
X68.181 Y31.594 Z-3.202
X68.214 Y31.629 Z-3.222
X68.25 Y31.666 Z-3.228
X68.256 Y31.673
X68.257 Z-1.32
X68.829 Y32.288
X69.394 Y32.939
X69.815 Y33.453
G0 Z5.
X72.529 Y37.713
Z0.819
G1 Z-1.289 F200.
X72.53 Y37.714 Z-1.31
Y37.715 Z-1.32
X72.863 Y38.406
X73.217 Y39.214
X73.505 Y39.932
X73.798 Y40.743
X74.036 Y41.48
X74.277 Y42.321
X74.467 Y43.073
X74.652 Y43.931
X74.803 Y44.765
X74.938 Y45.684
X75.006 Y46.266
Z-3.228
X75.008 Y46.288
X75.013 Y46.339 Z-3.222
X75.018 Y46.387 Z-3.202
X75.023 Y46.429 Z-3.17
X75.026 Y46.46 Z-3.128
X75.028 Y46.48 Z-3.08
X75.029 Y46.487 Z-3.028
G0 Z5.
X26.911 Y46.432
Z0.58
G1 Z-3.028 F200.
X26.912 Y46.425 Z-3.08
X26.914 Y46.405 Z-3.128
X26.917 Y46.373 Z-3.17
X26.922 Y46.332 Z-3.202
X26.927 Y46.284 Z-3.222
X26.932 Y46.233 Z-3.228
X26.934 Y46.212
X26.935 Y46.209 Z-1.32
X27.045 Y45.326
X27.192 Y44.409
X27.372 Y43.498
X27.584 Y42.593
X27.793 Y41.826
X28.019 Y41.086
X28.269 Y40.353
X28.573 Y39.552
X28.871 Y38.837
X29.238 Y38.035
X29.286 Y37.937
Z-1.31
G0 Z5.
X33.02 Y32.36
Z0.819
G1 Z-1.32 F200.
X33.6 Y31.73
X33.676 Y31.651 Z-1.321
Z-3.228
X33.682 Y31.645
X33.718 Y31.608 Z-3.222
X33.751 Y31.573 Z-3.202
X33.78 Y31.543 Z-3.17
X33.802 Y31.52 Z-3.128
X33.816 Y31.506 Z-3.08
X33.821 Y31.501 Z-3.028
G0 Z5.
X68.148 Y31.492
Z0.819
G1 Z-3.028 F200.
X68.153 Y31.497 Z-3.08
X68.167 Y31.511 Z-3.128
X68.189 Y31.534 Z-3.17
X68.217 Y31.564 Z-3.202
X68.251 Y31.599 Z-3.222
X68.287 Y31.636 Z-3.228
X68.293 Y31.642
X68.294 Y31.644 Z-1.32
X68.709 Y32.084
G0 Z5.
X72.599 Y37.746
Z0.819
G1 Z-1.298 F200.
Y37.747 Z-1.31
Z-1.32
X72.97 Y38.526
X73.32 Y39.338
X73.635 Y40.144
X73.892 Y40.874
X74.125 Y41.612
X74.382 Y42.535
X74.581 Y43.363
X74.77 Y44.296
X74.921 Y45.216
X75.043 Y46.173
Z-3.228
X75.045 Y46.193
X75.051 Y46.244 Z-3.222
X75.056 Y46.292 Z-3.202
X75.06 Y46.334 Z-3.17
X75.064 Y46.365 Z-3.128
X75.066 Y46.385 Z-3.08
X75.067 Y46.392 Z-3.028
G0 Z5.
X26.873 Y46.338
Z0.58
G1 Z-3.028 F200.
X26.874 Y46.331 Z-3.08
X26.876 Y46.311 Z-3.128
X26.879 Y46.279 Z-3.17
X26.884 Y46.238 Z-3.202
X26.889 Y46.19 Z-3.222
X26.895 Y46.139 Z-3.228
X26.897 Y46.118
Y46.116 Z-1.32
X27.019 Y45.172
X27.172 Y44.251
X27.358 Y43.341
X27.58 Y42.422
X27.791 Y41.664
X28.022 Y40.926
X28.314 Y40.094
X28.646 Y39.247
X28.998 Y38.436
X29.233 Y37.938
Z-1.31
G0 Z5.
X72.664 Y37.772
Z0.819
G1 Z-1.306 F200.
Z-1.31
X72.665 Z-1.32
X73.012 Y38.505
X73.364 Y39.32
X73.679 Y40.127
X73.936 Y40.857
X74.17 Y41.595
X74.408 Y42.449
X74.61 Y43.276
X74.788 Y44.136
X74.945 Y45.056
X75.067 Y45.966
X75.08 Y46.079
Y46.081 Z-3.228
X75.082 Y46.1
X75.088 Y46.152 Z-3.222
X75.093 Y46.199 Z-3.202
X75.098 Y46.241 Z-3.17
X75.102 Y46.272 Z-3.128
X75.104 Y46.292 Z-3.08
X75.105 Y46.299 Z-3.028
G0 Z5.
X26.835 Y46.244
Z0.58
G1 Z-3.028 F200.
X26.836 Y46.238 Z-3.08
X26.838 Y46.218 Z-3.128
X26.842 Y46.186 Z-3.17
X26.847 Y46.145 Z-3.202
X26.852 Y46.097 Z-3.222
X26.858 Y46.046 Z-3.228
X26.86 Y46.025
X26.861 Y46.023 Z-1.32
X26.973 Y45.162
X27.125 Y44.246
X27.311 Y43.336
X27.528 Y42.433
X27.745 Y41.651
X27.976 Y40.913
X28.269 Y40.078
X28.602 Y39.23
X28.955 Y38.417
X29.181 Y37.936
Z-1.31
G0 Z5.
X72.727 Y37.791
Z0.819
G1 Z-1.305 F200.
Z-1.31
Y37.792 Z-1.32
X73.055 Y38.485
X73.407 Y39.301
X73.723 Y40.111
X73.98 Y40.841
X74.214 Y41.579
X74.454 Y42.437
X74.656 Y43.264
X74.834 Y44.127
X74.992 Y45.049
X75.116 Y45.98
X75.117 Y45.987
Y45.989 Z-3.228
X75.119 Y46.007
X75.125 Y46.059 Z-3.222
X75.131 Y46.106 Z-3.202
X75.135 Y46.148 Z-3.17
X75.139 Y46.179 Z-3.128
X75.141 Y46.199 Z-3.08
X75.142 Y46.206 Z-3.028
G0 Z5.
X26.798 Y46.152
Z0.58
G1 Z-3.028 F200.
X26.799 Y46.145 Z-3.08
X26.801 Y46.125 Z-3.128
X26.805 Y46.093 Z-3.17
X26.81 Y46.052 Z-3.202
X26.815 Y46.004 Z-3.222
X26.821 Y45.953 Z-3.228
X26.824 Y45.932
Z-1.32
X26.949 Y45.004
X27.107 Y44.089
X27.297 Y43.18
X27.524 Y42.263
X27.744 Y41.49
X27.98 Y40.753
X28.279 Y39.917
X28.617 Y39.07
X28.977 Y38.257
X29.13 Y37.932
Z-1.31
G0 Z5.
X72.787 Y37.806
Z0.819
G1 Z-1.303 F200.
Z-1.31
Z-1.32
X73.161 Y38.605
X73.509 Y39.426
X73.821 Y40.24
X74.073 Y40.972
X74.334 Y41.822
X74.577 Y42.724
X74.772 Y43.578
X74.936 Y44.423
X75.083 Y45.348
X75.153 Y45.894
Z-3.228
X75.156 Y45.914
X75.162 Y45.965 Z-3.222
X75.167 Y46.013 Z-3.202
X75.172 Y46.054 Z-3.17
X75.176 Y46.086 Z-3.128
X75.178 Y46.106 Z-3.08
X75.179 Y46.113 Z-3.028
G0 Z5.
X26.761 Y46.059
Z0.58
G1 Z-3.028 F200.
X26.762 Y46.052 Z-3.08
X26.764 Y46.033 Z-3.128
X26.768 Y46.001 Z-3.17
X26.773 Y45.96 Z-3.202
X26.778 Y45.912 Z-3.222
X26.785 Y45.861 Z-3.228
X26.787 Y45.84
Z-1.32
X26.915 Y44.92
X27.075 Y44.005
X27.268 Y43.097
X27.498 Y42.177
X27.744 Y41.329
X27.984 Y40.593
X28.29 Y39.756
X28.634 Y38.91
X28.999 Y38.097
X29.081 Y37.926
Z-1.31
G0 Z5.
X72.844 Y37.816
Z0.819
G1 Z-1.296 F200.
Z-1.31
X72.845 Y37.817 Z-1.32
X73.203 Y38.585
X73.553 Y39.407
X73.865 Y40.224
X74.118 Y40.956
X74.38 Y41.809
X74.623 Y42.712
X74.811 Y43.537
X74.983 Y44.415
X75.129 Y45.34
X75.19 Y45.802
Z-3.228
X75.192 Y45.822
X75.198 Y45.874 Z-3.222
X75.204 Y45.922 Z-3.202
X75.209 Y45.963 Z-3.17
X75.213 Y45.994 Z-3.128
X75.215 Y46.014 Z-3.08
X75.216 Y46.021 Z-3.028
G0 Z5.
X26.724 Y45.968
Z0.58
G1 Z-3.028 F200.
X26.725 Y45.961 Z-3.08
X26.727 Y45.941 Z-3.128
X26.731 Y45.909 Z-3.17
X26.736 Y45.868 Z-3.202
X26.742 Y45.82 Z-3.222
X26.748 Y45.769 Z-3.228
X26.751 Y45.749
Z-1.32
X26.881 Y44.829
X27.048 Y43.896
X27.24 Y43.007
X27.473 Y42.09
X27.699 Y41.316
X27.939 Y40.58
X28.246 Y39.74
X28.59 Y38.893
X28.956 Y38.077
X29.033 Y37.917
Z-1.31
G0 Z5.
X72.9 Y37.823
Z0.819
G1 Z-1.296 F200.
Z-1.31
X72.901 Y37.824 Z-1.32
X73.246 Y38.564
X73.596 Y39.389
X73.91 Y40.208
X74.162 Y40.939
X74.425 Y41.796
X74.668 Y42.7
X74.862 Y43.548
X75.029 Y44.407
X75.176 Y45.333
X75.226 Y45.711
Z-3.228
X75.228 Y45.731
X75.235 Y45.782 Z-3.222
X75.241 Y45.83 Z-3.202
X75.246 Y45.871 Z-3.17
X75.25 Y45.903 Z-3.128
X75.252 Y45.923 Z-3.08
X75.253 Y45.929 Z-3.028
G0 Z5.
X26.687 Y45.876
Z0.58
G1 Z-3.028 F200.
X26.688 Y45.869 Z-3.08
X26.69 Y45.849 Z-3.128
X26.694 Y45.818 Z-3.17
X26.7 Y45.777 Z-3.202
X26.706 Y45.729 Z-3.222
X26.712 Y45.678 Z-3.228
X26.715 Y45.658
Z-1.32
X26.848 Y44.739
X27.014 Y43.825
X27.213 Y42.917
X27.448 Y42.004
X27.699 Y41.155
X27.944 Y40.421
X28.257 Y39.579
X28.607 Y38.733
X28.986 Y37.906
Z-1.31
G0 Z5.
X72.954 Y37.826
Z0.819
G1 Z-1.289 F200.
X72.955 Y37.827 Z-1.31
Y37.828 Z-1.32
X73.288 Y38.544
X73.64 Y39.37
X73.954 Y40.192
X74.207 Y40.923
X74.47 Y41.783
X74.714 Y42.688
X74.909 Y43.544
X75.076 Y44.398
X75.223 Y45.326
X75.262 Y45.62
Z-3.228
X75.265 Y45.64
X75.271 Y45.691 Z-3.222
X75.277 Y45.739 Z-3.202
X75.282 Y45.78 Z-3.17
X75.286 Y45.812 Z-3.128
X75.289 Y45.832 Z-3.08
X75.29 Y45.839 Z-3.028
G0 Z5.
X26.651 Y45.786
Z0.58
G1 Z-3.028 F200.
Y45.779 Z-3.08
X26.654 Y45.759 Z-3.128
X26.658 Y45.728 Z-3.17
X26.663 Y45.687 Z-3.202
X26.67 Y45.639 Z-3.222
X26.676 Y45.587 Z-3.228
X26.679 Y45.567
Z-1.32
X26.815 Y44.648
X26.984 Y43.735
X27.186 Y42.829
X27.412 Y41.955
X27.654 Y41.142
X27.899 Y40.408
X28.213 Y39.563
X28.563 Y38.716
X28.939 Y37.893
Z-1.31
G0 Z5.
X73.007 Y37.827
Z0.819
G1 Z-1.303 F200.
Z-1.31
X73.008 Y37.828 Z-1.32
X73.334 Y38.529
X73.683 Y39.352
X73.998 Y40.175
X74.251 Y40.907
X74.516 Y41.77
X74.764 Y42.695
X74.961 Y43.561
X75.122 Y44.39
X75.269 Y45.318
X75.298 Y45.53
Z-3.228
X75.3 Y45.549
X75.307 Y45.601 Z-3.222
X75.313 Y45.649 Z-3.202
X75.319 Y45.69 Z-3.17
X75.323 Y45.721 Z-3.128
X75.325 Y45.741 Z-3.08
X75.326 Y45.748 Z-3.028
G0 Z5.
X26.614 Y45.695
Z0.58
G1 Z-3.028 F200.
X26.615 Y45.689 Z-3.08
X26.618 Y45.669 Z-3.128
X26.622 Y45.637 Z-3.17
X26.627 Y45.596 Z-3.202
X26.634 Y45.548 Z-3.222
X26.641 Y45.497 Z-3.228
X26.643 Y45.477
Z-1.32
X26.787 Y44.536
X26.954 Y43.647
X27.158 Y42.741
X27.387 Y41.869
X27.608 Y41.129
X27.853 Y40.395
X28.169 Y39.547
X28.519 Y38.698
X28.894 Y37.878
Z-1.31
G0 Z5.
X73.059 Y37.825
Z0.819
G1 Z-1.304 F200.
Z-1.31
Y37.826 Z-1.32
X73.385 Y38.529
X73.726 Y39.333
X74.043 Y40.159
X74.295 Y40.891
X74.561 Y41.757
X74.805 Y42.665
X74.996 Y43.498
X75.168 Y44.381
X75.316 Y45.311
X75.333 Y45.44
Z-3.228
X75.336 Y45.459
X75.343 Y45.511 Z-3.222
X75.349 Y45.558 Z-3.202
X75.355 Y45.6 Z-3.17
X75.359 Y45.631 Z-3.128
X75.362 Y45.651 Z-3.08
X75.363 Y45.658 Z-3.028
G0 Z5.
X26.578 Y45.605
Z0.58
G1 Z-3.028 F200.
X26.579 Y45.598 Z-3.08
X26.582 Y45.579 Z-3.128
X26.586 Y45.547 Z-3.17
X26.592 Y45.506 Z-3.202
X26.598 Y45.458 Z-3.222
X26.605 Y45.407 Z-3.228
X26.608 Y45.388
Y45.385 Z-1.32
X26.75 Y44.47
X26.925 Y43.558
X27.132 Y42.652
X27.352 Y41.82
X27.61 Y40.969
X27.86 Y40.236
X28.178 Y39.396
X28.475 Y38.681
X28.85 Y37.861
Z-1.31
G0 Z5.
X73.109 Y37.82
Z0.819
G1 Z-1.297 F200.
Y37.821 Z-1.31
X73.11 Z-1.32
X73.434 Y38.523
X73.77 Y39.315
X74.087 Y40.143
X74.34 Y40.874
X74.607 Y41.744
X74.851 Y42.653
X75.045 Y43.504
X75.215 Y44.373
X75.362 Y45.303
X75.369 Y45.351
Z-3.228
X75.371 Y45.371
X75.379 Y45.422 Z-3.222
X75.385 Y45.47 Z-3.202
X75.391 Y45.511 Z-3.17
X75.395 Y45.542 Z-3.128
X75.398 Y45.562 Z-3.08
X75.399 Y45.569 Z-3.028
G0 Z5.
X26.542 Y45.516
Z0.58
G1 Z-3.028 F200.
X26.543 Y45.509 Z-3.08
X26.546 Y45.49 Z-3.128
X26.55 Y45.458 Z-3.17
X26.556 Y45.417 Z-3.202
X26.563 Y45.369 Z-3.222
X26.57 Y45.318 Z-3.228
X26.573 Y45.299
Y45.294 Z-1.32
X26.723 Y44.353
X26.895 Y43.47
X27.105 Y42.565
X27.339 Y41.696
X27.565 Y40.956
X27.814 Y40.223
X28.134 Y39.378
X28.431 Y38.664
X28.806 Y37.844
Z-1.31
G0 Z5.
X73.158 Y37.812
Z0.819
G1 Z-1.286 F200.
Y37.814 Z-1.31
X73.159 Y37.815 Z-1.32
X73.484 Y38.518
X73.813 Y39.296
X74.131 Y40.127
X74.384 Y40.858
X74.655 Y41.74
X74.896 Y42.641
X75.08 Y43.438
X75.234 Y44.212
X75.387 Y45.143
X75.404 Y45.262
Z-3.228
X75.407 Y45.282
X75.414 Y45.333 Z-3.222
X75.421 Y45.381 Z-3.202
X75.426 Y45.422 Z-3.17
X75.431 Y45.453 Z-3.128
X75.434 Y45.473 Z-3.08
X75.435 Y45.48 Z-3.028
G0 Z5.
X26.506 Y45.428
Z0.58
G1 Z-3.028 F200.
X26.507 Y45.422 Z-3.08
X26.51 Y45.402 Z-3.128
X26.515 Y45.37 Z-3.17
X26.52 Y45.329 Z-3.202
X26.527 Y45.282 Z-3.222
X26.535 Y45.23 Z-3.228
X26.537 Y45.21
Z-1.32
X26.685 Y44.294
X26.866 Y43.382
X27.078 Y42.478
X27.293 Y41.683
X27.519 Y40.943
X27.769 Y40.21
X28.09 Y39.361
X28.387 Y38.646
X28.762 Y37.826
Z-1.31
G0 Z5.
X73.206 Y37.804
Z0.819
G1 Z-1.296 F200.
Z-1.31
X73.207 Y37.805 Z-1.32
X73.532 Y38.509
X73.857 Y39.278
X74.176 Y40.11
X74.428 Y40.842
X74.697 Y41.718
X74.942 Y42.629
X75.126 Y43.429
X75.28 Y44.204
X75.433 Y45.135
X75.439 Y45.174
Z-3.228
X75.442 Y45.193
X75.449 Y45.244 Z-3.222
X75.456 Y45.292 Z-3.202
X75.462 Y45.333 Z-3.17
X75.466 Y45.364 Z-3.128
X75.469 Y45.384 Z-3.08
X75.47 Y45.391 Z-3.028
G0 Z5.
X26.471 Y45.339
Z0.58
G1 Z-3.028 F200.
X26.472 Y45.333 Z-3.08
X26.475 Y45.313 Z-3.128
X26.479 Y45.281 Z-3.17
X26.485 Y45.24 Z-3.202
X26.492 Y45.193 Z-3.222
X26.5 Y45.141 Z-3.228
X26.503 Y45.122
Y45.121 Z-1.32
X26.653 Y44.206
X26.836 Y43.295
X27.051 Y42.392
X27.291 Y41.521
X27.522 Y40.782
X27.826 Y39.915
X28.162 Y39.057
X28.525 Y38.222
X28.718 Y37.808
Z-1.31
G0 Z5.
X73.253 Y37.793
Z0.819
G1 Z-1.306 F200.
Z-1.31
X73.254 Z-1.32
X73.577 Y38.496
X73.9 Y39.259
X74.22 Y40.094
X74.473 Y40.826
X74.743 Y41.705
X74.988 Y42.617
X75.181 Y43.46
X75.354 Y44.348
X75.474 Y45.086
Y45.087 Z-3.228
X75.477 Y45.105
X75.484 Y45.157 Z-3.222
X75.491 Y45.204 Z-3.202
X75.497 Y45.245 Z-3.17
X75.502 Y45.277 Z-3.128
X75.505 Y45.296 Z-3.08
X75.506 Y45.303 Z-3.028
G0 Z5.
X26.436 Y45.252
Z0.58
G1 Z-3.028 F200.
X26.437 Y45.245 Z-3.08
X26.439 Y45.225 Z-3.128
X26.444 Y45.194 Z-3.17
X26.45 Y45.153 Z-3.202
X26.457 Y45.105 Z-3.222
X26.465 Y45.054 Z-3.228
X26.468 Y45.035
Z-1.32
X26.621 Y44.119
X26.807 Y43.209
X27.025 Y42.306
X27.246 Y41.508
X27.476 Y40.769
X27.781 Y39.899
X28.118 Y39.039
X28.482 Y38.202
X28.675 Y37.787
Z-1.31
G0 Z5.
X73.299 Y37.779
Z0.819
G1 Z-1.294 F200.
Z-1.31
X73.3 Y37.78 Z-1.32
X73.623 Y38.482
X74.002 Y39.385
X74.317 Y40.223
X74.565 Y40.957
X74.831 Y41.841
X75.07 Y42.755
X75.267 Y43.643
X75.427 Y44.492
X75.508 Y44.999
Z-3.228
X75.511 Y45.018
X75.519 Y45.069 Z-3.222
X75.526 Y45.117 Z-3.202
X75.532 Y45.158 Z-3.17
X75.537 Y45.189 Z-3.128
X75.54 Y45.209 Z-3.08
X75.541 Y45.216 Z-3.028
G0 Z5.
X26.4 Y45.165
Z0.58
G1 Z-3.028 F200.
X26.401 Y45.158 Z-3.08
X26.404 Y45.139 Z-3.128
X26.409 Y45.107 Z-3.17
X26.415 Y45.066 Z-3.202
X26.423 Y45.019 Z-3.222
X26.43 Y44.967 Z-3.228
X26.433 Y44.948
Z-1.32
X26.59 Y44.032
X26.778 Y43.123
X27.001 Y42.209
X27.245 Y41.347
X27.48 Y40.609
X27.791 Y39.738
X28.134 Y38.879
X28.503 Y38.042
X28.634 Y37.765
Z-1.31
G0 Z5.
X73.344 Y37.764
Z0.819
G1 Z-1.31 F200.
Z-1.32
X73.691 Y38.52
X74.045 Y39.366
X74.361 Y40.207
X74.609 Y40.94
X74.876 Y41.828
X75.121 Y42.762
X75.329 Y43.709
X75.473 Y44.484
X75.543 Y44.912
Z-3.228
X75.546 Y44.932
X75.554 Y44.983 Z-3.222
X75.561 Y45.03 Z-3.202
X75.567 Y45.071 Z-3.17
X75.572 Y45.103 Z-3.128
X75.575 Y45.122 Z-3.08
X75.576 Y45.129 Z-3.028
G0 Z5.
X26.365 Y45.077
Z0.58
G1 Z-3.028 F200.
X26.366 Y45.071 Z-3.08
X26.37 Y45.051 Z-3.128
X26.374 Y45.02 Z-3.17
X26.381 Y44.979 Z-3.202
X26.388 Y44.931 Z-3.222
X26.396 Y44.88 Z-3.228
X26.399 Y44.861
X26.4 Y44.857 Z-1.32
X26.562 Y43.927
X26.749 Y43.037
X26.955 Y42.197
X27.199 Y41.334
X27.434 Y40.596
X27.747 Y39.722
X28.09 Y38.862
X28.46 Y38.023
X28.593 Y37.742
Z-1.31
G0 Z5.
X73.388 Y37.746
Z0.819
G1 Z-1.3 F200.
Z-1.31
Z-1.32
X73.712 Y38.451
X74.088 Y39.348
X74.406 Y40.191
X74.654 Y40.924
X74.921 Y41.814
X75.166 Y42.75
X75.36 Y43.623
X75.52 Y44.475
X75.577 Y44.826
Z-3.228
X75.58 Y44.844
X75.588 Y44.895 Z-3.222
X75.596 Y44.943 Z-3.202
X75.602 Y44.984 Z-3.17
X75.607 Y45.015 Z-3.128
X75.61 Y45.035 Z-3.08
X75.611 Y45.042 Z-3.028
G0 Z5.
X26.331 Y44.991
Z0.58
G1 Z-3.028 F200.
X26.332 Y44.984 Z-3.08
X26.335 Y44.965 Z-3.128
X26.34 Y44.933 Z-3.17
X26.346 Y44.892 Z-3.202
X26.354 Y44.845 Z-3.222
X26.362 Y44.793 Z-3.228
X26.365 Y44.775
Z-1.32
X26.526 Y43.86
X26.727 Y42.924
X26.96 Y41.998
X27.199 Y41.173
X27.439 Y40.437
X27.758 Y39.561
X28.106 Y38.702
X28.483 Y37.863
X28.552 Y37.718
Z-1.31
G0 Z5.
X73.431 Y37.726
Z0.819
G1 Z-1.296 F200.
Z-1.31
X73.432 Y37.727 Z-1.32
X73.755 Y38.429
X74.132 Y39.329
X74.45 Y40.175
X74.698 Y40.908
X74.967 Y41.801
X75.207 Y42.719
X75.414 Y43.651
X75.579 Y44.542
X75.611 Y44.74
Z-3.228
X75.614 Y44.758
X75.622 Y44.809 Z-3.222
X75.63 Y44.857 Z-3.202
X75.637 Y44.898 Z-3.17
X75.642 Y44.929 Z-3.128
X75.645 Y44.949 Z-3.08
X75.646 Y44.955 Z-3.028
G0 Z5.
X26.296 Y44.906
Z0.58
G1 Z-3.028 F200.
X26.297 Y44.899 Z-3.08
X26.3 Y44.879 Z-3.128
X26.305 Y44.848 Z-3.17
X26.312 Y44.807 Z-3.202
X26.319 Y44.759 Z-3.222
X26.328 Y44.708 Z-3.228
X26.331 Y44.689
X26.332 Y44.684 Z-1.32
X26.495 Y43.775
X26.691 Y42.867
X26.924 Y41.949
X27.154 Y41.16
X27.393 Y40.424
X27.713 Y39.544
X28.062 Y38.684
X28.44 Y37.843
X28.51 Y37.694
Z-1.31
G0 Z5.
X73.473 Y37.704
Z0.819
G1 Z-1.296 F200.
Y37.705 Z-1.31
X73.474 Z-1.32
X73.798 Y38.409
X74.175 Y39.31
X74.494 Y40.158
X74.742 Y40.892
X75.012 Y41.788
X75.253 Y42.707
X75.452 Y43.604
X75.613 Y44.458
X75.645 Y44.654
Z-3.228
X75.648 Y44.673
X75.657 Y44.724 Z-3.222
X75.664 Y44.772 Z-3.202
X75.671 Y44.812 Z-3.17
X75.676 Y44.844 Z-3.128
X75.679 Y44.864 Z-3.08
X75.68 Y44.87 Z-3.028
G0 Z5.
X26.262 Y44.819
Z0.58
G1 Z-3.028 F200.
X26.263 Y44.813 Z-3.08
X26.266 Y44.793 Z-3.128
X26.271 Y44.762 Z-3.17
X26.278 Y44.721 Z-3.202
X26.286 Y44.673 Z-3.222
X26.294 Y44.622 Z-3.228
X26.297 Y44.604
Y44.603 Z-1.32
X26.464 Y43.69
X26.663 Y42.783
X26.899 Y41.863
X27.154 Y40.999
X27.398 Y40.264
X27.725 Y39.384
X28.079 Y38.525
X28.463 Y37.684
X28.47 Y37.669
Z-1.31
G0 Z5.
X73.514 Y37.681
Z0.819
G1 Z-1.299 F200.
Z-1.31
X73.515 Z-1.32
X73.838 Y38.384
X74.161 Y39.148
X74.486 Y39.997
X74.739 Y40.728
X75.011 Y41.613
X75.262 Y42.545
X75.449 Y43.363
X75.605 Y44.145
X75.679 Y44.569
X75.68 Y44.573 Z-3.228
X75.682 Y44.588
X75.69 Y44.639 Z-3.222
X75.698 Y44.686 Z-3.202
X75.705 Y44.727 Z-3.17
X75.71 Y44.759 Z-3.128
X75.713 Y44.778 Z-3.08
X75.715 Y44.785 Z-3.028
G0 Z5.
X26.227 Y44.734
Z0.58
G1 Z-3.028 F200.
X26.228 Y44.728 Z-3.08
X26.232 Y44.708 Z-3.128
X26.237 Y44.676 Z-3.17
X26.244 Y44.636 Z-3.202
X26.252 Y44.588 Z-3.222
X26.26 Y44.537 Z-3.228
X26.263 Y44.519
Z-1.32
X26.433 Y43.606
X26.634 Y42.699
X26.853 Y41.851
X27.109 Y40.986
X27.405 Y40.105
X27.733 Y39.234
X28.035 Y38.507
X28.42 Y37.664
X28.431 Y37.641
Z-1.31
G0 Z5.
X73.554 Y37.655
Z0.819
G1 Z-1.306 F200.
Z-1.31
Z-1.32
X73.878 Y38.358
X74.205 Y39.13
X74.531 Y39.98
X74.783 Y40.712
X75.053 Y41.587
X75.307 Y42.533
X75.496 Y43.353
X75.652 Y44.137
X75.713 Y44.484
Z-3.228
X75.716 Y44.502
X75.724 Y44.554 Z-3.222
X75.732 Y44.601 Z-3.202
X75.739 Y44.642 Z-3.17
X75.744 Y44.673 Z-3.128
X75.748 Y44.693 Z-3.08
X75.749 Y44.7 Z-3.028
G0 Z5.
X26.193 Y44.65
Z0.58
G1 Z-3.028 F200.
X26.194 Y44.644 Z-3.08
X26.197 Y44.624 Z-3.128
X26.203 Y44.593 Z-3.17
X26.21 Y44.552 Z-3.202
X26.218 Y44.504 Z-3.222
X26.227 Y44.453 Z-3.228
X26.23 Y44.434
Y44.431 Z-1.32
X26.402 Y43.522
X26.606 Y42.616
X26.844 Y41.709
X27.11 Y40.825
X27.411 Y39.947
X27.752 Y39.061
X28.116 Y38.207
X28.393 Y37.612
Z-1.31
G0 Z5.
X73.593 Y37.626
Z0.819
G1 Z-1.29 F200.
Y37.627 Z-1.31
X73.594 Y37.628 Z-1.32
X73.918 Y38.332
X74.248 Y39.111
X74.575 Y39.964
X74.828 Y40.696
X75.098 Y41.574
X75.353 Y42.521
X75.542 Y43.344
X75.698 Y44.128
X75.746 Y44.4
X75.747 Y44.405 Z-3.228
X75.749 Y44.418
X75.758 Y44.469 Z-3.222
X75.766 Y44.516 Z-3.202
X75.773 Y44.557 Z-3.17
X75.778 Y44.588 Z-3.128
X75.782 Y44.608 Z-3.08
X75.783 Y44.615 Z-3.028
G0 Z5.
X26.159 Y44.565
Z0.58
G1 Z-3.028 F200.
X26.16 Y44.559 Z-3.08
X26.164 Y44.539 Z-3.128
X26.169 Y44.508 Z-3.17
X26.176 Y44.467 Z-3.202
X26.184 Y44.419 Z-3.222
X26.193 Y44.368 Z-3.228
X26.196 Y44.35
X26.197 Y44.349 Z-1.32
X26.371 Y43.439
X26.582 Y42.514
X26.803 Y41.678
X27.065 Y40.812
X27.366 Y39.934
X27.708 Y39.044
X28.072 Y38.189
X28.354 Y37.582
Z-1.31
G0 Z5.
X73.632 Y37.597
Z0.819
G1 Z-1.306 F200.
Z-1.31
Y37.598 Z-1.32
X73.956 Y38.3
X74.292 Y39.093
X74.619 Y39.948
X74.92 Y40.827
X75.172 Y41.662
X75.417 Y42.584
X75.605 Y43.413
X75.779 Y44.316
X75.78 Y44.32 Z-3.228
X75.783 Y44.334
X75.792 Y44.385 Z-3.222
X75.8 Y44.433 Z-3.202
X75.807 Y44.474 Z-3.17
X75.812 Y44.505 Z-3.128
X75.816 Y44.525 Z-3.08
X75.817 Y44.531 Z-3.028
G0 Z5.
X26.125 Y44.481
Z0.58
G1 Z-3.028 F200.
X26.126 Y44.475 Z-3.08
X26.13 Y44.455 Z-3.128
X26.135 Y44.424 Z-3.17
X26.143 Y44.383 Z-3.202
X26.151 Y44.335 Z-3.222
X26.16 Y44.285 Z-3.228
X26.163 Y44.267
Y44.266 Z-1.32
X26.341 Y43.355
X26.557 Y42.418
X26.794 Y41.54
X27.067 Y40.652
X27.374 Y39.775
X27.664 Y39.026
X28.028 Y38.172
X28.316 Y37.553
Z-1.31
G0 Z5.
X73.669 Y37.567
Z0.819
G1 Z-1.291 F200.
X73.67 Z-1.31
Y37.568 Z-1.32
X73.994 Y38.27
X74.335 Y39.074
X74.664 Y39.931
X74.964 Y40.81
X75.218 Y41.649
X75.463 Y42.572
X75.659 Y43.441
X75.813 Y44.232
Y44.235 Z-3.228
X75.816 Y44.251
X75.825 Y44.302 Z-3.222
X75.833 Y44.349 Z-3.202
X75.841 Y44.39 Z-3.17
X75.846 Y44.421 Z-3.128
X75.85 Y44.441 Z-3.08
X75.851 Y44.448 Z-3.028
G0 Z5.
X26.092 Y44.398
Z0.58
G1 Z-3.028 F200.
X26.093 Y44.391 Z-3.08
X26.096 Y44.371 Z-3.128
X26.102 Y44.34 Z-3.17
X26.109 Y44.299 Z-3.202
X26.118 Y44.252 Z-3.222
X26.127 Y44.201 Z-3.228
X26.13 Y44.183
Y44.182 Z-1.32
X26.31 Y43.272
X26.521 Y42.368
X26.749 Y41.527
X27.022 Y40.639
X27.328 Y39.762
X27.62 Y39.009
X27.984 Y38.155
X28.278 Y37.522
Z-1.31
G0 Z5.
X73.707 Y37.537
Z0.819
G1 Z-1.3 F200.
X73.708 Z-1.31
Y37.538 Z-1.32
X74.033 Y38.241
X74.379 Y39.056
X74.708 Y39.915
X75.009 Y40.794
X75.263 Y41.636
X75.513 Y42.579
X75.697 Y43.394
X75.846 Y44.149
Y44.151 Z-3.228
X75.849 Y44.167
X75.858 Y44.218 Z-3.222
X75.867 Y44.266 Z-3.202
X75.874 Y44.307 Z-3.17
X75.88 Y44.338 Z-3.128
X75.883 Y44.358 Z-3.08
X75.884 Y44.364 Z-3.028
G0 Z5.
X26.058 Y44.315
Z0.58
G1 Z-3.028 F200.
X26.059 Y44.308 Z-3.08
X26.063 Y44.289 Z-3.128
X26.069 Y44.257 Z-3.17
X26.076 Y44.217 Z-3.202
X26.085 Y44.169 Z-3.222
X26.094 Y44.118 Z-3.228
X26.097 Y44.1
X26.098 Y44.096 Z-1.32
X26.28 Y43.189
X26.501 Y42.258
X26.746 Y41.365
X27.025 Y40.479
X27.293 Y39.72
X27.635 Y38.848
X28.003 Y37.998
X28.242 Y37.49
Z-1.31
G0 Z5.
X73.745 Y37.506
Z0.819
G1 Z-1.305 F200.
Z-1.31
Z-1.32
X74.07 Y38.208
X74.422 Y39.037
X74.752 Y39.899
X75.053 Y40.778
X75.309 Y41.623
X75.559 Y42.567
X75.743 Y43.384
X75.878 Y44.066
Z-3.228
X75.882 Y44.084
X75.891 Y44.135 Z-3.222
X75.9 Y44.182 Z-3.202
X75.907 Y44.223 Z-3.17
X75.913 Y44.254 Z-3.128
X75.917 Y44.274 Z-3.08
X75.918 Y44.281 Z-3.028
G0 Z5.
X26.025 Y44.233
Z0.58
G1 Z-3.028 F200.
X26.026 Y44.226 Z-3.08
X26.03 Y44.206 Z-3.128
X26.035 Y44.175 Z-3.17
X26.043 Y44.134 Z-3.202
X26.052 Y44.087 Z-3.222
X26.061 Y44.036 Z-3.228
X26.064 Y44.017
X26.065 Y44.014 Z-1.32
X26.249 Y43.107
X26.466 Y42.204
X26.701 Y41.352
X26.98 Y40.466
X27.249 Y39.704
X27.591 Y38.831
X27.96 Y37.979
X28.206 Y37.455
Z-1.31
G0 Z5.
X73.781 Y37.473
Z0.819
G1 Z-1.308 F200.
Z-1.31
Z-1.32
X74.107 Y38.175
X74.466 Y39.019
X74.797 Y39.883
X75.097 Y40.762
X75.354 Y41.61
X75.581 Y42.461
X75.773 Y43.297
X75.911 Y43.984
Z-3.228
X75.915 Y44.002
X75.924 Y44.053 Z-3.222
X75.933 Y44.1 Z-3.202
X75.94 Y44.141 Z-3.17
X75.946 Y44.172 Z-3.128
X75.95 Y44.192 Z-3.08
X75.951 Y44.199 Z-3.028
G0 Z5.
X25.991 Y44.15
Z0.58
G1 Z-3.028 F200.
X25.993 Y44.143 Z-3.08
X25.996 Y44.124 Z-3.128
X26.002 Y44.092 Z-3.17
X26.01 Y44.052 Z-3.202
X26.019 Y44.004 Z-3.222
X26.028 Y43.954 Z-3.228
X26.032 Y43.935
Y43.933 Z-1.32
X26.227 Y42.992
X26.455 Y42.058
X26.711 Y41.154
X26.984 Y40.307
X27.259 Y39.543
X27.606 Y38.671
X27.922 Y37.949
X28.17 Y37.421
Z-1.31
G0 Z5.
X73.816 Y37.437
Z0.819
G1 Z-1.294 F200.
X73.817 Z-1.31
Y37.438 Z-1.32
X74.143 Y38.139
X74.509 Y39.
X74.841 Y39.866
X75.142 Y40.745
X75.399 Y41.597
X75.646 Y42.524
X75.844 Y43.402
X75.944 Y43.902
Z-3.228
X75.947 Y43.92
X75.957 Y43.971 Z-3.222
X75.966 Y44.018 Z-3.202
X75.973 Y44.059 Z-3.17
X75.979 Y44.09 Z-3.128
X75.983 Y44.11 Z-3.08
X75.984 Y44.116 Z-3.028
G0 Z5.
X25.958 Y44.068
Z0.58
G1 Z-3.028 F200.
X25.96 Y44.061 Z-3.08
X25.964 Y44.041 Z-3.128
X25.969 Y44.01 Z-3.17
X25.977 Y43.969 Z-3.202
X25.986 Y43.922 Z-3.222
X25.996 Y43.871 Z-3.228
X25.999 Y43.853
X26. Y43.852 Z-1.32
X26.189 Y42.944
X26.417 Y42.018
X26.671 Y41.122
X26.939 Y40.293
X27.215 Y39.526
X27.562 Y38.653
X27.879 Y37.929
X28.131 Y37.393
Z-1.31
Z-1.309
G0 Z5.
X73.854 Y37.406
Z0.819
G1 Z-1.297 F200.
Z-1.31
X73.855 Y37.407 Z-1.32
X74.182 Y38.11
X74.553 Y38.982
X74.886 Y39.85
X75.186 Y40.729
X75.445 Y41.584
X75.696 Y42.531
X75.898 Y43.43
X75.976 Y43.82
Z-3.228
X75.979 Y43.837
X75.989 Y43.888 Z-3.222
X75.998 Y43.935 Z-3.202
X76.006 Y43.976 Z-3.17
X76.012 Y44.007 Z-3.128
X76.016 Y44.027 Z-3.08
X76.017 Y44.034 Z-3.028
G0 Z5.
X25.926 Y43.985
Z0.58
G1 Z-3.028 F200.
X25.927 Y43.978 Z-3.08
X25.931 Y43.959 Z-3.128
X25.937 Y43.928 Z-3.17
X25.945 Y43.887 Z-3.202
X25.954 Y43.84 Z-3.222
X25.964 Y43.789 Z-3.228
X25.967 Y43.772
Y43.771 Z-1.32
X26.168 Y42.825
X26.401 Y41.895
X26.654 Y41.017
X26.944 Y40.134
X27.225 Y39.366
X27.578 Y38.493
X27.9 Y37.769
