(1001)
(T1  D=0.1 CR=0. - ZMIN=-1.52 - FLAT END MILL)
G0 G90 G94 G17
G21
G53 G0 Z0.

(0.4MM  FLATEND  POCKET)
M5
M9
T1
S16000 M3
G4 P4.
G55
G0 X50.927 Y70.593
Z15.
Z-0.312
G1 Z-1.325 F40.
X50.93 Y70.584 Z-1.335 F333.
X50.947 Y70.564 Z-1.336
X50.973 Y70.556 Z-1.337
X50.999 Y70.563 Z-1.338
X51.017 Y70.583
X51.021 Y70.61 Z-1.339
X51.009 Y70.635 Z-1.34
X50.986 Y70.649 Z-1.341
X50.959 Y70.648 Z-1.342
X50.937 Y70.633 Z-1.343
X50.927 Y70.608 Z-1.344
X50.931 Y70.582 Z-1.345
X50.95 Y70.562 Z-1.346
X50.976 Y70.556 Z-1.347
X51.002 Y70.565 Z-1.348
X51.018 Y70.586 Z-1.349
X51.02 Y70.613 Z-1.35
X51.007 Y70.637 Z-1.351
X50.983 Y70.65 Z-1.352
X50.956 Y70.647 Z-1.353
X50.935 Y70.631 Z-1.354
X50.926 Y70.605 Z-1.355
X50.933 Y70.579 Z-1.356
X50.953 Y70.561 Z-1.357
X50.979 Y70.556 Z-1.358
X51.004 Y70.566 Z-1.359
X51.019 Y70.589 Z-1.36
Y70.616
X51.005 Y70.639 Z-1.361
X50.981 Y70.65 Z-1.362
X50.954 Y70.646 Z-1.363
X50.933 Y70.628 Z-1.364
X50.926 Y70.602 Z-1.365
X50.934 Y70.577 Z-1.366
X50.955 Y70.559 Z-1.367
X50.982 Y70.556 Z-1.368
X51.006 Y70.568 Z-1.369
X51.02 Y70.592 Z-1.37
X51.019 Y70.619 Z-1.371
X51.003 Y70.641 Z-1.372
X50.978 Y70.65 Z-1.373
X50.951 Y70.645 Z-1.374
X50.932 Y70.626 Z-1.375
X50.926 Y70.599 Z-1.376
X50.936 Y70.574 Z-1.377
X50.958 Y70.558 Z-1.378
X50.985 Y70.557 Z-1.379
X51.008 Y70.57 Z-1.38
X51.02 Y70.595 Z-1.381
X51.018 Y70.621 Z-1.382
X51. Y70.642
X50.975 Y70.651 Z-1.383
X50.949 Y70.643 Z-1.384
X50.931 Y70.623 Z-1.385
X50.927 Y70.596 Z-1.386
X50.938 Y70.572 Z-1.387
X50.961 Y70.557 Z-1.388
X50.988 Y70.558 Z-1.389
X51.01 Y70.573 Z-1.39
X51.021 Y70.598 Z-1.391
X51.016 Y70.624 Z-1.392
X50.998 Y70.644 Z-1.393
X50.972 Y70.651 Z-1.394
X50.946 Y70.642 Z-1.395
X50.93 Y70.62 Z-1.396
X50.927 Y70.594 Z-1.397
X50.94 Y70.57 Z-1.398
X50.964 Y70.557 Z-1.399
X50.991 Y70.559 Z-1.4
X51.012 Y70.575 Z-1.401
X51.021 Y70.6 Z-1.402
X51.015 Y70.627 Z-1.403
X50.995 Y70.645 Z-1.404
X50.969 Y70.65 Z-1.405
X50.944 Y70.64
X50.929 Y70.618 Z-1.406
X50.928 Y70.591 Z-1.407
X50.942 Y70.568 Z-1.408
X50.966 Y70.556 Z-1.409
X50.993 Y70.56 Z-1.41
X51.014 Y70.577 Z-1.411
X51.021 Y70.603 Z-1.412
X51.015 Y71.527 F40.
Y71.6
X51.01 Y71.673
X51.007 Y71.682
X50.999 Y71.694
X50.987 Y71.704
X50.971
X50.959 Y71.694
X50.955 Y71.687
X50.954 Y71.679
X50.948 Y71.64
Y71.6
X50.95 Y71.521
X50.945 Y70.671
X50.942 Y70.621
X50.94 Y70.572
X50.945 Y70.556
X50.956 Y70.545
X50.972 Y70.541
X50.989
X51.005 Y70.545
X51.016 Y70.556
X51.021 Y70.572
Y70.603
X51.026 Y70.626
X51.038 Y70.644
X51.057 Y70.657
X51.075 Y70.67
X51.088 Y70.689
X51.092 Y70.711
X51.09 Y71.527
X51.089 Y71.605
X51.084 Y71.683
X51.079 Y71.703
X51.07 Y71.721
X51.061 Y71.736
X51.034 Y71.765
X50.999 Y71.78
X50.96
X50.924 Y71.765
X50.898 Y71.737
X50.888 Y71.716
X50.882 Y71.693
X50.876 Y71.65
X50.874 Y71.607
X50.876 Y71.521
X50.868 Y70.497
X50.872 Y70.482
X50.883 Y70.471
X50.898 Y70.467
X51.062
X51.078 Y70.471
X51.089 Y70.482
X51.093 Y70.497
X51.092 Y70.711
X51.097 Y70.734
X51.11 Y70.754
X51.129 Y70.767
X51.149 Y70.78
X51.162 Y70.799
X51.167 Y70.823
X51.166 Y71.599
X51.163 Y71.646
X51.157 Y71.693
X51.148 Y71.727
X51.133 Y71.759
X51.109 Y71.794
X51.081 Y71.825
X51.051 Y71.846
X51.027 Y71.856
X51.001 Y71.863
X50.964 Y71.862
X50.937 Y71.857
X50.911 Y71.848
X50.879 Y71.826
X50.844 Y71.785
X50.821 Y71.737
X50.809 Y71.685
X50.802 Y71.527
G2 X50.798 Y70.976 I-39.485 J0.
G3 X50.794 Y70.424 I39.481 J-0.552
G1 X50.798 Y70.409
X50.809 Y70.398
X50.824 Y70.394
X51.136
X51.151 Y70.398
X51.163 Y70.409
X51.167 Y70.424
Y70.823
X51.171 Y70.845
X51.184 Y70.864
X51.203 Y70.877
X51.222 Y70.89
X51.235 Y70.909
X51.239 Y70.931
Y71.602
X51.237 Y71.631
X51.233 Y71.66
X51.229 Y71.698
X51.223 Y71.735
X51.212 Y71.766
X51.197 Y71.796
X51.168 Y71.839
X51.134 Y71.877
X51.108 Y71.897
X51.08 Y71.913
X51.026 Y71.932
X50.968 Y71.936
X50.912 Y71.926
X50.866 Y71.907
X50.826 Y71.877
X50.785 Y71.83
X50.756 Y71.774
X50.74 Y71.713
X50.731 Y71.62
X50.728 Y71.527
G2 X50.724 Y70.939 I-44.935 J0.
G3 X50.72 Y70.35 I44.931 J-0.589
G1 X50.724 Y70.335
X50.736 Y70.324
X50.751 Y70.32
X51.21
X51.225 Y70.324
X51.236 Y70.335
X51.24 Y70.35
X51.238 Y70.414
X51.236 Y70.478
X51.238 Y70.577
X51.239 Y70.676
Y70.931
X51.244 Y70.954
X51.257 Y70.974
X51.276 Y70.987
X51.295 Y71.
X51.308 Y71.019
X51.313 Y71.042
Y71.604
X51.307 Y71.685
X51.292 Y71.765
X51.281 Y71.796
X51.266 Y71.825
X51.225 Y71.885
X51.176 Y71.939
X51.15 Y71.959
X51.122 Y71.975
X51.07 Y71.996
X51.016 Y72.009
X50.982 Y72.012
X50.949 Y72.009
X50.894 Y71.997
X50.843 Y71.978
X50.813 Y71.961
X50.786 Y71.94
X50.744 Y71.896
X50.71 Y71.847
X50.684 Y71.793
X50.667 Y71.736
X50.659 Y71.683
X50.656 Y71.629
X50.654 Y71.522
X50.647 Y70.276
X50.651 Y70.261
X50.662 Y70.25
X50.677 Y70.246
X51.284
X51.299 Y70.25
X51.31 Y70.261
X51.314 Y70.276
X51.31 Y70.478
X51.311 Y70.577
X51.313 Y70.676
Y71.042
X51.317 Y71.065
X51.33 Y71.084
X51.35 Y71.097
X51.369 Y71.11
X51.382 Y71.13
X51.387 Y71.153
Y71.607
X51.379 Y71.701
X51.36 Y71.794
X51.349 Y71.825
X51.334 Y71.855
X51.281 Y71.932
X51.251 Y71.967
X51.217 Y72.
X51.192 Y72.02
X51.164 Y72.037
X51.091 Y72.066
X51.015 Y72.084
X50.982 Y72.086
X50.948 Y72.084
X50.873 Y72.067
X50.801 Y72.04
X50.771 Y72.023
X50.744 Y72.002
X50.693 Y71.948
X50.649 Y71.888
X50.615 Y71.821
X50.594 Y71.75
X50.586 Y71.694
X50.582 Y71.637
X50.581 Y71.523
X50.573 Y70.203
X50.577 Y70.188
X50.588 Y70.176
X50.603 Y70.172
X51.358
X51.373 Y70.176
X51.384 Y70.188
X51.388 Y70.203
X51.383 Y70.478
X51.385 Y70.577
X51.386 Y70.676
X51.387 Y71.153
X51.391 Y71.175
X51.404 Y71.195
X51.424 Y71.208
X51.443 Y71.221
X51.456 Y71.24
X51.46 Y71.263
Y71.527
X51.462 Y71.558
X51.464 Y71.589
X51.462 Y71.632
X51.448 Y71.728
X51.428 Y71.824
X51.418 Y71.855
X51.402 Y71.884
X51.337 Y71.978
X51.3 Y72.022
X51.259 Y72.062
X51.234 Y72.082
X51.205 Y72.098
X51.113 Y72.136
X51.064 Y72.149
X51.015 Y72.158
X50.982 Y72.161
X50.948 Y72.158
X50.852 Y72.137
X50.76 Y72.102
X50.73 Y72.085
X50.703 Y72.064
X50.641 Y72.
X50.588 Y71.929
X50.559 Y71.877
X50.537 Y71.822
X50.522 Y71.764
X50.513 Y71.704
X50.509 Y71.644
X50.507 Y71.523
X50.499 Y70.129
X50.503 Y70.114
X50.514 Y70.103
X50.53 Y70.099
X51.431
X51.447 Y70.103
X51.458 Y70.114
X51.462 Y70.129
X51.457 Y70.478
X51.459 Y70.577
X51.46 Y70.676
Y71.263
X51.465 Y71.286
X51.478 Y71.305
X51.497 Y71.318
X51.517 Y71.331
X51.53 Y71.35
X51.534 Y71.373
Y71.527
X51.536 Y71.559
X51.538 Y71.59
X51.536 Y71.635
X51.497 Y71.853
X51.486 Y71.884
X51.471 Y71.914
X51.393 Y72.024
X51.349 Y72.076
X51.301 Y72.124
X51.275 Y72.144
X51.247 Y72.16
X51.191 Y72.185
X51.134 Y72.205
X51.075 Y72.222
X51.015 Y72.233
X50.981 Y72.235
X50.948 Y72.233
X50.889 Y72.222
X50.831 Y72.207
X50.774 Y72.188
X50.719 Y72.164
X50.689 Y72.147
X50.662 Y72.126
X50.6 Y72.066
X50.546 Y72.
X50.509 Y71.942
X50.48 Y71.881
X50.459 Y71.816
X50.438 Y71.716
X50.43 Y71.615
X50.426 Y70.055
X50.43 Y70.04
X50.441 Y70.029
X50.456 Y70.025
X51.505
X51.52 Y70.029
X51.532 Y70.04
X51.536 Y70.055
X51.531 Y70.478
X51.532 Y70.577
X51.534 Y70.677
Y71.373
X51.539 Y71.396
X51.552 Y71.416
X51.571 Y71.429
X51.59 Y71.442
X51.603 Y71.462
X51.608 Y71.485
Y71.527
X51.609 Y71.559
X51.612 Y71.592
X51.61 Y71.637
X51.565 Y71.883
X51.554 Y71.914
X51.539 Y71.943
X51.496 Y72.008
X51.449 Y72.071
X51.398 Y72.13
X51.343 Y72.185
X51.317 Y72.205
X51.289 Y72.222
X51.223 Y72.251
X51.155 Y72.275
X51.086 Y72.294
X51.015 Y72.307
X50.981 Y72.31
X50.948 Y72.307
G3 X50.677 Y72.226 I0.152 J-0.997
G1 X50.647 Y72.209
X50.62 Y72.188
X50.549 Y72.119
X50.486 Y72.043
X50.447 Y71.988
X50.414 Y71.928
X50.394 Y71.87
X50.377 Y71.811
X50.371 Y71.777
X50.362 Y71.701
X50.355 Y71.617
X50.352 Y69.982
X50.356 Y69.966
X50.367 Y69.955
X50.382 Y69.951
X51.579
X51.594 Y69.955
X51.605 Y69.966
X51.609 Y69.982
X51.604 Y70.478
X51.608 Y70.536
X51.611 Y70.594
X51.608 Y71.485
X51.613 Y71.508
X51.626 Y71.528
X51.646 Y71.541
X51.666 Y71.553
X51.68 Y71.572
X51.686 Y71.595
X51.684 Y71.64
X51.634 Y71.912
X51.623 Y71.943
X51.608 Y71.973
X51.559 Y72.047
X51.506 Y72.117
X51.448 Y72.185
X51.385 Y72.247
X51.359 Y72.267
X51.331 Y72.283
X51.238 Y72.329
X51.205 Y72.341
X51.11 Y72.365
X51.014 Y72.382
X50.981 Y72.384
X50.947 Y72.382
X50.846 Y72.366
X50.812 Y72.359
X50.723 Y72.326
X50.636 Y72.288
X50.606 Y72.271
X50.579 Y72.25
X50.496 Y72.175
X50.473 Y72.151
X50.414 Y72.071
X50.359 Y71.987
X50.345 Y71.959
X50.334 Y71.929
X50.305 Y71.825
X50.298 Y71.791
X50.287 Y71.698
X50.281 Y71.619
X50.282 Y70.674
X50.278 Y69.908
X50.282 Y69.893
X50.293 Y69.882
X50.309 Y69.878
X51.653
X51.668 Y69.882
X51.679 Y69.893
X51.683 Y69.908
X51.678 Y70.478
X51.682 Y70.535
X51.685 Y70.592
X51.681 Y71.527
X51.683 Y71.56
X51.686 Y71.592
Y71.595
X51.691 Y71.616
X51.703 Y71.634
X51.721 Y71.646
X51.738 Y71.66
X51.749 Y71.679
X51.75 Y71.701
X51.746 Y71.731
X51.731 Y71.82
X51.702 Y71.942
X51.691 Y71.973
X51.676 Y72.002
X51.535 Y72.206
X51.512 Y72.23
X51.426 Y72.308
X51.401 Y72.329
X51.373 Y72.345
X51.265 Y72.397
X51.232 Y72.41
X51.158 Y72.433
X51.124 Y72.44
X51.014 Y72.457
X50.981 Y72.459
X50.947 Y72.456
X50.829 Y72.438
X50.795 Y72.431
X50.595 Y72.35
X50.565 Y72.333
X50.537 Y72.312
X50.442 Y72.226
X50.42 Y72.202
X50.291 Y72.017
X50.276 Y71.989
X50.266 Y71.959
X50.232 Y71.839
X50.226 Y71.805
X50.219 Y71.731
X50.212 Y71.657
X50.21 Y71.591
X50.212 Y71.524
X50.205 Y69.834
X50.209 Y69.819
X50.22 Y69.808
X50.235 Y69.804
X51.727
X51.742 Y69.808
X51.753 Y69.819
X51.757 Y69.834
X51.752 Y70.478
X51.755 Y70.535
X51.76 Y70.591
X51.755 Y71.527
X51.757 Y71.56
X51.76 Y71.593
X51.759 Y71.642
X51.75 Y71.701
X51.752 Y71.724
X51.762 Y71.744
X51.78 Y71.759
X51.798 Y71.774
X51.808 Y71.795
Y71.818
G3 X51.698 Y72.107 I-0.818 J-0.147
G1 X51.646 Y72.184
X51.588 Y72.257
X51.566 Y72.281
X51.468 Y72.37
X51.443 Y72.39
X51.414 Y72.407
X51.292 Y72.466
X51.259 Y72.479
X51.175 Y72.505
X51.141 Y72.513
X51.014 Y72.531
X50.98 Y72.533
X50.947 Y72.531
X50.813 Y72.51
X50.779 Y72.503
X50.553 Y72.412
X50.523 Y72.396
X50.496 Y72.374
X50.389 Y72.277
X50.366 Y72.253
X50.223 Y72.047
X50.208 Y72.019
X50.197 Y71.989
X50.16 Y71.854
X50.153 Y71.82
X50.143 Y71.734
X50.132 Y71.649
X50.131 Y71.596
X50.135 Y71.56
X50.136 Y71.524
X50.135 Y70.674
X50.132 Y70.63
X50.129 Y70.586
X50.132 Y70.54
X50.135 Y70.495
G2 X50.133 Y70.128 I-31.515 J0.
G3 X50.131 Y69.761 I31.513 J-0.367
G1 X50.135 Y69.745
X50.146 Y69.734
X50.161 Y69.73
X51.8
X51.816 Y69.734
X51.827 Y69.745
X51.831 Y69.761
X51.826 Y70.478
X51.829 Y70.534
X51.834 Y70.59
X51.827 Y71.527
X51.829 Y71.572
X51.832 Y71.617
X51.829 Y71.658
X51.823 Y71.699
X51.818 Y71.741
X51.814 Y71.782
X51.808 Y71.818
X51.809 Y71.84
X51.818 Y71.859
X51.834 Y71.874
X51.85 Y71.889
X51.859 Y71.909
X51.857 Y71.931
X51.82 Y72.035
X51.768 Y72.133
X51.642 Y72.308
X51.619 Y72.332
X51.578 Y72.37
X51.514 Y72.422
X51.446 Y72.469
X51.374 Y72.508
X51.319 Y72.535
X51.286 Y72.548
X51.191 Y72.577
X51.157 Y72.585
X51.014 Y72.606
X50.98 Y72.608
X50.947 Y72.605
X50.796 Y72.582
X50.762 Y72.575
X50.512 Y72.474
X50.482 Y72.458
X50.455 Y72.436
X50.335 Y72.327
X50.313 Y72.304
X50.256 Y72.231
X50.204 Y72.156
X50.163 Y72.083
X50.13 Y72.008
X50.104 Y71.93
X50.087 Y71.868
X50.081 Y71.834
X50.07 Y71.744
X50.059 Y71.653
X50.057 Y71.595
X50.061 Y71.56
X50.063 Y71.525
X50.061 Y70.674
X50.058 Y70.63
X50.055 Y70.586
X50.058 Y70.54
X50.061 Y70.495
G2 X50.059 Y70.091 I-38.16 J0.
G3 X50.057 Y69.687 I38.158 J-0.404
G1 X50.061 Y69.672
X50.072 Y69.661
X50.087 Y69.657
X51.874
X51.889 Y69.661
X51.9 Y69.672
X51.905 Y69.687
X51.901 Y70.478
X51.904 Y70.523
X51.909 Y70.563
X51.91 Y70.615
X51.906 Y70.646
X51.905 Y70.677
X51.903 Y71.527
X51.904 Y71.56
X51.908 Y71.592
X51.907 Y71.645
X51.861 Y71.919
X51.857 Y71.931
X51.855 Y71.953
X51.862 Y71.975
X51.877 Y71.993
X51.891 Y72.01
X51.897 Y72.033
X51.893 Y72.055
X51.868 Y72.108
X51.839 Y72.158
X51.695 Y72.359
X51.673 Y72.383
X51.615 Y72.435
X51.555 Y72.485
X51.489 Y72.53
X51.42 Y72.567
X51.346 Y72.604
X51.313 Y72.616
X51.207 Y72.649
X51.173 Y72.657
X51.013 Y72.68
X50.98 Y72.682
X50.946 Y72.68
X50.779 Y72.654
X50.745 Y72.647
X50.629 Y72.606
X50.549 Y72.572
X50.471 Y72.536
X50.441 Y72.52
X50.414 Y72.498
X50.282 Y72.378
X50.259 Y72.355
X50.132 Y72.18
X50.094 Y72.112
X50.063 Y72.04
X50.038 Y71.966
X50.015 Y71.882
X50.008 Y71.848
X49.997 Y71.753
X49.985 Y71.658
X49.982 Y71.626
X49.983 Y71.594
X49.987 Y71.558
X49.989 Y71.525
X49.985 Y70.675
X49.983 Y70.643
X49.98 Y70.611
Y70.56
X49.984 Y70.528
X49.986 Y70.495
X49.983 Y69.612
X49.986 Y69.598
X49.997 Y69.587
X50.011 Y69.583
X51.951
X51.966 Y69.587
X51.976 Y69.598
X51.979 Y69.612
X51.978 Y69.627
X51.977 Y69.642
X51.975 Y70.479
X51.977 Y70.519
X51.983 Y70.56
X51.984 Y70.616
X51.98 Y70.647
X51.978 Y70.678
X51.976 Y71.527
X51.978 Y71.559
X51.982 Y71.591
X51.981 Y71.646
X51.928 Y71.953
X51.893 Y72.055
X51.888 Y72.077
X51.892 Y72.099
X51.903 Y72.118
X51.915 Y72.137
X51.917 Y72.16
X51.909 Y72.181
X51.871 Y72.241
X51.831 Y72.3
X51.79 Y72.355
X51.747 Y72.409
X51.725 Y72.432
X51.649 Y72.502
X51.564 Y72.569
X51.47 Y72.623
X51.372 Y72.67
X51.34 Y72.683
X51.223 Y72.719
X51.189 Y72.727
X51.013 Y72.752
X50.98 Y72.755
X50.946 Y72.752
X50.763 Y72.724
X50.729 Y72.717
X50.603 Y72.673
X50.516 Y72.636
X50.43 Y72.597
X50.4 Y72.58
X50.373 Y72.559
X50.23 Y72.428
X50.207 Y72.404
X50.06 Y72.199
X50.01 Y72.106
X49.975 Y72.006
X49.944 Y71.896
X49.938 Y71.862
X49.928 Y71.777
X49.918 Y71.692
X49.916 Y71.677
X49.913 Y71.663
X49.909 Y71.628
X49.911 Y71.593
X49.915 Y71.561
X49.917 Y71.525
X49.914 Y70.675
X49.912 Y70.646
X49.908 Y70.614
Y70.558
X49.912 Y70.526
X49.914 Y70.495
X49.915 Y69.637
X49.911 Y69.594
X49.905 Y69.551
Y69.541
X49.909 Y69.526
X49.92 Y69.515
X49.935 Y69.511
X52.03
X52.046 Y69.516
X52.057 Y69.53
X52.059 Y69.547
X52.051 Y69.594
X52.047 Y69.643
X52.046 Y70.479
X52.049 Y70.518
X52.055 Y70.556
X52.057 Y70.587
X52.055 Y70.617
X52.052 Y70.649
X52.05 Y70.678
X52.048 Y71.527
X52.05 Y71.557
X52.054 Y71.589
X52.053 Y71.647
X52.018 Y71.878
X51.992 Y71.989
X51.958 Y72.088
X51.91 Y72.181
X51.909
X51.901 Y72.203
X51.902 Y72.227
X51.912 Y72.248
X51.921 Y72.27
X51.922 Y72.293
X51.913 Y72.315
X51.892 Y72.344
X51.848 Y72.403
X51.802 Y72.461
X51.78 Y72.484
X51.678 Y72.576
X51.607 Y72.633
X51.528 Y72.678
X51.4 Y72.741
X51.367 Y72.754
X51.239 Y72.793
X51.205 Y72.8
X51.013 Y72.828
X50.98 Y72.831
X50.946 Y72.828
X50.746 Y72.798
X50.712 Y72.79
X50.644 Y72.768
X50.576 Y72.743
X50.388 Y72.66
X50.357 Y72.642
X50.329 Y72.62
X50.175 Y72.48
X50.152 Y72.456
X50.108 Y72.4
X50.066 Y72.344
X50.022 Y72.279
X49.98 Y72.213
X49.94 Y72.137
X49.911 Y72.055
X49.87 Y71.911
X49.864 Y71.877
X49.843 Y71.708
X49.838 Y71.632
X49.839 Y71.555
X49.84 Y71.541
X49.841 Y71.526
X49.838 Y70.675
X49.836 Y70.644
X49.832 Y70.617
X49.83 Y70.586
X49.832 Y70.555
X49.836 Y70.525
X49.838 Y70.495
X49.839 Y69.637
X49.836 Y69.599
X49.83 Y69.562
Y69.53
X49.836 Y69.466
X49.841 Y69.451
X49.852 Y69.44
X49.867 Y69.436
X52.096
X52.112 Y69.44
X52.123 Y69.451
X52.127 Y69.466
X52.134 Y69.525
X52.133 Y69.56
X52.126 Y69.601
X52.123 Y69.643
X52.122 Y70.479
X52.124 Y70.515
X52.13 Y70.552
X52.133 Y70.586
X52.131 Y70.62
X52.127 Y70.647
X52.125 Y70.678
X52.123 Y71.527
X52.125 Y71.557
X52.129 Y71.586
X52.131 Y71.618
X52.129 Y71.651
X52.092 Y71.892
X52.059 Y72.03
X52.029 Y72.118
X51.986 Y72.201
X51.94 Y72.273
X51.913 Y72.315
X51.904 Y72.336
X51.903 Y72.359
X51.912 Y72.38
X51.92 Y72.401
X51.919 Y72.424
X51.909 Y72.445
X51.905 Y72.45
X51.856 Y72.512
X51.833 Y72.535
X51.699 Y72.658
X51.65 Y72.696
X51.596 Y72.727
X51.427 Y72.81
X51.394 Y72.822
X51.256 Y72.865
X51.222 Y72.873
X51.017 Y72.903
X50.98 Y72.906
X50.943 Y72.903
X50.729 Y72.87
X50.696 Y72.862
X50.622 Y72.838
X50.549 Y72.812
X50.346 Y72.722
X50.313 Y72.703
X50.284 Y72.679
X50.121 Y72.531
X50.099 Y72.507
X50.051 Y72.448
X50.005 Y72.387
X49.888 Y72.206
X49.867 Y72.168
X49.853 Y72.126
X49.798 Y71.925
X49.791 Y71.891
X49.781 Y71.801
X49.77 Y71.71
X49.767 Y71.692
X49.763 Y71.675
X49.758 Y71.632
X49.761 Y71.588
X49.766 Y71.557
X49.768 Y71.526
X49.764 Y70.676
X49.762 Y70.648
X49.758 Y70.621
X49.756 Y70.586
X49.758 Y70.551
X49.763 Y70.523
X49.764 Y70.495
X49.765 Y69.637
X49.762 Y69.606
X49.757 Y69.575
X49.755 Y69.546
X49.757 Y69.517
X49.763 Y69.455
X49.764 Y69.393
X49.768 Y69.377
X49.779 Y69.366
X49.795 Y69.362
X52.17
X52.185 Y69.366
X52.196 Y69.377
X52.201 Y69.393
Y69.453
X52.206 Y69.512
X52.209 Y69.543
X52.206 Y69.574
X52.2 Y69.608
X52.197 Y69.643
Y70.479
X52.198 Y70.498
X52.2 Y70.518
X52.204 Y70.585
X52.202 Y70.651
X52.201 Y70.665
X52.2 Y70.678
X52.198 Y71.527
X52.199 Y71.539
X52.2 Y71.551
X52.201 Y71.636
X52.194 Y71.721
X52.18 Y71.814
X52.164 Y71.907
X52.144 Y71.994
X52.122 Y72.081
X52.097 Y72.152
X52.061 Y72.219
X51.953 Y72.387
X51.909 Y72.445
X51.899 Y72.466
X51.897 Y72.489
X51.905 Y72.511
X51.912 Y72.533
X51.909 Y72.556
X51.897 Y72.576
X51.887 Y72.586
X51.744 Y72.715
X51.737 Y72.723
X51.73 Y72.73
X51.693 Y72.761
X51.651 Y72.784
X51.641 Y72.788
X51.631 Y72.792
X51.454 Y72.879
X51.422 Y72.891
X51.272 Y72.937
X51.238 Y72.945
X51.023 Y72.977
X50.98 Y72.981
X50.938 Y72.977
X50.713 Y72.942
X50.679 Y72.934
X50.6 Y72.909
X50.522 Y72.881
X50.325 Y72.794
X50.274 Y72.765
X50.229 Y72.728
X50.068 Y72.582
X50.045 Y72.558
X49.994 Y72.495
X49.945 Y72.43
X49.823 Y72.241
X49.798 Y72.198
X49.783 Y72.15
X49.781 Y72.139
X49.778 Y72.128
X49.725 Y71.94
X49.718 Y71.906
X49.708 Y71.812
X49.697 Y71.719
X49.693 Y71.698
X49.688 Y71.677
X49.683 Y71.63
X49.687 Y71.584
X49.692 Y71.555
X49.694 Y71.526
X49.69 Y70.676
X49.689 Y70.66
X49.687 Y70.644
X49.684 Y70.586
X49.687 Y70.528
X49.689 Y70.511
X49.69 Y70.495
Y69.637
X49.689 Y69.611
X49.684 Y69.586
X49.681 Y69.546
X49.684 Y69.506
X49.69 Y69.46
X49.691 Y69.413
Y69.319
X49.695 Y69.303
X49.707 Y69.292
X49.722 Y69.288
X52.243
X52.258 Y69.292
X52.27 Y69.303
X52.274 Y69.319
X52.273 Y69.41
X52.274 Y69.456
X52.279 Y69.501
X52.283 Y69.544
X52.278 Y69.586
X52.273 Y69.614
X52.271 Y69.643
X52.27 Y70.479
X52.272 Y70.505
X52.276 Y70.531
X52.281 Y70.583
X52.278 Y70.636
X52.275 Y70.657
X52.273 Y70.678
X52.272 Y71.527
X52.273 Y71.545
X52.275 Y71.563
X52.278 Y71.619
X52.274 Y71.676
X52.237 Y71.922
X52.182 Y72.142
X52.162 Y72.195
X52.134 Y72.244
X52.013 Y72.43
X51.962 Y72.497
X51.909 Y72.563
X51.897 Y72.576
X51.885 Y72.595
X51.88 Y72.617
X51.884 Y72.639
X51.887 Y72.661
X51.881 Y72.683
X51.867 Y72.701
X51.851 Y72.714
X51.807 Y72.754
X51.768 Y72.799
X51.738 Y72.828
X51.7 Y72.845
X51.643 Y72.865
X51.589 Y72.891
X51.481 Y72.947
X51.449 Y72.96
X51.288 Y73.01
X51.254 Y73.017
X51.045 Y73.047
X51.034 Y73.049
X51.023 Y73.052
X50.98 Y73.058
X50.938 Y73.052
X50.927 Y73.049
X50.916 Y73.047
X50.696 Y73.014
X50.662 Y73.007
X50.578 Y72.98
X50.495 Y72.95
X50.264 Y72.848
X50.226 Y72.828
X50.194 Y72.799
X50.185 Y72.789
X50.177 Y72.78
X50.014 Y72.633
X49.991 Y72.609
X49.937 Y72.542
X49.885 Y72.473
X49.773 Y72.298
X49.761 Y72.282
X49.747 Y72.266
X49.725 Y72.233
X49.714 Y72.194
X49.704 Y72.133
X49.688 Y72.073
X49.652 Y71.954
X49.646 Y71.92
X49.62 Y71.706
X49.615 Y71.687
X49.61 Y71.667
X49.606 Y71.624
X49.612 Y71.582
X49.618 Y71.554
X49.62 Y71.526
X49.617 Y70.676
X49.614 Y70.652
X49.61 Y70.629
X49.605 Y70.586
X49.61 Y70.543
X49.614 Y70.519
X49.617 Y70.495
Y69.637
X49.615 Y69.613
X49.61 Y69.59
X49.605 Y69.546
X49.61 Y69.503
X49.62 Y69.439
X49.621 Y69.374
X49.618 Y69.245
X49.622 Y69.23
X49.634 Y69.218
X49.649 Y69.214
X52.317
X52.332 Y69.218
X52.343 Y69.23
X52.347 Y69.245
X52.343 Y69.375
X52.344 Y69.44
X52.355 Y69.504
X52.36 Y69.545
X52.355 Y69.585
X52.348 Y69.614
X52.345 Y69.643
X52.344 Y70.479
X52.347 Y70.512
X52.355 Y70.543
X52.361 Y70.582
X52.356 Y70.621
X52.35 Y70.65
X52.347 Y70.678
X52.345 Y71.527
X52.347 Y71.553
X52.353 Y71.578
X52.358 Y71.62
X52.352 Y71.662
X52.349 Y71.675
X52.347 Y71.686
X52.309 Y71.936
X52.248 Y72.178
X52.246 Y72.188
X52.245 Y72.197
X52.232 Y72.234
X52.21 Y72.267
X52.196 Y72.283
X52.183 Y72.3
X52.073 Y72.473
X52.019 Y72.544
X51.963 Y72.614
X51.941 Y72.637
X51.867 Y72.701
X51.852 Y72.72
X51.845 Y72.743
X51.847 Y72.767
X51.85 Y72.79
X51.845 Y72.813
X51.834 Y72.834
X51.8 Y72.882
X51.78 Y72.903
X51.752 Y72.911
X51.723 Y72.914
X51.695 Y72.924
X51.602 Y72.97
X51.509 Y73.016
X51.476 Y73.029
X51.304 Y73.082
X51.27 Y73.089
X51.056 Y73.119
X51.03 Y73.126
X51.006 Y73.138
X50.98 Y73.144
X50.954 Y73.138
X50.93 Y73.126
X50.905 Y73.119
X50.679 Y73.087
X50.646 Y73.079
X50.557 Y73.05
X50.469 Y73.019
X50.25 Y72.92
X50.227 Y72.912
X50.202 Y72.909
X50.177 Y72.899
X50.159 Y72.879
X50.145 Y72.855
X50.128 Y72.834
X49.96 Y72.684
X49.938 Y72.66
X49.88 Y72.589
X49.825 Y72.516
X49.791 Y72.463
X49.761 Y72.408
X49.728 Y72.355
X49.686 Y72.308
X49.676 Y72.299
X49.667 Y72.291
X49.649 Y72.266
X49.644 Y72.237
X49.639 Y72.168
X49.621 Y72.1
X49.58 Y71.969
X49.573 Y71.935
X49.562 Y71.79
X49.552 Y71.718
X49.526 Y71.649
X49.52 Y71.622
X49.527 Y71.596
X49.541 Y71.562
X49.547 Y71.527
X49.543 Y70.677
X49.538 Y70.644
X49.526 Y70.613
X49.52 Y70.586
X49.526 Y70.558
X49.538 Y70.528
X49.543 Y70.495
Y69.637
X49.539 Y69.604
X49.527 Y69.574
X49.52 Y69.546
X49.527 Y69.518
X49.538 Y69.489
X49.543 Y69.458
X49.545 Y69.171
X49.55 Y69.156
X49.561 Y69.145
X49.576 Y69.141
X52.39
X52.405 Y69.145
X52.416 Y69.156
X52.421 Y69.171
X52.42 Y69.451
X52.426 Y69.487
X52.441 Y69.52
X52.447 Y69.545
X52.44 Y69.571
X52.424 Y69.605
X52.418 Y69.643
X52.417 Y70.479
X52.423 Y70.517
X52.439 Y70.552
X52.447 Y70.581
X52.44 Y70.61
X52.426 Y70.643
X52.42 Y70.679
X52.418 Y71.527
X52.424 Y71.562
X52.437 Y71.594
X52.443 Y71.621
X52.437 Y71.647
X52.426 Y71.671
X52.419 Y71.696
X52.382 Y71.951
X52.319 Y72.197
X52.315 Y72.219
Y72.241
X52.309 Y72.271
X52.29 Y72.295
X52.255 Y72.325
X52.226 Y72.36
X52.203 Y72.399
X52.171 Y72.459
X52.133 Y72.516
X52.076 Y72.591
X52.017 Y72.665
X51.994 Y72.688
X51.89 Y72.778
X51.86 Y72.804
X51.834 Y72.834
X51.825 Y72.837 Z-1.402
G0 Z5.
X50.903 Y74.939
Z-1.325
G1 X50.906 Y74.929 Z-1.335 F333.
X50.923 Y74.909 Z-1.336
X50.949 Y74.901 Z-1.337
X50.975 Y74.908 Z-1.338
X50.993 Y74.928
X50.997 Y74.955 Z-1.339
X50.985 Y74.979 Z-1.34
X50.963 Y74.994 Z-1.341
X50.936 Y74.993 Z-1.342
X50.913 Y74.978 Z-1.343
X50.903 Y74.953 Z-1.344
X50.907 Y74.927 Z-1.345
X50.926 Y74.907 Z-1.346
X50.952 Y74.901 Z-1.347
X50.977 Y74.909 Z-1.348
X50.994 Y74.931 Z-1.349
X50.996 Y74.958 Z-1.35
X50.983 Y74.982 Z-1.351
X50.96 Y74.995 Z-1.352
X50.933 Y74.992 Z-1.353
X50.911 Y74.976 Z-1.354
X50.902 Y74.951 Z-1.355
X50.909 Y74.924 Z-1.356
X50.928 Y74.906 Z-1.357
X50.955 Y74.901 Z-1.358
X50.98 Y74.911 Z-1.359
X50.995 Y74.934 Z-1.36
X50.996 Y74.961
X50.981 Y74.984 Z-1.361
X50.957 Y74.995 Z-1.362
X50.93 Y74.991 Z-1.363
X50.91 Y74.974 Z-1.364
X50.902 Y74.948 Z-1.365
X50.91 Y74.922 Z-1.366
X50.931 Y74.904 Z-1.367
X50.958 Y74.901 Z-1.368
X50.982 Y74.913 Z-1.369
X50.996 Y74.936 Z-1.37
X50.995 Y74.963 Z-1.371
X50.979 Y74.985 Z-1.372
X50.954 Y74.995 Z-1.373
X50.927 Y74.99 Z-1.374
X50.908 Y74.971 Z-1.375
X50.902 Y74.945 Z-1.376
X50.912 Y74.919 Z-1.377
X50.934 Y74.903 Z-1.378
X50.961 Y74.902 Z-1.379
X50.984 Y74.915 Z-1.38
X50.996 Y74.939 Z-1.381
X50.994 Y74.966 Z-1.382
X50.977 Y74.987
X50.951 Y74.996 Z-1.383
X50.925 Y74.989 Z-1.384
X50.907 Y74.968 Z-1.385
X50.903 Y74.942 Z-1.386
X50.914 Y74.917 Z-1.387
X50.936 Y74.902 Z-1.388
X50.964 Y74.903 Z-1.389
X50.986 Y74.917 Z-1.39
X50.997 Y74.942 Z-1.391
X50.992 Y74.969 Z-1.392
X50.974 Y74.989 Z-1.393
X50.948 Y74.996 Z-1.394
X50.922 Y74.987 Z-1.395
X50.906 Y74.966 Z-1.396
X50.903 Y74.939 Z-1.397
X50.916 Y74.915 Z-1.398
X50.939 Y74.902 Z-1.399
X50.966 Y74.904 Z-1.4
X50.988 Y74.92 Z-1.401
X50.997 Y74.945 Z-1.402
X50.991 Y74.971 Z-1.403
X50.972 Y74.99 Z-1.404
X50.945 Y74.995 Z-1.405
X50.92 Y74.985
X50.905 Y74.963 Z-1.406
X50.904 Y74.936 Z-1.407
X50.918 Y74.913 Z-1.408
X50.942 Y74.901 Z-1.409
X50.969 Y74.905 Z-1.41
X50.99 Y74.922 Z-1.411
X50.997 Y74.948 Z-1.412
Y75.25 F40.
X50.992 Y75.261
X50.981 Y75.266
X50.97 Y75.264
X50.963 Y75.257
X50.962 Y75.247
X50.963 Y75.237
X50.962 Y75.092
X50.961 Y74.947
X50.965 Y74.936
X50.975 Y74.93
X50.983
X50.993 Y74.936
X50.997 Y74.947
Y74.948
X51.002 Y74.965
X51.016 Y74.976
X51.03 Y74.988
X51.035 Y75.005
Y75.274
X51.031 Y75.289
X51.02 Y75.3
X51.005 Y75.304
X50.953
X50.938 Y75.3
X50.927 Y75.289
X50.923 Y75.274
Y74.93
X50.927 Y74.914
X50.938 Y74.902
X50.954 Y74.895
X50.971 Y74.893
X50.989
X51.005 Y74.895
X51.02 Y74.901
X51.031 Y74.914
X51.035 Y74.93
Y75.005
X51.04 Y75.027
X51.052 Y75.046
X51.072 Y75.059
X51.091 Y75.072
X51.103 Y75.091
X51.108 Y75.114
X51.109 Y75.347
X51.105 Y75.362
X51.094 Y75.374
X51.078 Y75.378
X50.88
X50.865 Y75.374
X50.854 Y75.363
X50.85 Y75.348
X50.855 Y75.101
Y74.977
X50.847 Y74.854
X50.85 Y74.84
X50.859 Y74.83
X50.873 Y74.826
X50.916 Y74.825
X50.959 Y74.82
X51.001
X51.085 Y74.826
X51.099 Y74.83
X51.108 Y74.84
X51.111 Y74.854
X51.109 Y74.876
X51.107 Y74.898
X51.108 Y75.114
X51.112 Y75.135
X51.124 Y75.152
X51.142 Y75.164
X51.16 Y75.176
X51.172 Y75.193
X51.176 Y75.214
X51.178 Y75.416
X51.173 Y75.431
X51.162 Y75.442
X51.147 Y75.447
X50.811
X50.796 Y75.442
X50.785 Y75.432
X50.781 Y75.417
X50.784 Y74.898
X50.778 Y74.837
X50.761 Y74.779
X50.762 Y74.766
X50.769 Y74.756
X50.781 Y74.753
X50.864 Y74.757
X50.907
X50.95 Y74.752
X50.98 Y74.749
X51.01 Y74.752
X51.06 Y74.758
X51.11
X51.144 Y74.754
X51.178 Y74.75
X51.19 Y74.753
X51.198 Y74.763
Y74.775
X51.181 Y74.835
X51.174 Y74.898
G2 X51.176 Y75.157 I17.313 J0.001
G1 Y75.214
X51.18 Y75.234
X51.192 Y75.25
X51.208 Y75.261
X51.225 Y75.272
X51.237 Y75.289
X51.241 Y75.308
Y75.48
X51.237 Y75.495
X51.226 Y75.506
X51.211 Y75.51
X50.747
X50.732 Y75.506
X50.721 Y75.495
X50.717 Y75.48
X50.721 Y74.898
X50.716 Y74.843
X50.701 Y74.791
X50.676 Y74.742
X50.645 Y74.698
X50.642 Y74.688
X50.647 Y74.679
X50.657 Y74.676
X50.798 Y74.694
X50.869 Y74.696
X50.94 Y74.689
X50.98 Y74.685
X51.02 Y74.689
X51.091 Y74.696
X51.161 Y74.691
X51.301 Y74.675
X51.311 Y74.678
X51.316 Y74.688
X51.313 Y74.698
X51.282 Y74.743
X51.258 Y74.791
X51.242 Y74.844
X51.237 Y74.898
G2 X51.239 Y75.189 I19.826 J0.001
G1 X51.241 Y75.308
X51.236 Y75.317 Z-1.402
G0 Z5.
X53.99 Y73.736
Z-1.325
G1 X53.999 Y73.739 Z-1.335 F333.
X54.02 Y73.756 Z-1.336
X54.028 Y73.782 Z-1.337
X54.021 Y73.808 Z-1.338
X54.001 Y73.826
X53.974 Y73.83 Z-1.339
X53.949 Y73.818 Z-1.34
X53.935 Y73.795 Z-1.341
Y73.768 Z-1.342
X53.95 Y73.746 Z-1.343
X53.975 Y73.735 Z-1.344
X54.002 Y73.74 Z-1.345
X54.021 Y73.758 Z-1.346
X54.028 Y73.785 Z-1.347
X54.019 Y73.81 Z-1.348
X53.998 Y73.827 Z-1.349
X53.971 Y73.829 Z-1.35
X53.947 Y73.816 Z-1.351
X53.934 Y73.793 Z-1.352
X53.936 Y73.766 Z-1.353
X53.953 Y73.744 Z-1.354
X53.978 Y73.735 Z-1.355
X54.004 Y73.741 Z-1.356
X54.023 Y73.761 Z-1.357
X54.028 Y73.788 Z-1.358
X54.017 Y73.813 Z-1.359
X53.995 Y73.828 Z-1.36
X53.968
X53.945 Y73.814 Z-1.361
X53.934 Y73.79 Z-1.362
X53.937 Y73.763 Z-1.363
X53.955 Y73.743 Z-1.364
X53.981 Y73.735 Z-1.365
X54.007 Y73.743 Z-1.366
X54.024 Y73.764 Z-1.367
X54.027 Y73.79 Z-1.368
X54.016 Y73.815 Z-1.369
X53.992 Y73.829 Z-1.37
X53.965 Y73.828 Z-1.371
X53.943 Y73.812 Z-1.372
X53.933 Y73.787 Z-1.373
X53.939 Y73.76 Z-1.374
X53.957 Y73.741 Z-1.375
X53.984 Y73.735 Z-1.376
X54.009 Y73.745 Z-1.377
X54.025 Y73.766 Z-1.378
X54.027 Y73.793 Z-1.379
X54.013 Y73.817 Z-1.38
X53.989 Y73.829 Z-1.381
X53.963 Y73.827 Z-1.382
X53.941 Y73.81
X53.933 Y73.784 Z-1.383
X53.94 Y73.758 Z-1.384
X53.96 Y73.74 Z-1.385
X53.987 Y73.735 Z-1.386
X54.011 Y73.746 Z-1.387
X54.026 Y73.769 Z-1.388
Y73.796 Z-1.389
X54.011 Y73.819 Z-1.39
X53.987 Y73.83 Z-1.391
X53.96 Y73.825 Z-1.392
X53.94 Y73.807 Z-1.393
X53.933 Y73.781 Z-1.394
X53.942 Y73.755 Z-1.395
X53.963 Y73.739 Z-1.396
X53.99 Y73.736 Z-1.397
X54.014 Y73.748 Z-1.398
X54.027 Y73.772 Z-1.399
X54.025 Y73.799 Z-1.4
X54.009 Y73.821 Z-1.401
X53.984 Y73.83 Z-1.402
X53.957 Y73.824 Z-1.403
X53.938 Y73.805 Z-1.404
X53.933 Y73.778 Z-1.405
X53.943 Y73.753
X53.966 Y73.737 Z-1.406
X53.993 Z-1.407
X54.016 Y73.751 Z-1.408
X54.027 Y73.775 Z-1.409
X54.024 Y73.802 Z-1.41
X54.007 Y73.822 Z-1.411
X53.981 Y73.83 Z-1.412
X53.975 F40.
X53.965 Y73.811
X53.967 Y73.807
X53.97 Y73.802
X53.992 Y73.803
X53.994 Y73.807
X53.997 Y73.812
X53.986 Y73.83
X53.981
X53.962 Y73.834
X53.946 Y73.844
X53.935 Y73.86
X53.916 Y73.882
X53.889 Y73.891
X53.88 Y73.892
X53.857 Y73.893
X53.846 Y73.874
X53.886 Y73.822
X53.923 Y73.767
X53.95 Y73.719
X53.976 Y73.67
X53.985 Y73.663
X53.996 Y73.664
X54.004 Y73.673
X54.046 Y73.772
X54.099 Y73.866
X54.101 Y73.877
X54.095 Y73.888
X54.084 Y73.892
X53.994 Y73.891
X53.903
X53.889
X53.871 Y73.896
X53.856 Y73.907
X53.847 Y73.923
X53.831 Y73.945
X53.806 Y73.956
X53.726 Y73.969
X53.714 Y73.949
X53.762 Y73.889
X53.811 Y73.83
X53.863 Y73.755
X53.909 Y73.676
X53.998 Y73.518
X54.006 Y73.511
X54.016 Y73.513
X54.022 Y73.522
G2 X54.215 Y73.926 I0.908 J-0.185
G1 X54.218 Y73.936
X54.213 Y73.946
X54.203 Y73.951
X53.964 Y73.948
X53.885 Y73.949
X53.806 Y73.956
X53.782 Y73.967
X53.769 Y73.989
X53.756 Y74.011
X53.733 Y74.023
X53.649 Y74.045
X53.568 Y74.075
X53.558 Y74.061
X53.695 Y73.895
X53.763 Y73.805
X53.825 Y73.709
X53.982 Y73.442
X54.01 Y73.385
X54.035 Y73.326
X54.057 Y73.33
X54.058 Y73.365
X54.06 Y73.4
G2 X54.317 Y73.957 I0.866 J-0.062
G1 X54.331 Y73.969
X54.344 Y73.982
X54.348 Y73.992
X54.344 Y74.002
X54.334 Y74.006
G3 X53.948 Y74.002 I-0.041 J-17.037
G1 X53.84 Y74.007
X53.733 Y74.023
X53.713 Y74.034
X53.703 Y74.054
X53.693 Y74.074
X53.674 Y74.087
X53.594 Y74.116
G2 X53.331 Y74.291 I0.333 J0.783
G1 X53.316 Y74.297
X53.3 Y74.291
X53.293 Y74.276
X53.3 Y74.26
X53.424 Y74.137
X53.486 Y74.075
X53.542 Y74.008
X53.782 Y73.684
X53.939 Y73.417
X53.986 Y73.325
X54.022 Y73.241
X54.044 Y73.182
X54.07 Y73.123
X54.092 Y73.128
X54.107 Y73.396
G2 X54.35 Y73.924 I0.823 J-0.059
G1 X54.407 Y73.978
X54.464 Y74.031
X54.469 Y74.041
X54.464 Y74.051
X54.454 Y74.055
X53.904 Y74.052
X53.826 Y74.056
X53.75 Y74.068
X53.674 Y74.087
X53.653 Y74.101
X53.644 Y74.124
X53.635 Y74.148
X53.616 Y74.163
G2 X53.336 Y74.361 I0.303 J0.726
G1 X53.323 Y74.369
X53.309
X53.297 Y74.362
X53.226 Y74.295
X53.218 Y74.279
X53.225 Y74.262
X53.441 Y74.046
X53.686 Y73.734
X53.895 Y73.391
X53.926 Y73.334
X53.952 Y73.274
X53.996 Y73.151
X54.003 Y73.136
X54.048 Y73.053
X54.083 Y72.965
X54.095 Y72.924
X54.106 Y72.883
X54.127 Y72.886
X54.164 Y73.403
G2 X54.386 Y73.887 I0.754 J-0.054
G1 X54.59 Y74.083
X54.595 Y74.093
X54.59 Y74.103
X54.58 Y74.107
G3 X53.931 Y74.103 I-0.088 J-36.539
G2 X53.616 Y74.163 I-0.012 J0.787
G1 X53.598 Y74.178
X53.592 Y74.2
X53.586 Y74.222
X53.57 Y74.238
G2 X53.334 Y74.439 I0.353 J0.653
G1 X53.323 Y74.446
X53.31
X53.299 Y74.439
X53.231 Y74.364
X53.154 Y74.3
X53.146 Y74.289
X53.145 Y74.276
X53.152 Y74.264
X53.174 Y74.246
X53.194 Y74.227
X53.462 Y73.947
X53.696 Y73.633
X53.853 Y73.366
X53.883 Y73.311
X53.908 Y73.253
X53.95 Y73.134
X53.96 Y73.112
G2 X54.066 Y72.874 I-0.818 J-0.504
X54.136 Y72.624 I-20.734 J-5.983
G1 X54.157 Y72.626
X54.207 Y73.389
G2 X54.42 Y73.853 I0.723 J-0.052
G1 X54.564 Y73.992
X54.708 Y74.131
X54.712 Y74.141
X54.708 Y74.151
X54.698 Y74.155
G3 X54.301 Y74.154 I-0.089 J-36.859
G2 X53.904 Y74.153 I-0.308 J36.858
X53.586 Y74.229 I0.002 J0.705
G1 X53.57 Y74.238
X53.554 Y74.253
X53.55 Y74.275
X53.547 Y74.297
X53.533 Y74.314
G2 X53.343 Y74.505 I0.386 J0.573
G1 X53.338 Y74.513
X53.333 Y74.522
X53.323 Y74.529
X53.31
X53.301 Y74.522
G2 X53.071 Y74.301 I-0.568 J0.362
G1 X53.063 Y74.288
X53.069 Y74.274
X53.116 Y74.236
X53.162 Y74.196
X53.425 Y73.919
X53.656 Y73.61
G2 X53.794 Y73.373 I-35.977 J-21.236
X53.905 Y73.123 I-1.085 J-0.631
G1 X53.922 Y73.086
X53.961 Y73.015
X53.993 Y72.942
X54.019 Y72.866
X54.089 Y72.635
X54.159 Y72.278
X54.178 Y72.279
X54.253 Y73.386
G2 X54.465 Y73.833 I0.681 J-0.049
G3 X54.821 Y74.177 I-15.95 J16.846
G1 X54.825 Y74.187
X54.821 Y74.197
X54.811 Y74.201
X53.904 Y74.199
G2 X53.585 Y74.282 I0.002 J0.663
G1 X53.533 Y74.314
X53.52 Y74.329
X53.518 Y74.35
X53.517 Y74.37
X53.505 Y74.387
X53.436 Y74.453
X53.378 Y74.528
X53.352 Y74.571
X53.329 Y74.616
X53.321 Y74.623
X53.31
X53.302 Y74.616
G2 X52.992 Y74.311 I-0.569 J0.268
G1 X52.984 Y74.303
X52.983 Y74.292
X52.988 Y74.283
X53.061 Y74.226
X53.131 Y74.165
X53.39 Y73.892
X53.617 Y73.587
X53.75 Y73.361
G2 X53.864 Y73.105 I-1.042 J-0.615
G1 X53.882 Y73.066
X53.921 Y72.997
X53.953 Y72.924
X53.978 Y72.849
X54.046 Y72.622
X54.119 Y72.271
X54.151 Y71.916
X54.154 Y71.775
X54.15 Y71.705
X54.141 Y71.635
Y71.63
X54.148 Y71.568
X54.15 Y71.506
X54.168 Y71.505
X54.298 Y73.383
G2 X54.484 Y73.788 I0.632 J-0.045
G1 X54.929 Y74.221
X54.933 Y74.231
X54.929 Y74.241
X54.919 Y74.245
X53.904 Y74.244
G2 X53.505 Y74.387 I0.002 J0.631
G1 X53.495 Y74.402
Y74.421
X53.496 Y74.44
X53.487 Y74.456
G2 X53.326 Y74.723 I0.457 J0.458
G1 X53.303
X53.301 Y74.716
G2 X52.922 Y74.323 I-0.568 J0.168
G1 X52.913 Y74.315
X52.911 Y74.304
X52.917 Y74.294
X53.104 Y74.14
X53.361 Y73.869
X53.586 Y73.568
X53.718 Y73.344
G2 X53.828 Y73.096 I-1.024 J-0.604
G1 X53.852 Y73.045
X53.906 Y72.942
X53.945 Y72.833
X54.011 Y72.611
X54.083 Y72.264
X54.114 Y71.913
X54.117 Y71.776
X54.113 Y71.708
X54.105 Y71.641
Y71.624
X54.113 Y71.575
X54.116 Y71.526
X54.111 Y70.637
X54.108 Y70.614
X54.105 Y70.591
Y70.585
X54.114 Y70.492
X54.132 Y70.491
X54.334 Y73.38
G2 X54.51 Y73.762 I0.595 J-0.043
X54.764 Y74.01 I20.715 J-20.963
G3 X55.018 Y74.258 I-20.461 J21.211
G1 X55.022 Y74.268
X55.018 Y74.278
X55.008 Y74.282
X53.904 Y74.28
G2 X53.543 Y74.407 I0.001 J0.585
G1 X53.487 Y74.456
X53.479 Y74.471
X53.481 Y74.488
X53.483 Y74.505
X53.476 Y74.52
G2 X53.336 Y74.898 I0.442 J0.378
G1 X53.341 Y75.244
X53.333 Y75.262
X53.315 Y75.27
X53.297 Y75.262
X53.29 Y75.244
X53.294 Y74.902
G2 X53.188 Y74.568 I-0.584 J0.
X52.907 Y74.358 I-0.457 J0.32
G1 X52.869 Y74.347
X52.831 Y74.338
X52.826 Y74.316
X53.075 Y74.111
X53.328 Y73.845
X53.55 Y73.547
X53.684 Y73.32
G2 X53.79 Y73.08 I-0.96 J-0.567
G1 X53.815 Y73.027
X53.852 Y72.96
X53.883 Y72.89
X53.907 Y72.818
X53.972 Y72.599
X54.043 Y72.256
X54.073 Y71.91
X54.076 Y71.776
X54.072 Y71.71
X54.064 Y71.644
Y71.62
X54.072 Y71.573
X54.075 Y71.526
X54.07 Y70.639
X54.067 Y70.618
X54.064 Y70.596
Y70.579
X54.072 Y70.529
X54.076 Y70.479
X54.072 Y69.604
X54.07 Y69.586
X54.067 Y69.568
X54.071 Y69.555
X54.083 Y69.549
X54.09
X54.101 Y69.553
X54.107 Y69.564
X54.375 Y73.377
G2 X54.539 Y73.733 I0.555 J-0.04
G1 X55.125 Y74.305
X55.115 Y74.327
X55.081 Y74.323
X55.048 Y74.321
X53.904
G2 X53.501 Y74.492 I0.001 J0.565
G1 X53.476 Y74.52
X53.468 Y74.539
X53.471 Y74.558
X53.476 Y74.577
X53.47 Y74.596
G2 X53.378 Y74.898 I0.448 J0.301
G1 X53.382 Y75.283
X53.378 Y75.299
X53.367 Y75.31
X53.351 Y75.314
X53.278
X53.263 Y75.31
X53.252 Y75.299
X53.248 Y75.284
X53.252 Y74.902
G2 X53.155 Y74.591 I-0.548 J0.
X52.895 Y74.396 I-0.423 J0.292
G1 X52.801 Y74.372
X52.706 Y74.364
X52.702 Y74.347
X52.784 Y74.3
X52.86 Y74.242
X53.005 Y74.12
X53.256 Y73.865
X53.48 Y73.577
X53.672 Y73.26
X53.697 Y73.213
X53.718 Y73.165
X53.752 Y73.065
X53.763 Y73.035
X53.778 Y73.008
X53.815 Y72.942
X53.845 Y72.874
X53.869 Y72.802
X53.933 Y72.586
X54.002 Y72.248
X54.032 Y71.906
X54.035 Y71.779
X54.023 Y71.652
X54.024 Y71.611
X54.03 Y71.569
X54.033 Y71.526
X54.029 Y70.642
X54.026 Y70.622
X54.023 Y70.603
Y70.571
X54.031 Y70.525
X54.035 Y70.479
X54.031 Y69.607
X54.028 Y69.579
X54.023 Y69.553
Y69.542
X54.028 Y69.524
X54.042 Y69.512
X54.06 Y69.507
X54.113
X54.129 Y69.512
X54.141 Y69.523
X54.146 Y69.538
X54.417 Y73.374
G2 X54.568 Y73.703 I0.513 J-0.037
G3 X54.88 Y74.015 I-22.214 J22.48
G2 X55.201 Y74.317 I3.972 J-3.909
G1 X55.211 Y74.335
X55.215 Y74.363
X55.213 Y74.376
X55.204 Y74.384
X55.191
X55.121 Y74.367
X55.048 Y74.36
X53.905 Y74.363
G2 X53.53 Y74.521 I0.001 J0.523
G1 X53.498 Y74.557
X53.47 Y74.596
X53.462 Y74.621
X53.47 Y74.645
X53.479 Y74.669
X53.475 Y74.694
X53.45 Y74.759
X53.435 Y74.828
X53.43 Y74.898
X53.434 Y75.336
X53.43 Y75.351
X53.419 Y75.362
X53.404 Y75.366
X53.226
X53.211 Y75.362
X53.2 Y75.351
X53.196 Y75.336
X53.2 Y74.902
G2 X53.113 Y74.622 I-0.495 J0.
X52.878 Y74.445 I-0.381 J0.262
G1 X52.793 Y74.422
X52.749 Y74.415
X52.704 Y74.412
X52.628 Y74.414
X52.551 Y74.416
X52.545 Y74.394
X52.592 Y74.362
X52.635 Y74.324
X52.652 Y74.312
X52.712 Y74.283
X52.769 Y74.248
X52.821 Y74.208
X52.971 Y74.079
X53.218 Y73.829
X53.439 Y73.545
X53.627 Y73.233
X53.651 Y73.188
X53.671 Y73.141
X53.703 Y73.045
X53.715 Y73.013
X53.731 Y72.984
X53.763 Y72.93
X53.788 Y72.872
X53.895 Y72.521
G2 X53.954 Y72.196 I-10.896 J-2.133
X53.981 Y71.868 I-2.014 J-0.332
G1 Y71.763
X53.972 Y71.659
X53.97 Y71.631
X53.972 Y71.604
X53.978 Y71.565
X53.981 Y71.526
X53.977 Y70.646
X53.974 Y70.627
X53.971 Y70.608
X53.972 Y70.564
X53.979 Y70.522
X53.982 Y70.479
X53.979 Y69.61
X53.976 Y69.585
X53.971 Y69.56
Y69.534
X53.977 Y69.485
X53.982 Y69.47
X53.994 Y69.459
X54.01 Y69.455
X54.162
X54.178 Y69.459
X54.19 Y69.471
X54.195 Y69.486
X54.469 Y73.37
G2 X54.605 Y73.666 I0.461 J-0.033
G3 X54.917 Y73.978 I-22.737 J23.01
G2 X55.238 Y74.28 I3.989 J-3.928
G1 X55.254 Y74.3
X55.262 Y74.324
X55.281 Y74.45
X55.278 Y74.461
X55.269 Y74.468
X55.258 Y74.466
X55.208 Y74.444
X55.156 Y74.427
X55.103 Y74.416
X55.049 Y74.412
X53.905 Y74.415
G2 X53.567 Y74.558 I0.001 J0.471
G1 X53.515 Y74.622
X53.475 Y74.694
X53.471 Y74.719
X53.483 Y74.742
X53.496 Y74.764
Y74.79
X53.486 Y74.843
X53.482 Y74.898
X53.484 Y75.143
X53.486 Y75.388
X53.482 Y75.403
X53.471 Y75.414
X53.456 Y75.418
X53.173
X53.159 Y75.414
X53.148 Y75.403
X53.144 Y75.388
X53.148 Y74.902
G2 X53.071 Y74.653 I-0.443 J0.
X52.862 Y74.495 I-0.338 J0.231
G1 X52.784 Y74.473
X52.744 Y74.467
X52.704 Y74.465
X52.338 Y74.469
X52.334 Y74.452
X52.386 Y74.428
X52.437 Y74.403
X52.521 Y74.349
X52.562 Y74.319
X52.599 Y74.286
X52.614 Y74.273
X52.631 Y74.264
X52.689 Y74.236
X52.743 Y74.203
X52.793 Y74.163
X52.938 Y74.039
X53.18 Y73.793
X53.397 Y73.514
X53.582 Y73.206
X53.605 Y73.163
X53.624 Y73.118
X53.654 Y73.026
X53.666 Y72.991
X53.684 Y72.96
X53.715 Y72.91
X53.737 Y72.857
X53.844 Y72.511
G2 X53.902 Y72.191 I-11.111 J-2.175
X53.929 Y71.867 I-1.971 J-0.327
G1 X53.928 Y71.767
X53.92 Y71.668
X53.917 Y71.631
X53.92 Y71.595
X53.926 Y71.561
X53.928 Y71.526
X53.924 Y70.65
X53.922 Y70.632
X53.919 Y70.615
X53.917 Y70.585
X53.92 Y70.556
X53.927 Y70.517
X53.93 Y70.479
X53.926 Y69.614
X53.924 Y69.592
X53.919 Y69.57
X53.917 Y69.547
X53.919 Y69.524
X53.925 Y69.479
X53.926 Y69.433
X53.931 Y69.418
X53.942 Y69.407
X53.957 Y69.403
X54.211
X54.226 Y69.407
X54.238 Y69.418
X54.244 Y69.434
X54.521 Y73.367
G2 X54.642 Y73.629 I0.409 J-0.029
G1 X55.236 Y74.211
X55.254 Y74.225
X55.272 Y74.24
X55.292 Y74.262
X55.306 Y74.289
X55.314 Y74.318
X55.352 Y74.57
X55.349 Y74.58
X55.34 Y74.585
X55.33 Y74.581
X55.269 Y74.533
X55.201 Y74.496
X55.126 Y74.472
X55.049 Y74.465
X53.905 Y74.467
G2 X53.605 Y74.595 I0.001 J0.419
G1 X53.557 Y74.653
X53.521 Y74.719
X53.496 Y74.79
X53.489 Y74.797 Z-1.402
G0 Z5.
X55.4 Y75.422
Z-1.325
G1 X55.401 Y75.412 Z-1.335 F333.
X55.415 Y75.389 Z-1.336
X55.439 Y75.377 Z-1.337
X55.466 Y75.381 Z-1.338
X55.487 Y75.398
X55.495 Y75.424 Z-1.339
X55.487 Y75.45 Z-1.34
X55.467 Y75.467 Z-1.341
X55.44 Y75.471 Z-1.342
X55.415 Y75.459 Z-1.343
X55.401 Y75.436 Z-1.344
X55.402 Y75.409 Z-1.345
X55.417 Y75.387 Z-1.346
X55.442 Y75.377 Z-1.347
X55.469 Y75.382 Z-1.348
X55.488 Y75.401 Z-1.349
X55.495 Y75.427 Z-1.35
X55.485 Y75.452 Z-1.351
X55.464 Y75.468 Z-1.352
X55.437 Y75.47 Z-1.353
X55.413 Y75.457 Z-1.354
X55.401 Y75.433 Z-1.355
X55.403 Y75.406 Z-1.356
X55.42 Y75.385 Z-1.357
X55.445 Y75.377 Z-1.358
X55.471 Y75.383 Z-1.359
X55.49 Y75.403 Z-1.36
X55.494 Y75.43
X55.484 Y75.455 Z-1.361
X55.461 Y75.469 Z-1.362
X55.434 Y75.47 Z-1.363
X55.411 Y75.455 Z-1.364
X55.4 Y75.43 Z-1.365
X55.404 Y75.404 Z-1.366
X55.422 Y75.384 Z-1.367
X55.448 Y75.377 Z-1.368
X55.474 Y75.385 Z-1.369
X55.491 Y75.406 Z-1.37
X55.494 Y75.433 Z-1.371
X55.482 Y75.457 Z-1.372
X55.458 Y75.47 Z-1.373
X55.431 Y75.469 Z-1.374
X55.409 Y75.453 Z-1.375
X55.4 Y75.428 Z-1.376
X55.406 Y75.401 Z-1.377
X55.425 Y75.382 Z-1.378
X55.451 Y75.377 Z-1.379
X55.476 Y75.387 Z-1.38
X55.492 Y75.409 Z-1.381
X55.493 Y75.436 Z-1.382
X55.48 Y75.459
X55.455 Y75.471 Z-1.383
X55.428 Y75.468 Z-1.384
X55.408 Y75.45 Z-1.385
X55.4 Y75.425 Z-1.386
X55.407 Y75.399 Z-1.387
X55.427 Y75.381 Z-1.388
X55.454 Y75.377 Z-1.389
X55.479 Y75.388 Z-1.39
X55.493 Y75.411 Z-1.391
X55.492 Y75.438 Z-1.392
X55.477 Y75.461 Z-1.393
X55.452 Y75.471 Z-1.394
X55.426 Y75.466 Z-1.395
X55.406 Y75.448 Z-1.396
X55.4 Y75.422 Z-1.397
X55.409 Y75.396 Z-1.398
X55.43 Y75.38 Z-1.399
X55.457 Y75.378 Z-1.4
X55.481 Y75.39 Z-1.401
X55.494 Y75.414 Z-1.402
X55.491 Y75.441 Z-1.403
X55.475 Y75.463 Z-1.404
X55.449 Y75.471 Z-1.405
X55.423 Y75.465
X55.405 Y75.445 Z-1.406
X55.4 Y75.419 Z-1.407
X55.41 Y75.394 Z-1.408
X55.433 Y75.379 Z-1.409
X55.46 Y75.378 Z-1.41
X55.483 Y75.393 Z-1.411
X55.494 Y75.417 Z-1.412
X55.495 Y75.421 F40.
X55.483 Y75.435
X55.475
X55.462 Y75.423
Y75.329
X55.481 Y75.327
X55.494 Y75.417
X55.501 Y75.43
X55.514 Y75.435
X55.525 Y75.44
X55.529 Y75.45
X55.525 Y75.46
X55.517 Y75.466
X55.506 Y75.469
X55.458
X55.444 Y75.465
X55.433 Y75.454
X55.429 Y75.439
X55.433 Y74.898
X55.429 Y74.844
X55.416 Y74.792
X55.395 Y74.743
X55.352 Y74.675
X55.299 Y74.616
G2 X55.049 Y74.515 I-0.25 J0.259
G1 X53.905 Y74.518
G2 X53.64 Y74.631 I0.001 J0.368
X53.533 Y74.898 I0.278 J0.267
G1 X53.537 Y75.439
X53.533 Y75.454
X53.522 Y75.465
X53.507 Y75.469
X53.123
X53.108 Y75.465
X53.097 Y75.454
X53.093 Y75.439
X53.097 Y74.902
X53.09 Y74.825
X53.067 Y74.75
X53.03 Y74.682
X52.993 Y74.636
X52.949 Y74.597
X52.9 Y74.566
X52.846 Y74.543
X52.776 Y74.523
X52.74 Y74.517
X52.704 Y74.515
X52.121 Y74.519
X52.117 Y74.502
X52.411 Y74.361
X52.492 Y74.309
X52.53 Y74.281
X52.565 Y74.248
X52.585 Y74.231
X52.609 Y74.218
X52.665 Y74.192
X52.718 Y74.16
X52.766 Y74.121
X52.906 Y74.
X53.144 Y73.757
X53.357 Y73.483
X53.539 Y73.181
X53.561 Y73.139
X53.579 Y73.096
X53.607 Y73.007
X53.62 Y72.97
X53.639 Y72.936
X53.668 Y72.891
X53.689 Y72.841
X53.795 Y72.501
G2 X53.852 Y72.186 I-11.346 J-2.221
X53.878 Y71.867 I-1.929 J-0.323
G1 Y71.768
X53.876 Y71.719
X53.869 Y71.67
X53.866 Y71.631
X53.87 Y71.592
X53.875 Y71.559
X53.878 Y71.527
X53.874 Y70.654
X53.872 Y70.638
X53.869 Y70.623
X53.867 Y70.584
X53.871 Y70.546
X53.876 Y70.513
X53.879 Y70.479
X53.876 Y69.618
X53.873 Y69.598
X53.87 Y69.578
X53.867 Y69.547
X53.87 Y69.516
X53.876 Y69.452
Y69.382
X53.881 Y69.367
X53.891 Y69.357
X53.906 Y69.353
X54.258
X54.274 Y69.357
X54.285 Y69.367
X54.29 Y69.383
X54.571 Y73.363
G2 X54.677 Y73.593 I0.359 J-0.026
G3 X54.991 Y73.907 I-24.664 J24.961
G2 X55.315 Y74.211 I4.061 J-4.007
G1 X55.337 Y74.235
X55.353 Y74.265
X55.362 Y74.297
X55.531 Y75.44
X55.53 Y75.451
X55.525 Y75.46
X55.508 Y75.49
X55.497 Y75.505
X55.48 Y75.51
X55.418
X55.403 Y75.506
X55.392 Y75.495
X55.388 Y75.48
X55.392 Y74.898
X55.388 Y74.85
X55.376 Y74.803
X55.357 Y74.759
X55.318 Y74.699
X55.27 Y74.645
X55.223 Y74.608
X55.168 Y74.579
X55.11 Y74.562
X55.049 Y74.556
X53.905 Y74.559
G2 X53.67 Y74.66 I0.001 J0.327
X53.574 Y74.898 I0.248 J0.238
X53.576 Y75.189 I19.819 J0.001
G3 X53.578 Y75.48 I-19.817 J0.29
G1 X53.574 Y75.495
X53.563 Y75.506
X53.548 Y75.51
X53.082
X53.067 Y75.506
X53.056 Y75.495
X53.052 Y75.48
X53.056 Y74.902
X53.049 Y74.834
X53.029 Y74.767
X52.996 Y74.706
X52.951 Y74.653
X52.896 Y74.611
X52.833 Y74.582
X52.769 Y74.564
X52.704 Y74.556
X51.892 Y74.561
X51.889 Y74.543
X52.081 Y74.478
X52.389 Y74.325
X52.465 Y74.277
X52.502 Y74.25
X52.534 Y74.22
X52.562 Y74.196
X52.594 Y74.18
X52.648 Y74.154
X52.699 Y74.123
X52.745 Y74.085
X52.879 Y73.968
X53.115 Y73.729
X53.324 Y73.458
X53.503 Y73.16
X53.538 Y73.085
X53.564 Y73.006
X53.584 Y72.954
X53.611 Y72.904
X53.632 Y72.868
X53.649 Y72.829
X53.754 Y72.493
G2 X53.81 Y72.182 I-11.562 J-2.264
X53.837 Y71.867 I-1.895 J-0.318
G1 Y71.77
X53.834 Y71.721
X53.828 Y71.673
X53.824 Y71.631
X53.828 Y71.588
X53.834 Y71.558
X53.836 Y71.527
X53.832 Y70.656
X53.83 Y70.641
X53.828 Y70.626
X53.824 Y70.584
X53.829 Y70.542
X53.835 Y70.511
X53.837 Y70.479
X53.834 Y69.621
X53.832 Y69.604
X53.829 Y69.588
X53.826 Y69.547
X53.829 Y69.506
X53.835 Y69.465
X53.836 Y69.424
X53.835 Y69.341
X53.839 Y69.326
X53.851 Y69.315
X53.866 Y69.311
X54.296
X54.312 Y69.315
X54.324 Y69.326
X54.329 Y69.342
X54.613 Y73.36
X54.622 Y73.416
X54.641 Y73.47
X54.669 Y73.52
X54.706 Y73.564
X55.295 Y74.142
X55.324 Y74.165
X55.353 Y74.189
X55.376 Y74.214
X55.392 Y74.244
X55.401 Y74.277
X55.579 Y75.481
X55.577 Y75.495
X55.568 Y75.506
X55.554 Y75.51
X55.48
X55.471 Y75.506 Z-1.402
G0 Z5.
X48.046 Y73.856
Z-1.325
G1 X48.039 Y73.863 Z-1.335 F333.
X48.014 Y73.873 Z-1.336
X47.988 Y73.869 Z-1.337
X47.968 Y73.851 Z-1.338
X47.961 Y73.825
X47.969 Y73.799 Z-1.339
X47.99 Y73.782 Z-1.34
X48.017 Y73.78 Z-1.341
X48.041 Y73.792 Z-1.342
X48.054 Y73.816 Z-1.343
X48.053 Y73.843 Z-1.344
X48.037 Y73.864 Z-1.345
X48.011 Y73.874 Z-1.346
X47.985 Y73.868 Z-1.347
X47.966 Y73.848 Z-1.348
X47.961 Y73.822 Z-1.349
X47.971 Y73.797 Z-1.35
X47.993 Y73.781 Z-1.351
X48.02 Y73.78 Z-1.352
X48.043 Y73.794 Z-1.353
X48.055 Y73.819 Z-1.354
X48.052 Y73.845 Z-1.355
X48.034 Y73.866 Z-1.356
X48.008 Y73.874 Z-1.357
X47.983 Y73.866 Z-1.358
X47.965 Y73.846 Z-1.359
X47.961 Y73.819 Z-1.36
X47.973 Y73.795
X47.996 Y73.781 Z-1.361
X48.023 Z-1.362
X48.045 Y73.797 Z-1.363
X48.055 Y73.821 Z-1.364
X48.05 Y73.848 Z-1.365
X48.032 Y73.868 Z-1.366
X48.006 Y73.874 Z-1.367
X47.98 Y73.865 Z-1.368
X47.964 Y73.843 Z-1.369
X47.962 Y73.816 Z-1.37
X47.975 Y73.793 Z-1.371
X47.999 Y73.78 Z-1.372
X48.026 Y73.782 Z-1.373
X48.047 Y73.799 Z-1.374
X48.056 Y73.824 Z-1.375
X48.049 Y73.851 Z-1.376
X48.029 Y73.869 Z-1.377
X48.003 Y73.874 Z-1.378
X47.978 Y73.863 Z-1.379
X47.963 Y73.84 Z-1.38
Y73.813 Z-1.381
X47.977 Y73.791 Z-1.382
X48.002 Y73.779
X48.028 Y73.783 Z-1.383
X48.049 Y73.801 Z-1.384
X48.056 Y73.827 Z-1.385
X48.047 Y73.853 Z-1.386
X48.027 Y73.87 Z-1.387
X48. Y73.873 Z-1.388
X47.976 Y73.861 Z-1.389
X47.962 Y73.838 Z-1.39
X47.963 Y73.811 Z-1.391
X47.979 Y73.789 Z-1.392
X48.005 Y73.779 Z-1.393
X48.031 Y73.785 Z-1.394
X48.05 Y73.804 Z-1.395
X48.056 Y73.83 Z-1.396
X48.046 Y73.855 Z-1.397
X48.024 Y73.871 Z-1.398
X47.997 Y73.872 Z-1.399
X47.974 Y73.859 Z-1.4
X47.961 Y73.835 Z-1.401
X47.964 Y73.808 Z-1.402
X47.982 Y73.787 Z-1.403
X48.007 Y73.779 Z-1.404
X48.034 Y73.786 Z-1.405
X48.051 Y73.806
X48.055 Y73.833 Z-1.406
X48.044 Y73.858 Z-1.407
X48.021 Y73.872 Z-1.408
X47.994 Z-1.409
X47.972 Y73.857 Z-1.41
X47.961 Y73.832 Z-1.411
X47.966 Y73.805 Z-1.412
X47.968 Y73.8 F40.
X47.99 Y73.798
X47.997 Y73.809
X47.987 Y73.828
X47.974
X47.963 Y73.81
X47.966 Y73.805
X47.971 Y73.786
X47.968 Y73.766
X47.958 Y73.749
X47.948 Y73.732
X47.944 Y73.712
X47.948 Y73.693
X47.954 Y73.675
X47.962 Y73.667
X47.973 Y73.666
X47.982 Y73.673
X48.045 Y73.772
X48.113 Y73.867
X48.116 Y73.878
X48.11 Y73.888
X48.099 Y73.892
X48.07 Y73.889
X48.041 Y73.888
X47.959 Y73.889
X47.876 Y73.89
X47.865 Y73.886
X47.859 Y73.876
X47.862 Y73.864
X47.909 Y73.781
X47.948 Y73.693
X47.951 Y73.674
X47.947 Y73.656
X47.936 Y73.64
X47.921 Y73.616
Y73.588
X47.938 Y73.519
X47.944 Y73.511
X47.954 Y73.509
X47.962 Y73.515
X48.013 Y73.614
X48.039 Y73.663
X48.069 Y73.709
X48.239 Y73.945
X48.241 Y73.956
X48.235 Y73.965
X48.225 Y73.967
X48.109 Y73.95
X47.992 Y73.946
X47.758 Y73.948
X47.748 Y73.944
X47.743 Y73.934
X47.746 Y73.924
G2 X47.921 Y73.588 I-0.717 J-0.586
G1 X47.92 Y73.563
X47.906 Y73.542
X47.89 Y73.521
X47.888 Y73.496
X47.9 Y73.4
X47.902 Y73.368
X47.903 Y73.337
X47.925 Y73.332
X48.063 Y73.595
X48.284 Y73.921
X48.341 Y73.992
X48.403 Y74.059
X48.39 Y74.076
G2 X48.014 Y74.001 I-0.363 J0.831
G3 X47.63 Y74.003 I-0.384 J-25.82
G1 X47.62 Y73.999
X47.616 Y73.989
X47.62 Y73.979
X47.635 Y73.965
X47.65 Y73.951
G2 X47.888 Y73.496 I-0.622 J-0.616
G1 X47.885 Y73.474
X47.871 Y73.457
X47.856 Y73.44
X47.852 Y73.418
X47.854 Y73.396
X47.869 Y73.126
X47.891 Y73.121
X47.902 Y73.14
X47.941 Y73.255
X47.993 Y73.364
X48.106 Y73.572
X48.324 Y73.893
X48.553 Y74.164
X48.603 Y74.212
X48.656 Y74.259
X48.663 Y74.275
X48.656 Y74.291
X48.64 Y74.299
X48.623 Y74.293
X48.61 Y74.28
X48.597 Y74.268
G2 X48.34 Y74.106 I-0.572 J0.624
X48.041 Y74.048 I-0.299 J0.746
G1 X47.512 Y74.052
X47.502 Y74.048
X47.498 Y74.038
X47.502 Y74.028
X47.56 Y73.974
X47.617 Y73.919
G2 X47.852 Y73.418 I-0.587 J-0.582
G1 X47.847 Y73.395
X47.83 Y73.379
X47.813 Y73.363
X47.808 Y73.34
X47.835 Y72.906
X47.856 Y72.903
X47.87 Y72.945
X47.883 Y72.988
X47.911 Y73.054
X47.946 Y73.117
X47.951 Y73.129
X47.988 Y73.24
X48.038 Y73.345
X48.15 Y73.548
X48.364 Y73.865
X48.591 Y74.131
X48.657 Y74.195
X48.726 Y74.256
X48.734 Y74.268
X48.733 Y74.283
X48.725 Y74.295
X48.66 Y74.358
X48.647 Y74.366
X48.632
X48.62 Y74.359
X48.593 Y74.331
X48.565 Y74.303
G2 X48.322 Y74.151 I-0.533 J0.582
X48.041 Y74.098 I-0.281 J0.71
X47.718 Y74.1 I0. J24.496
G3 X47.394 Y74.102 I-0.324 J-24.494
G1 X47.384 Y74.098
X47.38 Y74.088
X47.384 Y74.078
X47.483 Y73.981
X47.582 Y73.884
G2 X47.805 Y73.393 I-0.552 J-0.547
G1 X47.808 Y73.34
X47.803 Y73.317
X47.786 Y73.301
X47.769 Y73.286
X47.764 Y73.263
X47.806 Y72.625
X47.826 Y72.623
X47.883 Y72.843
X47.93 Y72.971
X47.957 Y73.033
X47.988 Y73.093
X47.998 Y73.116
X48.034 Y73.224
X48.083 Y73.326
X48.193 Y73.525
X48.405 Y73.837
X48.628 Y74.099
X48.804 Y74.26
X48.811 Y74.272
X48.81 Y74.286
X48.801 Y74.297
X48.725 Y74.361
X48.659 Y74.435
X48.648 Y74.443
X48.634
X48.623 Y74.436
G2 X48.364 Y74.226 I-0.652 J0.542
X48.041 Y74.147 I-0.323 J0.616
X47.659 Y74.149 I0. J34.226
G3 X47.276 Y74.151 I-0.382 J-34.224
G1 X47.266 Y74.147
X47.262 Y74.137
X47.266 Y74.127
X47.407 Y73.988
X47.547 Y73.849
G2 X47.756 Y73.389 I-0.517 J-0.512
G1 X47.764 Y73.263
X47.759 Y73.242
X47.743 Y73.227
X47.727 Y73.211
X47.722 Y73.19
X47.784 Y72.269
X47.803
X47.837 Y72.494
G3 X47.914 Y72.789 I-51.351 J13.675
G2 X48.03 Y73.071 I1.085 J-0.282
G1 X48.043 Y73.102
X48.079 Y73.208
X48.127 Y73.308
X48.234 Y73.502
X48.444 Y73.81
X48.663 Y74.068
X48.882 Y74.268
X48.888 Y74.28
X48.887 Y74.293
X48.878 Y74.303
G2 X48.658 Y74.518 I0.35 J0.579
G1 X48.648 Y74.526
X48.636
X48.626 Y74.518
G2 X48.374 Y74.284 I-0.639 J0.433
X48.041 Y74.194 I-0.333 J0.574
G1 X47.163 Y74.198
X47.153 Y74.194
X47.149 Y74.184
X47.153 Y74.174
G3 X47.501 Y73.83 I16.059 J15.904
G2 X47.709 Y73.386 I-0.477 J-0.493
G1 X47.722 Y73.19
X47.717 Y73.169
X47.702 Y73.155
X47.687 Y73.141
X47.682 Y73.121
X47.797 Y71.461
X47.815 Y71.462
Y71.539
X47.821 Y71.617
Y71.622
X47.809 Y71.73
X47.808 Y71.839
X47.817 Y72.055
X47.865 Y72.412
X47.955 Y72.766
X47.977 Y72.839
X48.002 Y72.911
X48.033 Y72.981
X48.069 Y73.048
X48.086 Y73.09
X48.121 Y73.193
X48.168 Y73.291
X48.274 Y73.481
X48.48 Y73.785
X48.697 Y74.038
X48.96 Y74.279
X48.966 Y74.29
X48.964 Y74.303
X48.955 Y74.312
G2 X48.657 Y74.612 I0.274 J0.57
G1 X48.649 Y74.619
X48.638
X48.629 Y74.612
G2 X48.388 Y74.342 I-0.627 J0.318
X48.041 Y74.239 I-0.347 J0.529
G1 X47.056 Y74.243
X47.046 Y74.239
X47.042 Y74.229
X47.046 Y74.219
X47.482 Y73.785
G2 X47.664 Y73.383 I-0.452 J-0.448
G1 X47.682 Y73.121
X47.678 Y73.104
X47.666 Y73.092
X47.653 Y73.08
X47.65 Y73.063
X47.836 Y70.408
X47.854 Y70.409
Y70.494
X47.861 Y70.584
Y70.589
X47.854 Y70.633
X47.851 Y70.677
X47.849 Y71.526
X47.852 Y71.569
X47.858 Y71.612
X47.857 Y71.628
X47.845 Y71.734
Y71.841
X47.854 Y72.054
X47.901 Y72.406
X47.991 Y72.756
X48.011 Y72.827
X48.036 Y72.896
X48.065 Y72.963
X48.1 Y73.028
X48.122 Y73.083
X48.156 Y73.183
X48.203 Y73.279
X48.306 Y73.464
X48.51 Y73.764
X48.724 Y74.014
X48.995 Y74.263
X49.012 Y74.277
X49.03 Y74.291
X49.036 Y74.301
X49.035 Y74.313
X49.026 Y74.321
X48.998 Y74.331
X48.97 Y74.343
X48.897 Y74.385
X48.831 Y74.437
X48.773 Y74.497
X48.724 Y74.565
X48.685 Y74.639
X48.656 Y74.718
X48.633
G2 X48.41 Y74.4 I-0.616 J0.195
X48.041 Y74.275 I-0.368 J0.482
G1 X46.968 Y74.28
X46.958 Y74.275
X46.954 Y74.265
X46.958 Y74.255
X47.455 Y73.759
G2 X47.627 Y73.38 I-0.426 J-0.422
G1 X47.65 Y73.063
X47.646 Y73.045
X47.632 Y73.033
X47.619 Y73.02
X47.615 Y73.002
X47.857 Y69.568
X47.862 Y69.557
X47.873 Y69.553
X47.88
X47.892 Y69.558
X47.896 Y69.572
X47.892 Y69.606
X47.889 Y69.644
X47.891 Y70.494
X47.894 Y70.536
X47.9 Y70.578
Y70.594
X47.894 Y70.636
X47.891 Y70.677
X47.889 Y71.526
X47.891 Y71.568
X47.897 Y71.609
Y71.632
X47.884 Y71.737
Y71.842
X47.893 Y72.053
X47.94 Y72.401
X48.029 Y72.746
X48.073 Y72.882
X48.102 Y72.948
X48.136 Y73.012
X48.149 Y73.039
X48.159 Y73.069
X48.193 Y73.168
X48.239 Y73.262
X48.341 Y73.445
X48.543 Y73.741
X48.754 Y73.988
X49.02 Y74.236
X49.068 Y74.273
X49.119 Y74.308
X49.125 Y74.317
X49.123 Y74.328
X49.114 Y74.334
G2 X48.831 Y74.49 I0.139 J0.585
X48.679 Y74.774 I0.381 J0.388
G1 X48.663 Y74.891
X48.66 Y75.008
X48.665 Y75.242
X48.659 Y75.257
X48.643 Y75.264
X48.628 Y75.257
X48.622 Y75.242
X48.626 Y74.898
X48.619 Y74.815
X48.6 Y74.735
X48.569 Y74.658
X48.527 Y74.587
X48.477 Y74.521
X48.42 Y74.462
G2 X48.041 Y74.315 I-0.378 J0.413
G1 X46.911 Y74.318
X46.89 Y74.319
X46.868 Y74.321
X46.859 Y74.3
X47.427 Y73.731
G2 X47.588 Y73.377 I-0.398 J-0.394
G1 X47.615 Y73.002
X47.61 Y72.983
X47.596 Y72.97
X47.582 Y72.956
X47.578 Y72.938
X47.817 Y69.543
X47.823 Y69.527
X47.835 Y69.516
X47.85 Y69.512
X47.912
X47.929 Y69.517
X47.94 Y69.53
X47.941 Y69.547
X47.933 Y69.596
X47.929 Y69.644
X47.932 Y70.494
X47.935 Y70.533
X47.94 Y70.572
Y70.601
X47.935 Y70.639
X47.932 Y70.678
X47.93 Y71.526
X47.932 Y71.564
X47.937 Y71.601
Y71.641
X47.925 Y71.744
Y71.846
X47.934 Y72.052
X47.981 Y72.395
X48.068 Y72.736
X48.112 Y72.868
X48.14 Y72.933
X48.173 Y72.994
X48.188 Y73.024
X48.198 Y73.055
X48.23 Y73.153
X48.276 Y73.246
X48.377 Y73.425
X48.576 Y73.718
X48.785 Y73.961
X49.047 Y74.206
X49.091 Y74.243
X49.137 Y74.277
X49.234 Y74.338
X49.229 Y74.36
G2 X48.9 Y74.482 I0.015 J0.546
X48.719 Y74.782 I0.323 J0.399
G1 X48.702 Y74.906
X48.7 Y75.03
X48.706 Y75.279
X48.702 Y75.294
X48.691 Y75.305
X48.676 Y75.309
X48.611
X48.596 Y75.305
X48.585 Y75.294
X48.581 Y75.28
X48.585 Y74.898
X48.579 Y74.821
X48.561 Y74.746
X48.531 Y74.675
X48.492 Y74.608
X48.445 Y74.547
X48.392 Y74.492
G2 X48.041 Y74.356 I-0.351 J0.383
G1 X46.911
X46.869 Y74.358
X46.828 Y74.365
X46.748 Y74.387
X46.735 Y74.366
X47.398 Y73.702
G2 X47.547 Y73.374 I-0.369 J-0.365
G1 X47.578 Y72.938
X47.573 Y72.914
X47.555 Y72.898
X47.538 Y72.882
X47.533 Y72.858
X47.77 Y69.492
X47.775 Y69.476
X47.787 Y69.465
X47.803 Y69.461
X47.954
X47.97 Y69.465
X47.982 Y69.476
X47.987 Y69.491
X47.992 Y69.529
Y69.555
X47.984 Y69.599
X47.98 Y69.644
X47.983 Y70.494
X47.985 Y70.53
X47.991 Y70.566
Y70.606
X47.985 Y70.642
X47.983 Y70.678
X47.981 Y71.526
X47.983 Y71.56
X47.988 Y71.595
X47.989 Y71.622
X47.987 Y71.649
X47.975 Y71.749
Y71.85
X47.985 Y72.05
X48.031 Y72.387
X48.117 Y72.722
X48.159 Y72.851
X48.186 Y72.913
X48.219 Y72.972
X48.235 Y73.004
X48.246 Y73.037
X48.277 Y73.134
X48.322 Y73.225
X48.421 Y73.401
X48.618 Y73.689
X48.823 Y73.928
X49.081 Y74.169
X49.135 Y74.214
X49.192 Y74.256
X49.252 Y74.292
X49.315 Y74.323
X49.328 Y74.331
X49.361 Y74.362
X49.398 Y74.389
X49.391 Y74.411
X49.317 Y74.409
X49.242 Y74.407
G2 X48.936 Y74.514 I0. J0.489
X48.769 Y74.792 I0.296 J0.368
X48.75 Y75.061 I1.086 J0.212
G3 X48.756 Y75.33 I-5.223 J0.269
G1 X48.752 Y75.345
X48.741 Y75.356
X48.726 Y75.36
X48.56
X48.545 Y75.356
X48.534 Y75.345
X48.53 Y75.33
G3 X48.538 Y74.928 I9.629 J-0.001
G2 X48.386 Y74.556 I-0.482 J-0.02
G1 X48.311 Y74.496
X48.228 Y74.448
X48.168 Y74.425
X48.105 Y74.411
X48.041 Y74.406
X46.911
X46.854 Y74.41
X46.798 Y74.422
X46.744 Y74.441
X46.693 Y74.465
X46.681 Y74.467
X46.671 Y74.46
X46.668 Y74.449
X46.676 Y74.371
X46.681 Y74.353
X46.691 Y74.338
X47.362 Y73.667
G2 X47.497 Y73.371 I-0.333 J-0.33
G1 X47.533 Y72.858
X47.527 Y72.834
X47.51 Y72.818
X47.492 Y72.801
X47.487 Y72.777
X47.722 Y69.44
X47.727 Y69.425
X47.739 Y69.413
X47.755 Y69.409
X48.006
X48.021 Y69.413
X48.033 Y69.424
X48.037 Y69.44
X48.038 Y69.48
X48.043 Y69.52
X48.045 Y69.543
X48.042 Y69.565
X48.035 Y69.604
X48.032 Y69.644
X48.035 Y70.493
X48.037 Y70.526
X48.042 Y70.559
X48.044 Y70.586
X48.042 Y70.613
X48.037 Y70.645
X48.035 Y70.678
X48.033 Y71.526
X48.035 Y71.557
X48.039 Y71.587
X48.041 Y71.623
X48.038 Y71.659
X48.027 Y71.756
Y71.854
X48.037 Y72.049
X48.082 Y72.38
X48.167 Y72.709
X48.207 Y72.833
X48.234 Y72.893
X48.266 Y72.95
X48.283 Y72.984
X48.295 Y73.02
X48.325 Y73.115
X48.369 Y73.204
X48.467 Y73.376
X48.66 Y73.659
X48.862 Y73.894
X49.116 Y74.13
X49.166 Y74.173
X49.219 Y74.212
X49.276 Y74.246
X49.335 Y74.275
X49.364 Y74.295
X49.417 Y74.339
X49.475 Y74.376
X49.596 Y74.441
X49.591 Y74.463
X49.242 Y74.458
G2 X48.969 Y74.554 I0. J0.437
X48.819 Y74.802 I0.263 J0.328
G1 X48.809 Y74.861
X48.804 Y74.921
X48.808 Y75.382
X48.804 Y75.397
X48.793 Y75.408
X48.778 Y75.412
X48.508
X48.493 Y75.408
X48.482 Y75.397
X48.478 Y75.382
X48.482 Y74.898
X48.477 Y74.835
X48.462 Y74.774
X48.437 Y74.716
X48.405 Y74.662
X48.366 Y74.613
X48.323 Y74.568
G2 X48.041 Y74.458 I-0.281 J0.307
G1 X46.911
X46.834 Y74.466
X46.76 Y74.489
X46.691 Y74.525
X46.63 Y74.572
X46.626 Y74.576
X46.622 Y74.58
X46.612 Y74.584
X46.603 Y74.579
X46.6 Y74.569
X46.61 Y74.511
X46.618 Y74.453
X46.622 Y74.408
X46.625 Y74.362
X46.633 Y74.331
X46.652 Y74.304
X47.326 Y73.63
G2 X47.445 Y73.367 I-0.296 J-0.293
G1 X47.487 Y72.777
X47.481 Y72.753
X47.464 Y72.737
X47.446 Y72.72
X47.441 Y72.696
X47.674 Y69.388
X47.679 Y69.373
X47.691 Y69.362
X47.707 Y69.358
X48.058
X48.073 Y69.362
X48.084 Y69.373
X48.088 Y69.388
Y69.452
X48.094 Y69.512
X48.096 Y69.543
X48.093 Y69.574
X48.087 Y69.609
X48.084 Y69.644
X48.086 Y70.493
X48.088 Y70.522
X48.093 Y70.55
X48.096 Y70.586
X48.093 Y70.622
X48.089 Y70.65
X48.087 Y70.678
X48.084 Y71.526
X48.086 Y71.556
X48.091 Y71.585
X48.093 Y71.623
X48.089 Y71.662
X48.083 Y71.701
X48.081 Y71.741
X48.092 Y72.089
X48.142 Y72.413
X48.225 Y72.723
X48.26 Y72.819
X48.279 Y72.866
X48.302 Y72.911
X48.329 Y72.965
X48.349 Y73.022
X48.379 Y73.109
X48.421 Y73.192
X48.512 Y73.352
X48.703 Y73.63
X48.901 Y73.86
X49.151 Y74.092
X49.198 Y74.133
X49.249 Y74.169
X49.302 Y74.202
X49.358 Y74.229
X49.379 Y74.24
X49.398 Y74.256
X49.436 Y74.291
X49.478 Y74.32
X49.73 Y74.459
X49.772 Y74.478
X49.816 Y74.494
X49.812 Y74.514
X49.242 Y74.51
G2 X49.002 Y74.594 I0. J0.385
X48.87 Y74.812 I0.23 J0.288
G1 X48.86 Y74.866
X48.856 Y74.921
X48.86 Y75.434
X48.856 Y75.449
X48.845 Y75.459
X48.83 Y75.463
X48.456
X48.441 Y75.459
X48.431 Y75.449
X48.427 Y75.434
X48.431 Y74.898
X48.426 Y74.842
X48.413 Y74.788
X48.39 Y74.737
X48.344 Y74.667
X48.288 Y74.606
G2 X48.041 Y74.51 I-0.247 J0.269
G1 X46.911
X46.86 Y74.514
X46.81 Y74.525
X46.763 Y74.544
X46.697 Y74.583
X46.638 Y74.63
G2 X46.521 Y74.898 I0.248 J0.267
G1 X46.525 Y75.434
X46.521 Y75.449
X46.51 Y75.459
X46.495 Y75.463
X46.453
X46.436 Y75.456
X46.431 Y75.439
X46.567 Y74.448
X46.57 Y74.404
X46.573 Y74.359
X46.581 Y74.325
X46.596 Y74.294
X46.617 Y74.266
X47.289 Y73.594
G2 X47.394 Y73.363 I-0.259 J-0.257
G1 X47.441 Y72.696
X47.436 Y72.675
X47.42 Y72.66
X47.404 Y72.644
X47.399 Y72.623
X47.63 Y69.342
X47.636 Y69.326
X47.648 Y69.315
X47.663 Y69.311
X48.104
X48.119 Y69.315
X48.131 Y69.326
X48.135 Y69.341
X48.134 Y69.422
X48.14 Y69.503
X48.143 Y69.544
X48.139 Y69.584
X48.134 Y69.614
X48.131 Y69.644
X48.133 Y70.493
X48.136 Y70.52
X48.14 Y70.547
X48.143 Y70.586
X48.14 Y70.625
X48.136 Y70.652
X48.134 Y70.678
X48.131 Y71.526
X48.133 Y71.554
X48.138 Y71.582
X48.141 Y71.624
X48.136 Y71.667
X48.13 Y71.703
X48.128 Y71.739
X48.138 Y72.083
X48.187 Y72.401
X48.27 Y72.707
X48.304 Y72.805
X48.325 Y72.853
X48.35 Y72.899
X48.375 Y72.946
X48.391 Y72.997
X48.402 Y73.039
X48.419 Y73.079
X48.572 Y73.359
X48.763 Y73.63
X48.969 Y73.862
X49.21 Y74.08
X49.29 Y74.138
X49.332 Y74.164
X49.376 Y74.185
X49.406 Y74.201
X49.432 Y74.223
X49.464 Y74.253
X49.501 Y74.279
X49.788 Y74.436
X50.057 Y74.54
X50.053 Y74.561
X49.242 Y74.557
X49.186 Y74.562
X49.131 Y74.576
X49.079 Y74.599
X49.032 Y74.63
X48.991 Y74.669
X48.957 Y74.715
X48.932 Y74.766
X48.916 Y74.821
X48.907 Y74.87
X48.902 Y74.921
G2 X48.905 Y75.2 I18.281 J0.
G3 X48.907 Y75.48 I-18.279 J0.28
G1 X48.903 Y75.495
X48.892 Y75.506
X48.876 Y75.51
X48.41
X48.395 Y75.506
X48.384 Y75.495
X48.38 Y75.48
X48.384 Y74.898
X48.38 Y74.848
X48.367 Y74.801
X48.347 Y74.755
X48.306 Y74.694
X48.256 Y74.64
X48.209 Y74.605
X48.157 Y74.578
X48.1 Y74.562
X48.041 Y74.557
X46.911
X46.844 Y74.564
X46.78 Y74.588
X46.722 Y74.622
X46.67 Y74.665
G2 X46.568 Y74.898 I0.216 J0.233
G1 X46.572 Y75.48
X46.568 Y75.495
X46.557 Y75.506
X46.542 Y75.51
X46.399
X46.383 Y75.503
X46.377 Y75.485
X46.521 Y74.444
X46.525 Y74.391
X46.528 Y74.339
X46.536 Y74.304
X46.551 Y74.272
X46.573 Y74.244
X47.256 Y73.561
X47.292 Y73.518
X47.319 Y73.469
X47.338 Y73.416
X47.347 Y73.36
X47.399 Y72.623
X47.394 Y72.601
X47.378 Y72.586
X47.362 Y72.571
X47.357 Y72.549
X47.586 Y69.294
X47.592 Y69.279
X47.603 Y69.268
X47.619 Y69.264
X48.152
X48.167 Y69.268
X48.178 Y69.279
X48.182 Y69.293
X48.18 Y69.394
Y69.445
X48.186 Y69.495
X48.19 Y69.544
X48.185 Y69.593
X48.181 Y69.618
X48.179 Y69.644
X48.181 Y70.493
X48.183 Y70.514
X48.186 Y70.535
X48.19 Y70.586
X48.186 Y70.637
X48.183 Y70.657
X48.181 Y70.678
X48.179 Y71.527
X48.181 Y71.553
X48.185 Y71.578
X48.189 Y71.625
X48.184 Y71.671
X48.177 Y71.704
X48.175 Y71.738
X48.185 Y72.076
X48.233 Y72.389
X48.314 Y72.692
X48.35 Y72.793
X48.371 Y72.842
X48.4 Y72.888
X48.421 Y72.926
X48.433 Y72.969
X48.443 Y73.014
X48.46 Y73.056
X48.61 Y73.332
X48.798 Y73.599
X49.001 Y73.827
X49.238 Y74.042
X49.313 Y74.096
X49.352 Y74.121
X49.394 Y74.141
X49.432 Y74.162
X49.466 Y74.19
X49.493 Y74.215
X49.524 Y74.237
X49.805 Y74.393
X50.119 Y74.517
X50.432 Y74.599
X50.74 Y74.644
X50.833 Y74.648
X50.882
X50.931 Y74.642
X50.98 Y74.638
X51.029 Y74.642
X51.064 Y74.647
X51.1 Y74.648
X51.413 Y74.62
X51.747 Y74.546
X52.061 Y74.436
X52.365 Y74.285
X52.436 Y74.24
X52.469 Y74.215
X52.5 Y74.187
X52.536 Y74.157
X52.577 Y74.135
X52.615 Y74.118
X52.65 Y74.095
X52.87 Y73.912
X53.101 Y73.671
X53.305 Y73.402
X53.478 Y73.104
X53.503 Y73.041
X53.523 Y72.977
X53.538 Y72.933
X53.561 Y72.892
X53.586 Y72.855
X53.604 Y72.815
X53.707 Y72.484
G2 X53.763 Y72.178 I-11.839 J-2.318
X53.79 Y71.867 I-1.856 J-0.314
G1 Y71.772
X53.787 Y71.724
X53.78 Y71.677
X53.776 Y71.63
X53.781 Y71.584
X53.786 Y71.555
X53.789 Y71.527
X53.785 Y70.66
X53.783 Y70.645
X53.78 Y70.63
X53.776 Y70.583
X53.782 Y70.536
X53.787 Y70.508
X53.79 Y70.479
X53.787 Y69.624
X53.785 Y69.61
X53.783 Y69.596
X53.778 Y69.547
X53.783 Y69.498
X53.789 Y69.447
X53.79 Y69.396
X53.788 Y69.293
X53.792 Y69.279
X53.803 Y69.268
X53.818 Y69.264
X54.341
X54.356 Y69.268
X54.368 Y69.279
X54.373 Y69.294
X54.66 Y73.357
X54.672 Y73.42
X54.699 Y73.479
X54.74 Y73.53
X55.326 Y74.106
X55.362 Y74.136
X55.398 Y74.165
X55.42 Y74.19
X55.436 Y74.219
X55.445 Y74.251
X55.634 Y75.529
X55.632 Y75.543
X55.623 Y75.554
X55.609 Y75.558
X55.37
X55.355 Y75.554
X55.344 Y75.543
X55.34 Y75.528
X55.344 Y74.898
X55.336 Y74.836
X55.313 Y74.778
X55.279 Y74.726
X55.237 Y74.68
X55.197 Y74.647
X55.151 Y74.623
X55.101 Y74.609
X55.049 Y74.604
X53.905 Y74.607
X53.849 Y74.612
X53.795 Y74.629
X53.746 Y74.657
X53.703 Y74.694
X53.668 Y74.738
X53.643 Y74.788
X53.627 Y74.842
X53.622 Y74.898
X53.626 Y75.528
X53.622 Y75.543
X53.611 Y75.554
X53.596 Y75.558
X53.034
X53.019 Y75.554
X53.008 Y75.543
X53.004 Y75.528
X53.009 Y74.902
X53.003 Y74.843
X52.986 Y74.786
X52.958 Y74.734
X52.919 Y74.688
X52.872 Y74.652
X52.818 Y74.627
X52.762 Y74.611
X52.704 Y74.604
X51.579
X51.518 Y74.611
X51.462 Y74.634
X51.411 Y74.666
X51.365 Y74.705
X51.331 Y74.746
X51.305 Y74.794
X51.29 Y74.845
X51.284 Y74.898
X51.289 Y75.528
X51.285 Y75.543
X51.274 Y75.554
X51.259 Y75.558
X50.699
X50.684 Y75.554
X50.674 Y75.543
X50.67 Y75.528
X50.674 Y74.898
X50.667 Y74.838
X50.645 Y74.782
X50.614 Y74.732
X50.575 Y74.686
X50.534 Y74.651
X50.486 Y74.625
X50.435 Y74.609
X50.381 Y74.604
X49.242
X49.178 Y74.611
X49.117 Y74.633
X49.062 Y74.667
X49.016 Y74.713
X48.982 Y74.768
X48.962 Y74.83
X48.954 Y74.875
X48.95 Y74.921
X48.954 Y75.528
X48.95 Y75.543
X48.939 Y75.554
X48.924 Y75.558
X48.362
X48.347 Y75.554
X48.336 Y75.543
X48.333 Y75.528
X48.337 Y74.898
X48.333 Y74.855
X48.322 Y74.813
X48.304 Y74.775
X48.268 Y74.722
X48.224 Y74.675
X48.184 Y74.645
X48.139 Y74.622
X48.091 Y74.609
X48.041 Y74.604
X46.911
X46.852 Y74.611
X46.797 Y74.632
X46.747 Y74.662
X46.702 Y74.699
X46.665 Y74.741
X46.638 Y74.79
X46.621 Y74.842
X46.615 Y74.898
X46.619 Y75.528
X46.615 Y75.543
X46.605 Y75.554
X46.59 Y75.558
X46.345
X46.328 Y75.55
X46.323 Y75.533
X46.475 Y74.439
X46.479 Y74.378
X46.483 Y74.317
X46.49 Y74.283
X46.505 Y74.251
X46.527 Y74.224
X47.222 Y73.528
X47.261 Y73.477
X47.288 Y73.419
X47.3 Y73.357
X47.357 Y72.549
X47.351 Y72.524
X47.333 Y72.507
X47.315 Y72.49
X47.309 Y72.466
X47.537 Y69.241
X47.542 Y69.226
X47.554 Y69.215
X47.57 Y69.21
X48.204
X48.219 Y69.215
X48.231 Y69.226
X48.235 Y69.241
X48.23 Y69.373
X48.231 Y69.439
X48.243 Y69.505
X48.248 Y69.545
X48.242 Y69.584
X48.235 Y69.614
X48.232 Y69.644
X48.234 Y70.493
X48.236 Y70.519
X48.242 Y70.545
X48.247 Y70.586
X48.242 Y70.627
X48.237 Y70.653
X48.234 Y70.678
X48.231 Y71.527
X48.235 Y71.558
X48.242 Y71.588
X48.247 Y71.626
X48.241 Y71.663
X48.231 Y71.699
X48.228 Y71.736
X48.237 Y72.068
X48.284 Y72.375
X48.364 Y72.674
X48.4 Y72.778
X48.424 Y72.829
X48.456 Y72.873
X48.476 Y72.904
X48.484 Y72.939
X48.49 Y72.986
X48.507 Y73.031
X48.654 Y73.302
X48.838 Y73.564
X49.037 Y73.788
X49.269 Y73.999
X49.345 Y74.055
X49.384 Y74.079
X49.427 Y74.097
X49.463 Y74.115
X49.494 Y74.142
X49.52 Y74.169
X49.55 Y74.19
X49.825 Y74.343
X50.132 Y74.465
X50.44 Y74.547
X50.743 Y74.591
X50.842 Y74.596
X50.891 Y74.595
X50.94 Y74.586
X50.98 Y74.58
X51.02 Y74.586
X51.057 Y74.594
X51.095 Y74.595
X51.402 Y74.568
X51.73 Y74.496
X52.037 Y74.388
X52.337 Y74.239
X52.411 Y74.193
X52.446 Y74.166
X52.476 Y74.135
X52.503 Y74.109
X52.538 Y74.093
X52.579 Y74.078
X52.616 Y74.054
X52.832 Y73.875
X53.059 Y73.639
X53.259 Y73.375
X53.429 Y73.083
X53.456 Y73.016
X53.467 Y72.982
X53.474 Y72.946
X53.485 Y72.909
X53.506 Y72.876
X53.534 Y72.84
X53.553 Y72.799
X53.655 Y72.474
G2 X53.71 Y72.173 I-12.193 J-2.387
X53.736 Y71.867 I-1.813 J-0.309
G1 X53.737 Y71.767
X53.734 Y71.717
X53.723 Y71.668
X53.718 Y71.63
X53.724 Y71.592
X53.732 Y71.56
X53.736 Y71.527
X53.733 Y70.664
X53.729 Y70.642
X53.724 Y70.621
X53.719 Y70.582
X53.725 Y70.544
X53.733 Y70.512
X53.737 Y70.479
X53.734 Y69.628
X53.731 Y69.607
X53.726 Y69.587
X53.721 Y69.547
X53.726 Y69.507
X53.739 Y69.441
X53.74 Y69.374
X53.735 Y69.241
X53.74 Y69.226
X53.751 Y69.215
X53.766 Y69.21
X54.39
X54.406 Y69.215
X54.418 Y69.226
X54.423 Y69.241
X54.713 Y73.353
X54.723 Y73.404
X54.745 Y73.451
X54.777 Y73.492
X55.36 Y74.067
X55.404 Y74.102
X55.447 Y74.137
X55.47 Y74.162
X55.486 Y74.192
X55.495 Y74.225
X55.696 Y75.581
X55.694 Y75.596
X55.684 Y75.607
X55.67 Y75.611
X55.317
X55.302 Y75.607
X55.291 Y75.596
X55.287 Y75.581
G3 X55.289 Y75.239 I27.284 J-0.002
G2 X55.291 Y74.898 I-27.282 J-0.339
G1 X55.284 Y74.846
X55.264 Y74.799
X55.235 Y74.756
X55.201 Y74.718
X55.156 Y74.685
X55.104 Y74.664
X55.049 Y74.657
X53.905 Y74.66
X53.859 Y74.665
X53.816 Y74.678
X53.775 Y74.701
X53.741 Y74.731
X53.705 Y74.78
X53.682 Y74.837
X53.675 Y74.898
X53.679 Y75.58
X53.675 Y75.596
X53.664 Y75.607
X53.649 Y75.611
X52.981
X52.966 Y75.607
X52.955 Y75.596
X52.951 Y75.581
X52.955 Y74.902
X52.951 Y74.854
X52.937 Y74.808
X52.915 Y74.765
X52.884 Y74.728
X52.845 Y74.698
X52.801 Y74.677
X52.753 Y74.663
X52.704 Y74.657
X51.579
X51.528 Y74.664
X51.482 Y74.683
X51.44 Y74.71
X51.402 Y74.743
X51.367 Y74.788
X51.345 Y74.841
X51.338 Y74.898
X51.342 Y75.58
X51.338 Y75.596
X51.327 Y75.607
X51.311 Y75.611
X50.647
X50.632 Y75.607
X50.621 Y75.596
X50.617 Y75.581
X50.621 Y74.898
X50.614 Y74.848
X50.596 Y74.802
X50.569 Y74.761
X50.537 Y74.723
X50.492 Y74.687
X50.438 Y74.665
X50.381 Y74.657
X49.242
X49.19 Y74.663
X49.14 Y74.68
X49.096 Y74.708
X49.058 Y74.745
X49.031 Y74.79
X49.015 Y74.84
X49.007 Y74.879
X49.003 Y74.921
X49.007 Y75.58
X49.003 Y75.596
X48.992 Y75.607
X48.977 Y75.611
X48.309
X48.294 Y75.607
X48.283 Y75.596
X48.279 Y75.581
X48.284 Y74.898
X48.276 Y74.845
X48.255 Y74.796
X48.225 Y74.753
X48.188 Y74.714
X48.145 Y74.683
X48.095 Y74.664
X48.041 Y74.657
X46.911
X46.862 Y74.663
X46.817 Y74.681
X46.776 Y74.707
X46.738 Y74.738
X46.708 Y74.772
X46.686 Y74.811
X46.673 Y74.853
X46.668 Y74.898
X46.673 Y75.58
X46.668 Y75.596
X46.657 Y75.607
X46.642 Y75.611
X46.285
X46.273 Y75.607
X46.264 Y75.598
X46.262 Y75.585
X46.422 Y74.434
X46.427 Y74.364
X46.432 Y74.294
X46.439 Y74.259
X46.455 Y74.227
X46.477 Y74.199
X47.184 Y73.49
X47.216 Y73.45
X47.237 Y73.403
X47.247 Y73.353
X47.309 Y72.466
X47.307 Y72.443
X47.295 Y72.424
X47.278 Y72.41
X47.26 Y72.396
X47.249 Y72.377
X47.246 Y72.354
X47.471 Y69.17
X47.476 Y69.155
X47.488 Y69.143
X47.504 Y69.139
X48.275
X48.29 Y69.143
X48.301 Y69.155
X48.305 Y69.17
Y69.451
X48.31 Y69.487
X48.325 Y69.52
X48.332 Y69.545
X48.325 Y69.571
X48.309 Y69.606
X48.302 Y69.644
X48.305 Y70.493
X48.31 Y70.527
X48.323 Y70.559
X48.33 Y70.586
X48.323 Y70.612
X48.31 Y70.644
X48.305 Y70.679
X48.302 Y71.527
X48.309 Y71.567
X48.326 Y71.603
X48.333 Y71.627
X48.326 Y71.651
X48.306 Y71.69
X48.3 Y71.712
X48.299 Y71.734
X48.308 Y72.058
X48.353 Y72.357
X48.431 Y72.651
X48.466 Y72.755
X48.481 Y72.79
X48.503 Y72.82
X48.531 Y72.845
X48.546 Y72.861
X48.555 Y72.881
X48.556 Y72.903
Y72.951
X48.56 Y72.975
X48.569 Y72.997
X48.712 Y73.261
X48.892 Y73.517
X49.085 Y73.736
X49.311 Y73.942
X49.391 Y74.002
X49.436 Y74.026
X49.485 Y74.037
X49.51 Y74.046
X49.528 Y74.066
X49.551 Y74.102
X49.584 Y74.129
X49.852 Y74.277
X50.151 Y74.397
X50.45 Y74.476
X50.747 Y74.52
X50.852 Y74.526
X50.887
X50.922 Y74.518
X50.955 Y74.503
X50.98 Y74.497
X51.005 Y74.503
X51.046 Y74.52
X51.089 Y74.524
X51.387 Y74.499
X51.706 Y74.429
X52.006 Y74.324
X52.3 Y74.179
X52.38 Y74.129
X52.415 Y74.097
X52.44 Y74.056
X52.455 Y74.037
X52.479 Y74.03
X52.527 Y74.023
X52.55 Y74.014
X52.571 Y74.
X52.781 Y73.826
X53.003 Y73.596
X53.198 Y73.339
X53.364 Y73.055
X53.393 Y72.984
X53.403 Y72.947
X53.405 Y72.908
X53.409 Y72.878
X53.426 Y72.854
X53.434 Y72.847
X53.442 Y72.841
X53.468 Y72.812
X53.486 Y72.778
X53.585 Y72.46
G2 X53.64 Y72.166 I-12.757 J-2.497
X53.665 Y71.867 I-1.756 J-0.302
G1 X53.668 Y71.76
X53.662 Y71.706
X53.641 Y71.656
X53.633 Y71.629
X53.641 Y71.603
X53.658 Y71.567
X53.665 Y71.527
X53.662 Y70.669
X53.655 Y70.637
X53.642 Y70.608
X53.635 Y70.582
X53.642 Y70.555
X53.659 Y70.519
X53.666 Y70.479
X53.664 Y69.633
X53.657 Y69.601
X53.643 Y69.572
X53.637 Y69.547
X53.644 Y69.521
X53.659 Y69.488
X53.665 Y69.451
Y69.17
X53.669 Y69.155
X53.68 Y69.143
X53.695 Y69.139
X54.456
X54.472 Y69.143
X54.484 Y69.155
X54.489 Y69.17
X54.784 Y73.348
X54.79 Y73.382
X54.805 Y73.414
X54.827 Y73.441
X55.406 Y74.014
X55.46 Y74.057
X55.513 Y74.101
X55.536 Y74.126
X55.553 Y74.156
X55.562 Y74.189
X55.778 Y75.653
X55.776 Y75.667
X55.767 Y75.678
X55.753 Y75.682
X55.246
X55.231 Y75.678
X55.22 Y75.667
X55.216 Y75.652
G3 X55.218 Y75.275 I33.259 J-0.002
G2 X55.22 Y74.898 I-33.257 J-0.375
G1 X55.215 Y74.861
X55.199 Y74.826
X55.177 Y74.796
X55.151 Y74.769
X55.121 Y74.747
X55.086 Y74.733
X55.049 Y74.728
X53.905 Y74.731
X53.863 Y74.737
X53.824 Y74.754
X53.791 Y74.781
X53.766 Y74.816
X53.751 Y74.856
X53.746 Y74.898
X53.75 Y75.651
X53.746 Y75.667
X53.735 Y75.678
X53.72 Y75.682
X52.91
X52.895 Y75.678
X52.884 Y75.667
X52.88 Y75.652
X52.884 Y74.902
X52.877 Y74.853
X52.857 Y74.807
X52.836 Y74.78
X52.809 Y74.759
X52.779 Y74.745
X52.742 Y74.734
X52.704 Y74.728
X51.579
X51.542 Y74.733
X51.509 Y74.748
X51.452 Y74.794
X51.429 Y74.824
X51.414 Y74.86
X51.409 Y74.898
X51.413 Y75.651
X51.409 Y75.667
X51.398 Y75.678
X51.382 Y75.682
X50.575
X50.56 Y75.678
X50.549 Y75.667
X50.545 Y75.652
X50.55 Y74.898
X50.545 Y74.862
X50.53 Y74.829
X50.486 Y74.773
X50.455 Y74.749
X50.42 Y74.733
X50.381 Y74.728
X49.242
X49.206 Y74.732
X49.172 Y74.744
X49.141 Y74.763
X49.115 Y74.788
X49.096 Y74.819
X49.084 Y74.854
X49.078 Y74.887
X49.074 Y74.921
X49.078 Y75.651
X49.074 Y75.667
X49.063 Y75.678
X49.048 Y75.682
X48.238
X48.223 Y75.678
X48.212 Y75.667
X48.208 Y75.652
X48.212 Y74.898
X48.207 Y74.859
X48.19 Y74.825
X48.167 Y74.794
X48.14 Y74.767
X48.111 Y74.746
X48.077 Y74.733
X48.041 Y74.728
X46.911
X46.875 Y74.733
X46.843 Y74.747
X46.786 Y74.79
X46.761 Y74.821
X46.745 Y74.858
X46.739 Y74.898
X46.744 Y75.651
X46.74 Y75.667
X46.728 Y75.678
X46.713 Y75.682
X46.203
X46.191 Y75.678
X46.183 Y75.669
X46.181 Y75.656
X46.351 Y74.427
X46.357 Y74.344
X46.364 Y74.262
X46.371 Y74.227
X46.386 Y74.195
X46.408 Y74.167
X47.134 Y73.44
X47.155 Y73.413
X47.169 Y73.382
X47.176 Y73.348
X47.246 Y72.354
X47.243 Y72.332
X47.232 Y72.312
X47.214 Y72.299
X47.196 Y72.285
X47.185 Y72.265
X47.182 Y72.243
X47.405 Y69.098
X47.41 Y69.083
X47.421 Y69.072
X47.437 Y69.068
X48.346
X48.361 Y69.072
X48.372 Y69.083
X48.376 Y69.098
X48.374 Y69.45
X48.378 Y69.474
X48.391 Y69.495
X48.426 Y69.526
X48.447 Y69.537
X48.47 Y69.541
X49.384 Y69.54
X49.417 Y69.534
X49.445 Y69.517
X49.466 Y69.49
X49.473 Y69.457
X49.474 Y69.277
Y69.098
X49.478 Y69.083
X49.489 Y69.072
X49.504 Y69.068
X52.462
X52.477 Y69.072
X52.488 Y69.083
X52.492 Y69.098
X52.491 Y69.451
X52.496 Y69.477
X52.511 Y69.498
X52.553 Y69.53
X52.572 Y69.538
X52.592 Y69.541
X53.508 Y69.538
X53.541 Y69.532
X53.57 Y69.513
X53.589 Y69.484
X53.596 Y69.45
X53.594 Y69.098
X53.598 Y69.083
X53.609 Y69.072
X53.624 Y69.068
X54.523
X54.538 Y69.072
X54.55 Y69.083
X54.555 Y69.098
X54.855 Y73.343
X54.862 Y73.369
X54.877 Y73.391
X55.453 Y73.96
X55.517 Y74.012
X55.581 Y74.065
X55.603 Y74.09
X55.619 Y74.119
X55.628 Y74.151
X55.861 Y75.724
X55.859 Y75.738
X55.849 Y75.749
X55.836 Y75.753
X55.174
X55.16 Y75.749
X55.149 Y75.738
X55.145 Y75.724
X55.149 Y74.898
X55.145 Y74.875
X55.133 Y74.854
X55.102 Y74.82
X55.078 Y74.805
X55.049 Y74.799
X53.906 Y74.802
X53.87 Y74.81
X53.841 Y74.832
X53.823 Y74.862
X53.817 Y74.898
X53.821 Y75.723
X53.817 Y75.738
X53.806 Y75.749
X53.791 Y75.753
X52.838
X52.824 Y75.749
X52.813 Y75.738
X52.809 Y75.724
X52.813 Y74.902
X52.81 Y74.874
X52.799 Y74.848
X52.781 Y74.826
X52.756 Y74.813
X52.731 Y74.804
X52.704 Y74.799
X51.579
X51.556 Y74.803
X51.536 Y74.814
X51.502 Y74.844
X51.486 Y74.869
X51.48 Y74.898
X51.484 Y75.723
X51.48 Y75.738
X51.469 Y75.749
X51.454 Y75.753
X50.504
X50.489 Y75.749
X50.478 Y75.738
X50.474 Y75.724
X50.478 Y74.898
X50.475 Y74.876
X50.464 Y74.856
X50.435 Y74.822
X50.41 Y74.805
X50.381 Y74.799
X49.242
X49.213 Y74.804
X49.186 Y74.818
X49.165 Y74.839
X49.154 Y74.867
X49.148 Y74.894
X49.145 Y74.921
X49.149 Y75.723
X49.145 Y75.738
X49.134 Y75.749
X49.12 Y75.753
X48.167
X48.152 Y75.749
X48.141 Y75.738
X48.137 Y75.724
X48.141 Y74.898
X48.137 Y74.874
X48.125 Y74.853
X48.092 Y74.819
X48.069 Y74.804
X48.041 Y74.799
X46.911
X46.889 Y74.803
X46.869 Y74.814
X46.835 Y74.843
X46.817 Y74.868
X46.811 Y74.898
X46.815 Y75.723
X46.811 Y75.738
X46.8 Y75.749
X46.785 Y75.753
X46.121
X46.105 Y75.745
X46.1 Y75.728
X46.28 Y74.419
X46.288 Y74.324
X46.295 Y74.228
X46.303 Y74.194
X46.318 Y74.163
X46.339 Y74.135
X47.083 Y73.39
X47.098 Y73.368
X47.105 Y73.343
X47.182 Y72.243
X47.177 Y72.22
X47.161 Y72.204
X47.144 Y72.188
X47.139 Y72.166
X47.363 Y69.03
X47.372 Y69.022
X48.417
X48.422 Y69.042
X48.424 Y69.45
X48.427 Y69.461
X48.434 Y69.47
X48.456 Y69.486
X48.47 Y69.49
X49.384
X49.397 Y69.486
X49.411 Y69.477
X49.42 Y69.468
X49.423 Y69.456
X49.428 Y69.096
Y69.025
X52.538 Y69.022
X52.541 Y69.45
X52.544 Y69.462
X52.553 Y69.471
X52.579 Y69.487
X52.592 Y69.49
X53.508 Y69.488
X53.526 Y69.481
X53.538 Y69.467
X53.546 Y69.45
X53.548 Y69.022
X54.588
X54.596 Y69.03
X54.905 Y73.339
X54.912 Y73.355
X55.485 Y73.921
X55.653 Y74.066
X55.664 Y74.082
X55.918 Y75.797
X55.099 Y75.799
Y74.898
X55.091 Y74.88
X55.067 Y74.857
X55.05 Y74.85
X53.906 Y74.852
X53.894 Y74.855
X53.885 Y74.864
X53.871 Y74.884
X53.867 Y74.898
Y75.799
X52.763
Y74.902
X52.762 Y74.895
X52.756 Y74.877
X52.75 Y74.867
X52.74 Y74.86
X52.712 Y74.851
X52.704 Y74.85
X51.579
X51.561 Y74.857
X51.538 Y74.88
X51.53 Y74.898
Y75.799
X50.428
Y74.898
X50.421 Y74.88
X50.399 Y74.857
X50.381 Y74.85
X49.242
X49.231 Y74.852
X49.217 Y74.859
X49.208 Y74.866
X49.204 Y74.877
X49.196 Y74.916
X49.195 Y75.796
X49.19 Y75.799
X48.091
Y74.898
X48.089 Y74.888
X48.083 Y74.88
X48.058 Y74.856
X48.041 Y74.85
X46.911
X46.894 Y74.856
X46.869 Y74.879
X46.863 Y74.888
X46.861 Y74.898
Y75.799
X46.048
X46.23 Y74.415
X46.257 Y74.153
X47.047 Y73.355
X47.055 Y73.339
X47.139 Y72.166
X47.144 Y72.158 Z-1.402
G0 Z5.
X48.269 Y72.054
Z-0.337
G1 Z-1.402 F40.
X48.278 Y72.052 Z-1.412
X48.367 Y72.039
X48.378 Y72.047
X48.422 Y72.339
X48.499 Y72.627
X48.544 Y72.755
X48.552 Y72.771
X48.564 Y72.785
X48.592 Y72.807
X48.618 Y72.819
X48.647 Y72.82
X48.674 Y72.81
X49.539 Y72.299
X49.562 Y72.277
X49.573 Y72.248
X49.575 Y72.217
X49.57 Y72.186
X49.539 Y72.084
X49.508 Y71.982
X49.502 Y71.949
X49.49 Y71.822
X49.483 Y71.759
X49.471 Y71.696
X49.461 Y71.672
X49.442 Y71.652
X49.418 Y71.641
X49.38 Y71.634
X49.341 Y71.631
X48.469
X48.446 Y71.635
X48.426 Y71.646
X48.392 Y71.675
X48.374 Y71.701
X48.368 Y71.732
X48.378 Y72.047
X48.382 Y72.064
X48.393 Y72.077
X48.408 Y72.085
X48.43 Y72.098
X48.44 Y72.121
X48.47 Y72.323
X48.545 Y72.608
X48.591 Y72.739
X48.6 Y72.751
X48.621 Y72.766
X48.635 Y72.771
X48.649 Y72.767
X49.513 Y72.256
X49.523 Y72.245
X49.525 Y72.232
X49.522 Y72.203
X49.458 Y71.975
X49.432 Y71.751
X49.422 Y71.707
X49.414 Y71.694
X49.401 Y71.688
X49.344 Y71.682
X48.469 Y71.681
X48.451 Y71.688
X48.427 Y71.712
X48.421 Y71.72
X48.419 Y71.731
X48.428 Y72.037
X48.44 Y72.121
Z-1.402
G0 Z5.
X48.278 Y71.541
Z-1.325
G1 X48.279 Y71.532 Z-1.335 F333.
X48.293 Y71.509 Z-1.336
X48.318 Y71.497 Z-1.337
X48.344 Y71.5 Z-1.338
X48.365 Y71.518
X48.373 Y71.544 Z-1.339
X48.365 Y71.57 Z-1.34
X48.344 Y71.587 Z-1.341
X48.318 Y71.591 Z-1.342
X48.293 Y71.579 Z-1.343
X48.279 Y71.556 Z-1.344
X48.28 Y71.529 Z-1.345
X48.295 Y71.507 Z-1.346
X48.32 Y71.496 Z-1.347
X48.347 Y71.502 Z-1.348
X48.366 Y71.52 Z-1.349
X48.373 Y71.547 Z-1.35
X48.363 Y71.572 Z-1.351
X48.342 Y71.588 Z-1.352
X48.315 Y71.59 Z-1.353
X48.291 Y71.577 Z-1.354
X48.279 Y71.553 Z-1.355
X48.281 Y71.526 Z-1.356
X48.298 Y71.505 Z-1.357
X48.323 Y71.496 Z-1.358
X48.35 Y71.503 Z-1.359
X48.368 Y71.523 Z-1.36
X48.372 Y71.55
X48.361 Y71.574 Z-1.361
X48.339 Y71.589 Z-1.362
X48.312 Z-1.363
X48.289 Y71.575 Z-1.364
X48.278 Y71.55 Z-1.365
X48.282 Y71.523 Z-1.366
X48.3 Y71.503 Z-1.367
X48.326 Y71.496 Z-1.368
X48.352 Y71.505 Z-1.369
X48.369 Y71.526 Z-1.37
X48.372 Y71.553 Z-1.371
X48.359 Y71.577 Z-1.372
X48.336 Y71.59 Z-1.373
X48.309 Y71.588 Z-1.374
X48.287 Y71.572 Z-1.375
X48.278 Y71.547 Z-1.376
X48.284 Y71.521 Z-1.377
X48.303 Y71.502 Z-1.378
X48.329 Y71.496 Z-1.379
X48.354 Y71.506 Z-1.38
X48.37 Y71.528 Z-1.381
X48.371 Y71.555 Z-1.382
X48.357 Y71.579
X48.333 Y71.591 Z-1.383
X48.306 Y71.587 Z-1.384
X48.286 Y71.57 Z-1.385
X48.278 Y71.544 Z-1.386
X48.285 Y71.518 Z-1.387
X48.305 Y71.501 Z-1.388
X48.332 Y71.497 Z-1.389
X48.357 Y71.508 Z-1.39
X48.371 Y71.531 Z-1.391
X48.37 Y71.558 Z-1.392
X48.355 Y71.581 Z-1.393
X48.33 Y71.591 Z-1.394
X48.304 Y71.586 Z-1.395
X48.284 Y71.568 Z-1.396
X48.278 Y71.541 Z-1.397
X48.287 Y71.516 Z-1.398
X48.308 Y71.499 Z-1.399
X48.335 Y71.497 Z-1.4
X48.359 Y71.51 Z-1.401
X48.372 Y71.534 Z-1.402
X48.369 Y71.561 Z-1.403
X48.353 Y71.582 Z-1.404
X48.327 Y71.591 Z-1.405
X48.301 Y71.585
X48.283 Y71.565 Z-1.406
X48.278 Y71.538 Z-1.407
X48.289 Y71.513 Z-1.408
X48.311 Y71.498 Z-1.409
X48.338 Z-1.41
X48.361 Y71.512 Z-1.411
X48.372 Y71.537 Z-1.412
X48.378 Y71.556 F40.
X48.388 Y71.572
X48.423 Y71.605
X48.445 Y71.617
X48.47 Y71.622
X49.384 Y71.621
X49.405 Y71.617
X49.424 Y71.608
X49.455 Y71.58
X49.471 Y71.556
X49.476 Y71.527
X49.473 Y70.677
X49.469 Y70.652
X49.457 Y70.63
X49.439 Y70.612
X49.406 Y70.596
X49.369 Y70.591
X48.471
X48.436 Y70.597
X48.404 Y70.615
X48.388 Y70.633
X48.377 Y70.655
X48.374 Y70.679
X48.371 Y71.527
X48.372 Y71.537
X48.381 Y71.557
X48.398 Y71.57
X48.419 Y71.574
X48.479 Y71.571
X49.384 Y71.57
X49.401 Y71.563
X49.419 Y71.545
X49.426 Y71.527
X49.423 Y70.677
X49.418 Y70.663
X49.407 Y70.654
X49.379 Y70.643
X49.369 Y70.641
X48.471
X48.459 Y70.644
X48.436 Y70.657
X48.427 Y70.667
X48.424 Y70.679
X48.422 Y71.527
X48.424 Y71.538
X48.431 Y71.547
X48.454 Y71.566
X48.47 Y71.571
X48.479
X48.487 Y71.576 Z-1.402
G0 Z5.
X48.28 Y70.51
Z-1.325
G1 X48.282 Y70.501 Z-1.335 F333.
X48.295 Y70.477 Z-1.336
X48.32 Y70.465 Z-1.337
X48.346 Y70.469 Z-1.338
X48.367 Y70.486
X48.375 Y70.512 Z-1.339
X48.368 Y70.538 Z-1.34
X48.347 Y70.556 Z-1.341
X48.32 Y70.559 Z-1.342
X48.296 Y70.548 Z-1.343
X48.282 Y70.525 Z-1.344
Y70.498 Z-1.345
X48.298 Y70.475 Z-1.346
X48.323 Y70.465 Z-1.347
X48.349 Y70.47 Z-1.348
X48.369 Y70.489 Z-1.349
X48.375 Y70.515 Z-1.35
X48.366 Y70.54 Z-1.351
X48.344 Y70.557 Z-1.352
X48.317 Y70.559 Z-1.353
X48.294 Y70.546 Z-1.354
X48.281 Y70.522 Z-1.355
X48.283 Y70.495 Z-1.356
X48.3 Y70.474 Z-1.357
X48.325 Y70.465 Z-1.358
X48.352 Y70.471 Z-1.359
X48.37 Y70.491 Z-1.36
X48.375 Y70.518
X48.364 Y70.543 Z-1.361
X48.342 Y70.558 Z-1.362
X48.315 Z-1.363
X48.292 Y70.544 Z-1.364
X48.281 Y70.519 Z-1.365
X48.284 Y70.492 Z-1.366
X48.302 Y70.472 Z-1.367
X48.328 Y70.465 Z-1.368
X48.354 Y70.473 Z-1.369
X48.371 Y70.494 Z-1.37
X48.374 Y70.521 Z-1.371
X48.362 Y70.545 Z-1.372
X48.339 Y70.558 Z-1.373
X48.312 Y70.557 Z-1.374
X48.29 Y70.541 Z-1.375
X48.28 Y70.516 Z-1.376
X48.286 Y70.49 Z-1.377
X48.305 Y70.471 Z-1.378
X48.331 Y70.465 Z-1.379
X48.357 Y70.475 Z-1.38
X48.372 Y70.497 Z-1.381
X48.374 Y70.524 Z-1.382
X48.36 Y70.547
X48.336 Y70.559 Z-1.383
X48.309 Y70.556 Z-1.384
X48.288 Y70.539 Z-1.385
X48.28 Y70.513 Z-1.386
X48.287 Y70.487 Z-1.387
X48.308 Y70.469 Z-1.388
X48.334 Y70.465 Z-1.389
X48.359 Y70.477 Z-1.39
X48.373 Y70.499 Z-1.391
Y70.526 Z-1.392
X48.358 Y70.549 Z-1.393
X48.333 Y70.559 Z-1.394
X48.306 Y70.555 Z-1.395
X48.287 Y70.536 Z-1.396
X48.28 Y70.51 Z-1.397
X48.289 Y70.485 Z-1.398
X48.31 Y70.468 Z-1.399
X48.337 Y70.466 Z-1.4
X48.361 Y70.479 Z-1.401
X48.374 Y70.502 Z-1.402
X48.372 Y70.529 Z-1.403
X48.356 Y70.551 Z-1.404
X48.33 Y70.56 Z-1.405
X48.304 Y70.553
X48.285 Y70.534 Z-1.406
X48.28 Y70.507 Z-1.407
X48.291 Y70.482 Z-1.408
X48.313 Y70.467 Z-1.409
X48.34 Y70.466 Z-1.41
X48.363 Y70.481 Z-1.411
X48.375 Y70.505 Z-1.412
X48.384 Y70.534 F40.
X48.404 Y70.557
X48.436 Y70.575
X48.471 Y70.581
X49.384 Y70.58
X49.417 Y70.574
X49.446 Y70.556
X49.466 Y70.528
X49.473 Y70.495
Y69.637
X49.469 Y69.612
X49.457 Y69.589
X49.439 Y69.572
X49.406 Y69.556
X49.369 Y69.55
X48.47
X48.45 Y69.553
X48.432 Y69.561
X48.401 Y69.584
X48.379 Y69.61
X48.372 Y69.643
X48.374 Y70.493
X48.375 Y70.505
X48.384 Y70.526
X48.403 Y70.538
X48.426 Y70.539
X48.487 Y70.531
X49.384 Y70.53
X49.398 Y70.525
X49.412 Y70.515
X49.42 Y70.506
X49.423 Y70.495
Y69.637
X49.418 Y69.623
X49.407 Y69.613
X49.379 Y69.602
X49.369 Y69.601
X48.47
X48.454 Y69.606
X48.432 Y69.624
X48.425 Y69.632
X48.422 Y69.643
X48.424 Y70.493
X48.427 Y70.505
X48.435 Y70.514
X48.456 Y70.527
X48.47 Y70.531
X48.487
X48.495 Y70.535 Z-1.402
G0 Z5.
X49.818 Y72.458
Z-1.325
G1 X49.821 Y72.467 Z-1.335 F333.
X49.818 Y72.494 Z-1.336
X49.801 Y72.515 Z-1.337
X49.775 Y72.523 Z-1.338
X49.749 Y72.516
X49.731 Y72.496 Z-1.339
X49.727 Y72.469 Z-1.34
X49.738 Y72.445 Z-1.341
X49.761 Y72.43 Z-1.342
X49.788 Z-1.343
X49.81 Y72.445 Z-1.344
X49.821 Y72.47 Z-1.345
X49.817 Y72.497 Z-1.346
X49.798 Y72.517 Z-1.347
X49.772 Y72.523 Z-1.348
X49.746 Y72.515 Z-1.349
X49.73 Y72.493 Z-1.35
X49.727 Y72.466 Z-1.351
X49.74 Y72.443 Z-1.352
X49.764 Y72.429 Z-1.353
X49.791 Y72.431 Z-1.354
X49.812 Y72.448 Z-1.355
X49.821 Y72.473 Z-1.356
X49.815 Y72.499 Z-1.357
X49.796 Y72.518 Z-1.358
X49.769 Y72.523 Z-1.359
X49.744 Y72.513 Z-1.36
X49.729 Y72.491
X49.728 Y72.464 Z-1.361
X49.742 Y72.441 Z-1.362
X49.767 Y72.429 Z-1.363
X49.793 Y72.432 Z-1.364
X49.814 Y72.45 Z-1.365
X49.821 Y72.476 Z-1.366
X49.814 Y72.502 Z-1.367
X49.793 Y72.519 Z-1.368
X49.766 Y72.523 Z-1.369
X49.742 Y72.511 Z-1.37
X49.728 Y72.488 Z-1.371
X49.729 Y72.461 Z-1.372
X49.744 Y72.439 Z-1.373
X49.769 Y72.429 Z-1.374
X49.796 Y72.434 Z-1.375
X49.815 Y72.453 Z-1.376
X49.821 Y72.479 Z-1.377
X49.812 Y72.504 Z-1.378
X49.79 Y72.52 Z-1.379
X49.763 Y72.522 Z-1.38
X49.74 Y72.509 Z-1.381
X49.727 Y72.485 Z-1.382
X49.73 Y72.458
X49.747 Y72.437 Z-1.383
X49.772 Y72.428 Z-1.384
X49.798 Y72.435 Z-1.385
X49.817 Y72.455 Z-1.386
X49.821 Y72.482 Z-1.387
X49.81 Y72.507 Z-1.388
X49.787 Y72.521 Z-1.389
X49.76 Z-1.39
X49.738 Y72.507 Z-1.391
X49.727 Y72.482 Z-1.392
X49.731 Y72.455 Z-1.393
X49.749 Y72.435 Z-1.394
X49.775 Y72.428 Z-1.395
X49.801 Y72.437 Z-1.396
X49.818 Y72.458 Z-1.397
X49.821 Y72.485 Z-1.398
X49.808 Y72.509 Z-1.399
X49.785 Y72.522 Z-1.4
X49.758 Y72.52 Z-1.401
X49.736 Y72.504 Z-1.402
X49.726 Y72.479 Z-1.403
X49.732 Y72.453 Z-1.404
X49.752 Y72.434 Z-1.405
X49.778 Y72.429
X49.803 Y72.439 Z-1.406
X49.819 Y72.461 Z-1.407
X49.82 Y72.488 Z-1.408
X49.806 Y72.511 Z-1.409
X49.782 Y72.523 Z-1.41
X49.755 Y72.519 Z-1.411
X49.734 Y72.502 Z-1.412
X49.652 Y72.373 F40.
X49.631 Y72.347
X49.603 Y72.328
X49.57 Y72.319
X49.536 Y72.326
X49.504 Y72.339
X49.472 Y72.355
X48.657 Y72.838
X48.64 Y72.854
X48.63 Y72.875
X48.621 Y72.92
X48.622 Y72.943
X48.63 Y72.964
X48.77 Y73.221
X48.945 Y73.471
X49.133 Y73.684
X49.353 Y73.885
X49.452 Y73.957
X49.484 Y73.971
X49.52 Y73.972
X49.553 Y73.957
X49.577 Y73.931
X50.104 Y73.007
X50.112 Y72.986
Y72.964
X50.103 Y72.921
X50.094 Y72.901
X50.081 Y72.885
X49.994 Y72.809
X49.908 Y72.733
X49.886 Y72.71
X49.822 Y72.629
X49.763 Y72.545
X49.734 Y72.502
X49.715 Y72.486
X49.691 Y72.483
X49.667 Y72.48
X49.648 Y72.464
X49.609 Y72.4
X49.605 Y72.395
X49.584 Y72.376
X49.571 Y72.37
X49.557 Y72.372
X49.5 Y72.398
X48.707 Y72.865
X48.685 Y72.88
X48.678 Y72.888
X48.675 Y72.898
X48.672 Y72.925
X48.675 Y72.94
X48.811 Y73.189
X48.982 Y73.435
X49.157 Y73.636
X49.381 Y73.842
X49.482 Y73.916
X49.491 Y73.92
X49.501
X49.515 Y73.918
X49.525 Y73.913
X49.532 Y73.905
X50.06 Y72.982
X50.062 Y72.963
X50.054 Y72.934
X50.047 Y72.923
X49.862 Y72.754
X49.725 Y72.587
X49.648 Y72.464
Y72.454 Z-1.402
G0 Z5.
X50.065 Y72.913
Z-0.337
G1 Z-1.402 F40.
X50.071 Y72.921 Z-1.412
X50.13 Y72.988
X50.129 Y73.002
X50.11 Y73.023
X50.094 Y73.046
X49.583 Y73.954
X49.574 Y73.985
X49.578 Y74.018
X49.593 Y74.046
X49.618 Y74.067
X49.879 Y74.211
X50.17 Y74.327
X50.461 Y74.405
X50.75 Y74.448
X50.88 Y74.455
X50.906 Y74.451
X50.929 Y74.437
X50.962 Y74.397
X50.972 Y74.377
X50.975 Y74.355
Y73.281
X50.969 Y73.248
X50.952 Y73.22
X50.926 Y73.199
X50.895 Y73.189
X50.779 Y73.173
X50.663 Y73.158
X50.629 Y73.15
X50.525 Y73.115
X50.422 Y73.074
X50.221 Y72.984
X50.195 Y72.977
X50.169 Y72.979
X50.145 Y72.99
X50.129 Y73.002
X50.119 Y73.017
X50.115 Y73.035
X50.119 Y73.053
X50.125 Y73.079
X50.118 Y73.104
X49.659 Y73.915
X49.628 Y73.976
X49.626 Y73.995
X49.631 Y74.009
X49.642 Y74.024
X49.894 Y74.163
X50.18 Y74.278
X50.465 Y74.355
X50.751 Y74.398
X50.883 Y74.405
X50.895 Y74.402
X50.905 Y74.394
X50.921 Y74.369
X50.926 Y74.355
X50.925 Y73.281
X50.918 Y73.264
X50.902 Y73.246
X50.887 Y73.238
X50.635 Y73.2
X50.424 Y73.134
X50.2 Y73.029
X50.184 Y73.027
X50.171 Y73.034
X50.141 Y73.065
X50.137 Y73.07
X50.118 Y73.104
X50.11 Y73.109 Z-1.402
G0 Z5.
X51.626 Y72.932
Z-1.325
G1 X51.636 Y72.93 Z-1.335 F333.
X51.662 Y72.936 Z-1.336
X51.681 Y72.955 Z-1.337
X51.687 Y72.981 Z-1.338
X51.677 Y73.007
X51.655 Y73.022 Z-1.339
X51.628 Y73.024 Z-1.34
X51.605 Y73.01 Z-1.341
X51.592 Y72.986 Z-1.342
X51.595 Y72.959 Z-1.343
X51.613 Y72.938 Z-1.344
X51.638 Y72.93 Z-1.345
X51.664 Y72.937 Z-1.346
X51.682 Y72.958 Z-1.347
X51.686 Y72.984 Z-1.348
X51.675 Y73.009 Z-1.349
X51.652 Y73.023 Z-1.35
X51.625 Z-1.351
X51.603 Y73.008 Z-1.352
X51.592 Y72.983 Z-1.353
X51.597 Y72.956 Z-1.354
X51.615 Y72.937 Z-1.355
X51.641 Y72.93 Z-1.356
X51.667 Y72.939 Z-1.357
X51.683 Y72.96 Z-1.358
X51.686 Y72.987 Z-1.359
X51.673 Y73.011 Z-1.36
X51.649 Y73.024
X51.622 Y73.022 Z-1.361
X51.601 Y73.006 Z-1.362
X51.592 Y72.98 Z-1.363
X51.598 Y72.954 Z-1.364
X51.618 Y72.935 Z-1.365
X51.644 Y72.93 Z-1.366
X51.669 Y72.941 Z-1.367
X51.684 Y72.963 Z-1.368
X51.685 Y72.99 Z-1.369
X51.671 Y73.013 Z-1.37
X51.646 Y73.025 Z-1.371
X51.62 Y73.021 Z-1.372
X51.599 Y73.003 Z-1.373
X51.592 Y72.977 Z-1.374
X51.6 Y72.951 Z-1.375
X51.62 Y72.934 Z-1.376
X51.647 Y72.931 Z-1.377
X51.671 Y72.943 Z-1.378
X51.685 Y72.966 Z-1.379
X51.684 Y72.993 Z-1.38
X51.669 Y73.015 Z-1.381
X51.643 Y73.025 Z-1.382
X51.617 Y73.02
X51.598 Y73.001 Z-1.383
X51.592 Y72.974 Z-1.384
X51.601 Y72.949 Z-1.385
X51.623 Y72.933 Z-1.386
X51.65 Y72.931 Z-1.387
X51.674 Y72.945 Z-1.388
X51.686 Y72.969 Z-1.389
X51.683 Y72.996 Z-1.39
X51.666 Y73.017 Z-1.391
X51.64 Y73.025 Z-1.392
X51.614 Y73.018 Z-1.393
X51.596 Y72.998 Z-1.394
X51.592 Y72.971 Z-1.395
X51.603 Y72.947 Z-1.396
X51.626 Y72.932 Z-1.397
X51.653 Z-1.398
X51.676 Y72.947 Z-1.399
X51.686 Y72.972 Z-1.4
X51.682 Y72.998 Z-1.401
X51.664 Y73.018 Z-1.402
X51.638 Y73.025 Z-1.403
X51.612 Y73.016 Z-1.404
X51.595 Y72.995 Z-1.405
X51.593 Y72.968
X51.605 Y72.944 Z-1.406
X51.629 Y72.931 Z-1.407
X51.656 Y72.933 Z-1.408
X51.677 Y72.949 Z-1.409
X51.687 Y72.975 Z-1.41
X51.681 Y73.001 Z-1.411
X51.661 Y73.02 Z-1.412
X51.63 Y73.036 F40.
X51.535 Y73.085
X51.503 Y73.097
X51.32 Y73.153
X51.287 Y73.161
X51.066 Y73.189
X51.035 Y73.199
X51.009 Y73.22
X50.991 Y73.248
X50.985 Y73.281
Y74.355
X50.987 Y74.374
X50.995 Y74.391
X51.015 Y74.422
X51.033 Y74.441
X51.057 Y74.452
X51.083 Y74.454
X51.372 Y74.428
X51.683 Y74.361
X51.974 Y74.26
X52.263 Y74.117
X52.334 Y74.078
X52.357 Y74.062
X52.374 Y74.039
X52.382 Y74.012
X52.385 Y73.969
X52.381 Y73.948
X52.373 Y73.928
X51.851 Y73.017
X51.827 Y72.991
X51.794 Y72.978
X51.759 Y72.977
X51.726 Y72.987
X51.661 Y73.02
X51.645 Y73.035
X51.64 Y73.057
X51.634 Y73.08
X51.618 Y73.095
X51.536 Y73.135
X51.314 Y73.203
X51.073 Y73.238
X51.058 Y73.246
X51.042 Y73.264
X51.035 Y73.281
X51.034 Y74.355
X51.039 Y74.369
X51.056 Y74.394
X51.066 Y74.403
X51.079 Y74.405
X51.359 Y74.38
X51.664 Y74.315
X51.949 Y74.216
X52.235 Y74.076
X52.322 Y74.023
X52.329 Y74.016
X52.333 Y74.005
X52.337 Y73.977
X52.334 Y73.961
X51.808 Y73.042
X51.799 Y73.033
X51.787 Y73.029
X51.758
X51.747 Y73.032
X51.618 Y73.095
X51.608 Y73.094 Z-1.402
G0 Z5.
X51.751 Y73.02
Z-0.337
G1 Z-1.402 F40.
X51.76 Y73.016 Z-1.412
X51.842 Y72.98
X51.855 Y72.985
X51.858 Y72.991
X52.384 Y73.922
X52.4 Y73.94
X52.421 Y73.952
X52.468 Y73.963
X52.499 Y73.961
X52.526 Y73.946
X52.73 Y73.776
X52.946 Y73.553
X53.137 Y73.303
X53.298 Y73.027
X53.332 Y72.946
X53.338 Y72.916
X53.33 Y72.885
X53.311 Y72.861
X53.287 Y72.839
X53.261 Y72.82
X52.432 Y72.332
X52.408 Y72.323
X52.384 Y72.321
X52.359 Y72.328
X52.329 Y72.347
X52.305 Y72.375
X52.192 Y72.558
X52.132 Y72.637
X52.069 Y72.715
X52.047 Y72.738
X51.969 Y72.806
X51.89 Y72.875
X51.869 Y72.899
X51.854 Y72.928
X51.849 Y72.956
X51.855 Y72.985
X51.872 Y73.004
X51.896 Y73.009
X51.921 Y73.013
X51.939 Y73.031
X52.428 Y73.896
X52.436 Y73.905
X52.446 Y73.909
X52.475 Y73.913
X52.485 Y73.912
X52.494 Y73.907
X52.692 Y73.743
X52.904 Y73.524
X53.091 Y73.28
X53.25 Y73.011
X53.286 Y72.928
X53.287 Y72.913
X53.279 Y72.899
X53.239 Y72.866
X52.406 Y72.376
X52.392 Y72.372
X52.378 Y72.377
X52.354 Y72.395
X52.348 Y72.402
X52.234 Y72.587
X52.092 Y72.759
X51.924 Y72.912
X51.921 Y72.916
X51.904 Y72.94
X51.899 Y72.953
X51.902 Y72.967
X51.939 Y73.031
Y73.04 Z-1.402
G0 Z5.
X52.384 Y71.77
Z-1.325
G1 X52.388 Y71.762 Z-1.335 F333.
X52.408 Y71.743 Z-1.336
X52.435 Y71.739 Z-1.337
X52.459 Y71.749 Z-1.338
X52.474 Y71.772
X52.475 Y71.799 Z-1.339
X52.46 Y71.822 Z-1.34
X52.436 Y71.833 Z-1.341
X52.409 Y71.829 Z-1.342
X52.389 Y71.811 Z-1.343
X52.382 Y71.785 Z-1.344
X52.39 Y71.759 Z-1.345
X52.411 Y71.742 Z-1.346
X52.438 Y71.739 Z-1.347
X52.462 Y71.751 Z-1.348
X52.475 Y71.775 Z-1.349
X52.474 Y71.802 Z-1.35
X52.458 Y71.824 Z-1.351
X52.433 Y71.833 Z-1.352
X52.406 Y71.828 Z-1.353
X52.387 Y71.808 Z-1.354
X52.382 Y71.782 Z-1.355
X52.391 Y71.757 Z-1.356
X52.413 Y71.741 Z-1.357
X52.44 Y71.74 Z-1.358
X52.464 Y71.754 Z-1.359
X52.476 Y71.778 Z-1.36
X52.473 Y71.805
X52.456 Y71.825 Z-1.361
X52.43 Y71.833 Z-1.362
X52.404 Y71.826 Z-1.363
X52.386 Y71.806 Z-1.364
X52.382 Y71.779 Z-1.365
X52.393 Y71.755 Z-1.366
X52.416 Y71.74 Z-1.367
X52.443 Y71.741 Z-1.368
X52.466 Y71.756 Z-1.369
X52.476 Y71.781 Z-1.37
X52.472 Y71.807 Z-1.371
X52.453 Y71.827 Z-1.372
X52.427 Y71.833 Z-1.373
X52.401 Y71.825 Z-1.374
X52.385 Y71.803 Z-1.375
X52.383 Y71.776 Z-1.376
X52.395 Y71.752 Z-1.377
X52.419 Y71.74 Z-1.378
X52.446 Y71.742 Z-1.379
X52.467 Y71.758 Z-1.38
X52.476 Y71.784 Z-1.381
X52.47 Y71.81 Z-1.382
X52.45 Y71.828
X52.424 Y71.833 Z-1.383
X52.399 Y71.823 Z-1.384
X52.384 Y71.8 Z-1.385
X52.383 Y71.773 Z-1.386
X52.398 Y71.75 Z-1.387
X52.422 Y71.739 Z-1.388
X52.449 Y71.743 Z-1.389
X52.469 Y71.76 Z-1.39
X52.477 Y71.786 Z-1.391
X52.469 Y71.812 Z-1.392
X52.448 Y71.83 Z-1.393
X52.421 Y71.833 Z-1.394
X52.397 Y71.821 Z-1.395
X52.383 Y71.798 Z-1.396
X52.384 Y71.771 Z-1.397
X52.4 Y71.749 Z-1.398
X52.425 Y71.739 Z-1.399
X52.451 Y71.744 Z-1.4
X52.471 Y71.763 Z-1.401
X52.476 Y71.789 Z-1.402
X52.467 Y71.815 Z-1.403
X52.445 Y71.831 Z-1.404
X52.418 Y71.832 Z-1.405
X52.395 Y71.819
X52.382 Y71.795 Z-1.406
X52.385 Y71.768 Z-1.407
X52.402 Y71.747 Z-1.408
X52.428 Y71.738 Z-1.409
X52.454 Y71.745 Z-1.41
X52.472 Y71.766 Z-1.411
X52.476 Y71.792 Z-1.412
X52.453 Y71.965 F40.
X52.386 Y72.215
X52.384 Y72.246
X52.394 Y72.275
X52.412 Y72.299
X52.436 Y72.318
X53.273 Y72.816
X53.298 Y72.826
X53.326 Y72.829
X53.353 Y72.824
X53.376 Y72.809
X53.401 Y72.786
X53.412 Y72.772
X53.419 Y72.757
X53.516 Y72.447
X53.572 Y72.155
X53.591 Y71.94
X53.598 Y71.833
X53.594 Y71.725
X53.586 Y71.691
X53.568 Y71.662
X53.54 Y71.641
X53.506 Y71.634
X52.577 Y71.631
X52.546 Y71.637
X52.519 Y71.651
X52.498 Y71.675
X52.488 Y71.705
X52.476 Y71.792
X52.48 Y71.816
X52.496 Y71.833
X52.512 Y71.851
X52.516 Y71.874
X52.502 Y71.975
X52.435 Y72.228
X52.434 Y72.24
X52.44 Y72.251
X52.456 Y72.269
X52.462 Y72.274
X53.299 Y72.772
X53.308 Y72.776
X53.322 Y72.778
X53.333 Y72.777
X53.342 Y72.772
X53.364 Y72.753
X53.371 Y72.742
X53.465 Y72.44
X53.521 Y72.154
X53.544 Y71.869
Y71.73
X53.54 Y71.717
X53.527 Y71.696
X53.518 Y71.688
X53.506 Y71.685
X52.577 Y71.682
X52.564 Y71.685
X52.55 Y71.694
X52.542 Y71.701
X52.538 Y71.712
X52.516 Y71.874
X52.51 Y71.882 Z-1.402
G0 Z5.
X52.393 Y71.525
Z-1.325
G1 X52.396 Y71.516 Z-1.335 F333.
X52.412 Y71.495 Z-1.336
X52.437 Y71.485 Z-1.337
X52.464 Y71.492 Z-1.338
X52.482 Y71.511
X52.487 Y71.538 Z-1.339
X52.477 Y71.563 Z-1.34
X52.455 Y71.578 Z-1.341
X52.428 Y71.579 Z-1.342
X52.405 Y71.565 Z-1.343
X52.393 Y71.54 Z-1.344
X52.397 Y71.513 Z-1.345
X52.414 Y71.493 Z-1.346
X52.44 Y71.485 Z-1.347
X52.466 Y71.493 Z-1.348
X52.484 Y71.514 Z-1.349
X52.487 Y71.541 Z-1.35
X52.475 Y71.565 Z-1.351
X52.452 Y71.579 Z-1.352
X52.425 Y71.578 Z-1.353
X52.403 Y71.562 Z-1.354
X52.393 Y71.537 Z-1.355
X52.398 Y71.511 Z-1.356
X52.417 Y71.491 Z-1.357
X52.443 Y71.486 Z-1.358
X52.469 Y71.495 Z-1.359
X52.485 Y71.517 Z-1.36
X52.486 Y71.544
X52.473 Y71.567 Z-1.361
X52.449 Y71.58 Z-1.362
X52.422 Y71.577 Z-1.363
X52.401 Y71.56 Z-1.364
X52.393 Y71.534 Z-1.365
X52.4 Y71.508 Z-1.366
X52.42 Y71.49 Z-1.367
X52.446 Y71.486 Z-1.368
X52.471 Y71.497 Z-1.369
X52.486 Y71.519 Z-1.37
Y71.546 Z-1.371
X52.471 Y71.569 Z-1.372
X52.446 Y71.58 Z-1.373
X52.419 Y71.576 Z-1.374
X52.399 Y71.557 Z-1.375
X52.393 Y71.531 Z-1.376
X52.401 Y71.506 Z-1.377
X52.422 Y71.489 Z-1.378
X52.449 Y71.486 Z-1.379
X52.473 Y71.499 Z-1.38
X52.486 Y71.522 Z-1.381
X52.485 Y71.549 Z-1.382
X52.469 Y71.571
X52.443 Y71.58 Z-1.383
X52.417 Y71.574 Z-1.384
X52.398 Y71.555 Z-1.385
X52.393 Y71.528 Z-1.386
X52.403 Y71.503 Z-1.387
X52.425 Y71.488 Z-1.388
X52.452 Y71.487 Z-1.389
X52.475 Y71.501 Z-1.39
X52.487 Y71.525 Z-1.391
X52.484 Y71.552 Z-1.392
X52.466 Y71.573 Z-1.393
X52.44 Y71.58 Z-1.394
X52.414 Y71.573 Z-1.395
X52.397 Y71.552 Z-1.396
X52.393 Y71.526 Z-1.397
X52.405 Y71.501 Z-1.398
X52.428 Y71.487 Z-1.399
X52.455 Y71.488 Z-1.4
X52.477 Y71.503 Z-1.401
X52.487 Y71.528 Z-1.402
X52.482 Y71.555 Z-1.403
