(1001)
(T1  D=2. CR=0. - ZMIN=-0.281 - FLAT END MILL)
G0 G90 G94 G17
G21
G53 G0 Z0.

(2MM  FLATEND  POCKET)
M5
M9
T1
S12000 M3
G4 P4.
G55
G0 X71.894 Y35.186
Z15.
Z1.07
G1 Z0.273 F17.
X71.904 Y35.175 Z0.197
X71.931 Y35.142 Z0.133
X71.969 Y35.09 Z0.089
X72.009 Y35.026 Z0.073
G2 X70.358 Y34.086 Z0.039 I-0.826 J-0.47
X72.009 Y35.026 Z0.004 I0.826 J0.47
X71.961 Y34.009 Z-0.009 I-0.826 J-0.47
G1 X71.925 Y33.954 F200.
X71.895 Y33.895
X71.823 Y33.741
X71.787 Y33.649
X71.629 Y33.491
X71.584 Y33.442
X71.544 Y33.39
X71.472 Y33.287
X71.436 Y33.229
X71.404 Y33.168
X71.216 Y32.756
X71.18 Y32.659
X71.134 Y32.504
X71.116 Y32.427
X71.105 Y32.348
X71.101 Y32.293
X71.027 Y32.257
X70.96 Y32.221
X70.898 Y32.179
X70.795 Y32.101
X70.746 Y32.061
X70.701 Y32.017
X69.893 Y31.158
X69.832 Y31.084
X69.757 Y30.981
X69.718 Y30.92
X69.684 Y30.856
X69.663 Y30.81
X69.596 Y30.768
X69.478 Y30.685
X69.419 Y30.639
X69.365 Y30.587
X68.397 Y29.563
X68.346 Y29.502
X68.258 Y29.387
X68.251 Y29.377
X68.128 Y29.315
X68.06 Y29.275
X67.997 Y29.229
X65.983 Y27.594
X65.941 Y27.557
X65.847 Y27.469
X65.796 Y27.415
X65.75 Y27.357
X65.654 Y27.222
X65.611 Y27.154
X65.576 Y27.082
X65.516 Y26.94
X65.495 Y26.884
X65.269 Y26.862
X65.205 Y26.853
X65.143 Y26.839
X64.98 Y26.794
X64.908 Y26.77
X64.839 Y26.739
X64.426 Y26.529
X64.354 Y26.487
X63.12 Y25.677
X63.047 Y25.623
X62.991 Y25.575
X62.956 Y25.544
X62.945 Y25.541
X62.788 Y25.492
X62.719 Y25.467
X62.653 Y25.435
X61.424 Y24.766
X61.357 Y24.725
X61.254 Y24.654
X61.205 Y24.617
X61.159 Y24.576
X61.098 Y24.517
X61.049 Y24.506
X60.982 Y24.488
X60.916 Y24.462
X59.939 Y24.035
X59.849 Y23.989
X59.746 Y23.926
X59.693 Y23.89
X59.642 Y23.85
X59.539 Y23.76
X59.526 Y23.748
X59.507 Y23.747
X59.43 Y23.742
X59.355 Y23.729
X59.2 Y23.695
X59.132 Y23.676
X59.066 Y23.651
X58.355 Y23.342
X58.346 Y23.35
X58.249 Y23.444
X58.176 Y23.506
X57.93 Y23.69
X57.856 Y23.738
X57.777 Y23.778
X57.633 Y23.84
X57.562 Y23.866
X57.489 Y23.885
X56.738 Y24.039
X56.676 Y24.049
X56.613 Y24.054
X56.097 Y24.072
X56.717 Y24.446
X56.751 Y24.467
X58.397 Y25.584
X58.416 Y25.597
X58.717 Y25.816
X58.734 Y25.829
X60.491 Y27.18
X60.529 Y27.212
X62.175 Y28.66
X62.187 Y28.67
X62.598 Y29.048
X62.627 Y29.076
X64.355 Y30.84
X64.384 Y30.87
X64.712 Y31.244
X64.726 Y31.26
X66.372 Y33.242
X66.412 Y33.296
X68.195 Y35.88
X68.234 Y35.944
X69.825 Y38.826
X69.852 Y38.879
X70.593 Y40.517
X70.61 Y40.557
X71.248 Y42.213
X71.262 Y42.252
X71.796 Y43.899
X71.808 Y43.939
X72.281 Y45.732
X72.291 Y45.774
X72.68 Y47.687
X72.688 Y47.731
X72.979 Y49.79
X72.984 Y49.833
X73.155 Y51.892
X73.157 Y51.933
X73.215 Y53.992
Y54.013
Y67.191
X73.214 Y67.221
X73.206 Y67.426
X73.199 Y67.507
X73.182 Y67.586
X73.142 Y67.741
X73.118 Y67.818
X73.085 Y67.892
X73.011 Y68.036
X72.969 Y68.108
X72.92 Y68.174
X72.813 Y68.304
X72.76 Y68.362
X72.7 Y68.413
X72.586 Y68.504
X72.521 Y68.55
X72.452 Y68.588
X72.297 Y68.664
X72.218 Y68.697
X72.136 Y68.721
X71.971 Y68.759
X71.887 Y68.774
X71.803 Y68.778
X30.241 Y68.783
X30.155 Y68.778
X29.992 Y68.759
X29.916 Y68.747
X29.841 Y68.726
X29.704 Y68.68
X29.628 Y68.65
X29.556 Y68.612
X29.401 Y68.519
X29.336 Y68.476
X29.276 Y68.426
X29.18 Y68.336
X29.13 Y68.284
X29.084 Y68.228
X28.991 Y68.1
X28.946 Y68.03
X28.909 Y67.955
X28.84 Y67.796
X28.812 Y67.718
X28.792 Y67.637
X28.763 Y67.483
X28.754 Y67.414
X28.751 Y67.345
X28.749 Y54.013
Y53.992
X28.806 Y51.933
X28.808 Y51.9
X28.833 Y51.556
X28.834 Y51.548
X28.979 Y49.832
X28.984 Y49.79
X29.276 Y47.731
X29.283 Y47.687
X29.669 Y45.787
X29.679 Y45.745
X30.155 Y43.939
X30.167 Y43.899
X30.702 Y42.252
X30.715 Y42.213
X31.35 Y40.566
X31.367 Y40.527
X32.112 Y38.88
X32.138 Y38.827
X33.696 Y35.996
X33.735 Y35.933
X35.504 Y33.356
X35.545 Y33.302
X37.207 Y31.298
X37.22 Y31.283
X37.579 Y30.871
X37.609 Y30.84
X39.333 Y29.08
X39.358 Y29.056
X39.68 Y28.757
X39.695 Y28.742
X41.431 Y27.215
X41.469 Y27.184
X43.115 Y25.917
X43.127 Y25.908
X43.539 Y25.604
X43.563 Y25.587
X45.209 Y24.47
X45.243 Y24.449
X45.873 Y24.069
X45.398 Y24.052
X45.342 Y24.048
X45.286 Y24.039
X44.669 Y23.924
X44.62 Y23.913
X44.476 Y23.875
X44.402 Y23.852
X44.331 Y23.822
X44.173 Y23.744
X44.111 Y23.709
X44.052 Y23.669
X43.942 Y23.585
X43.907 Y23.556
X43.863 Y23.571
X43.679 Y23.639
X43.622 Y23.657
X43.564 Y23.671
X43.409 Y23.702
X43.342 Y23.712
X43.274 Y23.716
X43.042 Y23.836
X42.992 Y23.859
X42.941 Y23.879
X42.786 Y23.931
X42.72 Y23.951
X42.653 Y23.964
X42.293 Y24.016
X42.235 Y24.023
X42.176 Y24.024
X41.868 Y24.021
X41.803 Y24.018
X41.74 Y24.009
X41.534 Y23.971
X41.436 Y23.946
X41.216 Y23.874
X41.151 Y23.849
X41.13 Y23.951
X41.086 Y24.105
X41.059 Y24.185
X41.022 Y24.261
X40.939 Y24.414
X40.901 Y24.476
X40.857 Y24.534
X40.784 Y24.622
X40.736 Y24.674
X40.682 Y24.722
X40.549 Y24.831
X40.483 Y24.879
X40.412 Y24.92
X40.206 Y25.024
X40.105 Y25.066
X40.03 Y25.091
X39.975 Y25.107
X39.92 Y25.118
X39.776 Y25.143
X39.703 Y25.152
X39.631 Y25.153
X39.487 Y25.15
X39.452 Y25.148
X39.405 Y25.213
X39.359 Y25.271
X39.308 Y25.324
X39.187 Y25.437
X39.138 Y25.479
X39.086 Y25.516
X36.988 Y26.891
X36.953 Y26.913
X36.881 Y26.955
X36.807 Y27.034
X36.765 Y27.075
X36.72 Y27.113
X35.593 Y27.991
X35.543 Y28.027
X35.491 Y28.058
X35.39 Y28.113
X35.328 Y28.143
X35.264 Y28.168
X35.112 Y28.217
X35.036 Y28.238
X34.957 Y28.25
X34.94 Y28.279
X34.854 Y28.434
X34.822 Y28.487
X34.785 Y28.538
X34.382 Y29.044
X34.344 Y29.088
X34.303 Y29.129
X33.223 Y30.122
X33.159 Y30.174
X33.155 Y30.178
X33.132 Y30.216
X33.091 Y30.276
X33.045 Y30.332
X31.37 Y32.172
X31.311 Y32.231
X31.244 Y32.29
X30.664 Y33.054
X30.625 Y33.1
X30.584 Y33.143
X30.461 Y33.26
X30.395 Y33.316
X30.323 Y33.364
X30.288 Y33.385
X30.268 Y33.448
X30.244 Y33.509
X30.176 Y33.658
X30.138 Y33.732
X30.091 Y33.801
X29.274 Y34.883
X29.226 Y34.94
X29.126 Y35.049
X29.069 Y35.104
X29.007 Y35.153
X28.869 Y35.249
X28.801 Y35.292
X28.728 Y35.328
X28.585 Y35.388
X28.511 Y35.414
X28.435 Y35.433
X28.281 Y35.462
X28.203 Y35.472
X28.125 Y35.475
X27.97 Y35.472
X27.897 Y35.466
X27.824 Y35.454
X27.689 Y35.424
X27.617 Y35.404
X27.547 Y35.377
X27.402 Y35.313
X27.331 Y35.277
X27.265 Y35.234
X27.082 Y35.101
X27.032 Y35.062
X26.986 Y35.018
X26.896 Y34.925
X26.849 Y34.873
X26.808 Y34.816
X26.726 Y34.692
X26.688 Y34.629
X26.657 Y34.562
X26.602 Y34.428
X26.577 Y34.357
X26.559 Y34.283
X26.53 Y34.129
X26.52 Y34.051
X26.518 Y33.973
X26.521 Y33.818
X26.526 Y33.747
X25.24 Y31.391
X25.214 Y31.339
X25.192 Y31.286
X25.145 Y31.155
X25.124 Y31.085
X25.109 Y31.012
X25.086 Y30.858
X25.079 Y30.78
Y30.702
X25.089 Y30.547
X25.097 Y30.47
X25.114 Y30.395
X25.154 Y30.248
X25.176 Y30.179
X25.205 Y30.114
X25.263 Y29.995
X25.298 Y29.931
X25.34 Y29.871
X25.491 Y29.674
X25.541 Y29.615
X25.596 Y29.562
X25.697 Y29.475
X25.747 Y29.435
X25.799 Y29.4
X25.901 Y29.339
X25.963 Y29.305
X26.029 Y29.277
X26.183 Y29.22
X26.26 Y29.196
X26.339 Y29.181
X26.493 Y29.159
X26.515 Y29.156
X26.513 Y29.142
X26.507 Y29.064
X26.51 Y28.986
X26.522 Y28.832
X26.533 Y28.753
X26.552 Y28.676
X26.599 Y28.521
X26.629 Y28.441
X26.667 Y28.365
X26.756 Y28.21
X26.8 Y28.143
X26.851 Y28.08
X28.522 Y26.244
X28.569 Y26.198
X28.662 Y26.112
X28.711 Y26.07
X28.764 Y26.033
X28.85 Y25.978
X28.873 Y25.932
X28.911 Y25.864
X28.956 Y25.801
X29.041 Y25.695
X29.079 Y25.65
X29.121 Y25.609
X30.112 Y24.697
X30.159 Y24.657
X30.293 Y24.553
X30.362 Y24.505
X30.437 Y24.465
X30.52 Y24.426
X30.571 Y24.343
X30.651 Y24.23
X30.699 Y24.169
X30.753 Y24.113
X31.438 Y23.479
X31.5 Y23.427
X31.603 Y23.351
X31.665 Y23.309
X31.731 Y23.274
X31.761 Y23.26
X31.768 Y23.252
X31.843 Y23.185
X32.923 Y22.331
X32.978 Y22.292
X33.132 Y22.191
X33.207 Y22.148
X33.287 Y22.114
X33.441 Y22.058
X33.518 Y22.035
X33.597 Y22.02
X33.614 Y22.018
X33.667 Y21.929
X33.744 Y21.817
X33.788 Y21.76
X33.837 Y21.708
X33.945 Y21.603
X33.999 Y21.555
X34.056 Y21.513
X35.2 Y20.762
X35.254 Y20.73
X35.396 Y20.653
X35.468 Y20.618
X35.543 Y20.592
X35.598 Y20.576
X35.611 Y20.561
X35.717 Y20.446
X35.768 Y20.396
X35.824 Y20.35
X35.927 Y20.275
X35.978 Y20.24
X36.033 Y20.21
X36.856 Y19.793
X36.883 Y19.78
X37.089 Y19.687
X37.165 Y19.657
X37.245 Y19.635
X37.399 Y19.603
X37.498 Y19.588
X37.516 Y19.567
X37.572 Y19.507
X37.634 Y19.454
X37.768 Y19.352
X37.826 Y19.312
X37.887 Y19.278
X39.073 Y18.682
X39.133 Y18.656
X39.194 Y18.634
X39.345 Y18.589
X39.421 Y18.571
X39.499 Y18.56
X39.543 Y18.556
X39.595 Y18.508
X39.656 Y18.458
X39.722 Y18.414
X39.85 Y18.339
X39.915 Y18.305
X39.983 Y18.278
X40.187 Y18.206
X40.254 Y18.186
X40.323 Y18.172
X40.477 Y18.149
X40.539 Y18.142
X40.601 Y18.141
X40.86 Y18.
X40.914 Y17.974
X40.969 Y17.952
X41.121 Y17.899
X41.192 Y17.878
X41.265 Y17.864
X41.823 Y17.786
X41.903 Y17.779
X41.984 Y17.781
X42.129 Y17.792
X42.194 Y17.8
X42.257 Y17.813
X42.728 Y17.932
X42.802 Y17.955
X42.873 Y17.985
X43.027 Y18.061
X43.092 Y18.096
X43.153 Y18.138
X43.515 Y18.414
X43.581 Y18.47
X43.636 Y18.523
X43.688 Y18.106
X43.813 Y16.897
X43.875 Y15.478
X43.878 Y15.44
X43.892 Y15.286
X43.901 Y15.221
X43.916 Y15.157
X44.015 Y14.797
X44.036 Y14.732
X44.087 Y14.596
X44.12 Y14.521
X44.161 Y14.45
X44.239 Y14.33
X44.291 Y14.259
X44.351 Y14.195
X44.703 Y13.862
X44.752 Y13.819
X44.805 Y13.781
X44.908 Y13.713
X44.958 Y13.683
X45.01 Y13.656
X45.459 Y13.451
X45.519 Y13.427
X45.581 Y13.408
X46.264 Y13.23
X46.344 Y13.214
X47.167 Y13.092
X47.212 Y13.087
X48.035 Y13.016
X48.065 Y13.014
X49.3 Y12.958
X49.324 Y12.957
X50.97 Y12.934
X50.987
X52.222 Y12.946
X52.24
X53.474 Y12.988
X53.502 Y12.989
X53.914 Y13.018
X53.924 Y13.019
X54.747 Y13.089
X54.786 Y13.094
X55.506 Y13.193
X55.587 Y13.209
X56.372 Y13.406
X56.442 Y13.428
X56.51 Y13.456
X57.011 Y13.694
X57.062 Y13.72
X57.11 Y13.75
X57.209 Y13.817
X57.27 Y13.863
X57.325 Y13.914
X57.621 Y14.217
X57.687 Y14.294
X57.775 Y14.413
X57.822 Y14.484
X57.86 Y14.56
X57.919 Y14.695
X57.944 Y14.759
X57.962 Y14.824
X58.059 Y15.236
X58.072 Y15.305
X58.078 Y15.374
X58.109 Y16.071
X58.466 Y19.335
X58.543 Y19.941
X60.23 Y18.359
X60.274 Y18.321
X60.321 Y18.286
X60.435 Y18.209
X60.5 Y18.169
X60.569 Y18.136
X60.723 Y18.072
X60.8 Y18.045
X60.879 Y18.027
X61.034 Y17.999
X61.111 Y17.99
X61.19 Y17.988
X61.344 Y17.993
X61.422 Y18.
X61.5 Y18.015
X61.654 Y18.053
X61.72 Y18.073
X61.784 Y18.098
X61.99 Y18.192
X62.063 Y18.23
X62.131 Y18.276
X62.256 Y18.37
X62.31 Y18.415
X62.36 Y18.466
X62.445 Y18.559
X62.485 Y18.607
X62.521 Y18.658
X62.586 Y18.761
X62.622 Y18.824
X62.652 Y18.89
X62.713 Y19.044
X62.739 Y19.121
X62.756 Y19.2
X62.781 Y19.355
X62.788 Y19.412
X62.79 Y19.47
X62.809 Y19.46
X62.951 Y19.377
X63.024 Y19.341
X63.101 Y19.312
X63.255 Y19.263
X63.332 Y19.244
X63.411 Y19.232
X63.566 Y19.218
X63.643 Y19.215
X63.721 Y19.22
X63.876 Y19.238
X63.955 Y19.251
X64.032 Y19.273
X64.186 Y19.326
X64.246 Y19.35
X64.303 Y19.378
X65.556 Y20.065
X65.616 Y20.101
X65.673 Y20.144
X65.796 Y20.246
X65.854 Y20.298
X65.905 Y20.357
X65.911 Y20.363
X66.054 Y20.394
X66.13 Y20.414
X66.204 Y20.443
X66.358 Y20.512
X66.412 Y20.539
X66.463 Y20.569
X67.633 Y21.336
X67.679 Y21.37
X67.723 Y21.407
X67.828 Y21.501
X67.881 Y21.554
X67.928 Y21.611
X67.943 Y21.63
X68.038 Y21.662
X68.184 Y21.72
X68.25 Y21.751
X68.313 Y21.788
X69.085 Y22.29
X69.136 Y22.327
X69.196 Y22.374
X69.24 Y22.411
X69.281 Y22.451
X69.385 Y22.562
X69.43 Y22.614
X69.471 Y22.671
X69.537 Y22.775
X69.574 Y22.838
X69.604 Y22.904
X69.642 Y22.915
X69.796 Y22.957
X69.876 Y22.983
X69.952 Y23.018
X70.106 Y23.1
X70.169 Y23.137
X70.228 Y23.18
X71.321 Y24.067
X71.374 Y24.114
X71.438 Y24.177
X71.479 Y24.22
X71.515 Y24.266
X71.601 Y24.38
X71.644 Y24.446
X71.681 Y24.516
X71.751 Y24.67
X71.781 Y24.747
X71.803 Y24.826
X71.835 Y24.981
X71.848 Y25.058
X71.852 Y25.137
Y25.291
X71.847 Y25.37
X71.835 Y25.447
X71.802 Y25.602
X71.865 Y25.596
X71.929
X72.075 Y25.597
X72.147 Y25.601
X72.218 Y25.611
X72.772 Y25.723
X72.855 Y25.744
X72.938 Y25.771
X72.994 Y25.792
X73.048 Y25.817
X73.183 Y25.885
X73.242 Y25.919
X73.299 Y25.958
X73.857 Y26.387
X73.934 Y26.455
X74.042 Y26.565
X74.092 Y26.621
X74.136 Y26.681
X74.507 Y27.247
X74.536 Y27.295
X74.593 Y27.398
X74.625 Y27.461
X74.65 Y27.527
X74.701 Y27.681
X74.721 Y27.757
X74.734 Y27.834
X74.796 Y28.4
X74.797 Y28.412
X74.819 Y28.409
X74.896 Y28.405
X74.973 Y28.409
X75.128 Y28.424
X75.206 Y28.436
X75.284 Y28.456
X75.438 Y28.506
X75.515 Y28.536
X75.589 Y28.574
X75.734 Y28.66
X75.801 Y28.704
X75.863 Y28.756
X75.974 Y28.859
X76.03 Y28.916
X76.079 Y28.98
X76.223 Y29.186
X76.267 Y29.256
X76.302 Y29.331
X76.366 Y29.487
X76.388 Y29.55
X76.621 Y29.791
X76.669 Y29.846
X76.712 Y29.905
X76.786 Y30.019
X76.816 Y30.07
X76.842 Y30.123
X77.053 Y30.597
X77.078 Y30.661
X77.097 Y30.727
X77.133 Y30.882
X77.147 Y30.955
X77.153 Y31.029
X77.172 Y31.544
X77.17 Y31.623
X77.161 Y31.702
X77.133 Y31.856
X77.117 Y31.927
X77.094 Y31.995
X76.916 Y32.458
X76.881 Y32.534
X76.839 Y32.606
X76.747 Y32.743
X76.709 Y32.795
X76.666 Y32.844
X76.402 Y33.119
X76.368 Y33.152
X76.273 Y33.239
X76.216 Y33.287
X76.154 Y33.329
X76.008 Y33.417
X75.949 Y33.45
X75.886 Y33.477
X75.475 Y33.633
X75.402 Y33.657
X75.328 Y33.673
X75.208 Y33.692
X75.146 Y33.754
X75.096 Y33.8
X75.042 Y33.841
X74.072 Y34.514
X74.02 Y34.547
X73.965 Y34.576
X73.831 Y34.639
X73.76 Y34.668
X73.686 Y34.69
X73.532 Y34.727
X73.454 Y34.742
X73.376 Y34.748
X73.222 Y34.752
X73.143 Y34.75
X73.066 Y34.74
X72.911 Y34.711
X72.832 Y34.692
X72.755 Y34.665
X72.601 Y34.599
X72.535 Y34.568
X72.472 Y34.529
X72.369 Y34.46
X72.314 Y34.418
X72.263 Y34.372
X72.155 Y34.265
X72.11 Y34.216
X72.069 Y34.164
X71.961 Y34.009
X71.936 Y33.98 Z-0.001
X71.906 Y33.957 Z0.006
X71.877 Y33.941 Z0.028
X71.847 Y33.931 Z0.049
X71.804 Y33.925 Z0.114
X71.789 Z0.191
G0 Z5.
X81.393 Y29.662
Z0.273
G1 X81.403 Y29.65 Z0.197 F17.
X81.431 Y29.618 Z0.133
X81.47 Y29.567 Z0.089
X81.512 Y29.504 Z0.073
G2 X79.883 Y28.525 Z0.038 I-0.814 J-0.49
X81.512 Y29.504 Z0.003 I0.814 J0.49
X81.488 Y28.487 Z-0.009 I-0.814 J-0.49
G1 X80.594 Y27.148 F200.
X80.542 Y27.057
X80.492 Y26.954
X80.465 Y26.891
X80.444 Y26.825
X80.402 Y26.671
X80.386 Y26.594
X80.377 Y26.515
X80.369 Y26.361
Y26.282
X80.377 Y26.205
X80.401 Y26.05
X80.417 Y25.971
X80.443 Y25.894
X80.503 Y25.74
X80.531 Y25.675
X80.566 Y25.613
X80.628 Y25.514
X80.666 Y25.46
X80.707 Y25.409
X80.805 Y25.302
X80.846 Y25.259
X80.891 Y25.22
X80.962 Y25.163
X81.016 Y25.123
X81.074 Y25.089
X81.228 Y25.005
X81.306 Y24.968
X81.256 Y24.876
X81.211 Y24.776
X80.947 Y24.055
X80.929 Y23.999
X80.916 Y23.941
X80.596 Y22.293
X80.587 Y22.227
X80.583 Y22.161
X80.581 Y22.006
X80.584 Y21.928
X80.595 Y21.85
X80.626 Y21.694
X80.647 Y21.613
X80.677 Y21.535
X80.747 Y21.377
X80.781 Y21.31
X80.821 Y21.248
X80.892 Y21.147
X80.934 Y21.094
X80.979 Y21.045
X81.082 Y20.945
X81.129 Y20.903
X81.18 Y20.865
X81.269 Y20.803
X81.327 Y20.767
X81.387 Y20.736
X81.536 Y20.669
X81.611 Y20.64
X81.689 Y20.619
X81.843 Y20.587
X81.92 Y20.575
X81.999 Y20.571
X82.153
X82.23 Y20.575
X82.306 Y20.587
X82.455 Y20.618
X82.52 Y20.635
X82.584 Y20.657
X83.361 Y20.974
X83.427 Y21.004
X84.152 Y21.385
X84.237 Y21.437
X84.879 Y21.891
X84.928 Y21.929
X84.973 Y21.97
X85.235 Y22.229
X85.364 Y22.14
X85.426 Y22.101
X85.492 Y22.068
X85.616 Y22.014
X85.683 Y21.988
X85.752 Y21.969
X85.898 Y21.937
X85.973 Y21.924
X86.049 Y21.919
X86.067 Y21.918
X84.966 Y20.505
X84.156 Y19.554
X83.405 Y18.691
X82.133 Y17.345
X80.594 Y15.857
X80.55 Y15.819
X80.494 Y15.939
X80.462 Y15.999
X80.425 Y16.057
X80.278 Y16.261
X80.241 Y16.308
X80.201 Y16.352
X80.094 Y16.46
X80.035 Y16.514
X79.97 Y16.561
X79.829 Y16.652
X79.758 Y16.693
X79.683 Y16.726
X79.533 Y16.782
X79.458 Y16.805
X79.38 Y16.821
X79.225 Y16.843
X79.148 Y16.85
X79.07
X78.915 Y16.84
X78.902 Y16.839
X77.397 Y18.891
X77.424 Y18.947
X77.455 Y19.023
X77.478 Y19.103
X77.513 Y19.257
X77.526 Y19.335
X77.531 Y19.413
X77.533 Y19.568
X77.53 Y19.646
X77.519 Y19.724
X77.488 Y19.878
X77.468 Y19.954
X77.441 Y20.027
X77.38 Y20.169
X77.349 Y20.234
X77.311 Y20.296
X77.178 Y20.49
X77.121 Y20.564
X77.026 Y20.671
X76.973 Y20.725
X76.915 Y20.774
X76.788 Y20.869
X76.722 Y20.914
X76.651 Y20.951
X76.505 Y21.018
X76.429 Y21.048
X76.35 Y21.069
X76.189 Y21.104
X76.11 Y21.117
X76.03 Y21.121
X75.876
X75.798 Y21.117
X75.72 Y21.104
X75.566 Y21.071
X75.487 Y21.05
X75.41 Y21.02
X75.257 Y20.95
X75.187 Y20.913
X75.121 Y20.869
X70.171 Y17.175
X70.094 Y17.109
X69.947 Y17.097
X69.87 Y17.086
X69.795 Y17.067
X69.647 Y17.022
X69.579 Y16.998
X69.514 Y16.968
X69.245 Y16.825
X69.178 Y16.785
X69.116 Y16.739
X69.019 Y16.658
X68.973 Y16.617
X68.93 Y16.572
X68.852 Y16.48
X68.808 Y16.425
X68.77 Y16.366
X68.765 Y16.357
X68.37 Y16.276
X68.303 Y16.259
X68.238 Y16.236
X67.466 Y15.921
X67.411 Y15.896
X67.357 Y15.866
X67.049 Y15.677
X67.029 Y15.665
X66.663 Y15.425
X66.611 Y15.387
X66.562 Y15.345
X66.068 Y14.882
X66.019 Y14.833
X65.975 Y14.778
X65.542 Y14.188
X65.502 Y14.127
X65.468 Y14.063
X65.174 Y13.437
X65.146 Y13.369
X65.125 Y13.299
X65.112 Y13.246
X65.011 Y13.321
X64.944 Y13.367
X64.871 Y13.405
X64.734 Y13.467
X64.662 Y13.496
X64.233 Y13.64
X64.156 Y13.662
X64.076 Y13.675
X63.613 Y13.725
X63.546 Y13.73
X63.392 Y13.733
X63.327 Y13.731
X63.263 Y13.724
X62.168 Y13.556
X62.112 Y13.545
X62.056 Y13.53
X59.087 Y12.593
X59.045 Y12.578
X58.999 Y12.572
X57.09 Y12.293
X56.99 Y12.272
X56.841 Y12.229
X56.763 Y12.201
X56.688 Y12.165
X56.665 Y12.152
X56.595 Y12.161
X56.441 Y12.174
X56.357 Y12.176
X56.273 Y12.168
X53.341 Y11.742
X53.285 Y11.732
X53.229 Y11.717
X53.077 Y11.671
X52.998 Y11.641
X52.923 Y11.604
X52.771 Y11.516
X52.712 Y11.479
X52.658 Y11.436
X52.644 Y11.443
X52.58 Y11.472
X52.512 Y11.495
X51.909 Y11.67
X51.839 Y11.687
X51.767 Y11.697
X51.047 Y11.762
X50.983 Y11.765
X48.051 Y11.778
X47.949 Y11.771
X47.906 Y11.798
X47.804 Y11.859
X47.742 Y11.891
X47.679 Y11.918
X47.532 Y11.971
X47.464 Y11.992
X47.395 Y12.006
X47.189 Y12.039
X47.113 Y12.047
X46.959 Y12.056
X46.887 Y12.057
X46.815 Y12.051
X46.683 Y12.033
X46.608 Y12.018
X46.534 Y11.997
X46.512 Y11.989
X46.416 Y12.035
X46.349 Y12.064
X46.28 Y12.086
X45.667 Y12.247
X45.596 Y12.263
X45.523 Y12.271
X45.06 Y12.3
X44.966
X44.864 Y12.294
X44.762 Y12.28
X44.145 Y12.156
X44.091 Y12.143
X44.038 Y12.127
X43.884 Y12.071
X43.857 Y12.061
X43.822 Y12.1
X43.775 Y12.148
X43.723 Y12.192
X43.62 Y12.272
X43.557 Y12.315
X43.491 Y12.352
X43.337 Y12.427
X43.275 Y12.454
X43.212 Y12.475
X38.48 Y13.823
X38.385 Y13.843
X38.231 Y13.866
X38.204 Y13.884
X38.1 Y13.947
X38.017 Y13.991
X33.492 Y16.043
X33.444 Y16.063
X33.337 Y16.164
X33.277 Y16.214
X33.212 Y16.259
X30.691 Y17.794
X30.594 Y17.844
X30.44 Y17.909
X30.363 Y17.937
X30.284 Y17.956
X30.13 Y17.985
X30.052 Y17.995
X29.974 Y17.997
X29.819 Y17.993
X29.792 Y17.992
X29.662 Y18.23
X29.612 Y18.309
X29.51 Y18.45
X29.47 Y18.501
X29.425 Y18.549
X28.778 Y19.179
X28.713 Y19.235
X26.603 Y20.866
X26.549 Y20.904
X26.491 Y20.937
X26.377 Y20.997
X26.311 Y21.027
X26.243 Y21.051
X26.09 Y21.096
X26.014 Y21.114
X25.935 Y21.125
X25.781 Y21.137
X25.703 Y21.139
X25.625 Y21.132
X25.471 Y21.112
X25.395 Y21.098
X25.321 Y21.076
X25.177 Y21.026
X25.109 Y20.998
X25.044 Y20.964
X24.922 Y20.892
X24.861 Y20.852
X24.805 Y20.806
X24.694 Y20.708
X24.647 Y20.662
X24.605 Y20.613
X24.466 Y20.437
X24.419 Y20.37
X24.354 Y20.266
X24.321 Y20.207
X24.293 Y20.146
X24.238 Y20.008
X24.214 Y19.936
X24.197 Y19.861
X24.17 Y19.707
X24.16 Y19.629
X24.159 Y19.551
X24.164 Y19.396
X24.17 Y19.325
X24.183 Y19.254
X24.213 Y19.125
X24.231 Y19.059
X24.255 Y18.995
X24.284 Y18.929
X22.746 Y16.903
X22.573 Y16.917
X22.493 Y16.919
X22.412 Y16.912
X22.266 Y16.893
X22.187 Y16.878
X22.11 Y16.854
X21.947 Y16.795
X21.87 Y16.762
X21.796 Y16.72
X21.66 Y16.632
X21.604 Y16.592
X21.551 Y16.547
X21.47 Y16.469
X21.428 Y16.427
X21.391 Y16.382
X21.231 Y16.173
X21.196 Y16.124
X21.165 Y16.072
X21.159 Y16.06
X19.827 Y17.347
X18.611 Y18.634
X18.212 Y19.08
X16.994 Y20.507
X15.867 Y21.953
X15.939 Y21.937
X16.014 Y21.924
X16.091 Y21.919
X16.245 Y21.916
X16.323 Y21.919
X16.401 Y21.929
X16.555 Y21.959
X16.633 Y21.979
X16.708 Y22.006
X16.856 Y22.07
X16.931 Y22.107
X17.001 Y22.152
X17.108 Y22.229
X17.389 Y21.953
X17.433 Y21.913
X17.48 Y21.876
X18.081 Y21.45
X18.161 Y21.4
X18.837 Y21.039
X18.904 Y21.007
X19.73 Y20.666
X19.785 Y20.646
X19.841 Y20.63
X19.992 Y20.594
X20.069 Y20.58
X20.147 Y20.573
X20.301 Y20.569
X20.379 Y20.571
X20.457 Y20.581
X20.611 Y20.609
X20.69 Y20.628
X20.767 Y20.656
X20.922 Y20.721
X20.988 Y20.752
X21.051 Y20.79
X21.154 Y20.86
X21.207 Y20.9
X21.257 Y20.944
X21.357 Y21.041
X21.408 Y21.095
X21.453 Y21.155
X21.541 Y21.284
X21.583 Y21.352
X21.617 Y21.424
X21.677 Y21.571
X21.702 Y21.642
X21.72 Y21.716
X21.747 Y21.857
X21.757 Y21.932
X21.76 Y22.006
X21.757 Y22.161
X21.754 Y22.226
X21.744 Y22.291
X21.44 Y23.887
X21.426 Y23.944
X21.409 Y24.
X21.131 Y24.772
X21.11 Y24.825
X21.085 Y24.875
X21.036 Y24.965
X21.101 Y24.991
X21.162 Y25.023
X21.317 Y25.113
X21.382 Y25.156
X21.443 Y25.206
X21.542 Y25.296
X21.595 Y25.348
X21.641 Y25.405
X21.737 Y25.534
X21.779 Y25.599
X21.815 Y25.667
X21.877 Y25.801
X21.905 Y25.873
X21.926 Y25.947
X21.962 Y26.101
X21.975 Y26.179
X21.98 Y26.257
X21.983 Y26.412
X21.98 Y26.49
X21.969 Y26.568
X21.939 Y26.722
X21.918 Y26.801
X21.89 Y26.878
X21.822 Y27.033
X21.793 Y27.092
X21.758 Y27.149
X20.864 Y28.487
X20.83 Y28.533
X20.794 Y28.576
X19.814 Y29.651
X19.81 Y29.743
X19.794 Y29.898
X19.781 Y29.977
X19.76 Y30.054
X19.71 Y30.208
X19.687 Y30.268
X19.66 Y30.326
X18.922 Y31.716
X18.893 Y31.766
X18.861 Y31.813
X17.992 Y32.977
X18.001 Y33.033
X18.008 Y33.107
X18.009 Y33.18
X18.003 Y33.317
X17.997 Y33.387
X17.984 Y33.456
X17.952 Y33.594
X17.936 Y33.651
X17.916 Y33.705
X17.311 Y35.198
X17.288 Y35.25
X17.26 Y35.3
X16.528 Y36.529
X16.541 Y36.583
X16.549 Y36.639
X16.565 Y36.793
X16.569 Y36.871
X16.565 Y36.949
X16.549 Y37.103
X16.54 Y37.169
X16.524 Y37.234
X16.08 Y38.778
X16.062 Y38.833
X16.04 Y38.885
X15.439 Y40.186
X15.442 Y40.191
X15.469 Y40.265
X15.488 Y40.342
X15.514 Y40.475
X15.524 Y40.545
X15.528 Y40.616
Y40.761
X15.525 Y40.825
X15.517 Y40.889
X15.287 Y42.248
X15.267 Y42.335
X14.857 Y43.725
X14.834 Y43.791
X14.792 Y43.894
X14.75 Y43.983
X13.997 Y45.322
X13.953 Y45.39
X13.903 Y45.453
X13.308 Y46.121
X13.236 Y46.191
X13.24 Y46.219
X13.275 Y46.579
X13.279 Y46.652
X13.275 Y46.725
X13.24 Y47.086
X13.231 Y47.149
X13.217 Y47.211
X13.175 Y47.365
X13.147 Y47.447
X13.192 Y47.504
X13.707 Y48.224
X13.75 Y48.292
X13.785 Y48.363
X14.362 Y49.702
X14.38 Y49.748
X14.435 Y49.903
X14.452 Y49.958
X14.465 Y50.015
X14.725 Y51.404
X14.736 Y51.494
X14.83 Y52.935
X14.831 Y53.014
X14.823 Y53.092
X14.801 Y53.247
X14.785 Y53.325
X14.761 Y53.4
X14.715 Y53.526
X15.205 Y54.953
X15.222 Y55.009
X15.234 Y55.066
X15.519 Y56.67
X15.528 Y56.742
X15.53 Y56.816
X15.527 Y56.974
X15.522 Y57.048
X15.509 Y57.121
X15.48 Y57.255
X15.464 Y57.314
X15.443 Y57.372
X16.032 Y58.639
X16.054 Y58.691
X16.072 Y58.746
X16.521 Y60.29
X16.543 Y60.39
X16.566 Y60.545
X16.573 Y60.623
X16.572 Y60.701
X16.562 Y60.855
X16.553 Y60.934
X16.536 Y61.011
X16.522 Y61.059
X17.226 Y62.236
X17.253 Y62.285
X17.276 Y62.337
X17.882 Y63.819
X17.904 Y63.882
X17.936 Y63.985
X17.953 Y64.052
X17.964 Y64.121
X17.983 Y64.288
X17.988 Y64.373
X17.983 Y64.458
X17.97 Y64.576
X18.822 Y65.711
X18.855 Y65.758
X18.884 Y65.808
X19.598 Y67.147
X19.619 Y67.188
X19.689 Y67.343
X19.718 Y67.416
X19.739 Y67.493
X19.773 Y67.647
X19.786 Y67.724
X19.791 Y67.803
X19.792 Y67.957
X19.789 Y68.031
X19.779 Y68.105
X19.752 Y68.242
X19.736 Y68.31
X19.713 Y68.376
X19.662 Y68.505
X19.632 Y68.572
X19.595 Y68.635
X19.512 Y68.764
X19.468 Y68.826
X19.417 Y68.883
X19.311 Y68.991
X19.254 Y69.043
X19.192 Y69.09
X19.061 Y69.177
X18.996 Y69.215
X18.928 Y69.247
X18.797 Y69.301
X18.709 Y69.331
X18.726 Y69.372
X18.746 Y69.424
X18.761 Y69.477
X18.971 Y70.3
X18.983 Y70.36
X18.991 Y70.421
X19.132 Y72.069
X19.133 Y72.174
X19.127 Y72.277
X19.121 Y72.342
X19.109 Y72.407
X19.072 Y72.561
X19.049 Y72.641
X19.017 Y72.717
X18.942 Y72.872
X18.905 Y72.94
X18.86 Y73.003
X18.777 Y73.111
X18.734 Y73.161
X18.687 Y73.208
X18.593 Y73.293
X18.538 Y73.338
X18.479 Y73.378
X18.345 Y73.459
X18.274 Y73.497
X18.199 Y73.528
X18.045 Y73.581
X17.968 Y73.603
X17.889 Y73.616
X17.735 Y73.634
X17.657 Y73.639
X17.579 Y73.636
X17.425 Y73.622
X17.346 Y73.611
X17.269 Y73.591
X17.114 Y73.543
X17.049 Y73.519
X16.985 Y73.489
X16.207 Y73.073
X16.144 Y73.035
X15.487 Y72.597
X15.412 Y72.54
X14.895 Y72.093
X14.868 Y72.068
X14.755 Y71.96
X14.692 Y71.892
X14.469 Y71.621
X14.403 Y71.663
X14.333 Y71.698
X14.191 Y71.759
X14.117 Y71.787
X14.041 Y71.806
X13.887 Y71.838
X13.809 Y71.849
X13.731 Y71.853
X13.577 Y71.851
X13.492 Y71.845
X14.567 Y73.534
X15.78 Y75.252
X16.72 Y76.458
X16.762 Y76.39
X16.833 Y76.287
X16.873 Y76.234
X16.918 Y76.185
X17.115 Y75.986
X17.162 Y75.943
X17.212 Y75.904
X17.315 Y75.831
X17.377 Y75.791
X17.444 Y75.757
X17.598 Y75.688
X17.675 Y75.658
X17.754 Y75.638
X17.908 Y75.606
X17.986 Y75.594
X18.064 Y75.591
X18.219 Y75.592
X18.297 Y75.597
X18.374 Y75.609
X18.529 Y75.643
X18.553 Y75.649
X20.191 Y74.04
X20.232 Y74.002
X20.277 Y73.967
X21.014 Y73.434
X21.069 Y73.397
X21.127 Y73.366
X21.281 Y73.291
X21.363 Y73.258
X21.448 Y73.234
X22.219 Y73.065
X22.306 Y73.051
X22.461 Y73.036
X22.539 Y73.033
X22.617 Y73.037
X22.771 Y73.054
X22.836 Y73.064
X22.9 Y73.08
X23.703 Y73.316
X23.767 Y73.338
X23.829 Y73.366
X23.954 Y73.428
X24.018 Y73.465
X24.078 Y73.507
X24.837 Y74.1
X24.888 Y74.143
X25. Y74.248
X25.073 Y74.327
X25.537 Y74.907
X25.582 Y74.97
X25.62 Y75.038
X25.906 Y75.604
X25.937 Y75.677
X25.976 Y75.78
X25.995 Y75.835
X26.009 Y75.891
X26.082 Y76.244
X26.225 Y76.241
X26.306 Y76.244
X26.387 Y76.256
X26.554 Y76.29
X26.639 Y76.313
X26.72 Y76.345
X26.881 Y76.419
X26.949 Y76.455
X27.014 Y76.499
X28.596 Y77.68
X28.652 Y77.726
X28.703 Y77.777
X28.815 Y77.901
X28.865 Y77.962
X28.908 Y78.028
X28.982 Y78.155
X29.017 Y78.223
X29.045 Y78.295
X29.095 Y78.445
X29.115 Y78.517
X29.127 Y78.591
X29.144 Y78.73
X29.15 Y78.802
X29.148 Y78.875
X29.137 Y79.024
X29.128 Y79.1
X29.11 Y79.175
X29.702 Y79.024
X29.777 Y79.008
X29.88 Y78.993
X29.944 Y78.986
X30.009 Y78.984
X30.164 Y78.988
X30.242 Y78.994
X30.32 Y79.008
X30.474 Y79.044
X30.553 Y79.068
X30.629 Y79.099
X30.781 Y79.173
X30.847 Y79.209
X30.909 Y79.252
X31.122 Y79.415
X31.182 Y79.466
X31.237 Y79.524
X31.349 Y79.655
X31.4 Y79.722
X31.443 Y79.794
X31.478 Y79.862
X31.548 Y79.879
X31.703 Y79.926
X31.78 Y79.954
X31.853 Y79.991
X34.429 Y81.443
X34.476 Y81.472
X34.52 Y81.504
X34.644 Y81.6
X34.704 Y81.652
X34.759 Y81.71
X34.861 Y81.833
X34.905 Y81.891
X34.943 Y81.952
X35.005 Y82.064
X35.037 Y82.13
X35.063 Y82.198
X35.113 Y82.353
X35.133 Y82.43
X35.145 Y82.509
X35.16 Y82.663
X35.163 Y82.741
X35.159 Y82.819
X35.142 Y82.973
X35.129 Y83.052
X35.107 Y83.129
X35.055 Y83.284
X35.03 Y83.35
X34.998 Y83.414
X34.926 Y83.54
X35.562 Y82.908
X35.6 Y82.872
X35.725 Y82.764
X35.79 Y82.714
X35.86 Y82.671
X36.011 Y82.59
X36.087 Y82.555
X36.167 Y82.528
X36.325 Y82.484
X36.399 Y82.468
X36.475 Y82.459
X36.613 Y82.45
X36.691 Y82.449
X36.769 Y82.456
X36.939 Y82.48
X37.024 Y82.497
X37.105 Y82.524
X37.364 Y82.625
X37.42 Y82.649
X37.473 Y82.678
X37.576 Y82.739
X37.636 Y82.779
X37.692 Y82.824
X37.816 Y82.933
X37.87 Y82.987
X37.918 Y83.045
X38. Y83.155
X38.044 Y83.221
X38.081 Y83.291
X38.156 Y83.452
X38.187 Y83.531
X38.208 Y83.612
X38.241 Y83.767
X38.251 Y83.828
X38.256 Y83.89
X38.28 Y84.486
X38.31 Y84.437
X38.344 Y84.39
X38.454 Y84.248
X38.506 Y84.188
X38.564 Y84.134
X38.667 Y84.048
X38.717 Y84.009
X38.771 Y83.975
X38.873 Y83.915
X38.936 Y83.882
X39.002 Y83.855
X39.157 Y83.8
X39.234 Y83.778
X39.313 Y83.764
X39.467 Y83.744
X39.545 Y83.739
X39.623 Y83.741
X39.777 Y83.754
X39.834 Y83.761
X39.89 Y83.772
X44.365 Y84.846
X44.388 Y84.852
X44.594 Y84.908
X44.664 Y84.931
X44.731 Y84.961
X44.832 Y85.011
X44.902 Y85.007
X44.972 Y85.009
X47.852 Y85.247
X47.908 Y85.254
X47.964 Y85.265
X48.118 Y85.301
X48.198 Y85.325
X48.274 Y85.357
X48.428 Y85.433
X48.477 Y85.458
X48.505 Y85.448
X48.635 Y85.406
X48.707 Y85.387
X48.78 Y85.374
X48.937 Y85.355
X49.012 Y85.35
X49.088 Y85.353
X50.688 Y85.487
X50.79 Y85.433
X50.86 Y85.399
X50.934 Y85.373
X51.098 Y85.325
X51.171 Y85.307
X51.246 Y85.297
X51.482 Y85.277
X51.586 Y85.275
X51.74 Y85.284
X51.817 Y85.292
X51.892 Y85.307
X52.037 Y85.346
X52.107 Y85.368
X52.175 Y85.397
X52.18 Y85.399
X52.301 Y85.348
X52.377 Y85.321
X52.456 Y85.302
X53.106 Y85.18
X53.201 Y85.169
X53.355 Y85.16
X53.416 Y85.159
X53.478 Y85.163
X54.301 Y85.252
X54.37 Y85.262
X54.438 Y85.279
X54.559 Y85.316
X54.615 Y85.335
X54.669 Y85.359
X54.971 Y85.506
X54.996 Y85.481
X55.099 Y85.385
X55.149 Y85.342
X55.203 Y85.304
X55.306 Y85.238
X55.369 Y85.201
X55.435 Y85.171
X55.589 Y85.11
X55.661 Y85.085
X55.734 Y85.068
X58.666 Y84.542
X58.746 Y84.532
X58.825 Y84.53
X58.999 Y84.537
X59.078 Y84.544
X59.155 Y84.559
X59.293 Y84.594
X59.35 Y84.611
X59.406 Y84.632
X59.418 Y84.617
X59.469 Y84.561
X59.524 Y84.51
X59.63 Y84.423
X59.691 Y84.377
X59.757 Y84.338
X59.905 Y84.26
X59.968 Y84.23
X60.033 Y84.207
X62.766 Y83.358
X62.821 Y83.343
X62.989 Y83.305
X63.072 Y83.291
X63.156 Y83.286
X63.325 Y83.285
X63.41 Y83.29
X63.495 Y83.305
X63.663 Y83.344
X63.745 Y83.368
X63.824 Y83.401
X63.977 Y83.476
X64.027 Y83.504
X64.075 Y83.535
X64.092 Y83.476
X64.132 Y83.358
X64.157 Y83.292
X64.189 Y83.23
X64.264 Y83.095
X64.304 Y83.031
X64.35 Y82.971
X64.447 Y82.86
X64.501 Y82.803
X64.561 Y82.753
X64.69 Y82.654
X64.753 Y82.611
X64.821 Y82.574
X67.631 Y81.229
X67.698 Y81.201
X67.853 Y81.145
X67.929 Y81.121
X68.008 Y81.106
X68.163 Y81.085
X68.24 Y81.079
X68.318 Y81.08
X68.473 Y81.092
X68.551 Y81.102
X68.629 Y81.12
X68.783 Y81.165
X68.863 Y81.194
X68.94 Y81.231
X69.096 Y81.319
X69.164 Y81.362
X69.227 Y81.413
X69.333 Y81.507
X69.382 Y81.555
X69.426 Y81.607
X69.506 Y81.71
X69.547 Y81.767
X69.582 Y81.828
X69.661 Y81.982
X69.69 Y82.046
X69.765 Y82.234
X69.79 Y82.309
X69.808 Y82.386
X69.832 Y82.527
X69.841 Y82.604
X69.842 Y82.682
X69.836 Y82.849
X69.83 Y82.922
X69.816 Y82.994
X69.788 Y83.115
X69.767 Y83.186
X69.739 Y83.255
X69.668 Y83.409
X69.634 Y83.476
X69.593 Y83.538
X69.518 Y83.641
X69.49 Y83.677
X69.632 Y83.982
X70.672 Y84.687
X71.549 Y85.269
X71.623 Y85.315
X71.689 Y85.31
X71.755 Y85.311
X71.91 Y85.32
X71.988 Y85.329
X72.065 Y85.346
X72.218 Y85.389
X72.29 Y85.413
X72.359 Y85.444
X72.487 Y85.509
X72.552 Y85.547
X72.614 Y85.592
X72.737 Y85.69
X72.8 Y85.747
X72.856 Y85.81
X72.967 Y85.949
X73.013 Y86.015
X73.052 Y86.085
X73.167 Y86.318
X73.191 Y86.374
X73.211 Y86.432
X73.258 Y86.587
X73.277 Y86.664
X73.287 Y86.743
X73.299 Y86.897
X73.6 Y86.726
X74.034 Y86.455
X75.489 Y85.513
X75.978 Y85.163
X75.518 Y85.164
X75.442 Y85.16
X75.367 Y85.149
X74.698 Y85.013
X74.609 Y84.989
X74.558 Y84.972
X74.494 Y84.947
X73.894 Y84.682
X73.828 Y84.649
X73.765 Y84.61
X73.182 Y84.201
X73.125 Y84.156
X73.072 Y84.106
X72.549 Y83.559
X72.503 Y83.507
X72.462 Y83.451
X72.062 Y82.837
X72.027 Y82.779
X71.998 Y82.717
X71.825 Y82.305
X71.815 Y82.28
X71.699 Y81.971
X71.678 Y81.905
X71.663 Y81.838
X71.544 Y81.168
X71.535 Y81.095
X71.533 Y81.02
X71.548 Y80.351
X71.553 Y80.28
X71.565 Y80.21
X71.646 Y79.835
X71.652 Y79.809
X71.739 Y79.463
X71.759 Y79.399
X71.784 Y79.337
X72.017 Y78.823
X72.034 Y78.788
X72.097 Y78.667
X72.124 Y78.619
X72.155 Y78.573
X72.558 Y78.015
X72.6 Y77.962
X72.646 Y77.913
X73.168 Y77.411
X73.218 Y77.367
X73.272 Y77.328
X73.906 Y76.906
X73.965 Y76.87
X74.028 Y76.84
X74.657 Y76.572
X74.72 Y76.549
X74.784 Y76.531
X75.093 Y76.461
X75.117 Y76.456
X75.443 Y76.392
X75.445 Y76.289
X75.458 Y76.134
X75.469 Y76.056
X75.488 Y75.978
X75.536 Y75.824
X75.566 Y75.744
X75.604 Y75.667
X75.694 Y75.513
X75.735 Y75.45
X75.782 Y75.392
X75.933 Y75.221
X75.941 Y75.213
X77.785 Y73.197
X77.846 Y73.137
X77.917 Y73.076
X77.968 Y73.035
X78.023 Y72.999
X78.165 Y72.913
X78.238 Y72.875
X78.315 Y72.844
X78.469 Y72.793
X78.546 Y72.772
X78.625 Y72.759
X78.779 Y72.742
X78.857 Y72.738
X78.935 Y72.742
X79.09 Y72.757
X79.168 Y72.769
X79.245 Y72.79
X79.4 Y72.84
X79.48 Y72.871
X79.556 Y72.911
X79.711 Y73.004
X79.77 Y73.044
X79.826 Y73.09
X79.921 Y73.176
X80.013 Y73.153
X80.09 Y73.137
X80.169 Y73.13
X80.323 Y73.124
X80.401 Y73.125
X80.479 Y73.135
X80.633 Y73.161
X80.71 Y73.178
X80.784 Y73.204
X80.928 Y73.261
X80.998 Y73.293
X81.064 Y73.332
X81.188 Y73.414
X81.238 Y73.45
X81.285 Y73.49
X82.106 Y74.252
X82.126 Y74.242
X82.254 Y74.18
X82.32 Y74.152
X82.388 Y74.13
X82.525 Y74.093
X82.597 Y74.078
X82.671 Y74.069
X82.826 Y74.06
X82.904 Y74.059
X82.982 Y74.066
X83.136 Y74.089
X83.206 Y74.103
X83.275 Y74.123
X83.396 Y74.166
X83.464 Y74.193
X83.529 Y74.227
X83.669 Y74.309
X83.736 Y74.354
X83.798 Y74.406
X85.054 Y75.571
X85.128 Y75.65
X85.232 Y75.78
X85.276 Y75.841
X85.314 Y75.906
X85.376 Y76.025
X85.408 Y76.095
X85.432 Y76.168
X85.441 Y76.202
X86.18 Y75.254
X87.394 Y73.536
X88.471 Y71.848
X88.466 Y71.847
X88.311 Y71.823
X88.241 Y71.808
X88.172 Y71.787
X88.049 Y71.742
X87.986 Y71.716
X87.926 Y71.684
X87.814 Y71.619
X87.567 Y71.919
X87.527 Y71.964
X87.484 Y72.005
X86.904 Y72.515
X86.827 Y72.575
X86.172 Y73.016
X86.11 Y73.053
X85.389 Y73.442
X85.342 Y73.466
X85.188 Y73.536
X85.113 Y73.565
X85.036 Y73.586
X84.881 Y73.619
X84.804 Y73.631
X84.726 Y73.635
X84.571 Y73.636
X84.493 Y73.632
X84.415 Y73.62
X84.261 Y73.587
X84.186 Y73.567
X84.113 Y73.539
X83.973 Y73.477
X83.908 Y73.445
X83.846 Y73.406
X83.735 Y73.329
X83.674 Y73.281
X83.617 Y73.227
X83.498 Y73.1
X83.446 Y73.037
X83.4 Y72.97
X83.324 Y72.841
X83.29 Y72.777
X83.263 Y72.711
X83.217 Y72.582
X83.195 Y72.509
X83.18 Y72.435
X83.157 Y72.272
X83.15 Y72.188
X83.152 Y72.103
X83.293 Y70.422
X83.301 Y70.363
X83.313 Y70.304
X83.505 Y69.532
X83.539 Y69.429
X83.58 Y69.329
X83.501 Y69.306
X83.425 Y69.275
X83.271 Y69.202
X83.204 Y69.166
X83.142 Y69.124
X83.039 Y69.047
X82.982 Y68.999
X82.93 Y68.946
X82.82 Y68.822
X82.774 Y68.767
X82.735 Y68.707
X82.673 Y68.604
X82.64 Y68.541
X82.612 Y68.475
X82.557 Y68.32
X82.534 Y68.243
X82.519 Y68.164
X82.498 Y68.01
X82.492 Y67.932
X82.494 Y67.854
X82.506 Y67.699
X82.516 Y67.621
X82.535 Y67.543
X82.581 Y67.389
X82.605 Y67.319
X82.637 Y67.251
X83.402 Y65.81
X83.431 Y65.76
X83.464 Y65.712
X84.313 Y64.576
X84.305 Y64.476
X84.302 Y64.321
X84.304 Y64.245
X84.315 Y64.169
X84.343 Y64.021
X84.36 Y63.949
X84.384 Y63.88
X84.988 Y62.381
X85.012 Y62.328
X85.039 Y62.277
X85.785 Y61.025
X85.773 Y60.959
X85.752 Y60.804
X85.746 Y60.726
X85.748 Y60.648
X85.76 Y60.494
X85.769 Y60.418
X85.786 Y60.345
X86.228 Y58.8
X86.245 Y58.746
X86.267 Y58.693
X86.878 Y57.366
X86.864 Y57.319
X86.821 Y57.15
X86.804 Y57.065
X86.798 Y56.978
X86.794 Y56.807
X86.797 Y56.734
X86.806 Y56.662
X87.089 Y55.066
X87.102 Y55.01
X87.118 Y54.954
X87.606 Y53.531
X87.557 Y53.401
X87.534 Y53.325
X87.518 Y53.247
X87.495 Y53.092
X87.488 Y53.015
X87.489 Y52.936
X87.577 Y51.547
X87.588 Y51.459
X87.748 Y50.584
X87.75 Y50.574
X87.871 Y49.957
X87.89 Y49.882
X87.916 Y49.809
X88.351 Y48.78
X88.356 Y48.768
X88.538 Y48.357
X88.572 Y48.288
X88.614 Y48.224
X89.13 Y47.502
X89.177 Y47.442
X89.071 Y46.9
X89.062 Y46.843
X89.057 Y46.786
X89.051 Y46.632
X89.052 Y46.555
X89.06 Y46.48
X89.106 Y46.202
X89.06 Y46.162
X89.018 Y46.118
X88.425 Y45.453
X88.375 Y45.391
X88.333 Y45.324
X87.866 Y44.5
X87.86 Y44.49
X87.55 Y43.924
X87.516 Y43.854
X87.49 Y43.78
X87.072 Y42.39
X87.052 Y42.302
X86.811 Y40.912
X86.804 Y40.855
X86.8 Y40.798
X86.797 Y40.644
X86.8 Y40.565
X86.811 Y40.488
X86.841 Y40.333
X86.858 Y40.263
X86.882 Y40.194
X86.276 Y38.886
X86.254 Y38.833
X86.236 Y38.778
X85.792 Y37.234
X85.769 Y37.129
X85.755 Y37.026
X85.749 Y36.961
Y36.896
X85.754 Y36.742
X85.761 Y36.663
X85.777 Y36.586
X85.798 Y36.502
X85.079 Y35.302
X85.051 Y35.251
X85.027 Y35.199
X84.421 Y33.706
X84.4 Y33.648
X84.384 Y33.588
X84.35 Y33.433
X84.336 Y33.356
X84.331 Y33.277
X84.33 Y33.123
X84.332 Y33.05
X84.342 Y32.978
X83.501 Y31.855
X83.468 Y31.808
X83.439 Y31.759
X82.703 Y30.38
X82.671 Y30.312
X82.607 Y30.157
X82.58 Y30.08
X82.562 Y30.001
X82.535 Y29.847
X82.525 Y29.769
X82.524 Y29.691
X82.526 Y29.634
X81.558 Y28.577
X81.521 Y28.533
X81.488 Y28.487
X81.463 Y28.457 Z-0.001
X81.434 Y28.433 Z0.006
X81.406 Y28.417 Z0.028
X81.376 Y28.405 Z0.049
X81.333 Y28.398 Z0.114
X81.318 Z0.191
G0 Z5.
X86.37 Y74.888
Z0.273
G1 X86.377 Y74.875 Z0.197 F17.
X86.397 Y74.837 Z0.133
X86.423 Y74.778 Z0.089
X86.449 Y74.707 Z0.073
G2 X84.638 Y74.132 Z0.039 I-0.905 J-0.288
X86.449 Y74.707 Z0.004 I0.905 J0.288
X86.19 Y73.723 Z-0.009 I-0.905 J-0.288
X85.215 Y74.774 I-0.487 J0.525
X86.19 Y73.723 I0.487 J-0.525
X85.215 Y74.774 I-0.487 J0.525
G1 X85.282 Y74.836 F200.
G2 X85.652 Y74.798 I0.168 J-0.181
G1 X85.908 Y74.436
G2 X85.629 Y74.098 I-0.185 J-0.131
G1 X85.428 Y74.186
X85.326 Y74.225
X85.22 Y74.255
G2 X85.111 Y74.677 I0.059 J0.24
G1 X85.215 Y74.774
X85.245 Y74.797 Z-0.001
X85.279 Y74.814 Z0.006
X85.311 Y74.823 Z0.028
X85.343 Y74.827 Z0.049
X85.386 Y74.824 Z0.114
X85.401 Y74.821 Z0.191
G0 Z5.
X27.079 Y46.491
Z0.273
G1 X27.087 Y46.479 Z0.197 F17.
X27.109 Y46.442 Z0.133
X27.139 Y46.386 Z0.089
X27.17 Y46.316 Z0.073
G2 X25.402 Y45.62 Z0.039 I-0.884 J-0.348
X27.17 Y46.316 Z0.004 I0.884 J0.348
X26.978 Y45.317 Z-0.009 I-0.884 J-0.348
G1 X26.91 Y45.234 F200.
X26.818 Y45.104
X26.778 Y45.04
X26.744 Y44.972
X26.687 Y44.841
X26.661 Y44.77
X26.641 Y44.698
X26.609 Y44.543
X26.596 Y44.466
X26.592 Y44.387
Y44.233
X26.596 Y44.159
X26.607 Y44.085
X26.636 Y43.943
X26.655 Y43.867
X26.682 Y43.795
X26.75 Y43.636
X26.785 Y43.565
X26.828 Y43.497
X26.913 Y43.379
X26.946 Y43.335
X26.983 Y43.295
X27.033 Y43.242
X27.075 Y43.202
X27.12 Y43.164
X27.248 Y43.067
X27.317 Y43.021
X27.391 Y42.982
X27.547 Y42.911
X27.618 Y42.883
X27.691 Y42.863
X27.82 Y42.833
X27.891 Y42.821
X27.963 Y42.815
X28.118 Y42.81
X28.196 Y42.812
X28.273 Y42.822
X28.428 Y42.849
X28.507 Y42.868
X28.583 Y42.895
X28.736 Y42.959
X28.812 Y42.995
X28.883 Y43.04
X29.02 Y43.138
X29.08 Y43.185
X29.135 Y43.238
X29.227 Y43.338
X29.274 Y43.393
X29.315 Y43.453
X29.395 Y43.582
X29.433 Y43.65
X29.463 Y43.721
X29.518 Y43.873
X29.541 Y43.948
X29.556 Y44.026
X29.578 Y44.18
X29.585 Y44.258
X29.584 Y44.336
X29.573 Y44.49
X29.564 Y44.569
X29.546 Y44.646
X29.502 Y44.799
X29.477 Y44.872
X29.445 Y44.941
X29.378 Y45.07
X29.338 Y45.136
X29.291 Y45.199
X29.186 Y45.326
X29.128 Y45.388
X29.063 Y45.444
X28.924 Y45.55
X28.86 Y45.594
X28.791 Y45.631
X28.668 Y45.69
X28.6 Y45.718
X28.529 Y45.74
X28.374 Y45.778
X28.297 Y45.793
X28.219 Y45.8
X28.065 Y45.806
X27.987 Y45.804
X27.909 Y45.795
X27.749 Y45.767
X27.679 Y45.751
X27.611 Y45.729
X27.496 Y45.685
X27.427 Y45.655
X27.362 Y45.618
X27.213 Y45.524
X27.151 Y45.481
X27.094 Y45.431
X27.003 Y45.343
X26.978 Y45.317
G2 X26.326 Y45.114 I-0.506 J0.476
G3 X25.762 Y44.729 I-0.099 J-0.46
X26.347 Y42.71 I2.424 J-0.392
X29.371 Y42.363 I1.705 J1.508
G2 X29.838 Y42.209 I0.177 J-0.249
G3 X30.516 Y40.34 I27.811 J9.024
X31.296 Y38.511 I43. J17.264
X32.076 Y36.974 I17.387 J7.863
X32.954 Y35.492 I38.157 J21.596
X33.857 Y34.078 I49.985 J30.945
X34.856 Y32.73 I12.798 J8.438
X37.715 Y29.434 I75.803 J62.862
X40.923 Y26.475 I18.179 J16.488
X41.876 Y25.775 I15.708 J20.403
G2 X42.836 Y25.086 I-26.644 J-38.107
X42.717 Y24.798 I-0.095 J-0.129
G1 X42.566 Y24.825
X42.415 Y24.852
G3 X42.146 Y24.864 I-0.198 J-1.35
G2 X41.877 Y24.856 I-0.335 J6.436
X41.535 Y25.022 I-0.004 J0.426
G3 X39.994 Y25.952 I-1.956 J-1.499
G2 X39.715 Y26.084 I0.096 J0.563
G3 X38.624 Y26.9 I-6.02 J-6.916
G2 X37.479 Y27.64 I57.938 J90.894
X36.601 Y28.309 I4.251 J6.487
G3 X35.671 Y28.904 I-2.388 J-2.709
G2 X35.383 Y29.127 I0.308 J0.698
X35.207 Y29.364 I3.245 J2.585
G3 X35.029 Y29.6 I-2.682 J-1.841
G1 X31.885 Y32.887
G2 X31.503 Y33.347 I3.802 J3.541
G3 X31.109 Y33.796 I-2.756 J-2.03
G2 X30.904 Y34.07 I0.703 J0.738
G3 X30.447 Y34.8 I-4.402 J-2.25
G1 X29.981 Y35.417
G3 X27.502 Y36.267 I-1.87 J-1.412
X25.722 Y34.345 I0.639 J-2.378
G2 X25.382 Y33.393 I-3.182 J0.6
X24.919 Y32.606 I-12.833 J7.006
G3 X24.457 Y31.818 I12.37 J-7.794
X24.283 Y30.082 I1.967 J-1.074
X25.347 Y28.699 I2.394 J0.741
G2 X25.868 Y28.097 I-0.723 J-1.154
G3 X26.851 Y26.675 I4.246 J1.883
X28.108 Y25.488 I27.337 J27.685
G2 X28.313 Y25.269 I-1.219 J-1.349
G3 X29.016 Y24.521 I4.808 J3.815
X29.81 Y23.872 I7.247 J8.054
G2 X30.045 Y23.649 I-0.811 J-1.094
G3 X30.484 Y23.159 I7.029 J5.85
X30.977 Y22.725 I2.872 J2.763
G2 X31.888 Y22.009 I-13.032 J-17.517
G3 X32.865 Y21.387 I2.951 J3.557
G2 X33.244 Y21.121 I-0.582 J-1.231
G3 X34.075 Y20.459 I3.405 J3.425
X34.992 Y19.922 I8.833 J14.026
G2 X35.232 Y19.756 I-0.65 J-1.197
G3 X36.026 Y19.225 I2.528 J2.924
X36.909 Y18.862 I2.852 J5.681
G2 X37.29 Y18.668 I-0.422 J-1.295
G3 X39.015 Y17.817 I3.394 J4.706
G2 X39.314 Y17.686 I-0.392 J-1.304
G3 X39.723 Y17.482 I1.709 J2.902
X40.161 Y17.353 I0.794 J1.896
G2 X40.522 Y17.236 I-0.236 J-1.341
G3 X42.546 Y17.025 I1.299 J2.653
G2 X42.986 Y16.698 I0.087 J-0.343
X43.032 Y15.482 I-104.082 J-4.555
G3 X43.269 Y14.289 I3.734 J0.12
X43.614 Y13.755 I1.397 J0.525
X44.07 Y13.312 I18.63 J18.745
G2 X43.902 Y13.079 I-0.1 J-0.105
X43.679 Y13.198 I17.211 J32.519
G3 X43.445 Y13.293 I-0.555 J-1.032
G1 X38.663 Y14.638
G2 X38.401 Y14.733 I0.334 J1.32
G1 X34.086 Y16.69
G2 X33.804 Y16.862 I0.562 J1.24
G3 X32.303 Y17.935 I-11.938 J-15.115
X30.636 Y18.726 I-3.872 J-6.006
G2 X30.06 Y19.092 I0.42 J1.296
X29.67 Y19.525 I13.257 J12.371
G3 X29.246 Y19.924 I-2.262 J-1.978
G2 X28.115 Y20.879 I10.311 J13.342
G3 X26.905 Y21.731 I-3.801 J-4.116
X24.455 Y21.608 I-1.12 J-2.147
X23.328 Y19.428 I1.375 J-2.092
G2 X23.121 Y18.776 I-1.019 J-0.036
G1 X22.584 Y18.068
G2 X22.004 Y17.692 I-0.812 J0.617
G3 X21.471 Y17.495 I0.503 J-2.184
G2 X20.769 Y17.597 I-0.281 J0.539
G1 X20.599 Y17.77
X20.431 Y17.945
G2 X19.505 Y18.903 I40.808 J40.361
X18.614 Y19.895 I19.431 J18.345
X18.798 Y20.148 I0.122 J0.104
X19.211 Y19.953 I-1.794 J-4.345
G3 X19.639 Y19.791 I0.852 J1.601
X20.888 Y19.794 I0.619 J2.574
X21.981 Y20.399 I-0.566 J2.312
X22.62 Y22.247 I-1.515 J1.559
X22.231 Y24.164 I-14.562 J-1.956
G2 X22.391 Y25.015 I0.956 J0.261
G3 X22.719 Y25.593 I-2.245 J1.66
X22.856 Y26.244 I-1.612 J0.678
X22.424 Y27.708 I-2.564 J0.039
G1 X21.582 Y28.967
G3 X21.272 Y29.324 I-1.582 J-1.058
G2 X20.937 Y29.657 I3.199 J3.557
X20.552 Y30.317 I1.343 J1.225
G1 X20.53 Y30.393
X20.508 Y30.47
G3 X20. Y31.579 I-5.18 J-1.697
X19.321 Y32.592 I-10.43 J-6.265
G2 X18.764 Y33.787 I2.595 J1.937
G3 X18.367 Y34.943 I-6.023 J-1.418
X17.799 Y36.026 I-10.298 J-4.713
G2 X17.373 Y37.242 I2.782 J1.657
G3 X17.168 Y38.137 I-5.104 J-0.701
G2 X16.899 Y39.014 I25.212 J8.213
G3 X16.789 Y39.279 I-1.224 J-0.352
G2 X16.659 Y39.535 I3.406 J1.888
X16.362 Y40.806 I2.94 J1.357
G3 X15.904 Y43.568 I-10.211 J-0.273
X14.528 Y46.006 I-6.345 J-1.974
G2 X14.41 Y47.774 I1.081 J0.96
G3 X14.869 Y48.587 I-4.897 J3.302
X15.222 Y49.451 I-8.879 J4.126
X15.614 Y51.228 I-7.034 J2.486
X15.665 Y53.046 I-13.456 J1.285
G2 X15.838 Y54.227 I3.235 J0.128
G1 X15.923 Y54.452
X16.009 Y54.677
G3 X16.239 Y55.648 I-4.798 J1.649
X16.357 Y56.638 I-31.686 J4.278
G2 X16.802 Y58.315 I5.541 J-0.573
G3 X17.165 Y59.337 I-6.704 J2.96
X17.388 Y60.398 I-8.571 J2.351
G2 X17.812 Y61.59 I3.203 J-0.47
G3 X18.365 Y62.668 I-7.94 J4.747
X18.755 Y63.816 I-6.991 J3.02
G2 X19.304 Y64.963 I3.138 J-0.796
G3 X20.482 Y67.058 I-7.312 J5.488
X20.054 Y69.423 I-2.104 J0.841
G2 X19.809 Y70.241 I0.732 J0.665
G3 X19.981 Y71.543 I-27.627 J4.312
X19.858 Y72.851 I-3.26 J0.353
G2 X20.129 Y73.044 I0.168 J0.051
X20.431 Y72.805 I-2.639 J-3.645
G3 X20.753 Y72.593 I0.966 J1.118
X21.703 Y72.232 I2.55 J5.268
X22.715 Y72.147 I0.722 J2.539
X24.145 Y72.587 I-0.44 J3.972
X25.396 Y73.406 I-3.804 J7.186
X26.016 Y74.084 I-1.796 J2.262
X26.475 Y74.88 I-6.762 J4.433
G2 X27.28 Y75.685 I1.624 J-0.818
G3 X28.643 Y76.536 I-4.027 J7.975
X29.706 Y77.741 I-2.437 J3.221
G2 X30.345 Y78.166 I0.747 J-0.43
G3 X31.11 Y78.402 I-0.289 J2.291
X31.762 Y78.866 I-1.266 J2.469
G2 X32.41 Y79.346 I2.238 J-2.34
X34.122 Y80.201 I9.268 J-16.433
G3 X35.596 Y81.422 I-1.386 J3.172
G2 X36.188 Y81.659 I0.471 J-0.322
G3 X37.56 Y81.781 I0.489 J2.256
X38.647 Y82.626 I-0.992 J2.4
G2 X39.338 Y82.919 I0.598 J-0.448
G1 X39.515 Y82.9
X39.604 Y82.895
X39.693 Y82.898
G3 X42.282 Y83.383 I-1.076 J12.908
G2 X44.815 Y84.104 I38.575 J-130.767
X45.404 Y84.208 I0.856 J-3.123
X46.77 Y84.282 I2.016 J-24.417
G3 X48.127 Y84.446 I-0.194 J7.299
G2 X48.956 Y84.517 I0.688 J-3.164
G3 X49.431 Y84.536 I0.126 J2.898
G2 X49.904 Y84.584 I1.558 J-12.87
X50.937 Y84.504 I0.271 J-3.226
G3 X51.381 Y84.443 I0.526 J2.174
X51.83 Y84.453 I0.139 J3.785
G2 X52.689 Y84.409 I0.265 J-3.227
G1 X52.804 Y84.386
X52.919 Y84.358
X53.035 Y84.334
X53.152 Y84.321
G3 X53.637 Y84.337 I0.154 J2.694
G2 X54.12 Y84.393 I3.751 J-30.319
X55.436 Y84.282 I0.371 J-3.451
G3 X58.665 Y83.701 I4.707 J16.908
G2 X59.643 Y83.461 I-0.272 J-3.226
G1 X59.713 Y83.432
X59.784 Y83.405
G2 X61.414 Y82.816 I-5.607 J-18.057
G3 X63.109 Y82.452 I1.841 J4.444
G2 X64.022 Y82.115 I-0.047 J-1.531
G1 X64.231 Y81.947
G3 X64.453 Y81.807 I0.716 J0.891
G2 X65.981 Y81.018 I-12.266 J-25.628
G3 X67.546 Y80.304 I5.306 J9.555
X69.997 Y80.907 I0.776 J2.129
X70.586 Y83.36 I-1.935 J1.763
G2 X70.714 Y83.708 I0.307 J0.084
G1 X71.843 Y84.463
X71.874 Y84.478
X71.907 Y84.484
X71.969 Y84.488
X72.013 Y84.483
X72.053 Y84.464
X72.085 Y84.433
X72.104 Y84.392
X72.108 Y84.348
X72.097 Y84.305
X72.072 Y84.268
G3 X70.97 Y82.441 I3.516 J-3.365
X70.653 Y80.33 I5.906 J-1.967
X71.249 Y78.362 I3.84 J0.088
X72.551 Y76.769 I7.251 J4.598
X73.304 Y76.256 I1.899 J1.976
X74.136 Y75.887 I13.081 J28.411
G2 X74.907 Y75.206 I-0.638 J-1.499
G3 X75.086 Y74.92 I4.395 J2.555
X75.293 Y74.653 I2.108 J1.421
X77.163 Y72.612 I67.212 J59.683
X79.892 Y72.144 I1.676 J1.583
G2 X80.439 Y72.292 I0.622 J-1.212
G3 X80.85 Y72.344 I-0.159 J2.883
X81.247 Y72.462 I-0.452 J2.249
X81.757 Y72.787 I-0.6 J1.505
G2 X82.199 Y73.2 I64.04 J-68.094
X82.484 Y73.01 I0.12 J-0.129
G3 X82.302 Y71.627 I2.93 J-1.088
X82.475 Y70.242 I23.408 J2.22
G2 X82.231 Y69.416 I-0.997 J-0.155
G3 X81.987 Y69.112 I2.774 J-2.474
X81.805 Y68.766 I1.148 J-0.825
X81.916 Y66.711 I2.485 J-0.896
X82.988 Y64.955 I9.848 J4.807
G2 X83.541 Y63.784 I-2.593 J-1.939
G3 X83.837 Y62.911 I5.092 J1.245
G2 X84.196 Y62.062 I-25.609 J-11.308
G3 X84.345 Y61.788 I1.248 J0.503
G2 X84.515 Y61.526 I-3.258 J-2.304
X84.939 Y60.327 I-2.782 J-1.657
G3 X85.501 Y58.362 I7.238 J1.008
G2 X85.969 Y56.624 I-5.279 J-2.352
G3 X86.075 Y55.875 I10.853 J1.161
G1 X86.246 Y54.916
G3 X86.351 Y54.571 I1.48 J0.263
G2 X86.482 Y54.235 I-3.82 J-1.69
X86.654 Y53.05 I-3.063 J-1.049
G3 X86.852 Y50.29 I12.226 J-0.513
X87.932 Y47.743 I6.337 J1.184
G2 X87.838 Y46.048 I-1.111 J-0.788
G3 X86.504 Y43.644 I4.675 J-4.166
X85.974 Y40.947 I14.466 J-4.243
G2 X85.511 Y39.219 I-5.608 J0.578
G3 X85.18 Y38.29 I5.695 J-2.552
X84.957 Y37.329 I13.414 J-3.614
G2 X84.351 Y35.71 I-5.133 J0.999
G3 X83.893 Y34.779 I6.657 J-3.851
X83.575 Y33.791 I6.185 J-2.538
G2 X83.016 Y32.601 I-3.149 J0.751
G3 X82.299 Y31.518 I8.972 J-6.722
X81.783 Y30.326 I4.763 J-2.772
G2 X81.382 Y29.62 I-1.742 J0.522
G3 X80.479 Y28.593 I25.137 J-23.019
X79.735 Y27.446 I4.149 J-3.504
X79.519 Y26.194 I2.085 J-1.004
X79.965 Y25.004 I2.537 J0.273
G2 X80.116 Y24.186 I-0.82 J-0.574
G3 X79.756 Y22.615 I35.486 J-8.958
X79.929 Y21.012 I2.577 J-0.531
X81.218 Y19.848 I1.961 J0.874
X82.954 Y19.907 I0.787 J2.389
G2 X83.136 Y19.653 I0.061 J-0.149
X80.994 Y17.405 I-28.355 J24.864
X80.305 Y17.338 I-0.387 J0.4
G3 X80.024 Y17.489 I-1.025 J-1.58
X79.724 Y17.597 I-1.083 J-2.52
G2 X79.014 Y18.097 I0.389 J1.305
G1 X78.561 Y18.715
G2 X78.364 Y19.359 I0.822 J0.603
G1 X78.375 Y19.616
G3 X78.353 Y19.89 I-1.16 J0.046
X78.188 Y20.463 I-3.475 J-0.693
X77.911 Y20.991 I-2.385 J-0.912
X76.375 Y21.998 I-1.989 J-1.358
X74.585 Y21.586 I-0.428 J-2.237
G1 X69.993 Y18.084
G2 X69.564 Y17.869 I-0.815 J1.092
G3 X68.994 Y17.639 I0.9 J-3.048
X68.483 Y17.298 I1.325 J-2.541
G2 X68.031 Y17.048 I-0.873 J1.046
G1 X67.499 Y16.875
G3 X66.971 Y16.647 I0.951 J-2.927
X66.189 Y16.127 I2.647 J-4.83
X65.477 Y15.513 I7.313 J-9.192
X65.18 Y15.144 I1.15 J-1.229
G2 X64.919 Y14.749 I-4.229 J2.514
X64.271 Y14.489 I-0.533 J0.39
G3 X63.15 Y14.557 I-0.854 J-4.813
X62.032 Y14.441 I0.629 J-11.478
X60.437 Y13.982 I0.991 J-6.449
G2 X58.882 Y13.403 I-6.469 J14.986
G1 X58.833 Y13.392
X58.373 Y13.324
G2 X58.216 Y13.632 I-0.026 J0.18
G3 X59.016 Y15.603 I-2.012 J1.965
G2 X59.13 Y17.727 I19.142 J0.042
X59.527 Y17.874 I0.235 J-0.026
G1 X59.68 Y17.723
X59.759 Y17.65
X59.845 Y17.585
G3 X60.493 Y17.231 I2.134 J3.139
X61.219 Y17.095 I0.67 J1.575
X62.233 Y17.36 I-0.078 J2.379
X63.064 Y17.999 I-1.349 J2.611
G2 X63.825 Y18.392 I0.902 J-0.816
G3 X65.071 Y18.771 I-0.425 J3.632
X66.169 Y19.472 I-3.193 J6.214
G2 X66.493 Y19.659 I0.837 J-1.075
G3 X67.43 Y20.143 I-2.18 J5.372
X68.272 Y20.777 I-3.61 J5.662
G2 X68.587 Y20.986 I0.903 J-1.02
G3 X69.352 Y21.43 I-2.379 J4.977
X70.016 Y22.015 I-2.195 J3.164
G2 X70.389 Y22.306 I1.011 J-0.913
G3 X71.657 Y23.162 I-3.343 J6.313
X72.546 Y24.408 I-2.002 J2.368
G2 X73.125 Y24.955 I0.864 J-0.336
G3 X74.562 Y25.835 I-1.064 J3.351
X75.043 Y26.451 I-2.385 J2.355
X75.398 Y27.148 I-4.529 J2.748
G2 X76.019 Y27.859 I1.383 J-0.581
G1 X76.09 Y27.898
X76.161 Y27.937
G3 X76.669 Y28.365 I-1.016 J1.721
X77.032 Y28.92 I-2.027 J1.72
G2 X77.252 Y29.243 I1.224 J-0.597
G3 X77.59 Y29.719 I-1.769 J1.619
X77.848 Y30.243 I-6.52 J3.535
X77.97 Y32.108 I-2.472 J1.098
X77.033 Y33.724 I-3.792 J-1.121
X76.522 Y34.097 I-1.306 J-1.252
X75.942 Y34.348 I-3.033 J-6.196
G2 X75.249 Y34.713 I1.151 J3.026
X74.742 Y35.092 I5.037 J7.267
G3 X74.205 Y35.429 I-1.689 J-2.099
X72.436 Y35.478 I-0.94 J-1.986
X71.147 Y34.265 I0.929 J-2.281
G2 X70.984 Y34.024 I-0.919 J0.442
G3 X70.663 Y33.555 I1.562 J-1.414
X70.43 Y33.038 I6.2 J-3.113
G2 X70.174 Y32.669 I-0.946 J0.382
G3 X69.612 Y32.115 I7.763 J-8.437
X69.108 Y31.507 I4.349 J-4.118
G2 X68.919 Y31.309 I-0.826 J0.598
G3 X68.328 Y30.738 I2.774 J-3.465
G2 X67.781 Y30.126 I-16.405 J14.11
G1 X67.693 Y30.042
X67.596 Y29.969
G3 X66.245 Y29.025 I17.713 J-26.81
X65.082 Y27.858 I3.217 J-4.364
G2 X64.698 Y27.58 I-0.616 J0.45
G3 X63.604 Y27.041 I1.245 J-3.903
X62.608 Y26.338 I47.422 J-68.217
G1 X62.541 Y26.297
X62.47 Y26.265
G3 X61.556 Y25.847 I2.139 J-5.883
X60.716 Y25.294 I3.399 J-6.084
G1 X60.678 Y25.27
X60.638 Y25.25
G3 X59.898 Y24.954 I20.2 J-51.528
X59.202 Y24.565 I1.245 J-3.047
G1 X59.17 Y24.547
X59.136 Y24.535
X59.076 Y24.524
X59.017 Y24.512
X58.899 Y24.48
X58.785 Y24.438
X58.562 Y24.341
X58.517 Y24.331
X58.472 Y24.336
X58.432 Y24.356
X58.409 Y24.373
X58.38 Y24.402
X58.361 Y24.439
X58.355 Y24.48
X58.363 Y24.521
X58.382 Y24.558
X58.413 Y24.586
G3 X61.332 Y26.763 I-22.962 J33.85
X64.02 Y29.219 I-20.886 J25.561
X65.661 Y30.936 I-67.072 J65.735
X67.149 Y32.787 I-11.891 J11.078
G2 X68.117 Y34.126 I30.379 J-20.952
G3 X69.018 Y35.511 I-9.142 J6.929
G2 X69.872 Y36.994 I40.858 J-22.555
G3 X70.668 Y38.51 I-12.645 J7.598
X73.027 Y45.041 I-40.457 J18.308
X74.052 Y51.908 I-27.9 J7.675
G1 X74.109 Y67.256
G3 X73.443 Y68.929 I-2.703 J-0.108
X71.803 Y69.674 I-1.64 J-1.434
G1 X30.242 Y69.679
G3 X28.596 Y69.027 I0. J-2.403
X27.857 Y67.418 I1.609 J-1.713
G1 X27.911 Y51.908
G3 X28.135 Y49.44 I19.798 J0.553
X28.571 Y47. I51.801 J7.995
G2 X28.259 Y46.634 I-0.3 J-0.061
G1 X28.011 Y46.646
X27.887 Y46.647
X27.763 Y46.632
G3 X26.882 Y46.349 I0.572 J-3.285
X26.177 Y45.749 I0.804 J-1.66
X25.762 Y44.729 I2.009 J-1.412
G2 X25.381 Y44.294 I-0.538 J0.087
G3 X25.08 Y43.8 I0.125 J-0.415
X25.312 Y43.081 I2.886 J0.536
X28.82 Y41.4 I2.788 J1.319
G2 X29.575 Y41.004 I0.151 J-0.629
X30.101 Y39.608 I-95.654 J-36.891
G3 X30.668 Y38.227 I19.681 J7.263
X31.458 Y36.713 I13.724 J6.206
G2 X32.308 Y35.232 I-41.885 J-25.001
G3 X33.218 Y33.822 I10.434 J5.742
G2 X34.197 Y32.459 I-31.569 J-23.708
G3 X35.64 Y30.706 I10.787 J7.406
G1 X37.243 Y29.07
G2 X36.999 Y28.797 I-0.131 J-0.129
G3 X36.505 Y29.177 I-36.719 J-47.115
X35.97 Y29.499 I-1.715 J-2.249
G1 X35.921 Y29.529
X35.88 Y29.569
G2 X35.621 Y29.921 I4.418 J3.52
G3 X35.336 Y30.252 I-1.564 J-1.059
G1 X31.597 Y34.249
X31.532 Y34.321
X31.481 Y34.402
G3 X31.025 Y35.13 I-5.288 J-2.803
X30.513 Y35.819 I-43.297 J-31.632
X27.35 Y36.915 I-2.399 J-1.812
X25.068 Y34.466 I0.796 J-3.029
G2 X24.8 Y33.714 I-2.511 J0.473
X24.337 Y32.926 I-12.852 J7.016
G3 X23.873 Y32.137 I12.389 J-7.805
X23.638 Y29.926 I2.543 J-1.388
X24.974 Y28.148 I3.056 J0.905
G2 X25.27 Y27.806 I-0.433 J-0.675
G3 X25.467 Y27.412 I5.771 J2.632
X25.722 Y27.052 I1.611 J0.874
G1 X27.561 Y25.033
G3 X29.389 Y23.356 I10.162 J9.249
G1 X29.476 Y23.283
X29.554 Y23.201
G3 X30.936 Y21.839 I8.686 J7.43
X32.569 Y20.791 I5.055 J6.084
G2 X32.784 Y20.64 I-0.347 J-0.723
G3 X34.6 Y19.213 I7.336 J7.467
X36.692 Y18.234 I5.19 J8.362
G1 X36.767 Y18.204
X36.84 Y18.168
X36.908 Y18.123
G3 X37.626 Y17.68 I3.466 J4.811
X38.377 Y17.295 I23.515 J44.96
X38.662 Y17.198 I0.499 J0.993
G2 X38.943 Y17.091 I-0.172 J-0.877
G3 X39.472 Y16.847 I1.48 J2.513
X40.035 Y16.7 I1.239 J3.591
G1 X40.14 Y16.674
X40.24 Y16.633
G3 X40.992 Y16.385 I1.323 J2.745
X41.777 Y16.284 I1.217 J6.369
G2 X42.365 Y15.683 I-0.042 J-0.629
G3 X42.39 Y15.233 I19.579 J0.857
X42.462 Y14.788 I2.389 J0.16
G2 X42.034 Y14.37 I-0.334 J-0.087
X41.176 Y14.643 I3.949 J13.867
G3 X40.318 Y14.917 I-4.807 J-13.593
X39.485 Y15.145 I-12.419 J-43.612
G2 X38.672 Y15.435 I1.321 J4.996
G1 X34.324 Y17.406
G2 X32.667 Y18.466 I79.033 J125.463
G3 X30.903 Y19.337 I-4.613 J-7.111
G2 X30.501 Y19.593 I0.361 J1.01
G3 X28.914 Y21.129 I-36.329 J-35.936
X27.11 Y22.402 I-5.644 J-6.087
X25.332 Y22.655 I-1.247 J-2.391
X23.726 Y21.853 I0.674 J-3.361
G2 X23.258 Y22.059 I-0.187 J0.21
G3 X23.148 Y23.007 I-4.686 J-0.064
G2 X22.956 Y23.942 I32.064 J7.092
X23.106 Y24.899 I1.408 J0.269
G3 X23.396 Y25.541 I-4.02 J2.202
X23.523 Y26.234 I-2.003 J0.725
X23.067 Y27.892 I-3.07 J0.047
X22.137 Y29.339 I-39.641 J-24.438
X21.792 Y29.742 I-1.852 J-1.238
G2 X21.417 Y30.118 I4.042 J4.405
X21.188 Y30.512 I0.792 J0.723
G3 X20.622 Y31.807 I-6.76 J-2.183
X19.851 Y32.993 I-9.527 J-5.35
G2 X19.411 Y33.937 I2.048 J1.529
G3 X19.02 Y35.119 I-6.812 J-1.599
X18.454 Y36.226 I-8.88 J-3.844
G2 X18.021 Y37.402 I2.93 J1.745
G3 X17.751 Y38.556 I-9.434 J-1.597
X17.332 Y39.664 I-8.066 J-2.421
G2 X17.024 Y40.895 I3.097 J1.429
G3 X16.479 Y43.714 I-10.845 J-0.633
X15.168 Y46.269 I-9.074 J-3.042
G2 X15.079 Y47.598 I1.02 J0.735
G3 X15.448 Y48.335 I-13.224 J7.082
X15.786 Y49.088 I-25.022 J11.679
X16.245 Y50.987 I-5.317 J2.291
X16.33 Y52.94 I-40.519 J2.745
G2 X16.577 Y54.33 I4.55 J-0.089
G3 X16.865 Y55.446 I-6.979 J2.399
X17.02 Y56.588 I-14.187 J2.505
G2 X17.402 Y58.029 I4.53 J-0.431
G3 X17.768 Y59.038 I-6.431 J2.903
X18.012 Y60.083 I-12.029 J3.353
G2 X18.534 Y61.503 I4.472 J-0.841
G3 X19.021 Y62.519 I-6.667 J3.816
X19.381 Y63.585 I-11.172 J4.373
G2 X19.932 Y64.693 I3.278 J-0.94
G3 X21.119 Y66.69 I-8.63 J6.479
X21.315 Y68.245 I-2.388 J1.09
X20.698 Y69.685 I-3.432 J-0.617
G2 X20.495 Y70.41 I0.866 J0.633
G1 X20.577 Y71.372
G2 X21.119 Y71.771 I0.445 J-0.038
X21.507 Y71.673 I-1.556 J-6.993
G3 X21.894 Y71.576 I1.744 J6.106
X24.857 Y72.098 I0.846 J3.868
X26.92 Y74.288 I-3.237 J5.115
G2 X27.779 Y75.206 I2.237 J-1.235
G3 X28.859 Y75.931 I-16.373 J25.554
X29.834 Y76.792 I-3.376 J4.803
G2 X31.12 Y77.679 I2.528 J-2.29
G3 X31.666 Y77.957 I-1.148 J2.937
X32.156 Y78.325 I-2.107 J3.307
G2 X32.934 Y78.879 I3.013 J-3.41
X34.334 Y79.617 I13.661 J-24.224
G3 X35.654 Y80.49 I-2.735 J5.569
G2 X36.794 Y80.953 I1.251 J-1.449
G3 X37.785 Y81.162 I-0.199 J3.397
X38.657 Y81.676 I-1.015 J2.718
G2 X39.998 Y82.27 I1.662 J-1.941
G1 X44.806 Y83.323
G2 X46.491 Y83.59 I2.049 J-7.488
G3 X48.186 Y83.78 I-0.619 J13.16
G2 X49.012 Y83.851 I0.799 J-4.48
G3 X49.341 Y83.867 I0.018 J3.074
G2 X49.668 Y83.897 I1.915 J-18.864
X50.893 Y83.834 I0.381 J-4.535
G3 X51.309 Y83.783 I0.613 J3.252
X51.728 Y83.781 I0.221 J3.694
G2 X52.807 Y83.711 I0.244 J-4.544
G3 X53.343 Y83.665 I0.494 J2.65
X53.88 Y83.698 I-0.091 J5.867
G2 X55.371 Y83.612 I0.487 J-4.524
G3 X58.507 Y83.05 I7.466 J32.581
G2 X59.482 Y82.811 I-0.589 J-4.512
G3 X61.06 Y82.272 I12.997 J35.51
X62.67 Y81.84 I5.694 J17.977
G2 X64. Y81.314 I-0.986 J-4.442
G3 X66.592 Y79.89 I23.851 J40.347
X69.549 Y79.859 I1.511 J2.968
G2 X70.172 Y79.555 I0.192 J-0.397
G3 X71.306 Y77.115 I5.964 J1.288
X73.43 Y75.465 I4.253 J3.282
G2 X74.505 Y74.593 I-1.013 J-2.346
G3 X75.576 Y73.198 I17.943 J12.67
X76.806 Y71.942 I8.453 J7.046
X78.415 Y71.233 I1.944 J2.235
X80.148 Y71.528 I0.358 J3.14
G2 X80.53 Y71.631 I0.467 J-0.966
G3 X80.835 Y71.67 I-0.252 J3.182
X81.135 Y71.74 I-0.5 J2.818
G2 X81.711 Y71.344 I0.126 J-0.434
G1 X81.79 Y70.406
G2 X81.579 Y69.672 I-1.069 J-0.09
G3 X81.354 Y69.347 I4.261 J-3.194
X81.179 Y68.992 I1.501 J-0.96
X81.225 Y66.691 I3.021 J-1.09
X82.358 Y64.687 I8.361 J3.404
G2 X82.913 Y63.558 I-2.731 J-2.043
G3 X83.267 Y62.499 I10.332 J2.872
X83.759 Y61.496 I6.428 J2.532
G2 X84.305 Y60.093 I-3.91 J-2.329
G3 X84.549 Y59.06 I19.38 J4.026
X84.908 Y58.06 I5.95 J1.573
G2 X85.305 Y56.583 I-4.134 J-1.902
G3 X85.458 Y55.449 I14.019 J1.314
X85.743 Y54.341 I7.264 J1.282
G2 X85.988 Y52.945 I-4.305 J-1.475
G3 X86.033 Y51.602 I41.89 J0.727
X86.196 Y50.269 I9.289 J0.459
X86.619 Y48.89 I6.828 J1.341
X87.245 Y47.591 I14.156 J6.012
G2 X87.16 Y46.268 I-1.098 J-0.593
G3 X85.883 Y43.754 I7.453 J-5.368
X85.31 Y40.993 I12.037 J-3.934
G2 X84.913 Y39.511 I-4.531 J0.421
G3 X84.547 Y38.502 I5.848 J-2.692
X84.304 Y37.456 I14.301 J-3.871
G2 X83.775 Y36.043 I-4.467 J0.867
G3 X83.275 Y35.024 I7.222 J-4.181
X82.928 Y33.944 I6.772 J-2.772
G2 X82.486 Y33.002 I-2.486 J0.591
G3 X81.702 Y31.814 I9.537 J-7.146
X81.142 Y30.505 I5.191 J-2.996
G2 X80.904 Y30.083 I-1.029 J0.302
X80.67 Y29.843 I-3.949 J3.617
G3 X80.437 Y29.603 I3.716 J-3.856
X79.828 Y28.837 I5.175 J-4.739
X79.279 Y28.027 I62.012 J-42.589
X78.82 Y26.479 I2.265 J-1.513
X79.236 Y24.918 I3.299 J0.043
G2 X79.39 Y23.949 I-1.253 J-0.696
X79.236 Y23.268 I-10.978 J2.127
G3 X79.082 Y22.587 I10.823 J-2.808
X79.474 Y20.515 I2.801 J-0.543
X81.136 Y19.218 I2.65 J1.682
G2 X81.284 Y18.63 I-0.113 J-0.341
X81.093 Y18.431 I-12.581 J11.885
X80.898 Y18.236 I-6.731 J6.566
X80.258 Y18.111 I-0.416 J0.431
G1 X80.075 Y18.181
X79.889 Y18.242
G2 X79.57 Y18.464 I0.164 J0.576
G1 X79.146 Y19.041
G2 X79.03 Y19.403 I0.483 J0.354
G3 X78.902 Y20.431 I-3.789 J0.047
X78.47 Y21.372 I-2.979 J-0.798
X76.485 Y22.672 I-2.566 J-1.752
X74.173 Y22.139 I-0.551 J-2.893
G1 X69.61 Y18.628
G2 X69.362 Y18.503 I-0.48 J0.643
G3 X68.682 Y18.226 I1.144 J-3.787
X68.071 Y17.82 I1.581 J-3.043
G2 X67.811 Y17.676 I-0.513 J0.617
G3 X66.125 Y16.9 I2.659 J-7.998
X64.754 Y15.648 I2.429 J-4.038
G2 X63.773 Y15.216 I-0.865 J0.634
G3 X62.849 I-0.46 J-4.244
X61.932 Y15.095 I2.327 J-21.226
X60.929 Y14.804 I0.613 J-3.991
G2 X59.951 Y14.438 I-3.945 J9.033
X59.508 Y14.848 I-0.105 J0.331
G3 X59.596 Y15.563 I-3.238 J0.761
G2 X59.641 Y16.281 I7.588 J-0.107
X60.238 Y16.653 I0.444 J-0.049
G3 X61.955 Y16.559 I1.012 J2.768
X63.44 Y17.425 I-0.728 J2.954
G2 X64.081 Y17.753 I0.78 J-0.736
G3 X65.403 Y18.182 I-0.495 J3.776
X66.569 Y18.941 I-4.178 J7.692
G1 X66.657 Y19.
X66.753 Y19.047
G3 X67.779 Y19.579 I-2.499 J6.075
X68.704 Y20.272 I-4.047 J6.364
G1 X68.79 Y20.338
X68.884 Y20.391
G3 X69.747 Y20.898 I-2.733 J5.647
X70.5 Y21.559 I-2.617 J3.74
G2 X70.717 Y21.727 I0.592 J-0.541
G3 X72.054 Y22.614 I-3.82 J7.213
X73.039 Y23.881 I-2.26 J2.772
G2 X73.591 Y24.416 I0.973 J-0.451
G3 X74.361 Y24.82 I-2.144 J5.021
X75.038 Y25.365 I-2.033 J3.222
X75.556 Y26.032 I-2.523 J2.493
X75.959 Y26.776 I-8.361 J5.016
G2 X76.51 Y27.377 I1.288 J-0.628
G3 X77.157 Y27.918 I-1.393 J2.323
X77.625 Y28.619 I-2.454 J2.143
G1 X77.681 Y28.715
X77.75 Y28.803
G3 X78.682 Y32.199 I-2.893 J2.621
X76.404 Y34.884 I-3.576 J-0.725
G2 X75.43 Y35.397 I1.618 J4.253
X74.972 Y35.731 I6.804 J9.817
G3 X74.488 Y36.026 I-1.633 J-2.132
X72.228 Y36.105 I-1.222 J-2.58
X70.56 Y34.579 I1.141 J-2.922
G1 X70.52 Y34.511
X70.472 Y34.449
G3 X70.106 Y33.914 I1.985 J-1.752
X69.83 Y33.327 I7.708 J-3.988
G1 X69.793 Y33.255
X69.747 Y33.188
X69.692 Y33.128
G3 X69.107 Y32.543 I12.817 J-13.402
X68.577 Y31.907 I4.378 J-4.187
G1 X68.539 Y31.861
X68.496 Y31.821
G3 X67.859 Y31.209 I3.24 J-4.008
G2 X67.229 Y30.589 I-4.486 J3.93
X65.829 Y29.505 I-12.973 J15.303
G3 X64.561 Y28.27 I3.266 J-4.625
G1 X64.536 Y28.243
X64.505 Y28.221
X64.472 Y28.206
X64.443 Y28.196
G2 X64.216 Y28.555 I-0.071 J0.206
X65.094 Y29.387 I11.62 J-11.388
G3 X65.937 Y30.254 I-5.101 J5.803
X68.884 Y34.06 I-54.176 J44.987
X71.296 Y38.226 I-19.589 J14.122
X73.699 Y44.886 I-41.041 J18.573
X74.741 Y51.889 I-28.552 J7.829
G1 X74.798 Y67.284
G3 X73.92 Y69.426 I-3.383 J-0.135
X71.803 Y70.363 I-2.118 J-1.925
G1 X30.242 Y70.368
G3 X28.119 Y69.525 I0. J-3.093
X27.168 Y67.449 I2.086 J-2.211
G1 X27.252 Y51.44
G3 X27.464 Y49.675 I19.251 J1.411
G2 X27.735 Y47.917 I-70.989 J-11.843
X27.263 Y47.192 I-0.651 J-0.092
G3 X26.816 Y47.035 I1.073 J-3.779
X26.396 Y46.816 I1.1 J-2.621
X25.08 Y43.8 I1.57 J-2.48
G2 X24.881 Y43.311 I-0.481 J-0.089
G3 X24.742 Y42.801 I0.239 J-0.338
X28.569 Y40.723 I3.288 J1.492
G2 X29.149 Y40.386 I0.08 J-0.53
G3 X29.625 Y39.179 I80.504 J31.048
X30.135 Y37.986 I28.958 J11.671
X30.532 Y37.275 I4.396 J1.988
G2 X30.956 Y36.58 I-7.458 J-5.033
X30.74 Y36.424 I-0.118 J-0.065
G3 X28.354 Y37.582 I-2.673 J-2.471
X25.802 Y36.863 I-0.302 J-3.814
X24.907 Y35.837 I1.795 J-2.468
X24.454 Y34.553 I3.937 J-2.111
G2 X24.269 Y34.036 I-1.728 J0.326
X23.799 Y33.235 I-13.049 J7.124
G3 X23.329 Y32.434 I12.578 J-7.925
X23.035 Y29.789 I3.078 J-1.68
X24.611 Y27.645 I3.679 J1.053
G1 X24.655 Y27.61
X24.692 Y27.567
X24.72 Y27.519
G3 X24.957 Y27.055 I7.21 J3.39
X25.26 Y26.632 I1.955 J1.08
G2 X26.2 Y25.55 I-22.572 J-20.546
G3 X27.187 Y24.51 I8.164 J6.759
G1 X30.157 Y21.712
X31.147 Y20.947
G3 X32.284 Y20.241 I4.019 J5.201
G1 X32.326 Y20.216
X32.364 Y20.185
G3 X33.19 Y19.488 I5.274 J5.412
X34.089 Y18.888 I7.725 J10.61
X35.255 Y18.201 I24.788 J40.706
X36.49 Y17.648 I3.428 J6.008
G1 X36.522 Y17.635
X36.551 Y17.617
G3 X37.354 Y17.112 I4.586 J6.396
X38.202 Y16.688 I6.012 J10.967
X39.042 Y16.337 I6.227 J13.736
X39.919 Y16.092 I1.766 J4.619
G1 X39.948 Y16.084
X39.977 Y16.073
X40.194 Y15.973
X40.304 Y15.926
X40.416 Y15.885
G3 X40.98 Y15.755 I0.866 J2.476
G2 X41.555 Y15.684 I-4.617 J-39.834
X41.754 Y15.467 I-0.03 J-0.227
G1 X41.757 Y15.406
G2 X41.465 Y15.176 I-0.229 J-0.01
X40.505 Y15.48 I4.729 J16.606
G3 X39.544 Y15.784 I-5.69 J-16.302
G2 X37.747 Y16.474 I2.964 J10.409
G3 X36.006 Y17.294 I-28.377 J-57.93
X35.313 Y17.584 I-5.093 J-11.233
G2 X34.639 Y17.914 I1.468 J3.845
X32.923 Y19.011 I24.947 J40.922
G3 X31.104 Y19.924 I-4.543 J-6.785
G1 X31.047 Y19.949
X30.994 Y19.982
X30.947 Y20.023
G2 X30.614 Y20.373 I11.045 J10.864
G3 X30.277 Y20.719 I-6.697 J-6.188
X29.39 Y21.476 I-6.248 J-6.42
G2 X28.463 Y22.181 I42.965 J57.503
G3 X27.706 Y22.734 I-10.96 J-14.182
X26.861 Y23.139 I-1.686 J-2.435
X25.492 Y23.271 I-1.022 J-3.454
X24.168 Y22.897 I0.373 J-3.854
G2 X23.745 Y23.109 I-0.13 J0.268
G1 X23.576 Y23.998
G2 X23.672 Y24.643 I0.969 J0.185
G3 X24.09 Y25.778 I-4.06 J2.139
X24.106 Y26.987 I-2.868 J0.643
X23.514 Y28.408 I-3.784 J-0.743
G2 X22.654 Y29.685 I200.843 J136.15
G3 X22.287 Y30.117 I-2.056 J-1.375
G2 X21.889 Y30.52 I4.864 J5.204
G1 X21.84 Y30.581
X21.801 Y30.648
X21.772 Y30.72
G3 X21.34 Y31.736 I-6.132 J-2.009
G1 X20.817 Y32.721
G3 X20.584 Y33.067 I-1.749 J-0.928
G2 X20.326 Y33.393 I5.573 J4.679
X20.023 Y34.045 I1.409 J1.052
G3 X19.615 Y35.306 I-7.759 J-1.813
X19.018 Y36.49 I-8.676 J-3.629
G2 X18.627 Y37.536 I2.69 J1.603
G3 X18.348 Y38.724 I-11.508 J-2.076
X17.921 Y39.866 I-7.835 J-2.277
G2 X17.64 Y40.962 I2.843 J1.312
G3 X17.051 Y43.921 I-11.853 J-0.822
X15.685 Y46.611 I-9.83 J-3.3
G2 X15.637 Y47.328 I0.562 J0.397
G3 X16.356 Y48.842 I-20.561 J10.683
X16.865 Y50.884 I-5.976 J2.575
X16.95 Y52.986 I-25.328 J2.082
G2 X17.12 Y54.006 I3.131 J0.002
G3 X17.465 Y55.282 I-9.265 J3.185
X17.642 Y56.592 I-10.519 J2.089
G2 X17.925 Y57.684 I3.123 J-0.228
G3 X18.359 Y58.834 I-7.439 J3.458
X18.632 Y60.033 I-9.683 J2.839
G2 X19.034 Y61.13 I3.09 J-0.509
G3 X19.571 Y62.229 I-6.279 J3.754
X19.968 Y63.385 I-13.967 J5.441
G2 X20.465 Y64.37 I3.001 J-0.895
G3 X21.123 Y65.372 I-7.701 J5.781
X21.67 Y66.438 I-11.431 J6.535
X21.925 Y68.293 I-2.958 J1.35
X21.216 Y70.026 I-4.016 J-0.631
G2 X21.115 Y70.394 I0.449 J0.321
G1 X21.148 Y70.775
G2 X21.52 Y71.049 I0.307 J-0.026
G3 X22.259 Y70.915 I2.264 J10.349
X23.01 Y70.902 I0.425 J2.923
X25.626 Y71.908 I-0.608 J5.488
X27.476 Y74.014 I-3.649 J5.071
G2 X28.09 Y74.669 I1.548 J-0.835
G3 X29.289 Y75.484 I-10.444 J16.656
X30.365 Y76.455 I-4.281 J5.824
G2 X31.293 Y77.082 I1.739 J-1.576
G3 X31.983 Y77.422 I-1.273 J3.457
X32.595 Y77.887 I-2.342 J3.718
G2 X33.162 Y78.296 I2.105 J-2.318
X34.608 Y79.069 I17.992 J-31.903
G3 X35.985 Y79.959 I-3.535 J6.981
G2 X36.927 Y80.341 I1.104 J-1.369
G3 X38.029 Y80.596 I-0.387 J4.181
X39.008 Y81.162 I-1.251 J3.299
G2 X40.142 Y81.664 I1.484 J-1.818
G1 X40.265 Y81.682
X40.386 Y81.704
X45.05 Y82.836
G2 X45.619 Y82.937 I0.827 J-3.02
X46.977 Y83.021 I2.715 J-32.876
G3 X48.329 Y83.177 I-0.379 J9.221
G2 X48.973 Y83.232 I0.588 J-3.076
G3 X49.403 Y83.249 I0.066 J3.64
G2 X49.832 Y83.289 I2.632 J-26.189
X50.728 Y83.235 I0.262 J-3.12
G3 X51.29 Y83.165 I0.718 J3.472
X51.856 Y83.168 I0.254 J5.742
G2 X52.599 Y83.119 I0.17 J-3.127
G1 X52.838 Y83.071
X52.958 Y83.05
X53.079 Y83.038
G3 X53.582 Y83.047 I0.193 J3.376
X54.083 Y83.097 I-3.028 J32.838
G2 X55.174 Y83.022 I0.335 J-3.113
G3 X58.469 Y82.43 I6.359 J25.913
G2 X59.229 Y82.244 I-0.36 J-3.111
G3 X60.891 Y81.662 I10.907 J28.487
X62.595 Y81.222 I4.816 J15.142
G2 X63.632 Y80.813 I-0.613 J-3.071
G3 X65.141 Y79.997 I7.605 J12.263
G2 X66.691 Y79.265 I-71.338 J-153.027
G3 X67.941 Y78.941 I1.451 J3.031
X69.224 Y79.086 I0.225 J3.762
G2 X69.72 Y78.818 I0.112 J-0.384
G3 X71.033 Y76.46 I6.063 J1.832
X73.222 Y74.88 I4.581 J4.042
G2 X73.981 Y74.26 I-0.689 J-1.618
G3 X74.151 Y74.026 I5.086 J3.51
X74.335 Y73.802 I3.064 J2.333
G2 X75.339 Y72.615 I-23.751 J-21.09
G3 X76.417 Y71.494 I6.83 J5.492
X80.423 Y70.973 I2.399 J2.784
G1 X80.496 Y71.
X80.572 Y71.013
X80.717 Y71.028
G2 X81.145 Y70.682 I0.048 J-0.378
G1 X81.169 Y70.391
G2 X81.065 Y70.019 I-0.55 J-0.046
G3 X80.799 Y69.628 I5.495 J-4.025
X80.592 Y69.204 I1.847 J-1.166
X80.598 Y66.63 I3.545 J-1.279
X81.824 Y64.367 I8.326 J3.048
G2 X82.324 Y63.362 I-2.508 J-1.876
G3 X82.737 Y62.18 I11.045 J3.199
X83.298 Y61.06 I7.922 J3.264
G2 X83.687 Y60.028 I-2.69 J-1.602
G3 X83.972 Y58.829 I12. J2.223
X84.404 Y57.674 I8.06 J2.355
G2 X84.683 Y56.588 I-2.845 J-1.309
G3 X85.199 Y54.017 I9.966 J0.666
G2 X85.368 Y52.992 I-2.962 J-1.015
G3 X85.421 Y51.568 I18.005 J-0.054
X85.613 Y50.155 I12.081 J0.922
X86.046 Y48.7 I7.814 J1.535
X86.686 Y47.323 I14.077 J5.702
G2 X86.639 Y46.606 I-0.609 J-0.321
G3 X85.28 Y43.929 I8.574 J-6.038
X84.688 Y40.986 I11.142 J-3.771
G2 X84.406 Y39.89 I-3.124 J0.22
G3 X83.966 Y38.724 I7.68 J-3.56
X83.685 Y37.511 I10.189 J-3.005
G2 X83.285 Y36.43 I-3.087 J0.528
G3 X82.709 Y35.285 I7.472 J-4.474
X82.32 Y34.065 I7.102 J-2.938
G2 X82.013 Y33.403 I-1.714 J0.393
G3 X81.164 Y32.115 I10.212 J-7.651
X80.553 Y30.698 I5.831 J-3.354
G1 X80.524 Y30.621
X80.483 Y30.549
X80.432 Y30.484
G2 X80.206 Y30.253 I-3.815 J3.494
G3 X79.98 Y30.021 I3.59 J-3.725
X79.35 Y29.213 I4.778 J-4.376
G2 X78.783 Y28.358 I-146.99 J96.927
G3 X78.215 Y26.524 I2.803 J-1.872
X78.671 Y24.659 I3.865 J-0.043
G2 X78.77 Y24.006 I-0.87 J-0.465
G1 X78.511 Y22.667
G2 X78.124 Y22.516 I-0.24 J0.044
G3 X75.987 Y23.282 I-2.305 J-3.068
X73.818 Y22.614 I-0.149 J-3.375
G1 X69.246 Y19.129
X69.212 Y19.108
X69.176 Y19.094
G2 X68.839 Y18.993 I-14.271 J47.04
G3 X68.514 Y18.86 I0.502 J-1.697
X67.673 Y18.295 I2.347 J-4.4
G1 X67.647 Y18.277
X67.618 Y18.265
G3 X65.752 Y17.393 I2.779 J-8.383
X64.24 Y15.996 I2.835 J-4.585
G2 X63.863 Y15.83 I-0.333 J0.244
G3 X62.847 Y15.827 I-0.495 J-4.509
X61.84 Y15.691 I3.13 J-27.049
X61.201 Y15.512 I0.42 J-2.731
G2 X60.578 Y15.285 I-2.91 J7.015
X60.208 Y15.569 I-0.086 J0.271
G1 X60.211 Y15.64
G2 X60.572 Y15.929 I0.307 J-0.014
G3 X62.373 Y16.047 I0.661 J3.722
X63.9 Y17.009 I-1.072 J3.393
G2 X64.149 Y17.137 I0.301 J-0.282
G3 X65.636 Y17.607 I-0.547 J4.318
X66.948 Y18.451 I-4.274 J8.084
G1 X66.987 Y18.473
G3 X68.098 Y19.049 I-2.694 J6.56
X69.101 Y19.796 I-4.533 J7.13
G1 X69.133 Y19.82
X69.167 Y19.84
G3 X70.12 Y20.405 I-3.104 J6.327
X70.952 Y21.135 I-2.979 J4.232
G1 X70.981 Y21.162
X71.014 Y21.183
G3 X72.495 Y22.18 I-3.963 J7.482
X73.587 Y23.591 I-2.708 J3.226
G2 X73.863 Y23.859 I0.498 J-0.238
G3 X74.724 Y24.315 I-2.686 J6.104
X75.483 Y24.925 I-2.249 J3.582
X76.07 Y25.679 I-2.879 J2.844
X76.524 Y26.52 I-8.606 J5.189
G2 X76.814 Y26.836 I0.665 J-0.319
G3 X77.605 Y27.489 I-1.683 J2.845
X78.178 Y28.34 I-2.908 J2.577
G1 X78.194 Y28.367
X78.213 Y28.391
G3 X78.829 Y29.244 I-3.619 J3.264
X79.215 Y30.222 I-3.235 J1.842
X78.935 Y33.348 I-4.799 J1.146
X76.661 Y35.512 I-3.717 J-1.629
G2 X75.769 Y36.011 I1.247 J3.278
G3 X74.897 Y36.544 I-2.92 J-3.794
X72.943 Y36.872 I-1.556 J-3.287
X71.096 Y36.154 I0.42 J-3.815
G2 X70.877 Y36.346 I-0.088 J0.12
X71.301 Y37.062 I11.658 J-6.435
G3 X71.726 Y37.777 I-11.233 J7.151
X72.17 Y38.69 I-8.606 J4.751
G2 X72.577 Y39.619 I39.152 J-16.604
G3 X74.208 Y44.461 I-23.279 J10.535
X75.136 Y49.485 I-59.232 J13.537
X75.334 Y51.873 I-21.562 J2.995
G1 X75.39 Y67.307
G3 X74.331 Y69.854 I-3.971 J-0.158
X71.803 Y70.956 I-2.529 J-2.349
G1 X30.242 Y70.961
G3 X27.709 Y69.954 I0. J-3.686
X26.576 Y67.475 I2.495 J-2.64
G1 X26.629 Y51.873
G3 X26.795 Y50.052 I14.543 J0.406
G2 X27.063 Y48.244 I-138.751 J-21.483
X26.719 Y47.657 I-0.543 J-0.077
G3 X24.742 Y42.801 I1.311 J-3.364
G2 X24.624 Y41.842 I-0.844 J-0.383
G3 X24.692 Y40.877 I0.559 J-0.445
X25.829 Y40.091 I3.158 J3.348
X28.028 Y39.549 I2.35 J4.807
G2 X28.327 Y39.341 I-0.009 J-0.333
G1 X28.357 Y39.268
G2 X28.012 Y38.735 I-0.353 J-0.15
G3 X24.987 Y37.613 I0.106 J-4.924
X23.344 Y34.836 I3.009 J-3.654
G2 X23.231 Y34.52 I-1.054 J0.199
G1 X22.46 Y33.107
G2 X21.875 Y33.11 I-0.291 J0.159
G3 X21.588 Y33.59 I-4.753 J-2.522
X21.265 Y34.046 I-9.372 J-6.298
G2 X21.127 Y34.342 I0.643 J0.48
G3 X20.666 Y35.758 I-8.614 J-2.025
X19.993 Y37.086 I-9.961 J-4.204
G2 X19.753 Y37.73 I1.645 J0.98
G3 X19.458 Y39.016 I-13.152 J-2.342
X19.002 Y40.253 I-8.069 J-2.277
G2 X18.776 Y41.106 I2.32 J1.071
G3 X18.564 Y42.744 I-20.833 J-1.859
X18.331 Y43.712 I-7.186 J-1.219
G2 X18.041 Y44.664 I53.45 J16.808
G3 X17.661 Y45.507 I-3.255 J-0.96
G2 X17.189 Y46.301 I16.517 J10.355
X17.108 Y47.831 I1.505 J0.847
X17.242 Y48.117 I4.639 J-1.999
G3 X17.376 Y48.403 I-4.505 J2.285
X17.942 Y50.594 I-6.781 J2.922
X18.091 Y52.852 I-34.034 J3.385
G2 X18.275 Y53.848 I3.409 J-0.112
G3 X18.604 Y55.131 I-7.884 J2.71
X18.777 Y56.444 I-15.711 J2.729
G2 X18.999 Y57.283 I2.545 J-0.227
G3 X19.452 Y58.508 I-7.813 J3.582
X19.749 Y59.781 I-12.848 J3.663
G2 X20.052 Y60.607 I2.514 J-0.457
G3 X20.633 Y61.807 I-7.663 J4.446
X21.067 Y63.067 I-14.167 J5.58
G2 X21.371 Y63.673 I1.836 J-0.543
G3 X22.779 Y66.286 I-7.966 J5.979
X22.859 Y69.252 I-4.466 J1.604
G2 X23.227 Y69.824 I0.428 J0.128
G3 X26.273 Y71.009 I-0.937 J6.917
X28.462 Y73.435 I-4.101 J5.902
G2 X28.732 Y73.722 I0.702 J-0.388
G3 X29.979 Y74.57 I-15.381 J23.981
X31.106 Y75.571 I-4.281 J5.956
G2 X31.802 Y76.053 I1.411 J-1.293
G3 X32.376 Y76.303 I-4.255 J10.555
X32.912 Y76.628 I-1.246 J2.659
G2 X33.852 Y77.245 I4.739 J-6.206
G3 X34.792 Y77.861 I-3.977 J7.092
G2 X35.402 Y78.248 I2.636 J-3.472
G3 X36.036 Y78.594 I-11.199 J21.329
G1 X36.164 Y78.674
X36.289 Y78.76
G2 X37.562 Y79.277 I1.894 J-2.836
G3 X38.56 Y79.579 I-0.859 J4.645
X39.472 Y80.082 I-2.052 J4.801
G2 X40.63 Y80.595 I1.936 J-2.807
G1 X45.272 Y81.623
G2 X46.841 Y81.871 I1.901 J-6.945
G3 X48.421 Y82.032 I-0.655 J14.219
G2 X49.077 Y82.088 I0.715 J-4.494
G3 X49.361 Y82.102 I-0.052 J4.012
G1 X49.591 Y82.121
G2 X50.683 Y82.082 I0.381 J-4.535
G3 X51.186 Y82.024 I0.934 J5.903
X51.693 Y82.015 I0.335 J4.651
G2 X52.595 Y81.958 I0.167 J-4.547
G3 X53.202 Y81.898 I0.784 J4.788
X53.812 Y81.918 I0.159 J4.362
G2 X55.124 Y81.864 I0.47 J-4.526
G1 X56.559 Y81.593
G3 X58.189 Y81.314 I9.13 J48.46
G2 X58.963 Y81.125 I-0.692 J-4.498
G3 X60.577 Y80.588 I38.148 J112.089
X62.216 Y80.135 I5.97 J18.406
G2 X63.149 Y79.77 I-0.763 J-3.324
G3 X65.561 Y78.468 I26.848 J46.837
X68.223 Y77.816 I2.723 J5.364
G2 X69.163 Y77.239 I-0.011 J-1.07
G3 X70.653 Y75.235 I6.909 J3.581
X72.729 Y73.847 I4.827 J4.975
G2 X73.066 Y73.574 I-0.318 J-0.736
G3 X75.489 Y70.798 I14.735 J10.417
X78.928 Y69.476 I3.356 J3.596
G2 X79.35 Y68.957 I0.007 J-0.425
G3 X79.552 Y66.142 I4.725 J-1.076
X80.916 Y63.671 I9.603 J3.692
G2 X81.223 Y63.053 I-1.533 J-1.147
G3 X81.664 Y61.773 I12.569 J3.609
X82.265 Y60.56 I8.162 J3.29
G2 X82.575 Y59.758 I-2.196 J-1.308
G3 X82.863 Y58.549 I17.293 J3.487
X83.282 Y57.378 I8.082 J2.232
G2 X83.555 Y56.361 I-3.117 J-1.384
G3 X83.73 Y55.097 I21.238 J2.298
X84.045 Y53.86 I7.751 J1.311
G2 X84.227 Y52.86 I-3.226 J-1.105
G3 X84.294 Y51.417 I47.449 J1.465
X84.468 Y49.984 I12.049 J0.739
X84.785 Y48.874 I5.851 J1.071
X85.221 Y47.805 I44.216 J17.423
G2 X85.134 Y46.296 I-1.576 J-0.666
X84.897 Y45.901 I-8.345 J4.732
G3 X84.663 Y45.504 I6.181 J-3.908
X83.9 Y43.413 I6.495 J-3.555
X83.561 Y41.213 I23.724 J-4.786
G2 X83.288 Y40.196 I-3.391 J0.364
G3 X82.858 Y39.003 I8.13 J-3.602
X82.569 Y37.768 I13.811 J-3.886
G2 X82.262 Y36.947 I-2.511 J0.472
G3 X81.213 Y34.353 I8.027 J-4.755
G2 X81.074 Y34.058 I-0.78 J0.186
G3 X80.822 Y33.714 I18.169 J-13.613
X80.594 Y33.355 I2.959 J-2.132
G2 X80.052 Y33.393 I-0.262 J0.146
G1 X79.844 Y33.932
G3 X79.578 Y34.443 I-2.42 J-0.934
X78.495 Y35.718 I-6.161 J-4.131
X77.077 Y36.606 I-2.952 J-3.143
G2 X76.221 Y37.074 I1.267 J3.329
G3 X75.385 Y37.575 I-2.968 J-4.001
X74.526 Y37.871 I-1.76 J-3.718
X73.626 Y38.001 I-1.298 J-5.786
G2 X73.289 Y38.563 I0.027 J0.398
G3 X75.558 Y45.042 I-35.5 J16.065
X76.504 Y51.84 I-30.207 J7.668
G1 X76.559 Y67.354
G3 X75.142 Y70.697 I-5.134 J-0.204
X71.803 Y72.126 I-3.339 J-3.188
G1 X30.242 Y72.131
G3 X25.407 Y67.527 I-0.022 J-4.818
G1 X25.464 Y51.84
G3 X25.579 Y50.539 I10.884 J0.304
G2 X25.766 Y49.246 I-175.918 J-26.217
X25.301 Y48.169 I-1.115 J-0.158
G3 X23.327 Y45.111 I2.808 J-3.978
X24.102 Y41.555 I4.539 J-0.874
X24.692 Y40.877 I3.748 J2.671
G2 X25.035 Y40.064 I-0.748 J-0.793
G3 X25.072 Y39.182 I7.297 J-0.135
G2 X24.91 Y38.84 I-0.363 J-0.037
G3 X24.369 Y38.472 I15.939 J-24.018
X23.87 Y38.049 I1.967 J-2.822
X22.937 Y36.779 I4.115 J-4.004
X22.375 Y35.305 I5.257 J-2.846
G2 X21.927 Y35.273 I-0.229 J0.054
X21.479 Y36.426 I145.093 J57.036
G3 X20.939 Y37.539 I-6.775 J-2.601
G2 X20.767 Y37.99 I1.207 J0.719
G3 X20.436 Y39.374 I-16.229 J-3.149
X19.942 Y40.707 I-8.851 J-2.523
G2 X19.817 Y41.18 I1.275 J0.589
G3 X19.588 Y42.978 I-21.799 J-1.861
X19.113 Y44.731 I-9.273 J-1.573
X18.344 Y46.376 I-11.249 J-4.252
G2 X18.265 Y47.878 I1.477 J0.831
G3 X18.72 Y49.217 I-8.237 J3.549
X19.025 Y50.599 I-21.525 J5.472
X19.121 Y51.699 I-5.529 J1.036
G2 X19.134 Y52.803 I23.432 J0.268
X19.269 Y53.528 I2.503 J-0.089
G3 X19.622 Y54.901 I-8.437 J2.9
X19.812 Y56.306 I-18.875 J3.279
G2 X19.967 Y56.889 I1.867 J-0.183
G3 X20.456 Y58.224 I-9.266 J4.148
X20.778 Y59.609 I-13.174 J3.799
G2 X20.948 Y60.07 I1.383 J-0.247
G3 X21.583 Y61.375 I-8.268 J4.83
X22.06 Y62.745 I-16.06 J6.359
G2 X22.226 Y63.072 I1.006 J-0.304
G3 X23.7 Y65.709 I-9.039 J6.785
X24.043 Y68.71 I-5.423 J2.14
G2 X24.214 Y68.978 I0.24 J0.036
G1 X24.319 Y69.009
G2 X24.622 Y68.718 I0.068 J-0.233
G3 X24.489 Y68.149 I21.239 J-5.272
X24.413 Y67.571 I3.312 J-0.729
G1 X24.439 Y51.812
G3 X24.535 Y50.817 I7.386 J0.206
G2 X24.658 Y49.826 I-12.557 J-2.068
X24.185 Y48.606 I-1.484 J-0.126
G3 X23.033 Y47.249 I4.99 J-5.405
X22.347 Y45.608 I3.995 J-2.634
X22.68 Y42.134 I5.693 J-1.207
X24.91 Y39.449 I5.568 J2.356
G2 X25.072 Y39.182 I-0.202 J-0.304
G1 X25.069 Y39.148
X25.056 Y39.117
X25.032 Y39.092
X25.002 Y39.076
X24.968 Y39.072
X23.34 Y39.139
X21.741 Y38.905
X21.704 Y38.907
X21.67 Y38.921
X21.644 Y38.947
X21.629 Y38.981
G3 X21.442 Y39.688 I-17.054 J-4.127
X20.905 Y41.134 I-9.678 J-2.773
G1 X20.879 Y41.207
X20.866 Y41.283
G3 X20.629 Y43.154 I-22.198 J-1.853
X19.367 Y46.707 I-10.904 J-1.873
G2 X19.312 Y47.646 I0.935 J0.526
G3 X19.761 Y49.005 I-8.718 J3.636
X20.065 Y50.404 I-23.846 J5.924
X20.171 Y51.583 I-6.055 J1.135
G2 X20.187 Y52.768 I27.732 J0.204
X20.264 Y53.183 I1.432 J-0.051
G3 X20.646 Y54.659 I-9.241 J3.176
X20.857 Y56.169 I-21.063 J3.722
G2 X20.943 Y56.49 I1.067 J-0.111
G3 X21.459 Y57.912 I-10.382 J4.577
X21.808 Y59.384 I-14.795 J4.283
G1 X21.824 Y59.45
X21.847 Y59.513
X21.878 Y59.573
G3 X22.504 Y60.859 I-8.98 J5.167
X22.994 Y62.202 I-19.581 J7.911
G2 X23.39 Y62.139 I0.193 J-0.063
G1 X23.303 Y54.014
G3 X23.396 Y52.108 I19.67 J-0.003
G2 X23.569 Y50.208 I-155.644 J-15.127
X23.163 Y49.083 I-1.428 J-0.121
G3 X23.135 Y39.564 I4.911 J-4.774
G2 X23.132 Y38.742 I-0.426 J-0.409
G3 X22.801 Y38.383 I6.408 J-6.235
X22.496 Y38. I4.232 J-3.689
G2 X21.873 Y38.03 I-0.302 J0.22
G1 X21.843 Y38.08
X21.818 Y38.132
X21.802 Y38.188
G3 X21.629 Y38.981 I-17.227 J-3.334
G2 X20.914 Y47.443 I27.055 J6.547
X21.687 Y55.899 I190.376 J-13.125
G1 X21.705 Y56.063
X21.714 Y56.113
X21.731 Y56.162
G3 X21.956 Y56.758 I-5.686 J2.49
X22.142 Y57.368 I-22.371 J7.166
G2 X22.536 Y57.312 I0.193 J-0.056
X22.493 Y55.663 I-31.811 J0.005
G3 X22.45 Y54.014 I31.768 J-1.654
X22.539 Y52.123 I19.901 J-0.003
G2 X22.709 Y50.237 I-182.148 J-17.362
X22.49 Y49.615 I-0.799 J-0.068
G3 X21.497 Y48.317 I5.395 J-5.157
X20.801 Y46.839 I6.755 J-4.082
G2 X20.287 Y46.803 I-0.265 J0.093
G1 X20.214 Y46.941
X20.138 Y47.078
G2 X20.12 Y47.367 I0.29 J0.163
G3 X20.587 Y48.786 I-9.946 J4.059
X20.908 Y50.246 I-22.974 J5.824
X21.021 Y51.488 I-6.468 J1.212
G2 X21.04 Y52.735 I30.92 J0.142
G1 X21.05 Y52.823
X21.072 Y52.908
G3 X21.477 Y54.468 I-9.898 J3.402
X21.687 Y55.899 I-22.383 J4.003
G1 X21.695 Y55.936 Z-0.001
X21.711 Y55.971 Z0.006
X21.729 Y55.998 Z0.028
X21.751 Y56.022 Z0.049
X21.786 Y56.047 Z0.114
X21.8 Y56.054 Z0.191
G0 Z5.
X17.368 Y75.068
Z0.273
G1 X17.375 Y75.081 Z0.197 F17.
X17.396 Y75.118 Z0.133
X17.43 Y75.172 Z0.089
X17.476 Y75.233 Z0.073
G2 X18.946 Y74.029 Z0.038 I0.735 J-0.602
X17.476 Y75.233 Z0.003 I-0.735 J0.602
X18.442 Y75.552 Z-0.009 I0.735 J-0.602
X18.158 Y74.418 I-0.142 J-0.567
X18.442 Y75.552 I0.142 J0.567
X18.158 Y74.418 I-0.142 J-0.567
G3 X17.834 Y74.477 I-0.623 J-2.488 F200.
X17.126 Y74.423 I-0.216 J-1.834
X16.466 Y74.159 I0.86 J-3.109
G2 X16.225 Y74.433 I-0.088 J0.165
X16.424 Y74.71 I17.266 J-12.201
X16.629 Y74.982 I9.029 J-6.602
X16.982 Y75.054 I0.219 J-0.17
G3 X17.273 Y74.904 I2.736 J4.945
X17.583 Y74.8 I0.577 J1.202
X17.893 Y74.761 I0.394 J1.927
X18.206 Y74.756 I0.267 J6.269
G1 X18.245 Y74.751
X18.282 Y74.736
X18.314 Y74.712
X18.372 Y74.656
G2 X18.224 Y74.4 I-0.107 J-0.109
G1 X18.158 Y74.418
X18.083 Y74.435 Z0.006
X18.02 Y74.448 Z0.049
X17.977 Y74.456 Z0.114
X17.962 Y74.459 Z0.191
G0 Z5.
X52.13 Y80.85
Z1.07
G1 Z0.191 F17.
X52.131 Y80.856 Z0.139
X52.132 Y80.876 Z0.091
X52.135 Y80.908 Z0.049
X52.138 Y80.949 Z0.018
X52.142 Y80.997 Z-0.002
X52.146 Y81.049 Z-0.009
G3 X51.747 Y81.08 I-0.199 J0.016 F200.
X51.975 Y80.866 I0.199 J-0.016
G1 X52.089 Y80.883
X52.133 Y80.884
X52.216 Y80.878
G3 X53.927 Y80.905 I0.703 J9.551
G2 X54.925 Y80.864 I0.359 J-3.392
G1 X56.164 Y80.628
G3 X58.04 Y80.306 I9.665 J50.722
G2 X58.628 Y80.162 I-0.514 J-3.371
G3 X60.283 Y79.611 I34.675 J101.466
X61.965 Y79.147 I6.155 J19.016
G2 X62.656 Y78.878 I-0.572 J-2.491
G3 X64.969 Y77.637 I26.134 J45.934
X67.474 Y76.858 I3.575 J7.08
G2 X68.623 Y76.152 I-0.225 J-1.655
X69.099 Y75.444 I-27.142 J-18.748
G3 X69.643 Y74.787 I3.157 J2.062
X70.435 Y74.111 I6.148 J6.398
X71.284 Y73.508 I10.408 J13.747
G2 X71.148 Y73.06 I-0.136 J-0.204
G1 X30.331 Y73.065
G2 X30.18 Y73.519 I0. J0.252
X31.058 Y74.167 I57.293 J-76.723
G3 X31.87 Y74.896 I-3.176 J4.356
G2 X32.166 Y75.101 I0.593 J-0.54
G3 X32.875 Y75.409 I-4.727 J11.848
X33.536 Y75.811 I-1.559 J3.308
G2 X35.168 Y76.884 I8.365 J-10.953
G3 X36.836 Y77.9 I-12.909 J23.054
G2 X37.77 Y78.279 I1.41 J-2.131
G3 X38.951 Y78.638 I-1.071 J5.652
X40.034 Y79.231 I-2.454 J5.766
G2 X40.883 Y79.607 I1.442 J-2.11
X45.259 Y80.523 I18.503 J-77.511
X49.691 Y81.107 I8.398 J-46.621
X50.515 Y81.076 I0.286 J-3.399
G3 X52.133 Y80.884 I3.179 J19.881
G2 X52.853 Y80.333 I-0.065 J-0.83
G3 X53.61 Y79.833 I0.709 J0.252
X54.018 Y79.867 I-0.677 J10.598
G2 X54.749 Y79.837 I0.261 J-2.542
G1 X56.315 Y79.544
G2 X58.072 Y79.164 I-5.984 J-31.961
X59.871 Y78.648 I-5.706 J-23.281
G3 X61.675 Y78.145 I6.323 J19.176
G2 X62.181 Y77.95 I-0.428 J-1.866
G3 X64.623 Y76.657 I29.246 J52.309
X67.262 Y75.835 I3.835 J7.67
G2 X67.805 Y75.504 I-0.112 J-0.794
G1 X68.098 Y75.09
G3 X68.478 Y74.593 I6.975 J4.934
G2 X68.246 Y74.102 I-0.232 J-0.191
G1 X33.505 Y74.106
G2 X33.395 Y74.534 I0. J0.228
G1 X37.422 Y77.038
G2 X37.951 Y77.253 I0.793 J-1.194
G3 X39.318 Y77.663 I-1.243 J6.635
X40.575 Y78.339 I-2.859 J6.819
G2 X41.194 Y78.61 I1.066 J-1.59
X45.447 Y79.501 I17.414 J-72.557
X49.756 Y80.067 I8.201 J-45.768
X50.366 Y80.045 I0.214 J-2.547
G3 X52.186 Y79.838 I3.327 J21.164
X53.61 Y79.833 I0.747 J10.593
G2 X54.375 Y79.369 I0.05 J-0.781
G3 X55.078 Y78.815 I0.878 J0.389
G2 X56.232 Y78.595 I-23.75 J-127.734
X57.845 Y78.24 I-6.667 J-34.139
X59.645 Y77.726 I-5.947 J-24.265
G3 X61.449 Y77.226 I6.482 J19.874
G2 X61.73 Y77.118 I-0.24 J-1.045
G3 X63.432 Y76.245 I13.569 J24.374
X65.176 Y75.46 I25.14 J53.485
G2 X65.091 Y75.048 I-0.085 J-0.197
G1 X36.743 Y75.052
G2 X36.628 Y75.486 I0. J0.232
X37.285 Y75.851 I30.487 J-54.06
G3 X37.928 Y76.239 I-4.396 J8.02
G1 X37.996 Y76.278
X38.069 Y76.308
X38.146 Y76.328
G3 X39.678 Y76.788 I-1.441 J7.566
X41.088 Y77.545 I-3.226 J7.709
G2 X41.433 Y77.695 I0.595 J-0.892
X46.016 Y78.703 I28.791 J-119.958
X50.702 Y78.966 I3.264 J-16.31
G3 X52.39 Y78.867 I2.664 J31.044
X54.08 Y78.923 I0.412 J13.142
G2 X54.609 Y78.901 I0.186 J-1.905
X55.078 Y78.815 I-23.281 J-127.82
X55.708 Y78.193 I-0.145 J-0.778
G3 X56.328 Y77.561 I0.796 J0.16
G2 X57.596 Y77.262 I-11.484 J-51.505
X60.734 Y76.41 I-18.729 J-75.211
X60.678 Y76.019 I-0.056 J-0.191
G1 X41.293 Y76.021
G2 X41.173 Y76.456 I0. J0.234
G1 X41.385 Y76.583
X41.593 Y76.715
X41.644 Y76.743
X41.699 Y76.761
G2 X46.228 Y77.739 I23.459 J-97.743
X50.855 Y77.979 I3.183 J-16.597
G3 X52.523 Y77.892 I2.142 J24.966
X54.192 Y77.959 I0.267 J14.094
G1 X54.305 Y77.962
X54.417 Y77.95
G2 X56.328 Y77.561 I-9.573 J-51.894
G1 X56.363 Y77.546
X56.389 Y77.519
X56.404 Y77.485
X56.405 Y77.447
X56.392 Y77.412
X56.367 Y77.384
X55.277 Y76.556
X55.241 Y76.538
X55.202 Y76.536
X55.165 Y76.549
X54.202 Y77.119
X54.175 Y77.142
X54.158 Y77.173
X54.153 Y77.209
X54.161 Y77.244
X54.18 Y77.273
X54.209 Y77.295
X54.243 Y77.304
X54.278 Y77.305
X54.312 Y77.301
X55.71 Y77.05
G2 X55.677 Y76.676 I-0.033 J-0.186
G1 X45.811 Y76.677
G2 X45.766 Y77.062 I0. J0.195
X46.049 Y77.126 I2.726 J-11.356
X46.335 Y77.181 I1.368 J-6.399
X47.421 Y77.26 I0.962 J-5.733
G3 X48.509 Y77.293 I0.224 J10.5
X48.83 Y77.331 I-0.359 J4.351
G2 X49.15 Y77.37 I0.724 J-4.684
X49.976 Y77.382 I0.504 J-5.896
X50.799 Y77.325 I-1.434 J-26.374
G3 X52.521 Y77.235 I2.183 J25.436
X54.243 Y77.304 I0.268 J14.861
G1 X54.282 Z-0.001
X54.319 Y77.297 Z0.006
X54.349 Y77.286 Z0.028
X54.377 Y77.269 Z0.049
X54.41 Y77.241 Z0.114
X54.42 Y77.229 Z0.191
G0 Z5.
X77.558 Y68.114
Z1.07
G1 Z0.191 F17.
X77.551 Y68.113 Z0.139
X77.532 Y68.11 Z0.091
X77.5 Y68.105 Z0.049
X77.459 Y68.099 Z0.018
X77.412 Y68.092 Z-0.002
X77.36 Y68.084 Z-0.009
G2 X77.301 Y68.48 I-0.03 J0.198 F200.
X77.421 Y68.46 I0.03 J-0.198
G1 X77.728 Y68.305
G2 X77.547 Y67.948 I-0.091 J-0.178
X77.44 Y68.096 I0.091 J0.178
G1 X77.428 Y68.174
G2 X77.816 Y68.553 I0.329 J0.051
G1 X77.936 Y68.532
G2 X78.218 Y68.185 I-0.051 J-0.329
G3 X78.701 Y65.472 I6.019 J-0.328
X80.081 Y63.087 I10.776 J4.643
G2 X80.251 Y62.746 I-0.859 J-0.642
G3 X80.721 Y61.384 I14.639 J4.289
X81.358 Y60.091 I8.557 J3.413
G2 X81.585 Y59.51 I-1.646 J-0.978
G3 X81.907 Y58.191 I21.259 J4.495
X82.372 Y56.916 I8.304 J2.306
G2 X82.537 Y56.306 I-1.741 J-0.795
G3 X82.724 Y54.914 I18.863 J1.836
X83.073 Y53.553 I8.718 J1.507
G2 X83.209 Y52.812 I-2.418 J-0.828
G3 X83.419 Y50.311 I25.372 J0.866
X84.079 Y47.89 I9.357 J1.252
G2 X84.001 Y46.358 I-1.624 J-0.686
G1 X83.892 Y46.172
X83.783 Y45.986
G3 X82.939 Y43.723 I7.393 J-4.047
X82.549 Y41.339 I22.975 J-4.975
G2 X82.349 Y40.593 I-2.54 J0.282
G3 X81.881 Y39.291 I9.289 J-4.077
X81.565 Y37.943 I14.175 J-4.031
G2 X81.39 Y37.475 I-1.409 J0.261
G3 X80.954 Y36.573 I5.177 J-3.057
G2 X80.586 Y35.641 I-48.902 J18.778
X79.988 Y35.548 I-0.327 J0.133
G3 X79.65 Y35.95 I-64.585 J-53.867
X79.286 Y36.329 I-3.179 J-2.685
X77.942 Y37.248 I-3.855 J-4.197
G2 X76.538 Y38.073 I4.793 J9.765
G3 X75.848 Y38.453 I-2.171 J-3.133
X75.11 Y38.731 I-4.064 J-9.641
G2 X74.772 Y39.451 I0.175 J0.522
X75.026 Y40.054 I9.783 J-3.773
G3 X75.281 Y40.658 I-9.528 J4.376
X76.782 Y46.015 I-27.406 J10.569
X77.507 Y51.531 I-57.279 J10.327
G1 X77.527 Y67.191
G3 X77.497 Y67.684 I-3.992 J0.
X77.44 Y68.096 I-15.757 J-1.962
G1 X77.438 Y68.134 Z-0.001
X77.444 Y68.172 Z0.006
X77.454 Y68.203 Z0.028
X77.469 Y68.232 Z0.049
X77.496 Y68.265 Z0.114
X77.507 Y68.276 Z0.191
G0 Z5.
X77.037 Y42.488
Z1.07
G1 Z0.191 F17.
X77.031 Y42.49 Z0.139
X77.011 Y42.495 Z0.091
X76.981 Y42.504 Z0.049
X76.941 Y42.516 Z0.018
X76.895 Y42.53 Z-0.002
X76.846 Y42.545 Z-0.009
G2 X76.961 Y42.928 I0.058 J0.192 F200.
X77.056 Y42.866 I-0.058 J-0.192
G1 X77.292 Y42.586
G2 X76.986 Y42.328 I-0.153 J-0.129
X76.947 Y42.515 I0.153 J0.129
G3 X77.179 Y43.322 I-32.043 J9.634
X77.963 Y46.612 I-49.307 J13.485
X78.647 Y54.665 I-34.197 J6.961
G2 X78.52 Y62.746 I257.906 J8.078
X78.975 Y62.88 I0.247 J0.
G3 X79.231 Y62.514 I5.712 J3.715
G1 X79.261 Y62.465
X79.283 Y62.411
G3 X79.797 Y60.947 I16.708 J5.043
X80.485 Y59.557 I9.288 J3.731
G2 X80.581 Y59.311 I-0.689 J-0.41
G3 X80.923 Y57.912 I20.678 J4.326
X81.411 Y56.557 I9.769 J2.75
G2 X81.525 Y56.133 I-1.311 J-0.58
G3 X81.736 Y54.654 I22.83 J2.502
X82.109 Y53.207 I9.451 J1.663
G2 X82.185 Y52.789 I-1.356 J-0.465
G3 X82.366 Y50.324 I30.027 J0.967
X82.957 Y47.924 I9.72 J1.118
G2 X82.864 Y46.412 I-1.701 J-0.655
G3 X81.971 Y44.016 I8.515 J-4.537
X81.537 Y41.496 I23.522 J-5.354
G2 X81.394 Y40.964 I-1.901 J0.225
G3 X80.908 Y39.599 I10.373 J-4.463
X80.57 Y38.189 I16.469 J-4.698
G2 X80.477 Y37.943 I-0.787 J0.154
G3 X80.261 Y37.532 I5.245 J-3.026
G2 X79.59 Y37.382 I-0.395 J0.189
G3 X78.063 Y38.405 I-6.255 J-7.679
X76.441 Y39.269 I-49.72 J-91.508
G2 X76.123 Y40.109 I0.311 J0.598
G3 X76.947 Y42.515 I-31.219 J12.04
G2 X77.596 Y43.078 I0.769 J-0.231
G3 X78.229 Y43.659 I-0.115 J0.761
G1 X78.892 Y46.422
G3 X79.469 Y52.145 I-28.118 J5.723
G1 Y58.385
G2 X79.828 Y58.436 I0.183 J0.
X80.147 Y57.29 I-90.032 J-25.722
G3 X80.546 Y56.168 I7.579 J2.061
G1 X80.569 Y56.103
X80.581 Y56.036
G3 X80.804 Y54.472 I23.676 J2.576
X81.197 Y52.943 I10.17 J1.795
G1 X81.218 Y52.868
X81.232 Y52.792
X81.239 Y52.715
G3 X81.434 Y50.22 I31.581 J1.211
X81.999 Y47.781 I11.317 J1.337
G2 X81.931 Y46.67 I-1.352 J-0.475
G3 X81.049 Y44.202 I10.13 J-5.013
X80.596 Y41.621 I23.782 J-5.496
G2 X80.518 Y41.327 I-1.065 J0.128
G3 X80.131 Y40.214 I7.709 J-3.299
G2 X79.815 Y39.079 I-70.033 J18.916
X79.161 Y38.818 I-0.428 J0.123
G3 X78.388 Y39.222 I-4.601 J-7.85
G2 X77.632 Y39.656 I2.143 J4.622
X77.307 Y40.618 I0.485 J0.7
X77.62 Y41.47 I11.048 J-3.585
G3 X77.91 Y42.33 I-6.261 J2.588
G1 X78.229 Y43.659
G2 X78.841 Y44.204 I0.698 J-0.167
G3 X79.453 Y44.749 I-0.084 J0.711
X79.827 Y46.721 I-20.947 J4.989
X80.012 Y48.371 I-28.429 J4.023
G1 X80.179 Y50.382
G2 X80.542 Y50.395 I0.182 J-0.015
G3 X80.791 Y48.936 I45.781 J7.052
X81.172 Y47.506 I9.64 J1.802
G2 X81.144 Y47.044 I-0.566 J-0.197
G3 X80.219 Y44.46 I10.832 J-5.336
X79.736 Y41.758 I25.23 J-5.904
G1 X79.724 Y41.697
X79.704 Y41.639
G3 X79.478 Y41.028 I6.453 J-2.729
X79.29 Y40.405 I22.82 J-7.24
G2 X78.594 Y40.067 I-0.5 J0.144
G1 X78.546 Y40.089
X78.5 Y40.116
X78.413 Y40.174
G2 X78.242 Y40.679 I0.255 J0.367
G3 X79.166 Y43.666 I-106.727 J34.628
X79.453 Y44.749 I-20.659 J6.072
G1 X79.465 Y44.785 Z-0.001
X79.483 Y44.819 Z0.006
X79.503 Y44.845 Z0.028
X79.526 Y44.866 Z0.049
X79.563 Y44.889 Z0.114
X79.577 Y44.895 Z0.191
G0 Z5.
X76.778 Y24.809
Z1.07
G1 Z0.191 F17.
X76.773 Y24.813 Z0.139
X76.756 Y24.825 Z0.091
X76.73 Y24.843 Z0.049
X76.696 Y24.866 Z0.018
X76.657 Y24.894 Z-0.002
X76.614 Y24.924 Z-0.009
G2 X76.843 Y25.252 I0.115 J0.164 F200.
X76.902 Y25.188 I-0.114 J-0.164
G1 X77.139 Y24.779
G2 X76.793 Y24.578 I-0.173 J-0.1
X76.802 Y24.793 I0.173 J0.1
G1 X76.836 Y24.843
G2 X77.373 Y24.777 I0.252 J-0.17
G1 X77.398 Y24.711
X77.41 Y24.68
G2 X77.05 Y24.26 I-0.293 J-0.114
G1 X76.99 Y24.273
G2 X76.792 Y24.779 I0.069 J0.319
G1 X76.802 Y24.793
X76.826 Y24.822 Z-0.001
X76.856 Y24.846 Z0.006
X76.885 Y24.861 Z0.028
X76.915 Y24.872 Z0.049
X76.958 Y24.878 Z0.114
X76.973 Z0.191
G0 Z5.
X25.451 Y24.77
Z1.07
G1 Z0.191 F17.
X25.457 Y24.773 Z0.139
X25.474 Y24.783 Z0.091
X25.502 Y24.798 Z0.049
X25.538 Y24.818 Z0.018
X25.58 Y24.842 Z-0.002
X25.626 Y24.867 Z-0.009
G2 X25.819 Y24.517 I0.097 J-0.175 F200.
X25.751 Y24.494 I-0.097 J0.175
G1 X25.193 Y24.414
G2 X25.137 Y24.81 I-0.028 J0.198
X25.34 Y24.709 I0.028 J-0.198
X25.084 Y24.567 I-0.128 J-0.071
X25.34 Y24.709 I0.128 J0.071
G1 X25.352 Y24.672
X25.349 Y24.634
X25.333 Y24.6
X21.387 Y19.343
X21.37 Y19.309
X21.367 Y19.272
X21.378 Y19.236
X21.401 Y19.207
X21.434 Y19.189
X21.471 Y19.183
X21.507 Y19.192
X21.616 Y19.243
G3 X22.067 Y19.506 I-1.744 J3.511
G2 X22.402 Y19.151 I0.138 J-0.205
G1 X21.971 Y18.583
X21.934 Y18.541
X21.89 Y18.507
X21.84 Y18.48
X21.787 Y18.462
X21.693 Y18.436
X21.601 Y18.406
X21.418 Y18.341
G2 X21.073 Y18.414 I-0.114 J0.313
G1 X21.025 Y18.46
X20.979 Y18.506
G2 X21.13 Y19.055 I0.242 J0.229
G3 X21.507 Y19.192 I-0.781 J2.74
G1 X21.531 Y19.207
X21.55 Y19.228
X26.886 Y27.265
X26.903 Y27.285
X26.926 Y27.3
X26.952 Y27.308
G2 X27.821 Y27.012 Z-0.043 I0.166 J-0.935 F17.
G1 X28.528 Y26.235 F200.
X28.579 Y26.183
X28.666 Y26.105
X28.714 Y26.065
X28.765 Y26.029
X28.848 Y25.976
X28.872 Y25.929
X28.911 Y25.861
X28.956 Y25.797
X29.041 Y25.691
X29.079 Y25.646
X29.121 Y25.605
X30.181 Y24.635
X30.262 Y24.57
X30.326 Y24.526
X30.379 Y24.492
X30.435 Y24.464
X30.518 Y24.425
X30.569 Y24.342
X30.651 Y24.226
X30.699 Y24.165
X30.753 Y24.11
X31.434 Y23.478
X31.494 Y23.429
X31.596 Y23.352
X31.659 Y23.31
X31.726 Y23.274
X31.759 Y23.258
X31.766 Y23.251
X31.843 Y23.181
X32.923 Y22.328
X32.979 Y22.288
X33.133 Y22.188
X33.208 Y22.145
X33.288 Y22.111
X33.442 Y22.056
X33.519 Y22.032
X33.597 Y22.018
X33.612 Y22.016
X33.664 Y21.93
X33.742 Y21.817
X33.786 Y21.76
X33.835 Y21.707
X33.944 Y21.6
X33.998 Y21.553
X34.056 Y21.511
X35.198 Y20.76
X35.252 Y20.728
X35.396 Y20.65
X35.468 Y20.616
X35.544 Y20.589
X35.597 Y20.574
X35.608 Y20.561
X35.718 Y20.443
X35.769 Y20.392
X35.825 Y20.346
X35.928 Y20.271
X35.979 Y20.237
X36.033 Y20.207
X36.856 Y19.791
X36.884 Y19.778
X37.089 Y19.684
X37.166 Y19.654
X37.245 Y19.633
X37.4 Y19.6
X37.497 Y19.586
X37.514 Y19.566
X37.571 Y19.505
X37.634 Y19.452
X37.769 Y19.349
X37.826 Y19.309
X37.887 Y19.276
X39.072 Y18.68
X39.131 Y18.654
X39.193 Y18.632
X39.345 Y18.587
X39.421 Y18.568
X39.499 Y18.558
X39.542 Y18.554
X39.591 Y18.509
X39.651 Y18.459
X39.717 Y18.415
X39.846 Y18.339
X39.911 Y18.304
X39.98 Y18.276
X40.187 Y18.204
X40.254 Y18.184
X40.323 Y18.17
X40.477 Y18.147
X40.54 Y18.14
X40.603 Y18.138
X40.895 Y17.982
X40.961 Y17.95
X41.031 Y17.925
X41.176 Y17.881
X41.234 Y17.866
X41.293 Y17.856
X41.826 Y17.783
X41.905 Y17.777
X41.985 Y17.779
X42.135 Y17.791
X42.198 Y17.798
X42.26 Y17.811
X42.728 Y17.93
X42.801 Y17.953
X42.872 Y17.982
X43.026 Y18.057
X43.091 Y18.093
X43.153 Y18.135
X43.519 Y18.414
X43.585 Y18.471
X43.624 Y18.508
X43.67 Y18.106
X43.795 Y16.896
X43.85 Y15.683
Y15.671
X43.872 Y15.31
X43.881 Y15.233
X43.898 Y15.158
X43.996 Y14.797
X44.019 Y14.729
X44.077 Y14.575
X44.113 Y14.495
X44.158 Y14.42
X44.246 Y14.292
X44.296 Y14.226
X44.353 Y14.166
X44.707 Y13.836
X44.759 Y13.791
X44.816 Y13.752
X44.919 Y13.686
X45.013 Y13.635
X45.474 Y13.427
X45.531 Y13.404
X45.591 Y13.386
X46.21 Y13.222
X46.291 Y13.205
X47.166 Y13.075
X47.212 Y13.069
X48.035 Y12.999
X48.065 Y12.997
X49.3 Y12.94
X49.324 Y12.939
X50.97 Y12.917
X50.987
X52.222 Y12.928
X52.24 Y12.929
X53.474 Y12.97
X53.502 Y12.972
X53.913 Y13.001
X53.924
X54.747 Y13.072
X54.786 Y13.076
X55.506 Y13.175
X55.585 Y13.19
X56.359 Y13.383
X56.429 Y13.404
X56.497 Y13.432
X57.009 Y13.672
X57.059 Y13.698
X57.107 Y13.728
X57.218 Y13.802
X57.28 Y13.848
X57.337 Y13.901
X57.623 Y14.193
X57.681 Y14.261
X57.779 Y14.388
X57.83 Y14.462
X57.871 Y14.543
X57.937 Y14.694
X57.962 Y14.759
X57.981 Y14.825
X58.077 Y15.237
X58.09 Y15.305
X58.096 Y15.374
X58.127 Y16.071
X58.484 Y19.335
X58.558 Y19.923
X60.228 Y18.357
X60.273 Y18.319
X60.32 Y18.284
X60.435 Y18.206
X60.501 Y18.166
X60.57 Y18.133
X60.724 Y18.07
X60.801 Y18.043
X60.88 Y18.024
X61.034 Y17.997
X61.112 Y17.987
X61.19 Y17.986
X61.344 Y17.991
X61.422 Y17.998
X61.499 Y18.012
X61.654 Y18.051
X61.72 Y18.07
X61.783 Y18.096
X61.989 Y18.189
X62.062 Y18.227
X62.131 Y18.273
X62.258 Y18.369
X62.313 Y18.415
X62.364 Y18.466
X62.449 Y18.56
X62.489 Y18.608
X62.524 Y18.659
X62.59 Y18.762
X62.626 Y18.825
X62.655 Y18.891
X62.716 Y19.045
X62.741 Y19.122
X62.758 Y19.201
X62.783 Y19.355
X62.79 Y19.411
X62.793 Y19.466
X62.808 Y19.458
X62.951 Y19.375
X63.025 Y19.338
X63.102 Y19.309
X63.256 Y19.261
X63.333 Y19.241
X63.411 Y19.23
X63.566 Y19.216
X63.643 Y19.213
X63.721 Y19.218
X63.875 Y19.236
X63.954 Y19.249
X64.031 Y19.271
X64.185 Y19.323
X64.245 Y19.347
X64.303 Y19.376
X65.559 Y20.064
X65.62 Y20.101
X65.676 Y20.143
X65.797 Y20.243
X65.854 Y20.295
X65.905 Y20.353
X65.912 Y20.361
X66.054 Y20.391
X66.13 Y20.412
X66.203 Y20.44
X66.358 Y20.509
X66.412 Y20.536
X66.463 Y20.567
X67.635 Y21.335
X67.682 Y21.369
X67.726 Y21.406
X67.829 Y21.499
X67.881 Y21.55
X67.927 Y21.606
X67.944 Y21.628
X68.038 Y21.659
X68.183 Y21.717
X68.25 Y21.748
X68.313 Y21.785
X69.085 Y22.288
X69.135 Y22.324
X69.196 Y22.371
X69.241 Y22.408
X69.282 Y22.449
X69.388 Y22.561
X69.433 Y22.614
X69.473 Y22.671
X69.54 Y22.776
X69.576 Y22.839
X69.606 Y22.905
X69.641 Y22.913
X69.795 Y22.954
X69.875 Y22.98
X69.951 Y23.015
X70.105 Y23.097
X70.169 Y23.134
X70.228 Y23.177
X71.322 Y24.065
X71.39 Y24.127
X71.483 Y24.224
X71.532 Y24.279
X71.574 Y24.339
X71.661 Y24.474
X71.701 Y24.545
X71.733 Y24.62
X71.79 Y24.775
X71.814 Y24.851
X71.829 Y24.93
X71.85 Y25.085
X71.857 Y25.162
X71.856 Y25.24
X71.845 Y25.394
X71.835 Y25.473
X71.817 Y25.55
X71.802 Y25.603
X71.864 Y25.596
X71.927 Y25.594
X72.075
X72.147 Y25.598
X72.218 Y25.609
X72.779 Y25.722
X72.865 Y25.745
X72.944 Y25.771
X72.999 Y25.791
X73.051 Y25.815
X73.183 Y25.882
X73.242 Y25.916
X73.299 Y25.956
X73.859 Y26.386
X73.935 Y26.453
X74.043 Y26.562
X74.093 Y26.618
X74.137 Y26.678
X74.51 Y27.247
X74.553 Y27.321
X74.631 Y27.475
X74.664 Y27.551
X74.688 Y27.631
X74.727 Y27.785
X74.739 Y27.841
X74.746 Y27.897
X74.795 Y28.41
X74.819 Y28.407
X74.896 Y28.403
X74.973 Y28.406
X75.127 Y28.422
X75.206 Y28.434
X75.283 Y28.454
X75.437 Y28.503
X75.516 Y28.533
X75.59 Y28.572
X75.739 Y28.66
X75.807 Y28.705
X75.869 Y28.757
X75.979 Y28.86
X76.034 Y28.918
X76.083 Y28.981
X76.226 Y29.187
X76.269 Y29.255
X76.303 Y29.328
X76.364 Y29.476
X76.39 Y29.549
X76.621 Y29.787
X76.669 Y29.841
X76.711 Y29.9
X76.786 Y30.016
X76.817 Y30.067
X76.843 Y30.121
X77.055 Y30.597
X77.08 Y30.661
X77.099 Y30.728
X77.136 Y30.882
X77.149 Y30.955
X77.156 Y31.029
X77.174 Y31.544
X77.173 Y31.623
X77.163 Y31.702
X77.136 Y31.856
X77.12 Y31.926
X77.097 Y31.995
X76.918 Y32.458
X76.884 Y32.534
X76.841 Y32.606
X76.748 Y32.745
X76.709 Y32.798
X76.666 Y32.847
X76.405 Y33.119
X76.372 Y33.152
X76.275 Y33.24
X76.218 Y33.288
X76.156 Y33.33
X76.008 Y33.42
X75.948 Y33.452
X75.886 Y33.479
X75.475 Y33.636
X75.402 Y33.659
X75.327 Y33.675
X75.209 Y33.694
X75.148 Y33.756
X75.098 Y33.802
X75.043 Y33.843
X74.073 Y34.516
X74.02 Y34.549
X73.966 Y34.578
X73.831 Y34.642
X73.76 Y34.671
X73.686 Y34.693
X73.531 Y34.73
X73.454 Y34.744
X73.376 Y34.75
X73.222 Y34.754
X73.144 Y34.752
X73.066 Y34.742
X72.912 Y34.714
X72.833 Y34.695
X72.756 Y34.667
X72.602 Y34.602
X72.536 Y34.571
X72.474 Y34.533
X72.371 Y34.463
X72.315 Y34.422
X72.263 Y34.375
X72.152 Y34.265
X72.107 Y34.216
X72.066 Y34.163
X71.958 Y34.009
X71.922 Y33.953
X71.891 Y33.894
X71.82 Y33.74
X71.785 Y33.651
X71.625 Y33.49
X71.581 Y33.442
X71.541 Y33.39
X71.47 Y33.289
X71.434 Y33.231
X71.403 Y33.17
X71.214 Y32.757
X71.178 Y32.659
X71.132 Y32.504
X71.113 Y32.427
X71.103 Y32.348
X71.099 Y32.294
X71.028 Y32.26
X70.961 Y32.225
X70.899 Y32.183
X70.796 Y32.105
X70.747 Y32.065
X70.701 Y32.02
X69.89 Y31.158
X69.828 Y31.082
X69.754 Y30.979
X69.719 Y30.927
X69.689 Y30.872
X69.659 Y30.811
X69.592 Y30.768
X69.478 Y30.688
X69.419 Y30.642
X69.365 Y30.59
X68.396 Y29.564
X68.344 Y29.504
X68.255 Y29.387
