(1001)
(T1  D=2. CR=0. - ZMIN=-2.928 - FLAT END MILL)
G0 G90 G94 G17
G21
G53 G0 Z0.

(2MM  FLATEND  RAMP)
M5
M9
T1
S12000 M3
G4 P4.
G55
G0 X6.399 Y43.946
Z15.
Z1.935
G1 Z-0.065 F200.
G3 X6.728 Y44.113 I0.13 J0.152
G1 X6.572 Y46.187 Z-0.081
X6.559 Y46.376 Z-0.083
X6.537 Y47.247 Z-0.09
X6.501 Y48.659 Z-0.1
X6.559 Y50.939 Z-0.118
X6.572 Y51.131 Z-0.119
X6.729 Y53.205 Z-0.135
X6.572 Y51.131
X6.559 Y50.939
X6.501 Y48.659
X6.537 Y47.247
X6.559 Y46.376
X6.572 Y46.187
X6.728 Y44.113
G3 X6.948 Y43.929 I0.199 J0.015
G0 Z5.
X95.583 Y44.145
Z1.935
G1 Z-0.065 F200.
G3 X95.226 Y44.047 I-0.158 J-0.123
G1 X95.218 Y43.98
X94.962 Y41.95 Z-0.066
X94.906 Y41.597 Z-0.067
X94.561 Y39.655 Z-0.068
X94.552 Y39.611
X94.543 Y39.567
X94.533 Y39.522
X94.118 Y37.713 Z-0.069
X94.032 Y37.36
X93.534 Y35.594 Z-0.07
X93.431 Y35.241
X92.837 Y33.475 Z-0.071
X92.713 Y33.122
X92.022 Y31.357 Z-0.072
X91.877 Y31.014
X91.081 Y29.238 Z-0.073
X90.903 Y28.885
X90.114 Y27.333 Z-0.074
X89.996 Y27.119
X89.057 Y25.472 Z-0.075
X88.987 Y25.354
X88.763 Y25.001
X87.865 Y23.588 Z-0.076
X87.646 Y23.277
X86.621 Y21.823 Z-0.077
X86.589 Y21.78
X86.347 Y21.47 Z-0.078
X85.522 Y20.41
X85.243 Y20.057
X85.179 Y19.982 Z-0.079
X84.03 Y18.645
X83.768 Y18.352 Z-0.08
X82.711 Y17.233
X82.373 Y16.879 Z-0.081
X82.006 Y16.526
X80.905 Y15.467 Z-0.082
X80.595 Y15.193
X80.078 Y14.74
X80.055 Y14.761
X80.077 Y14.804
X80.096 Y14.847
X80.119 Y14.906
X80.134 Y14.955
X80.154 Y15.034
X80.167 Y15.114
X80.172 Y15.158
X80.174 Y15.202
X80.175 Y15.246
X80.173 Y15.29
X80.17 Y15.334
X80.164 Y15.379 Z-0.083
X80.157 Y15.423
X80.148 Y15.467
X80.136 Y15.511
X80.122 Y15.555
X80.106 Y15.599
X80.088 Y15.643
X80.067 Y15.688
X80.043 Y15.732
X80.016 Y15.776
X79.986 Y15.82
X79.89 Y15.951
X79.838 Y16.016
X79.809 Y16.048
X79.776 Y16.08
X79.719 Y16.13
X79.662 Y16.173
X79.6 Y16.214
X79.538 Y16.248
X79.494 Y16.269
X79.45 Y16.287
X79.405 Y16.303
X79.361 Y16.317
X79.317 Y16.328
X79.273 Y16.337
X79.229 Y16.345
X79.185 Y16.35
X79.141 Y16.353
X79.097 Y16.355
X79.053 Y16.354
X79.009 Y16.352
X78.965 Y16.347
X78.921 Y16.341
X78.877 Y16.332
X78.833 Y16.322
X78.752 Y16.297
X78.712 Y16.282
X78.692 Y16.28
X76.812 Y18.843 Z-0.085
X76.805 Y18.866
X76.84 Y18.91
X76.871 Y18.954
X76.899 Y18.998
X76.924 Y19.042
X76.946 Y19.086
X76.965 Y19.13
X76.982 Y19.175
X76.996 Y19.219
X77.009 Y19.263
X77.019 Y19.307
X77.027 Y19.351
X77.033 Y19.395
X77.037 Y19.439
X77.039 Y19.484
Y19.528
X77.037 Y19.572
X77.034 Y19.616
X77.028 Y19.66 Z-0.086
X77.02 Y19.704
X77.01 Y19.748
X76.998 Y19.792
X76.984 Y19.837
X76.968 Y19.881
X76.949 Y19.925
X76.927 Y19.969
X76.903 Y20.013
X76.876 Y20.057
X76.799 Y20.166
X76.717 Y20.275
X76.684 Y20.312
X76.647 Y20.349
X76.613 Y20.381
X76.578 Y20.41
X76.524 Y20.45
X76.471 Y20.484
X76.418 Y20.514
X76.365 Y20.54
X76.321 Y20.559
X76.277 Y20.575
X76.232 Y20.589
X76.188 Y20.6
X76.144 Y20.61
X76.1 Y20.617
X76.056 Y20.623
X76.012 Y20.626
X75.968 Y20.628
X75.924
X75.88 Y20.625
X75.836 Y20.621
X75.792 Y20.615
X75.748 Y20.606
X75.704 Y20.596
X75.66 Y20.584
X75.577 Y20.554
X75.536 Y20.536
X75.495 Y20.516 Z-0.087
X75.454 Y20.494
X75.413 Y20.469
X75.331 Y20.41
X73.085 Y18.734 Z-0.088
X73.032 Y18.693
X72.978 Y18.645
X72.944 Y18.61
X72.926 Y18.598
X72.909 Y18.588
X72.839 Y18.547
X72.493 Y18.292
X70.602 Y16.879 Z-0.09
X70.487 Y16.793
X70.429 Y16.744
X70.371 Y16.687
X70.327 Y16.636
X70.305 Y16.608
X70.283
X70.239 Y16.613
X70.195 Y16.615
X70.151 Y16.616
X70.107 Y16.615
X70.063 Y16.612
X70.019 Y16.607
X69.949 Y16.595
X69.879 Y16.578
X69.809 Y16.555
X69.74 Y16.526
X69.666 Y16.49
X69.578 Y16.445
X69.534 Y16.422
X69.49 Y16.396
X69.446 Y16.367
X69.402 Y16.334
X69.358 Y16.297
X69.314 Y16.255
X69.275 Y16.214
X69.241 Y16.173
X69.214 Y16.138
X69.189 Y16.103
X69.146 Y16.032
X69.115 Y15.97
X69.102 Y15.94
X69.096 Y15.926
X69.078 Y15.913 Z-0.091
X69.054 Y15.909
X68.597 Y15.82
X68.512 Y15.802
X68.426 Y15.777
X68.256 Y15.71
X67.903 Y15.566
X67.665 Y15.467
X67.608 Y15.439
X67.551 Y15.407
X67.198 Y15.184 Z-0.092
X67.087 Y15.114
X66.966 Y15.034
X66.906 Y14.986
X66.846 Y14.931
X66.493 Y14.603
X66.393 Y14.505
X66.351 Y14.456
X66.314 Y14.408
X65.991 Y13.966
X65.96 Y13.922
X65.932 Y13.878
X65.907 Y13.834
X65.885 Y13.79
X65.678 Y13.348 Z-0.093
X65.637 Y13.26
X65.619 Y13.216
X65.603 Y13.172
X65.556 Y12.995
X65.47 Y12.642
X65.435 Y12.498
X65.432 Y12.481
X65.426 Y12.438
X65.418 Y12.363
X65.415 Y12.289
X65.395
X65.344 Y12.363
X65.292 Y12.438
X65.258 Y12.481
X65.201 Y12.544
X65.145 Y12.597
X65.09 Y12.642 Z-0.094
X65.083 Y12.647
X64.73 Y12.915
X64.656 Y12.959
X64.581 Y12.995
X64.378 Y13.069
X64.201 Y13.132
X64.113 Y13.161
X64.025 Y13.181
X63.981 Y13.189
X63.937 Y13.194
X63.673 Y13.221
X63.496 Y13.237
X63.408 Y13.238
X63.364 Y13.236
X63.32 Y13.233
X62.968 Y13.179 Z-0.095
X62.615 Y13.125
X62.262 Y13.069
X62.197 Y13.055
X62.132 Y13.036
X59.442 Y12.185 Z-0.096
X59.266 Y12.129 Z-0.097
X59.222 Y12.113
X59.178 Y12.095
X59.156 Y12.086
X59.134 Y12.085
X59.089 Y12.083
X58.737 Y12.033
X57.327 Y11.826 Z-0.098
X57.15 Y11.8
X57.106 Y11.791
X57.062 Y11.78
X57.018 Y11.766
X56.974 Y11.751
X56.93 Y11.733
X56.886 Y11.712
X56.842 Y11.689
X56.798 Y11.663
X56.754 Y11.633
X56.732 Y11.622
X56.71 Y11.63
X56.666 Y11.643
X56.622 Y11.654
X56.577 Y11.663
X56.533 Y11.67
X56.489 Y11.675
X56.445 Y11.678
X56.401 Y11.679
X56.357 Y11.678
X56.313 Y11.676
X56.269 Y11.671
X55.916 Y11.619
X53.449 Y11.257 Z-0.1
X53.385 Y11.245
X53.321 Y11.23
X53.264 Y11.212
X53.208 Y11.191
X53.152 Y11.166
X53.096 Y11.136
X53.059 Y11.114
X53.021 Y11.089
X52.984 Y11.062
X52.947 Y11.032
X52.906 Y10.995
X52.864 Y10.954
X52.829 Y10.915
X52.798 Y10.876
X52.771 Y10.839
X52.757 Y10.819
X52.743 Y10.825
X52.655 Y10.876
X52.523 Y10.952
X52.457 Y10.985
X52.391 Y11.013
X52.038 Y11.119
X51.862 Y11.171
X51.774 Y11.193
X51.686 Y11.208
X51.44 Y11.23 Z-0.101
X51.333 Y11.239
X50.981 Y11.268
X50.628 Y11.27
X48.072 Y11.282 Z-0.102
X48.028 Y11.28
X47.984 Y11.277
X47.94 Y11.271
X47.896 Y11.264
X47.852 Y11.254
X47.83 Y11.249
X47.808 Y11.244
X47.764 Y11.286
X47.72 Y11.323
X47.675 Y11.356 Z-0.103
X47.631 Y11.386
X47.587 Y11.412
X47.543 Y11.436
X47.499 Y11.456
X47.455 Y11.474
X47.411 Y11.49
X47.367 Y11.504
X47.323 Y11.515
X47.279 Y11.524
X47.103 Y11.55
X47.014 Y11.559
X46.97 Y11.561
X46.926
X46.882 Y11.559
X46.838 Y11.555
X46.794 Y11.549
X46.75 Y11.541
X46.706 Y11.531
X46.662 Y11.519
X46.618 Y11.504
X46.574 Y11.488
X46.53 Y11.469
X46.486 Y11.447
X46.464 Y11.45
X46.397 Y11.488
X46.306 Y11.539
X46.261 Y11.562
X46.215 Y11.583
X46.173 Y11.599
X46.13 Y11.614
X46.045 Y11.637
X45.692 Y11.729 Z-0.104
X45.516 Y11.772
X45.472 Y11.78
X45.428 Y11.785
X45.34 Y11.79
X44.987 Y11.805
X44.943 Y11.803
X44.899 Y11.799
X44.855 Y11.793
X44.811 Y11.785
X44.282 Y11.678
X44.213 Y11.662
X44.145 Y11.641
X44.076 Y11.615
X44.007 Y11.583
X43.93 Y11.539
X43.706 Y11.409 Z-0.105
X43.685 Y11.424
X43.668 Y11.463
X43.649 Y11.503
X43.628 Y11.543
X43.604 Y11.583
X43.577 Y11.623
X43.541 Y11.671
X43.5 Y11.719
X43.451 Y11.771
X43.401 Y11.816
X43.357 Y11.851
X43.313 Y11.882
X43.269 Y11.909
X43.224 Y11.934
X43.221 Y11.936
X43.178 Y11.957
X43.134 Y11.976
X43.09 Y11.993
X43.047 Y12.007
X42.872 Y12.057
X38.641 Y13.26 Z-0.107
X38.331 Y13.348
X38.289 Y13.358
X38.245 Y13.366 Z-0.108
X38.201 Y13.372
X38.156 Y13.376
X38.112 Y13.378
X38.068
X38.046 Y13.379
X38.024 Y13.398
X37.98 Y13.434
X37.936 Y13.467
X37.892 Y13.495
X37.848 Y13.521
X37.76 Y13.563
X33.353 Y15.565 Z-0.11
X33.309 Y15.584
X33.265 Y15.599
X33.221 Y15.613
X33.177 Y15.625
X33.163 Y15.631
X33.15 Y15.648
X33.131 Y15.672
X33.088 Y15.718
X33.044 Y15.762
X33. Y15.8
X32.975 Y15.82
X32.934 Y15.85
X32.893 Y15.877
X30.444 Y17.363 Z-0.112
X30.4 Y17.388
X30.356 Y17.41
X30.312 Y17.429
X30.268 Y17.446
X30.224 Y17.46
X30.18 Y17.472
X30.136 Y17.482
X30.092 Y17.49
X30.048 Y17.496
X30.004 Y17.501
X29.96 Y17.503
X29.915
X29.871 Y17.501
X29.827 Y17.497
X29.783 Y17.491
X29.739 Y17.484
X29.695 Y17.474
X29.651 Y17.462
X29.607 Y17.448
X29.563 Y17.431
X29.543 Y17.425
X29.257 Y17.939 Z-0.113
X29.197 Y18.041
X29.162 Y18.092
X29.122 Y18.144
X29.09 Y18.181
X29.055 Y18.218
X28.979 Y18.292
X28.617 Y18.645
X28.417 Y18.835
X28.209 Y18.998
X26.384 Y20.41 Z-0.115
X26.302 Y20.472
X26.258 Y20.5
X26.214 Y20.525
X26.17 Y20.547
X26.126 Y20.566
X26.081 Y20.583
X26.037 Y20.598
X25.993 Y20.61
X25.949 Y20.621
X25.905 Y20.629
X25.861 Y20.635
X25.817 Y20.639
X25.773 Y20.642
X25.729
X25.685 Y20.641
X25.641 Y20.637
X25.597 Y20.631
X25.553 Y20.624
X25.509 Y20.614
X25.464 Y20.603
X25.42 Y20.589
X25.376 Y20.573
X25.332 Y20.554
X25.288 Y20.533
X25.244 Y20.509
X25.173 Y20.464
X25.138 Y20.439
X25.103 Y20.41
X25.043 Y20.357
X24.984 Y20.293
X24.892 Y20.175
X24.846 Y20.116
X24.806 Y20.057
X24.78 Y20.013 Z-0.116
X24.757 Y19.969
X24.736 Y19.925
X24.719 Y19.881
X24.703 Y19.837
X24.69 Y19.792
X24.678 Y19.748
X24.669 Y19.704
X24.662 Y19.66
X24.657 Y19.616
X24.654 Y19.572
X24.653 Y19.528
X24.654 Y19.484
X24.657 Y19.439
X24.662 Y19.395
X24.669 Y19.351
X24.678 Y19.307
X24.688 Y19.263
X24.702 Y19.219
X24.717 Y19.175
X24.735 Y19.13
X24.755 Y19.086
X24.778 Y19.042
X24.804 Y18.998
X24.833 Y18.954
X24.866 Y18.91
X24.881 Y18.888
X22.945 Y16.338 Z-0.118
X22.932 Y16.342
X22.854 Y16.372
X22.776 Y16.394
X22.732 Y16.404
X22.688 Y16.412
X22.644 Y16.417
X22.6 Y16.421
X22.556 Y16.423
X22.512 Y16.422
X22.468 Y16.42
X22.424 Y16.416
X22.38 Y16.41
X22.336 Y16.402
X22.291 Y16.392
X22.247 Y16.379
X22.203 Y16.365
X22.159 Y16.348
X22.115 Y16.329
X22.071 Y16.307
X22.023 Y16.28
X21.974 Y16.248
X21.926 Y16.213
X21.877 Y16.173
X21.833 Y16.132
X21.789 Y16.085
X21.719 Y15.997
X21.651 Y15.908
X21.62 Y15.864
X21.592 Y15.82
X21.567 Y15.776 Z-0.119
X21.544 Y15.732
X21.525 Y15.688
X21.508 Y15.643
X21.493 Y15.599
X21.481 Y15.555
X21.47 Y15.511
X21.462 Y15.467
X21.456 Y15.423
X21.451 Y15.379
X21.449 Y15.334
Y15.29
X21.452 Y15.22
X21.458 Y15.167
X21.467 Y15.114
X21.456
X21.366 Y15.193
X21.056 Y15.467
X19.956 Y16.526 Z-0.12
X19.589 Y16.879
X19.251 Y17.232
X18.193 Y18.353 Z-0.121
X17.931 Y18.645
X16.783 Y19.983 Z-0.122
X16.719 Y20.057
X16.439 Y20.41
X15.614 Y21.47 Z-0.123
X15.373 Y21.78
X15.34 Y21.823
X14.315 Y23.277 Z-0.124
X14.097 Y23.588
X13.199 Y25.001 Z-0.125
X12.975 Y25.354
X12.905 Y25.472 Z-0.126
X11.965 Y27.119 Z-0.127
X11.847 Y27.333
X11.058 Y28.885
X10.881 Y29.238 Z-0.128
X10.084 Y31.014 Z-0.129
X9.94 Y31.357
X9.249 Y33.122 Z-0.13
X9.124 Y33.475
X8.531 Y35.241 Z-0.131
X8.427 Y35.594
X7.929 Y37.36 Z-0.132
X7.844 Y37.713
X7.439 Y39.478 Z-0.133
X7.369 Y39.831
X7.056 Y41.597 Z-0.134
X6.999 Y41.95
X6.754 Y43.892 Z-0.135
X6.738 Y44.025
X6.735 Y44.047
X6.738 Y44.025
X6.754 Y43.892
X6.999 Y41.95
X7.056 Y41.597
X7.369 Y39.831
X7.439 Y39.478
X7.844 Y37.713
X7.929 Y37.36
X8.427 Y35.594
X8.531 Y35.241
X9.124 Y33.475
X9.249 Y33.122
X9.94 Y31.357
X10.084 Y31.014
X10.881 Y29.238
X11.058 Y28.885
X11.847 Y27.333
X11.965 Y27.119
X12.905 Y25.472
X12.975 Y25.354
X13.199 Y25.001
X14.097 Y23.588
X14.315 Y23.277
X15.34 Y21.823
X15.373 Y21.78
X15.614 Y21.47
X16.439 Y20.41
X16.719 Y20.057
X16.783 Y19.983
X17.931 Y18.645
X18.193 Y18.353
X19.251 Y17.232
X19.589 Y16.879
X19.956 Y16.526
X21.056 Y15.467
X21.366 Y15.193
X21.456 Y15.114
X21.467
X21.458 Y15.167
X21.452 Y15.22
X21.449 Y15.29
Y15.334
X21.451 Y15.379
X21.456 Y15.423
X21.462 Y15.467
X21.47 Y15.511
X21.481 Y15.555
X21.493 Y15.599
X21.508 Y15.643
X21.525 Y15.688
X21.544 Y15.732
X21.567 Y15.776
X21.592 Y15.82
X21.62 Y15.864
X21.651 Y15.908
X21.719 Y15.997
X21.789 Y16.085
X21.833 Y16.132
X21.877 Y16.173
X21.926 Y16.213
X21.974 Y16.248
X22.023 Y16.28
X22.071 Y16.307
X22.115 Y16.329
X22.159 Y16.348
X22.203 Y16.365
X22.247 Y16.379
X22.291 Y16.392
X22.336 Y16.402
X22.38 Y16.41
X22.424 Y16.416
X22.468 Y16.42
X22.512 Y16.422
X22.556 Y16.423
X22.6 Y16.421
X22.644 Y16.417
X22.688 Y16.412
X22.732 Y16.404
X22.776 Y16.394
X22.854 Y16.372
X22.932 Y16.342
X22.945 Y16.338
X24.881 Y18.888
X24.866 Y18.91
X24.833 Y18.954
X24.804 Y18.998
X24.778 Y19.042
X24.755 Y19.086
X24.735 Y19.13
X24.717 Y19.175
X24.702 Y19.219
X24.688 Y19.263
X24.678 Y19.307
X24.669 Y19.351
X24.662 Y19.395
X24.657 Y19.439
X24.654 Y19.484
X24.653 Y19.528
X24.654 Y19.572
X24.657 Y19.616
X24.662 Y19.66
X24.669 Y19.704
X24.678 Y19.748
X24.69 Y19.792
X24.703 Y19.837
X24.719 Y19.881
X24.736 Y19.925
X24.757 Y19.969
X24.78 Y20.013
X24.806 Y20.057
X24.846 Y20.116
X24.892 Y20.175
X24.984 Y20.293
X25.043 Y20.357
X25.103 Y20.41
X25.138 Y20.439
X25.173 Y20.464
X25.244 Y20.509
X25.288 Y20.533
X25.332 Y20.554
X25.376 Y20.573
X25.42 Y20.589
X25.464 Y20.603
X25.509 Y20.614
X25.553 Y20.624
X25.597 Y20.631
X25.641 Y20.637
X25.685 Y20.641
X25.729 Y20.642
X25.773
X25.817 Y20.639
X25.861 Y20.635
X25.905 Y20.629
X25.949 Y20.621
X25.993 Y20.61
X26.037 Y20.598
X26.081 Y20.583
X26.126 Y20.566
X26.17 Y20.547
X26.214 Y20.525
X26.258 Y20.5
X26.302 Y20.472
X26.384 Y20.41
X28.209 Y18.998
X28.417 Y18.835
X28.617 Y18.645
X28.979 Y18.292
X29.055 Y18.218
X29.09 Y18.181
X29.122 Y18.144
X29.162 Y18.092
X29.197 Y18.041
X29.257 Y17.939
X29.543 Y17.425
X29.563 Y17.431
X29.607 Y17.448
X29.651 Y17.462
X29.695 Y17.474
X29.739 Y17.484
X29.783 Y17.491
X29.827 Y17.497
X29.871 Y17.501
X29.915 Y17.503
X29.96
X30.004 Y17.501
X30.048 Y17.496
X30.092 Y17.49
X30.136 Y17.482
X30.18 Y17.472
X30.224 Y17.46
X30.268 Y17.446
X30.312 Y17.429
X30.356 Y17.41
X30.4 Y17.388
X30.444 Y17.363
X32.893 Y15.877
X32.934 Y15.85
X32.975 Y15.82
X33. Y15.8
X33.044 Y15.762
X33.088 Y15.718
X33.131 Y15.672
X33.15 Y15.648
X33.163 Y15.631
X33.177 Y15.625
X33.221 Y15.613
X33.265 Y15.599
X33.309 Y15.584
X33.353 Y15.565
X37.76 Y13.563
X37.848 Y13.521
X37.892 Y13.495
X37.936 Y13.467
X37.98 Y13.434
X38.024 Y13.398
X38.046 Y13.379
X38.068 Y13.378
X38.112
X38.156 Y13.376
X38.201 Y13.372
X38.245 Y13.366
X38.289 Y13.358
X38.331 Y13.348
X38.641 Y13.26
X42.872 Y12.057
X43.047 Y12.007
X43.09 Y11.993
X43.134 Y11.976
X43.178 Y11.957
X43.221 Y11.936
X43.224 Y11.934
X43.269 Y11.909
X43.313 Y11.882
X43.357 Y11.851
X43.401 Y11.816
X43.451 Y11.771
X43.5 Y11.719
X43.541 Y11.671
X43.577 Y11.623
X43.604 Y11.583
X43.628 Y11.543
X43.649 Y11.503
X43.668 Y11.463
X43.685 Y11.424
X43.706 Y11.409
X43.93 Y11.539
X44.007 Y11.583
X44.076 Y11.615
X44.145 Y11.641
X44.213 Y11.662
X44.282 Y11.678
X44.811 Y11.785
X44.855 Y11.793
X44.899 Y11.799
X44.943 Y11.803
X44.987 Y11.805
X45.34 Y11.79
X45.428 Y11.785
X45.472 Y11.78
X45.516 Y11.772
X45.692 Y11.729
X46.045 Y11.637
X46.13 Y11.614
X46.173 Y11.599
X46.215 Y11.583
X46.261 Y11.562
X46.306 Y11.539
X46.397 Y11.488
X46.464 Y11.45
X46.486 Y11.447
X46.53 Y11.469
X46.574 Y11.488
X46.618 Y11.504
X46.662 Y11.519
X46.706 Y11.531
X46.75 Y11.541
X46.794 Y11.549
X46.838 Y11.555
X46.882 Y11.559
X46.926 Y11.561
X46.97
X47.014 Y11.559
X47.103 Y11.55
X47.279 Y11.524
X47.323 Y11.515
X47.367 Y11.504
X47.411 Y11.49
X47.455 Y11.474
X47.499 Y11.456
X47.543 Y11.436
X47.587 Y11.412
X47.631 Y11.386
X47.675 Y11.356
X47.72 Y11.323
X47.764 Y11.286
X47.808 Y11.244
X47.83 Y11.249
X47.852 Y11.254
X47.896 Y11.264
X47.94 Y11.271
X47.984 Y11.277
X48.028 Y11.28
X48.072 Y11.282
X50.628 Y11.27
X50.981 Y11.268
X51.333 Y11.239
X51.44 Y11.23
X51.686 Y11.208
X51.774 Y11.193
X51.862 Y11.171
X52.038 Y11.119
X52.391 Y11.013
X52.457 Y10.985
X52.523 Y10.952
X52.655 Y10.876
X52.743 Y10.825
X52.757 Y10.819
X52.771 Y10.839
X52.798 Y10.876
X52.829 Y10.915
X52.864 Y10.954
X52.906 Y10.995
X52.947 Y11.032
X52.984 Y11.062
X53.021 Y11.089
X53.059 Y11.114
X53.096 Y11.136
X53.152 Y11.166
X53.208 Y11.191
X53.264 Y11.212
X53.321 Y11.23
X53.385 Y11.245
X53.449 Y11.257
X55.916 Y11.619
X56.269 Y11.671
X56.313 Y11.676
X56.357 Y11.678
X56.401 Y11.679
X56.445 Y11.678
X56.489 Y11.675
X56.533 Y11.67
X56.577 Y11.663
X56.622 Y11.654
X56.666 Y11.643
X56.71 Y11.63
X56.732 Y11.622
X56.754 Y11.633
X56.798 Y11.663
X56.842 Y11.689
X56.886 Y11.712
X56.93 Y11.733
X56.974 Y11.751
X57.018 Y11.766
X57.062 Y11.78
X57.106 Y11.791
X57.15 Y11.8
X57.327 Y11.826
X58.737 Y12.033
X59.089 Y12.083
X59.134 Y12.085
X59.156 Y12.086
X59.178 Y12.095
X59.222 Y12.113
X59.266 Y12.129
X59.442 Y12.185
X62.132 Y13.036
X62.197 Y13.055
X62.262 Y13.069
X62.615 Y13.125
X62.968 Y13.179
X63.32 Y13.233
X63.364 Y13.236
X63.408 Y13.238
X63.496 Y13.237
X63.673 Y13.221
X63.937 Y13.194
X63.981 Y13.189
X64.025 Y13.181
X64.113 Y13.161
X64.201 Y13.132
X64.378 Y13.069
X64.581 Y12.995
X64.656 Y12.959
X64.73 Y12.915
X65.083 Y12.647
X65.09 Y12.642
X65.145 Y12.597
X65.201 Y12.544
X65.258 Y12.481
X65.292 Y12.438
X65.344 Y12.363
X65.395 Y12.289
X65.415
X65.418 Y12.363
X65.426 Y12.438
X65.432 Y12.481
X65.435 Y12.498
X65.47 Y12.642
X65.556 Y12.995
X65.603 Y13.172
X65.619 Y13.216
X65.637 Y13.26
X65.678 Y13.348
X65.885 Y13.79
X65.907 Y13.834
X65.932 Y13.878
X65.96 Y13.922
X65.991 Y13.966
X66.314 Y14.408
X66.351 Y14.456
X66.393 Y14.505
X66.493 Y14.603
X66.846 Y14.931
X66.906 Y14.986
X66.966 Y15.034
X67.087 Y15.114
X67.198 Y15.184
X67.551 Y15.407
X67.608 Y15.439
X67.665 Y15.467
X67.903 Y15.566
X68.256 Y15.71
X68.426 Y15.777
X68.512 Y15.802
X68.597 Y15.82
X69.054 Y15.909
X69.078 Y15.913
X69.096 Y15.926
X69.102 Y15.94
X69.115 Y15.97
X69.146 Y16.032
X69.189 Y16.103
X69.214 Y16.138
X69.241 Y16.173
X69.275 Y16.214
X69.314 Y16.255
X69.358 Y16.297
X69.402 Y16.334
X69.446 Y16.367
X69.49 Y16.396
X69.534 Y16.422
X69.578 Y16.445
X69.666 Y16.49
X69.74 Y16.526
X69.809 Y16.555
X69.879 Y16.578
X69.949 Y16.595
X70.019 Y16.607
X70.063 Y16.612
X70.107 Y16.615
X70.151 Y16.616
X70.195 Y16.615
X70.239 Y16.613
X70.283 Y16.608
X70.305
X70.327 Y16.636
X70.371 Y16.687
X70.429 Y16.744
X70.487 Y16.793
X70.602 Y16.879
X72.493 Y18.292
X72.839 Y18.547
X72.909 Y18.588
X72.926 Y18.598
X72.944 Y18.61
X72.978 Y18.645
X73.032 Y18.693
X73.085 Y18.734
X75.331 Y20.41
X75.413 Y20.469
X75.454 Y20.494
X75.495 Y20.516
X75.536 Y20.536
X75.577 Y20.554
X75.66 Y20.584
X75.704 Y20.596
X75.748 Y20.606
X75.792 Y20.615
X75.836 Y20.621
X75.88 Y20.625
X75.924 Y20.628
X75.968
X76.012 Y20.626
X76.056 Y20.623
X76.1 Y20.617
X76.144 Y20.61
X76.188 Y20.6
X76.232 Y20.589
X76.277 Y20.575
X76.321 Y20.559
X76.365 Y20.54
X76.418 Y20.514
X76.471 Y20.484
X76.524 Y20.45
X76.578 Y20.41
X76.613 Y20.381
X76.647 Y20.349
X76.684 Y20.312
X76.717 Y20.275
X76.799 Y20.166
X76.876 Y20.057
X76.903 Y20.013
X76.927 Y19.969
X76.949 Y19.925
X76.968 Y19.881
X76.984 Y19.837
X76.998 Y19.792
X77.01 Y19.748
X77.02 Y19.704
X77.028 Y19.66
X77.034 Y19.616
X77.037 Y19.572
X77.039 Y19.528
Y19.484
X77.037 Y19.439
X77.033 Y19.395
X77.027 Y19.351
X77.019 Y19.307
X77.009 Y19.263
X76.996 Y19.219
X76.982 Y19.175
X76.965 Y19.13
X76.946 Y19.086
X76.924 Y19.042
X76.899 Y18.998
X76.871 Y18.954
X76.84 Y18.91
X76.805 Y18.866
X76.812 Y18.843
X78.692 Y16.28
X78.712 Y16.282
X78.752 Y16.297
X78.833 Y16.322
X78.877 Y16.332
X78.921 Y16.341
X78.965 Y16.347
X79.009 Y16.352
X79.053 Y16.354
X79.097 Y16.355
X79.141 Y16.353
X79.185 Y16.35
X79.229 Y16.345
X79.273 Y16.337
X79.317 Y16.328
X79.361 Y16.317
X79.405 Y16.303
X79.45 Y16.287
X79.494 Y16.269
X79.538 Y16.248
X79.6 Y16.214
X79.662 Y16.173
X79.719 Y16.13
X79.776 Y16.08
X79.809 Y16.048
X79.838 Y16.016
X79.89 Y15.951
X79.986 Y15.82
X80.016 Y15.776
X80.043 Y15.732
X80.067 Y15.688
X80.088 Y15.643
X80.106 Y15.599
X80.122 Y15.555
X80.136 Y15.511
X80.148 Y15.467
X80.157 Y15.423
X80.164 Y15.379
X80.17 Y15.334
X80.173 Y15.29
X80.175 Y15.246
X80.174 Y15.202
X80.172 Y15.158
X80.167 Y15.114
X80.154 Y15.034
X80.134 Y14.955
X80.119 Y14.906
X80.096 Y14.847
X80.077 Y14.804
X80.055 Y14.761
X80.078 Y14.74
X80.595 Y15.193
X80.905 Y15.467
X82.006 Y16.526
X82.373 Y16.879
X82.711 Y17.233
X83.768 Y18.352
X84.03 Y18.645
X85.179 Y19.982
X85.243 Y20.057
X85.522 Y20.41
X86.347 Y21.47
X86.589 Y21.78
X86.621 Y21.823
X87.646 Y23.277
X87.865 Y23.588
X88.763 Y25.001
X88.987 Y25.354
X89.057 Y25.472
X89.996 Y27.119
X90.114 Y27.333
X90.903 Y28.885
X91.081 Y29.238
X91.877 Y31.014
X92.022 Y31.357
X92.713 Y33.122
X92.837 Y33.475
X93.431 Y35.241
X93.534 Y35.594
X94.032 Y37.36
X94.118 Y37.713
X94.533 Y39.522
X94.543 Y39.567
X94.552 Y39.611
X94.561 Y39.655
X94.906 Y41.597
X94.962 Y41.95
X95.218 Y43.98
X95.226 Y44.047
G3 X95.047 Y44.27 I-0.198 J0.024
G0 Z5.
X95.563 Y53.372
Z1.935
G1 Z-0.065 F200.
G3 X95.233 Y53.205 I-0.13 J-0.152
G1 X95.39 Y51.131 Z-0.081
X95.403 Y50.939 Z-0.083
X95.46 Y48.659 Z-0.1
X95.451 Y48.306 Z-0.103
X95.403 Y46.377 Z-0.118
X95.39 Y46.187 Z-0.119
X95.233 Y44.113 Z-0.135
X95.39 Y46.187
X95.403 Y46.377
X95.451 Y48.306
X95.46 Y48.659
X95.403 Y50.939
X95.39 Y51.131
X95.233 Y53.205
X95.231 Y53.227 Z-0.098
X95.23 Y53.241 Z-0.058
Y53.246 Z-0.015
G0 Z5.
X55.467 Y93.682
Z1.935
G1 Z-0.065 F200.
G3 X55.564 Y93.325 I0.122 J-0.158
G1 X55.622 Y93.318
X57.679 Y93.053 Z-0.066
X58.032 Y92.993
X59.795 Y92.674 Z-0.067
X60.147 Y92.599
X61.91 Y92.187 Z-0.068
X62.262 Y92.095
X64.025 Y91.589 Z-0.069
X64.378 Y91.477
X66.141 Y90.874 Z-0.07
X66.493 Y90.74
X68.256 Y90.037
X68.398 Y89.973
X70.019 Y89.232 Z-0.071
X70.371 Y89.063
X72.134 Y88.151 Z-0.072
X72.487 Y87.948
X73.897 Y87.128 Z-0.073
X74.249 Y86.908
X75.66 Y85.995 Z-0.074
X76.012 Y85.753
X77.512 Y84.676
X77.775 Y84.472 Z-0.075
X79.185 Y83.352
X79.293 Y83.264
X80.595 Y82.125 Z-0.076
X80.904 Y81.851
X82.005 Y80.792 Z-0.077
X82.372 Y80.439
X82.709 Y80.086
X83.768 Y78.965 Z-0.078
X84.029 Y78.673
X85.179 Y77.335
X85.242 Y77.261 Z-0.079
X85.521 Y76.908
X86.346 Y75.848
X86.589 Y75.537
X86.62 Y75.495
X87.646 Y74.04 Z-0.08
X87.864 Y73.73
X88.704 Y72.408 Z-0.081
X88.986 Y71.964
X89.057 Y71.845
X89.995 Y70.199 Z-0.082
X90.114 Y69.983
X90.902 Y68.433 Z-0.083
X91.08 Y68.08
X91.877 Y66.303
X92.021 Y65.961 Z-0.084
X92.712 Y64.196
X92.837 Y63.843
X93.43 Y62.077 Z-0.085
X93.534 Y61.724
X94.032 Y59.959 Z-0.086
X94.117 Y59.605
X94.522 Y57.84 Z-0.087
X94.592 Y57.487
X94.905 Y55.721 Z-0.088
X94.962 Y55.368
X95.185 Y53.603
X95.166
X95.144 Y53.664
X95.118 Y53.726
X95.087 Y53.788
X95.05 Y53.849 Z-0.089
X95.013 Y53.903
X94.971 Y53.956
X94.938 Y53.992
X94.902 Y54.028
X94.868 Y54.059
X94.834 Y54.088
X94.766 Y54.138
X94.698 Y54.179
Y54.18
X94.709 Y54.245
X94.717 Y54.309
X94.786 Y55.015
X94.803 Y55.192
X94.806 Y55.236
X94.807 Y55.28
X94.802 Y55.368
X94.743 Y56.074
X94.711 Y56.427 Z-0.09
X94.698 Y56.506
X94.646 Y56.781
X94.514 Y57.487
X94.447 Y57.84
X94.411 Y58.016
X94.399 Y58.061
X94.384 Y58.105
X94.366 Y58.149
X94.347 Y58.193
X94.345 Y58.196
X94.323 Y58.24
X94.297 Y58.284
X94.269 Y58.328
X94.237 Y58.371
X94.202 Y58.415
X94.162 Y58.459
X94.114 Y58.505
X94.065 Y58.546
X94.029 Y58.574
X93.992 Y58.599
X93.936 Y58.633
X93.908 Y58.648
X93.894 Y58.656
X93.879 Y58.674 Z-0.091
X93.918 Y59.076
X93.924 Y59.164
Y59.208
X93.922 Y59.252
X93.88 Y59.605
X93.76 Y60.577
X93.753 Y60.621
X93.744 Y60.665
X93.645 Y61.018
X93.444 Y61.724 Z-0.092
X93.341 Y62.077
X93.287 Y62.253
X93.233 Y62.43
X93.216 Y62.479
X93.194 Y62.532
X93.157 Y62.607
X93.131 Y62.651
X93.102 Y62.695
X93.07 Y62.739
X93.033 Y62.783
X92.984 Y62.836
X92.935 Y62.881
X92.895 Y62.914
X92.856 Y62.943
X92.816 Y62.969
X92.777 Y62.993
X92.737 Y63.015
X92.698 Y63.034
X92.66 Y63.05
X92.641 Y63.058
X92.623 Y63.071
X92.622 Y63.085
X92.619 Y63.137
X92.588 Y63.49
X92.557 Y63.843 Z-0.093
X92.548 Y63.931
X92.531 Y64.019
X92.488 Y64.196
X92.358 Y64.726
X92.334 Y64.814
X92.302 Y64.902
X91.877 Y65.988
X91.748 Y66.315 Z-0.094
X91.6 Y66.668
X91.566 Y66.749
X91.546 Y66.79
X91.525 Y66.831
X91.496 Y66.878
X91.463 Y66.926
X91.426 Y66.973
X91.385 Y67.021
X91.331 Y67.073
X91.278 Y67.119
X91.225 Y67.158
X91.172 Y67.193
X91.101 Y67.232
X91.029 Y67.264
X90.958 Y67.29
X90.924 Y67.3
X90.908 Y67.304
X90.892 Y67.318
X90.849 Y67.727
X90.838 Y67.808
X90.819 Y67.889
X90.762 Y68.08
X90.654 Y68.433 Z-0.095
X90.544 Y68.786
X90.527 Y68.828
X90.509 Y68.87
X90.467 Y68.953
X89.762 Y70.355
X89.655 Y70.552
X89.459 Y70.905 Z-0.096
X89.409 Y70.975
X89.369 Y71.024
X89.322 Y71.073
X89.279 Y71.113
X89.235 Y71.149
X89.192 Y71.181
X89.148 Y71.21
X89.105 Y71.235
X89.061 Y71.258
X89.057 Y71.26
X89.013 Y71.28
X88.968 Y71.298
X88.924 Y71.313
X88.88 Y71.326
X88.836 Y71.337
X88.792 Y71.346
X88.748 Y71.352
X88.704 Y71.357
X88.66 Y71.36
X88.616
X88.572 Y71.359
X88.528 Y71.356
X88.484 Y71.351
X88.44 Y71.344
X88.396 Y71.335
X88.352 Y71.324
X88.309 Y71.31
X88.266 Y71.295
X88.223 Y71.278
X88.18 Y71.258
X88.135 Y71.234
X88.089 Y71.208
X88.044 Y71.178
X87.999 Y71.144
X87.963 Y71.114
X87.927 Y71.081
X87.882 Y71.034
X87.856 Y71.005
X87.816 Y70.955
X87.782 Y70.905
X87.758 Y70.866
X87.745 Y70.886
X87.706 Y70.955
X87.674 Y71.005
X87.654 Y71.034
X87.646 Y71.045
X87.472 Y71.258 Z-0.097
X87.294 Y71.473
X87.177 Y71.611
X87.118 Y71.669
X87.059 Y71.721
X86.782 Y71.964
X86.589 Y72.133
X86.522 Y72.183
X86.455 Y72.228
X86.236 Y72.375
X85.884 Y72.611
X85.776 Y72.67
X85.119 Y73.024 Z-0.098
X85.046 Y73.059
X84.973 Y73.088
X84.899 Y73.11
X84.826 Y73.126
X84.782 Y73.133
X84.738 Y73.139
X84.694 Y73.142
X84.65 Y73.143
X84.606 Y73.142
X84.562 Y73.139
X84.517 Y73.134
X84.473 Y73.128
X84.398 Y73.112
X84.323 Y73.089
X84.248 Y73.06
X84.173 Y73.024
X84.121 Y72.994
X84.08 Y72.967
X84.04 Y72.938
X83.999 Y72.905
X83.959 Y72.869
X83.91 Y72.819
X83.867 Y72.77
X83.829 Y72.72
X83.797 Y72.67
X83.768 Y72.622
X83.731 Y72.546
X83.701 Y72.47
X83.678 Y72.394
X83.661 Y72.317
X83.654 Y72.273
X83.65 Y72.229
X83.647 Y72.185
X83.646 Y72.141
X83.658 Y71.964 Z-0.099
X83.779 Y70.552
X83.788 Y70.464
X83.795 Y70.419
X83.805 Y70.375
X83.849 Y70.199
X83.938 Y69.846
X83.982 Y69.669
X83.995 Y69.625
X84.01 Y69.581
X84.046 Y69.493
X84.245 Y69.011 Z-0.1
X84.288 Y68.908
X84.299 Y68.884
X84.306 Y68.868
X84.288 Y68.849
X84.196 Y68.869
X84.121 Y68.882
X84.077 Y68.887
X84.033 Y68.89
X83.989 Y68.891
X83.945 Y68.89
X83.901 Y68.887
X83.856 Y68.882
X83.812 Y68.876
X83.768 Y68.867
X83.712 Y68.852
X83.655 Y68.834
X83.599 Y68.812
X83.543 Y68.786
X83.479 Y68.752
X83.416 Y68.711
X83.376 Y68.682
X83.336 Y68.649
X83.296 Y68.613
X83.256 Y68.572
X83.225 Y68.537
X83.197 Y68.503
X83.148 Y68.433
X83.123 Y68.393
X83.101 Y68.352
X83.081 Y68.311
X83.063 Y68.271
X83.045 Y68.223
X83.03 Y68.175
X83.017 Y68.128
X83.006 Y68.08
X82.999 Y68.036
X82.993 Y67.992
X82.99 Y67.948
X82.988 Y67.904
X82.989 Y67.859
X82.991 Y67.815 Z-0.101
X82.996 Y67.771
X83.002 Y67.727
X83.012 Y67.673
X83.026 Y67.619
X83.043 Y67.565
X83.063 Y67.512
X83.095 Y67.443
X83.131 Y67.374
X83.768 Y66.173
X83.825 Y66.067
X83.894 Y65.961
X84.121 Y65.653
X84.788 Y64.762 Z-0.102
X84.826 Y64.715
X84.847 Y64.69
X84.84 Y64.666
X84.826 Y64.616
X84.811 Y64.549
X84.805 Y64.505
X84.8 Y64.461
X84.797 Y64.417
X84.796 Y64.372
X84.797 Y64.328
X84.8 Y64.284
X84.805 Y64.24
X84.812 Y64.196
X84.826 Y64.129
X84.847 Y64.057
X84.874 Y63.986
X85.431 Y62.607 Z-0.103
X85.472 Y62.519
X85.519 Y62.43
X85.531 Y62.409
X85.729 Y62.077
X86.267 Y61.175
X86.301 Y61.122
X86.32 Y61.096
X86.326 Y61.083
X86.32 Y61.07
X86.3 Y61.018
X86.285 Y60.974
X86.273 Y60.93
X86.263 Y60.885
X86.255 Y60.841
X86.249 Y60.797 Z-0.104
X86.245 Y60.753
X86.243 Y60.709
Y60.665
X86.244 Y60.621
X86.248 Y60.577
X86.254 Y60.532
X86.262 Y60.488
X86.309 Y60.312
X86.614 Y59.252
X86.718 Y58.899
X86.753 Y58.811
X86.791 Y58.723
X87.364 Y57.487 Z-0.105
X87.385 Y57.443
X87.408 Y57.399
X87.42 Y57.376
X87.416 Y57.354
X87.393 Y57.31
X87.372 Y57.266
X87.354 Y57.222
X87.338 Y57.178
X87.325 Y57.134
X87.306 Y57.055
X87.294 Y56.976
X87.29 Y56.927
X87.288 Y56.878
Y56.829
X87.291 Y56.781
X87.294 Y56.753
X87.35 Y56.427
X87.538 Y55.368 Z-0.106
X87.569 Y55.192
X87.591 Y55.103
X87.617 Y55.015
X87.646 Y54.925
X87.999 Y53.895
X88.1 Y53.603
X88.136 Y53.514
X88.141 Y53.492
X88.127 Y53.47
X88.102 Y53.426
X88.08 Y53.382
X88.06 Y53.338
X88.043 Y53.294 Z-0.107
X88.028 Y53.25
X88.012 Y53.189
X87.999 Y53.128
X87.99 Y53.07
X87.985 Y53.012
X87.984 Y52.954
X87.985 Y52.896
X88.067 Y51.661
X88.073 Y51.572
X88.084 Y51.484
X88.15 Y51.131
X88.283 Y50.425 Z-0.108
X88.352 Y50.073
Y50.072
X88.379 Y49.983
X88.414 Y49.895
X88.79 Y49.012
X88.942 Y48.659
X88.965 Y48.607
X88.992 Y48.556
X89.023 Y48.504
X89.057 Y48.452
X89.409 Y47.956 Z-0.109
X89.475 Y47.865
X89.544 Y47.776
X89.715 Y47.6
X89.737 Y47.578
Y47.556
X89.717 Y47.511
X89.699 Y47.467
X89.684 Y47.423
X89.671 Y47.379
X89.66 Y47.335
X89.642 Y47.247
X89.574 Y46.894
X89.558 Y46.805
X89.552 Y46.761
X89.548 Y46.717
X89.546 Y46.673
Y46.629
X89.548 Y46.585
X89.552 Y46.54
X89.609 Y46.187
X89.624 Y46.099
X89.632 Y46.055
X89.643 Y46.011
X89.64 Y45.998
X89.54 Y45.918 Z-0.11
X89.438 Y45.834
X89.409 Y45.808
X89.33 Y45.726
X89.256 Y45.644
X89.057 Y45.421
X88.799 Y45.128
X88.772 Y45.091
X88.748 Y45.054
X88.704 Y44.981
X88.588 Y44.775
X88.192 Y44.069
X87.999 Y43.719 Z-0.111
X87.998 Y43.716
X87.961 Y43.627
X87.933 Y43.539
X87.88 Y43.362
X87.564 Y42.303
X87.54 Y42.215
X87.522 Y42.127
X87.311 Y40.891 Z-0.112
X87.3 Y40.827
X87.294 Y40.763
X87.291 Y40.694
X87.294 Y40.624
X87.304 Y40.538
X87.312 Y40.493
X87.322 Y40.449
X87.334 Y40.405
X87.348 Y40.361
X87.365 Y40.317
X87.384 Y40.273
X87.406 Y40.229
X87.418 Y40.207
X87.422 Y40.184
X87.387 Y40.118
X87.356 Y40.051
X86.927 Y39.125
X86.765 Y38.772 Z-0.113
X86.728 Y38.684
X86.698 Y38.596
X86.292 Y37.183
X86.268 Y37.095
X86.259 Y37.051
X86.252 Y37.007
X86.247 Y36.962
X86.244 Y36.918
X86.243 Y36.874
X86.244 Y36.83
X86.247 Y36.786
X86.252 Y36.742
X86.259 Y36.698
X86.268 Y36.653
X86.279 Y36.609
X86.292 Y36.565
X86.308 Y36.521
X86.326 Y36.477
X86.335 Y36.455
X86.329 Y36.433
X86.3 Y36.389
X86.247 Y36.3
X85.614 Y35.241 Z-0.114
X85.531 Y35.096
X85.477 Y34.992
X85.434 Y34.888
X84.898 Y33.564 Z-0.115
X84.881 Y33.52
X84.867 Y33.475
X84.852 Y33.421
X84.84 Y33.366
X84.832 Y33.312
X84.826 Y33.258
X84.823 Y33.19
X84.825 Y33.122
X84.826 Y33.11
X84.835 Y33.034
X84.849 Y32.958
X84.87 Y32.882
X84.874 Y32.863
X84.857 Y32.844
X84.826 Y32.806
X84.798 Y32.769
X84.006 Y31.71
X83.941 Y31.622 Z-0.116
X83.882 Y31.533
X83.784 Y31.357
X83.132 Y30.129
X83.112 Y30.088
X83.093 Y30.046
X83.077 Y30.004
X83.063 Y29.962
X83.058 Y29.944
X83.046 Y29.9
X83.037 Y29.856
X83.029 Y29.812
X83.024 Y29.768
X83.02 Y29.724
X83.019 Y29.68
Y29.635
X83.021 Y29.591
X83.026 Y29.547
X83.032 Y29.503
X83.036 Y29.481
X83.032 Y29.459
X82.987 Y29.415
X82.826 Y29.238 Z-0.117
X82.181 Y28.532
X82.006 Y28.339
X81.938 Y28.259
X81.906 Y28.219
X81.877 Y28.179
X81.653 Y27.844
X81.052 Y26.943 Z-0.118
X80.996 Y26.855
X80.972 Y26.811
X80.951 Y26.766
X80.948 Y26.759
X80.93 Y26.716
X80.915 Y26.673
X80.901 Y26.629
X80.89 Y26.586
X80.881 Y26.543
X80.874 Y26.5
X80.865 Y26.413
X80.864 Y26.369
Y26.325
X80.867 Y26.281
X80.871 Y26.237
X80.877 Y26.193
X80.886 Y26.148
X80.896 Y26.104
X80.909 Y26.06
X80.927 Y26.008
X80.948 Y25.955
X80.978 Y25.893
X81.013 Y25.831
X81.055 Y25.769
X81.104 Y25.707
X81.15 Y25.657
X81.202 Y25.607
X81.251 Y25.567
X81.3 Y25.531
X81.344 Y25.503
X81.389 Y25.477
X81.433 Y25.455
X81.477 Y25.435
X81.521 Y25.418
X81.565 Y25.403
X81.609 Y25.39
X81.653 Y25.38
X81.697 Y25.371
X81.741 Y25.365
X81.785 Y25.36
X81.829 Y25.358
X81.873 Y25.357
X81.917 Y25.359
X82.006 Y25.367 Z-0.119
X82.06 Y25.373
X82.078 Y25.354
X82.006 Y25.226
X81.884 Y25.001
X81.696 Y24.648
X81.653 Y24.542
X81.563 Y24.295
X81.434 Y23.941
X81.404 Y23.853
X81.392 Y23.809
X81.382 Y23.765
X81.145 Y22.529 Z-0.12
X81.081 Y22.176
X81.077 Y22.132
X81.075 Y22.088
Y22.044
X81.076 Y21.999
X81.08 Y21.955
X81.086 Y21.911
X81.094 Y21.867
X81.104 Y21.823
X81.116 Y21.779
X81.13 Y21.735
X81.147 Y21.69
X81.166 Y21.646
X81.187 Y21.602
X81.212 Y21.558
X81.239 Y21.514
X81.27 Y21.47
X81.3 Y21.43
X81.342 Y21.383
X81.389 Y21.336
X81.433 Y21.297
X81.477 Y21.262
X81.521 Y21.231
X81.565 Y21.203
X81.609 Y21.178
X81.653 Y21.157
X81.703 Y21.135
X81.753 Y21.117
X81.816 Y21.097
X81.879 Y21.083
X81.942 Y21.072
X82.006 Y21.066
X82.05 Y21.064
X82.094
X82.138 Y21.065
X82.182 Y21.069 Z-0.121
X82.226 Y21.075
X82.27 Y21.083
X82.314 Y21.093
X82.358 Y21.104
X82.396 Y21.117
X82.711 Y21.244
X83.063 Y21.388
X83.255 Y21.47
X83.416 Y21.555
X83.918 Y21.823
X83.969 Y21.852
X84.02 Y21.886
X84.121 Y21.958
X84.426 Y22.176
X84.562 Y22.273 Z-0.122
X84.606 Y22.307
X84.65 Y22.346
X84.826 Y22.518
X85.099 Y22.788
X85.141 Y22.831
X85.179 Y22.874
X85.185 Y22.882
X85.244 Y22.961
X85.268 Y22.941
X85.279 Y22.922
X85.302 Y22.882
X85.346 Y22.818
X85.397 Y22.754
X85.429 Y22.719
X85.464 Y22.684
X85.498 Y22.654
X85.531 Y22.626
X85.568 Y22.598
X85.605 Y22.573
X85.678 Y22.529
X85.73 Y22.503
X85.781 Y22.481
X85.832 Y22.462
X85.884 Y22.447
X85.928 Y22.435
X85.972 Y22.426
X86.016 Y22.419
X86.06 Y22.414
X86.104 Y22.411
X86.148 Y22.41
X86.192 Y22.411
X86.236 Y22.414
X86.28 Y22.418
X86.324 Y22.425
X86.368 Y22.434
X86.412 Y22.445
X86.457 Y22.458
X86.501 Y22.473
X86.545 Y22.491
X86.589 Y22.511
X86.625 Y22.529 Z-0.123
X86.664 Y22.551
X86.704 Y22.576
X86.743 Y22.604
X86.783 Y22.635
X86.827 Y22.673
X86.871 Y22.716
X86.908 Y22.756
X86.941 Y22.797
X87.002 Y22.882
X87.244 Y23.235
X87.294 Y23.311
X88.24 Y24.824 Z-0.124
X88.294 Y24.913
X88.317 Y24.957
X88.338 Y25.001
X88.352 Y25.034
X88.468 Y25.354
X88.596 Y25.707
X88.704 Y26.008
X88.718 Y26.06
X88.734 Y26.135
X88.739 Y26.172
X88.741 Y26.188
X88.756 Y26.203
X88.771 Y26.205
X88.803 Y26.209
X88.887 Y26.225
X88.93 Y26.236
X88.972 Y26.249
X89.014 Y26.264
X89.057 Y26.281
X89.112 Y26.307
X89.167 Y26.338
X89.222 Y26.373
X89.277 Y26.413
X89.31 Y26.441
X89.343 Y26.47
X89.378 Y26.505
X89.409 Y26.539
X89.455 Y26.595
X89.495 Y26.652
X89.561 Y26.766 Z-0.125
X89.762 Y27.13
X89.936 Y27.473
X90.539 Y28.67
X90.569 Y28.736
X90.585 Y28.778
X90.619 Y28.885
X90.835 Y29.591 Z-0.126
X90.861 Y29.68
X90.871 Y29.724
X90.879 Y29.768
X90.899 Y29.944
X90.93 Y30.235
X90.947 Y30.256
X90.963 Y30.26
X90.998 Y30.271
X91.069 Y30.297
X91.12 Y30.321
X91.172 Y30.347
X91.214 Y30.372
X91.256 Y30.4
X91.297 Y30.43
X91.339 Y30.465
X91.386 Y30.508
X91.433 Y30.558
X91.472 Y30.604
X91.506 Y30.651
X91.525 Y30.678
X91.55 Y30.718
X91.572 Y30.759
X91.61 Y30.841
X91.678 Y31.004
X91.824 Y31.357 Z-0.127
X92.342 Y32.681
X92.358 Y32.725
X92.372 Y32.769
X92.459 Y33.122
X92.545 Y33.475
X92.568 Y33.576
X92.577 Y33.626
X92.582 Y33.676
X92.642 Y34.358 Z-0.128
X92.65 Y34.446
X92.652 Y34.491
X92.673 Y34.507
X92.693 Y34.516
X92.735 Y34.535
X92.785 Y34.561
X92.835 Y34.591
X92.885 Y34.625
X92.935 Y34.664
X92.988 Y34.712
X93.042 Y34.767
X93.07 Y34.799
X93.099 Y34.836
X93.135 Y34.888
X93.162 Y34.932
X93.186 Y34.976
X93.207 Y35.02
X93.226 Y35.064
X93.283 Y35.241
X93.39 Y35.594
X93.492 Y35.947
X93.744 Y36.83 Z-0.129
X93.765 Y36.918
X93.779 Y37.007
X93.911 Y38.066
X93.933 Y38.242
X93.941 Y38.331
Y38.375
X93.94 Y38.419
X93.908 Y38.772 Z-0.13
X93.891 Y38.95
X93.903 Y38.959
X93.916 Y38.965
X93.941 Y38.979
X93.992 Y39.01
X94.029 Y39.034
X94.066 Y39.062
X94.103 Y39.092
X94.14 Y39.125
X94.175 Y39.159
X94.206 Y39.194
X94.235 Y39.228
X94.261 Y39.262
X94.307 Y39.331
X94.345 Y39.399
X94.381 Y39.478
X94.397 Y39.522
X94.412 Y39.567
X94.424 Y39.611
X94.434 Y39.655
X94.467 Y39.831
X94.534 Y40.184
X94.714 Y41.154 Z-0.131
X94.721 Y41.199
X94.726 Y41.244
X94.785 Y41.95
X94.814 Y42.303
X94.815 Y42.347
X94.813 Y42.391
X94.807 Y42.48
X94.766 Y43.009
X94.75 Y43.186
X94.733 Y43.274
X94.579 Y43.892 Z-0.132
X94.556 Y43.98
X94.53 Y44.069
X94.377 Y44.422
X94.219 Y44.775
X94.135 Y44.951
X94.023 Y45.128
X93.91 Y45.297
X93.905 Y45.312
X93.942 Y45.358
X93.992 Y45.42
X94.036 Y45.481
X94.064 Y45.525
X94.089 Y45.569
X94.111 Y45.614
X94.13 Y45.658
X94.147 Y45.702
X94.161 Y45.746
X94.184 Y45.834
X94.311 Y46.354 Z-0.133
X94.331 Y46.437
X94.345 Y46.52
X94.347 Y46.54
X94.352 Y46.599
X94.353 Y46.658
X94.351 Y46.717
X94.345 Y46.776
X94.324 Y46.894
X94.252 Y47.247
X94.216 Y47.423
X94.205 Y47.467
X94.192 Y47.511
X94.176 Y47.556
X94.158 Y47.6
X94.138 Y47.644
X94.115 Y47.688
X94.06 Y47.776
X94.047 Y47.798
X94.435 Y48.306
X94.501 Y48.394
X94.53 Y48.438
X94.556 Y48.483 Z-0.134
X94.645 Y48.659
X94.815 Y49.012
X94.985 Y49.365
X95.022 Y49.456
X95.037 Y49.501
X95.05 Y49.547
X95.094 Y49.718
X95.182 Y50.072
X95.269 Y50.425
X95.281 Y50.513
X95.288 Y50.601
X95.338 Y51.307 Z-0.135
X95.344 Y51.396
Y51.44
X95.342 Y51.484
X95.273 Y52.543
X95.25 Y52.896
X95.219 Y53.25
X95.25 Y52.896
X95.273 Y52.543
X95.342 Y51.484
X95.344 Y51.44
Y51.396
X95.338 Y51.307
X95.288 Y50.601
X95.281 Y50.513
X95.269 Y50.425
X95.182 Y50.072
X95.094 Y49.718
X95.05 Y49.547
X95.037 Y49.501
X95.022 Y49.456
X94.985 Y49.365
X94.815 Y49.012
X94.645 Y48.659
X94.556 Y48.483
X94.53 Y48.438
X94.501 Y48.394
X94.435 Y48.306
X94.047 Y47.798
X94.06 Y47.776
X94.115 Y47.688
X94.138 Y47.644
X94.158 Y47.6
X94.176 Y47.556
X94.192 Y47.511
X94.205 Y47.467
X94.216 Y47.423
X94.252 Y47.247
X94.324 Y46.894
X94.345 Y46.776
X94.351 Y46.717
X94.353 Y46.658
X94.352 Y46.599
X94.347 Y46.54
X94.345 Y46.52
X94.331 Y46.437
X94.311 Y46.354
X94.184 Y45.834
X94.161 Y45.746
X94.147 Y45.702
X94.13 Y45.658
X94.111 Y45.614
X94.089 Y45.569
X94.064 Y45.525
X94.036 Y45.481
X93.992 Y45.42
X93.942 Y45.358
X93.905 Y45.312
X93.91 Y45.297
X94.023 Y45.128
X94.135 Y44.951
X94.219 Y44.775
X94.377 Y44.422
X94.53 Y44.069
X94.556 Y43.98
X94.579 Y43.892
X94.733 Y43.274
X94.75 Y43.186
X94.766 Y43.009
X94.807 Y42.48
X94.813 Y42.391
X94.815 Y42.347
X94.814 Y42.303
X94.785 Y41.95
X94.726 Y41.244
X94.721 Y41.199
X94.714 Y41.154
X94.534 Y40.184
X94.467 Y39.831
X94.434 Y39.655
X94.424 Y39.611
X94.412 Y39.567
X94.397 Y39.522
X94.381 Y39.478
X94.345 Y39.399
X94.307 Y39.331
X94.261 Y39.262
X94.235 Y39.228
X94.206 Y39.194
X94.175 Y39.159
X94.14 Y39.125
X94.103 Y39.092
X94.066 Y39.062
X94.029 Y39.034
X93.992 Y39.01
X93.941 Y38.979
X93.916 Y38.965
X93.903 Y38.959
X93.891 Y38.95
X93.908 Y38.772
X93.94 Y38.419
X93.941 Y38.375
Y38.331
X93.933 Y38.242
X93.911 Y38.066
X93.779 Y37.007
X93.765 Y36.918
X93.744 Y36.83
X93.492 Y35.947
X93.39 Y35.594
X93.283 Y35.241
X93.226 Y35.064
X93.207 Y35.02
X93.186 Y34.976
X93.162 Y34.932
X93.135 Y34.888
X93.099 Y34.836
X93.07 Y34.799
X93.042 Y34.767
X92.988 Y34.712
X92.935 Y34.664
X92.885 Y34.625
X92.835 Y34.591
X92.785 Y34.561
X92.735 Y34.535
X92.693 Y34.516
X92.673 Y34.507
X92.652 Y34.491
X92.65 Y34.446
X92.642 Y34.358
X92.582 Y33.676
X92.577 Y33.626
X92.568 Y33.576
X92.545 Y33.475
X92.459 Y33.122
X92.372 Y32.769
X92.358 Y32.725
X92.342 Y32.681
X91.824 Y31.357
X91.678 Y31.004
X91.61 Y30.841
X91.572 Y30.759
X91.55 Y30.718
X91.525 Y30.678
X91.506 Y30.651
X91.472 Y30.604
X91.433 Y30.558
X91.386 Y30.508
X91.339 Y30.465
X91.297 Y30.43
X91.256 Y30.4
X91.214 Y30.372
X91.172 Y30.347
X91.12 Y30.321
X91.069 Y30.297
X90.998 Y30.271
X90.963 Y30.26
X90.947 Y30.256
X90.93 Y30.235
X90.899 Y29.944
X90.879 Y29.768
X90.871 Y29.724
X90.861 Y29.68
X90.835 Y29.591
X90.619 Y28.885
X90.585 Y28.778
X90.569 Y28.736
X90.539 Y28.67
X89.936 Y27.473
X89.762 Y27.13
X89.561 Y26.766
X89.495 Y26.652
X89.455 Y26.595
X89.409 Y26.539
X89.378 Y26.505
X89.343 Y26.47
X89.31 Y26.441
X89.277 Y26.413
X89.222 Y26.373
X89.167 Y26.338
X89.112 Y26.307
X89.057 Y26.281
X89.014 Y26.264
X88.972 Y26.249
X88.93 Y26.236
X88.887 Y26.225
X88.803 Y26.209
X88.771 Y26.205
X88.756 Y26.203
X88.741 Y26.188
X88.739 Y26.172
X88.734 Y26.135
X88.718 Y26.06
X88.704 Y26.008
X88.596 Y25.707
X88.468 Y25.354
X88.352 Y25.034
X88.338 Y25.001
X88.317 Y24.957
X88.294 Y24.913
X88.24 Y24.824
X87.294 Y23.311
X87.244 Y23.235
X87.002 Y22.882
X86.941 Y22.797
X86.908 Y22.756
X86.871 Y22.716
X86.827 Y22.673
X86.783 Y22.635
X86.743 Y22.604
X86.704 Y22.576
X86.664 Y22.551
X86.625 Y22.529
X86.589 Y22.511
X86.545 Y22.491
X86.501 Y22.473
X86.457 Y22.458
X86.412 Y22.445
X86.368 Y22.434
X86.324 Y22.425
X86.28 Y22.418
X86.236 Y22.414
X86.192 Y22.411
X86.148 Y22.41
X86.104 Y22.411
X86.06 Y22.414
X86.016 Y22.419
X85.972 Y22.426
X85.928 Y22.435
X85.884 Y22.447
X85.832 Y22.462
X85.781 Y22.481
X85.73 Y22.503
X85.678 Y22.529
X85.605 Y22.573
X85.568 Y22.598
X85.531 Y22.626
X85.498 Y22.654
X85.464 Y22.684
X85.429 Y22.719
X85.397 Y22.754
X85.346 Y22.818
X85.302 Y22.882
X85.279 Y22.922
X85.268 Y22.941
X85.244 Y22.961
X85.185 Y22.882
X85.179 Y22.874
X85.141 Y22.831
X85.099 Y22.788
X84.826 Y22.518
X84.65 Y22.346
X84.606 Y22.307
X84.562 Y22.273
X84.426 Y22.176
X84.121 Y21.958
X84.02 Y21.886
X83.969 Y21.852
X83.918 Y21.823
X83.416 Y21.555
X83.255 Y21.47
X83.063 Y21.388
X82.711 Y21.244
X82.396 Y21.117
X82.358 Y21.104
X82.314 Y21.093
X82.27 Y21.083
X82.226 Y21.075
X82.182 Y21.069
X82.138 Y21.065
X82.094 Y21.064
X82.05
X82.006 Y21.066
X81.942 Y21.072
X81.879 Y21.083
X81.816 Y21.097
X81.753 Y21.117
X81.703 Y21.135
X81.653 Y21.157
X81.609 Y21.178
X81.565 Y21.203
X81.521 Y21.231
X81.477 Y21.262
X81.433 Y21.297
X81.389 Y21.336
X81.342 Y21.383
X81.3 Y21.43
X81.27 Y21.47
X81.239 Y21.514
X81.212 Y21.558
X81.187 Y21.602
X81.166 Y21.646
X81.147 Y21.69
X81.13 Y21.735
X81.116 Y21.779
X81.104 Y21.823
X81.094 Y21.867
X81.086 Y21.911
X81.08 Y21.955
X81.076 Y21.999
X81.075 Y22.044
Y22.088
X81.077 Y22.132
X81.081 Y22.176
X81.145 Y22.529
X81.382 Y23.765
X81.392 Y23.809
X81.404 Y23.853
X81.434 Y23.941
X81.563 Y24.295
X81.653 Y24.542
X81.696 Y24.648
X81.884 Y25.001
X82.006 Y25.226
X82.078 Y25.354
X82.06 Y25.373
X82.006 Y25.367
X81.917 Y25.359
X81.873 Y25.357
X81.829 Y25.358
X81.785 Y25.36
X81.741 Y25.365
X81.697 Y25.371
X81.653 Y25.38
X81.609 Y25.39
X81.565 Y25.403
X81.521 Y25.418
X81.477 Y25.435
X81.433 Y25.455
X81.389 Y25.477
X81.344 Y25.503
X81.3 Y25.531
X81.251 Y25.567
X81.202 Y25.607
X81.15 Y25.657
X81.104 Y25.707
X81.055 Y25.769
X81.013 Y25.831
X80.978 Y25.893
X80.948 Y25.955
X80.927 Y26.008
X80.909 Y26.06
X80.896 Y26.104
X80.886 Y26.148
X80.877 Y26.193
X80.871 Y26.237
X80.867 Y26.281
X80.864 Y26.325
Y26.369
X80.865 Y26.413
X80.874 Y26.5
X80.881 Y26.543
X80.89 Y26.586
X80.901 Y26.629
X80.915 Y26.673
X80.93 Y26.716
X80.948 Y26.759
X80.951 Y26.766
X80.972 Y26.811
X80.996 Y26.855
X81.052 Y26.943
X81.653 Y27.844
X81.877 Y28.179
X81.906 Y28.219
X81.938 Y28.259
X82.006 Y28.339
X82.181 Y28.532
X82.826 Y29.238
X82.987 Y29.415
X83.032 Y29.459
X83.036 Y29.481
X83.032 Y29.503
X83.026 Y29.547
X83.021 Y29.591
X83.019 Y29.635
Y29.68
X83.02 Y29.724
X83.024 Y29.768
X83.029 Y29.812
X83.037 Y29.856
X83.046 Y29.9
X83.058 Y29.944
X83.063 Y29.962
X83.077 Y30.004
X83.093 Y30.046
X83.112 Y30.088
X83.132 Y30.129
X83.784 Y31.357
X83.882 Y31.533
X83.941 Y31.622
X84.006 Y31.71
X84.798 Y32.769
X84.826 Y32.806
X84.857 Y32.844
X84.874 Y32.863
X84.87 Y32.882
X84.849 Y32.958
X84.835 Y33.034
X84.826 Y33.11
X84.825 Y33.122
X84.823 Y33.19
X84.826 Y33.258
X84.832 Y33.312
X84.84 Y33.366
X84.852 Y33.421
X84.867 Y33.475
X84.881 Y33.52
X84.898 Y33.564
X85.434 Y34.888
X85.477 Y34.992
X85.531 Y35.096
X85.614 Y35.241
X86.247 Y36.3
X86.3 Y36.389
X86.329 Y36.433
X86.335 Y36.455
X86.326 Y36.477
X86.308 Y36.521
X86.292 Y36.565
X86.279 Y36.609
X86.268 Y36.653
X86.259 Y36.698
X86.252 Y36.742
X86.247 Y36.786
X86.244 Y36.83
X86.243 Y36.874
X86.244 Y36.918
X86.247 Y36.962
X86.252 Y37.007
X86.259 Y37.051
X86.268 Y37.095
X86.292 Y37.183
X86.698 Y38.596
X86.728 Y38.684
X86.765 Y38.772
X86.927 Y39.125
X87.356 Y40.051
X87.387 Y40.118
X87.422 Y40.184
X87.418 Y40.207
X87.406 Y40.229
X87.384 Y40.273
X87.365 Y40.317
X87.348 Y40.361
X87.334 Y40.405
X87.322 Y40.449
X87.312 Y40.493
X87.304 Y40.538
X87.294 Y40.624
X87.291 Y40.694
X87.294 Y40.763
X87.3 Y40.827
X87.311 Y40.891
X87.522 Y42.127
X87.54 Y42.215
X87.564 Y42.303
X87.88 Y43.362
X87.933 Y43.539
X87.961 Y43.627
X87.998 Y43.716
X87.999 Y43.719
X88.192 Y44.069
X88.588 Y44.775
X88.704 Y44.981
X88.748 Y45.054
X88.772 Y45.091
X88.799 Y45.128
X89.057 Y45.421
X89.256 Y45.644
X89.33 Y45.726
X89.409 Y45.808
X89.438 Y45.834
X89.54 Y45.918
X89.64 Y45.998
X89.643 Y46.011
X89.632 Y46.055
X89.624 Y46.099
X89.609 Y46.187
X89.552 Y46.54
X89.548 Y46.585
X89.546 Y46.629
Y46.673
X89.548 Y46.717
X89.552 Y46.761
X89.558 Y46.805
X89.574 Y46.894
X89.642 Y47.247
X89.66 Y47.335
X89.671 Y47.379
X89.684 Y47.423
X89.699 Y47.467
X89.717 Y47.511
X89.737 Y47.556
Y47.578
X89.715 Y47.6
X89.544 Y47.776
X89.475 Y47.865
X89.409 Y47.956
X89.057 Y48.452
X89.023 Y48.504
X88.992 Y48.556
X88.965 Y48.607
X88.942 Y48.659
X88.79 Y49.012
X88.414 Y49.895
X88.379 Y49.983
X88.352 Y50.072
Y50.073
X88.283 Y50.425
X88.15 Y51.131
X88.084 Y51.484
X88.073 Y51.572
X88.067 Y51.661
X87.985 Y52.896
X87.984 Y52.954
X87.985 Y53.012
X87.99 Y53.07
X87.999 Y53.128
X88.012 Y53.189
X88.028 Y53.25
X88.043 Y53.294
X88.06 Y53.338
X88.08 Y53.382
X88.102 Y53.426
X88.127 Y53.47
X88.141 Y53.492
X88.136 Y53.514
X88.1 Y53.603
X87.999 Y53.895
X87.646 Y54.925
X87.617 Y55.015
X87.591 Y55.103
X87.569 Y55.192
X87.538 Y55.368
X87.35 Y56.427
X87.294 Y56.753
X87.291 Y56.781
X87.288 Y56.829
Y56.878
X87.29 Y56.927
X87.294 Y56.976
X87.306 Y57.055
X87.325 Y57.134
X87.338 Y57.178
X87.354 Y57.222
X87.372 Y57.266
X87.393 Y57.31
X87.416 Y57.354
X87.42 Y57.376
X87.408 Y57.399
X87.385 Y57.443
X87.364 Y57.487
X86.791 Y58.723
X86.753 Y58.811
X86.718 Y58.899
X86.614 Y59.252
X86.309 Y60.312
X86.262 Y60.488
X86.254 Y60.532
X86.248 Y60.577
X86.244 Y60.621
X86.243 Y60.665
Y60.709
X86.245 Y60.753
X86.249 Y60.797
X86.255 Y60.841
X86.263 Y60.885
X86.273 Y60.93
X86.285 Y60.974
X86.3 Y61.018
X86.32 Y61.07
X86.326 Y61.083
X86.32 Y61.096
X86.301 Y61.122
X86.267 Y61.175
X85.729 Y62.077
X85.531 Y62.409
X85.519 Y62.43
X85.472 Y62.519
X85.431 Y62.607
X84.874 Y63.986
X84.847 Y64.057
X84.826 Y64.129
X84.812 Y64.196
X84.805 Y64.24
X84.8 Y64.284
X84.797 Y64.328
X84.796 Y64.372
X84.797 Y64.417
X84.8 Y64.461
X84.805 Y64.505
X84.811 Y64.549
X84.826 Y64.616
X84.84 Y64.666
X84.847 Y64.69
X84.826 Y64.715
X84.788 Y64.762
X84.121 Y65.653
X83.894 Y65.961
X83.825 Y66.067
X83.768 Y66.173
X83.131 Y67.374
X83.095 Y67.443
X83.063 Y67.512
X83.043 Y67.565
X83.026 Y67.619
X83.012 Y67.673
X83.002 Y67.727
X82.996 Y67.771
X82.991 Y67.815
X82.989 Y67.859
X82.988 Y67.904
X82.99 Y67.948
X82.993 Y67.992
X82.999 Y68.036
X83.006 Y68.08
X83.017 Y68.128
X83.03 Y68.175
X83.045 Y68.223
X83.063 Y68.271
X83.081 Y68.311
X83.101 Y68.352
X83.123 Y68.393
X83.148 Y68.433
X83.197 Y68.503
X83.225 Y68.537
X83.256 Y68.572
X83.296 Y68.613
X83.336 Y68.649
X83.376 Y68.682
X83.416 Y68.711
X83.479 Y68.752
X83.543 Y68.786
X83.599 Y68.812
X83.655 Y68.834
X83.712 Y68.852
X83.768 Y68.867
X83.812 Y68.876
X83.856 Y68.882
X83.901 Y68.887
X83.945 Y68.89
X83.989 Y68.891
X84.033 Y68.89
X84.077 Y68.887
X84.121 Y68.882
X84.196 Y68.869
X84.288 Y68.849
X84.306 Y68.868
X84.299 Y68.884
X84.288 Y68.908
X84.245 Y69.011
X84.046 Y69.493
X84.01 Y69.581
X83.995 Y69.625
X83.982 Y69.669
X83.938 Y69.846
X83.849 Y70.199
X83.805 Y70.375
X83.795 Y70.419
X83.788 Y70.464
X83.779 Y70.552
X83.658 Y71.964
X83.646 Y72.141
X83.647 Y72.185
X83.65 Y72.229
X83.654 Y72.273
X83.661 Y72.317
X83.678 Y72.394
X83.701 Y72.47
X83.731 Y72.546
X83.768 Y72.622
X83.797 Y72.67
X83.829 Y72.72
X83.867 Y72.77
X83.91 Y72.819
X83.959 Y72.869
X83.999 Y72.905
X84.04 Y72.938
X84.08 Y72.967
X84.121 Y72.994
X84.173 Y73.024
X84.248 Y73.06
X84.323 Y73.089
X84.398 Y73.112
X84.473 Y73.128
X84.517 Y73.134
X84.562 Y73.139
X84.606 Y73.142
X84.65 Y73.143
X84.694 Y73.142
X84.738 Y73.139
X84.782 Y73.133
X84.826 Y73.126
X84.899 Y73.11
X84.973 Y73.088
X85.046 Y73.059
X85.119 Y73.024
X85.776 Y72.67
X85.884 Y72.611
X86.236 Y72.375
X86.455 Y72.228
X86.522 Y72.183
X86.589 Y72.133
X86.782 Y71.964
X87.059 Y71.721
X87.118 Y71.669
X87.177 Y71.611
X87.294 Y71.473
X87.472 Y71.258
X87.646 Y71.045
X87.654 Y71.034
X87.674 Y71.005
X87.706 Y70.955
X87.745 Y70.886
X87.758 Y70.866
X87.782 Y70.905
X87.816 Y70.955
X87.856 Y71.005
X87.882 Y71.034
X87.927 Y71.081
X87.963 Y71.114
X87.999 Y71.144
X88.044 Y71.178
X88.089 Y71.208
X88.135 Y71.234
X88.18 Y71.258
X88.223 Y71.278
X88.266 Y71.295
X88.309 Y71.31
X88.352 Y71.324
X88.396 Y71.335
X88.44 Y71.344
X88.484 Y71.351
X88.528 Y71.356
X88.572 Y71.359
X88.616 Y71.36
X88.66
X88.704 Y71.357
X88.748 Y71.352
X88.792 Y71.346
X88.836 Y71.337
X88.88 Y71.326
X88.924 Y71.313
X88.968 Y71.298
X89.013 Y71.28
X89.057 Y71.26
X89.061 Y71.258
X89.105 Y71.235
X89.148 Y71.21
X89.192 Y71.181
X89.235 Y71.149
X89.279 Y71.113
X89.322 Y71.073
X89.369 Y71.024
X89.409 Y70.975
X89.459 Y70.905
X89.655 Y70.552
X89.762 Y70.355
X90.467 Y68.953
X90.509 Y68.87
X90.527 Y68.828
X90.544 Y68.786
X90.654 Y68.433
X90.762 Y68.08
X90.819 Y67.889
X90.838 Y67.808
X90.849 Y67.727
X90.892 Y67.318
X90.908 Y67.304
X90.924 Y67.3
X90.958 Y67.29
X91.029 Y67.264
X91.101 Y67.232
X91.172 Y67.193
X91.225 Y67.158
X91.278 Y67.119
X91.331 Y67.073
X91.385 Y67.021
X91.426 Y66.973
X91.463 Y66.926
X91.496 Y66.878
X91.525 Y66.831
X91.546 Y66.79
X91.566 Y66.749
X91.6 Y66.668
X91.748 Y66.315
X91.877 Y65.988
X92.302 Y64.902
X92.334 Y64.814
X92.358 Y64.726
X92.488 Y64.196
X92.531 Y64.019
X92.548 Y63.931
X92.557 Y63.843
X92.588 Y63.49
X92.619 Y63.137
X92.622 Y63.085
X92.623 Y63.071
X92.641 Y63.058
X92.66 Y63.05
X92.698 Y63.034
X92.737 Y63.015
X92.777 Y62.993
X92.816 Y62.969
X92.856 Y62.943
X92.895 Y62.914
X92.935 Y62.881
X92.984 Y62.836
X93.033 Y62.783
X93.07 Y62.739
X93.102 Y62.695
X93.131 Y62.651
X93.157 Y62.607
X93.194 Y62.532
X93.216 Y62.479
X93.233 Y62.43
X93.287 Y62.253
X93.341 Y62.077
X93.444 Y61.724
X93.645 Y61.018
X93.744 Y60.665
X93.753 Y60.621
X93.76 Y60.577
X93.88 Y59.605
X93.922 Y59.252
X93.924 Y59.208
Y59.164
X93.918 Y59.076
X93.879 Y58.674
X93.894 Y58.656
X93.908 Y58.648
X93.936 Y58.633
X93.992 Y58.599
X94.029 Y58.574
X94.065 Y58.546
X94.114 Y58.505
X94.162 Y58.459
X94.202 Y58.415
X94.237 Y58.371
X94.269 Y58.328
X94.297 Y58.284
X94.323 Y58.24
X94.345 Y58.196
X94.347 Y58.193
X94.366 Y58.149
X94.384 Y58.105
X94.399 Y58.061
X94.411 Y58.016
X94.447 Y57.84
X94.514 Y57.487
X94.646 Y56.781
X94.698 Y56.506
X94.711 Y56.427
X94.743 Y56.074
X94.802 Y55.368
X94.807 Y55.28
X94.806 Y55.236
X94.803 Y55.192
X94.786 Y55.015
X94.717 Y54.309
X94.709 Y54.245
X94.698 Y54.18
Y54.179
X94.766 Y54.138
X94.834 Y54.088
X94.868 Y54.059
X94.902 Y54.028
X94.938 Y53.992
X94.971 Y53.956
X95.013 Y53.903
X95.05 Y53.849
X95.087 Y53.788
X95.118 Y53.726
X95.144 Y53.664
X95.166 Y53.603
X95.185
X94.962 Y55.368
X94.905 Y55.721
X94.592 Y57.487
X94.522 Y57.84
X94.117 Y59.605
X94.032 Y59.959
X93.534 Y61.724
X93.43 Y62.077
X92.837 Y63.843
X92.712 Y64.196
X92.021 Y65.961
X91.877 Y66.303
X91.08 Y68.08
X90.902 Y68.433
X90.114 Y69.983
X89.995 Y70.199
X89.057 Y71.845
X88.986 Y71.964
X88.704 Y72.408
X87.864 Y73.73
X87.646 Y74.04
X86.62 Y75.495
X86.589 Y75.537
X86.346 Y75.848
X85.521 Y76.908
X85.242 Y77.261
X85.179 Y77.335
X84.029 Y78.673
X83.768 Y78.965
X82.709 Y80.086
X82.372 Y80.439
X82.005 Y80.792
X80.904 Y81.851
X80.595 Y82.125
X79.293 Y83.264
X79.185 Y83.352
X77.775 Y84.472
X77.512 Y84.676
X76.012 Y85.753
X75.66 Y85.995
X74.249 Y86.908
X73.897 Y87.128
X72.487 Y87.948
X72.134 Y88.151
X70.371 Y89.063
X70.019 Y89.232
X68.398 Y89.973
X68.256 Y90.037
X66.493 Y90.74
X66.141 Y90.874
X64.378 Y91.477
X64.025 Y91.589
X62.262 Y92.095
X61.91 Y92.187
X60.147 Y92.599
X59.795 Y92.674
X58.032 Y92.993
X57.679 Y93.053
X55.622 Y93.318
X55.564 Y93.325
X55.515 Z-0.124
X55.467 Y93.313 Z-0.113
X55.428 Y93.293 Z-0.088
X55.395 Y93.265 Z-0.063
X55.373 Y93.239 Z-0.026
X55.356 Y93.209 Z0.011
X55.343 Y93.167 Z0.102
X55.34 Y93.152 Z0.202
G0 Z5.
X6.379 Y53.172
Z1.935
G1 Z-0.065 F200.
G3 X6.735 Y53.272 I0.157 J0.123
G1 X6.738 Y53.294
X6.743 Y53.338
X7. Y55.368 Z-0.067
X7.056 Y55.721 Z-0.068
X7.369 Y57.487 Z-0.07
X7.439 Y57.84
X7.844 Y59.605 Z-0.072
X7.93 Y59.959
X8.428 Y61.724 Z-0.074
X8.531 Y62.077
X9.125 Y63.843 Z-0.076
X9.249 Y64.196 Z-0.077
X9.94 Y65.961 Z-0.078
X10.084 Y66.303 Z-0.079
X10.882 Y68.08 Z-0.081
X11.059 Y68.433
X11.847 Y69.984 Z-0.083
X11.966 Y70.199
X12.905 Y71.845 Z-0.085
X12.975 Y71.964
X13.2 Y72.317 Z-0.086
X14.098 Y73.73 Z-0.087
X14.315 Y74.04 Z-0.088
X15.341 Y75.495 Z-0.089
X15.373 Y75.537 Z-0.09
X15.615 Y75.848
X16.44 Y76.908 Z-0.091
X16.72 Y77.261 Z-0.092
X16.783 Y77.335
X17.932 Y78.673 Z-0.094
X18.193 Y78.965
X19.541 Y80.392 Z-0.096
X19.59 Y80.439
X19.637 Y80.484
X21.057 Y81.851 Z-0.098
X21.256 Y82.028
X22.669 Y83.264 Z-0.1
X22.776 Y83.353
X24.186 Y84.472 Z-0.102
X24.45 Y84.676
X25.949 Y85.753 Z-0.104
X26.302 Y85.995 Z-0.105
X27.537 Y86.795 Z-0.106
X27.886 Y87.021 Z-0.107
X27.945 Y87.059
X29.475 Y87.948 Z-0.108
X29.827 Y88.151 Z-0.109
X31.59 Y89.063 Z-0.111
X31.943 Y89.232
X33.563 Y89.973 Z-0.113
X33.705 Y90.037
X35.468 Y90.74 Z-0.115
X35.821 Y90.874
X37.584 Y91.477 Z-0.117
X37.812 Y91.553 Z-0.118
X39.699 Y92.095 Z-0.119
X40.051 Y92.187 Z-0.12
X41.814 Y92.599 Z-0.122
X42.167 Y92.674
X44.152 Y93.033 Z-0.124
X44.195 Y93.041
X44.239 Y93.048
X45.692 Y93.235 Z-0.126
X46.397 Y93.325
X46.75 Y93.355 Z-0.127
X48.513 Y93.49 Z-0.128
X48.691 Y93.504 Z-0.129
X48.865 Y93.509
X50.981 Y93.563 Z-0.131
X53.096 Y93.509 Z-0.133
X53.27 Y93.504
X53.315 Y93.501
X55.476 Y93.334 Z-0.135
X53.315 Y93.501
X53.27 Y93.504
X53.096 Y93.509
X50.981 Y93.563
X48.865 Y93.509
X48.691 Y93.504
X48.513 Y93.49
X46.75 Y93.355
X46.397 Y93.325
X45.692 Y93.235
X44.239 Y93.048
X44.195 Y93.041
X44.152 Y93.033
X42.167 Y92.674
X41.814 Y92.599
X40.051 Y92.187
X39.699 Y92.095
X37.812 Y91.553
X37.584 Y91.477
X35.821 Y90.874
X35.468 Y90.74
X33.705 Y90.037
X33.563 Y89.973
X31.943 Y89.232
X31.59 Y89.063
X29.827 Y88.151
X29.475 Y87.948
X27.945 Y87.059
X27.886 Y87.021
X27.537 Y86.795
X26.302 Y85.995
X25.949 Y85.753
X24.45 Y84.676
X24.186 Y84.472
X22.776 Y83.353
X22.669 Y83.264
X21.256 Y82.028
X21.057 Y81.851
X19.637 Y80.484
X19.59 Y80.439
X19.541 Y80.392
X18.193 Y78.965
X17.932 Y78.673
X16.783 Y77.335
X16.72 Y77.261
X16.44 Y76.908
X15.615 Y75.848
X15.373 Y75.537
X15.341 Y75.495
X14.315 Y74.04
X14.098 Y73.73
X13.2 Y72.317
X12.975 Y71.964
X12.905 Y71.845
X11.966 Y70.199
X11.847 Y69.984
X11.059 Y68.433
X10.882 Y68.08
X10.084 Y66.303
X9.94 Y65.961
X9.249 Y64.196
X9.125 Y63.843
X8.531 Y62.077
X8.428 Y61.724
X7.93 Y59.959
X7.844 Y59.605
X7.439 Y57.84
X7.369 Y57.487
X7.056 Y55.721
X7. Y55.368
X6.743 Y53.338
X6.738 Y53.294
X6.735 Y53.272
X6.739 Y53.246
X6.755 Y53.225
X6.779 Y53.216
G0 Z5.
X6.539 Y47.173
Z1.935
G1 Z0.209 F200.
Y47.167 Z0.159 F17.
Y47.148 Z0.111
X6.54 Y47.117 Z0.07
X6.541 Y47.077 Z0.038
X6.542 Y47.031 Z0.018
X6.544 Y46.98 Z0.009
X6.559 Y46.376 Z-0.012
X6.572 Y46.187 Z-0.018
X6.728 Y44.12 Z-0.091
Y44.113
X6.572 Y46.187 Z-0.107 F200.
X6.559 Y46.376 Z-0.108
X6.537 Y47.247 Z-0.115
X6.501 Y48.659 Z-0.126
X6.559 Y50.939 Z-0.143
X6.572 Y51.131 Z-0.145
X6.729 Y53.205 Z-0.161
X6.572 Y51.131
X6.559 Y50.939
X6.501 Y48.659
X6.537 Y47.247
X6.559 Y46.376
X6.572 Y46.187
X6.728 Y44.113
G3 X6.948 Y43.929 I0.199 J0.015
G0 Z5.
X6.745 Y53.062
Z1.934
G1 Z-0.065 F200.
G3 X7.097 Y53.174 I0.153 J0.129
G1 X7.103 Y53.25
X7.119 Y53.426 Z-0.066
X7.125 Y53.47
X7.133 Y53.514
X7.144 Y53.558
X7.157 Y53.603
X7.177 Y53.661
X7.201 Y53.719
X7.23 Y53.777
X7.264 Y53.836
X7.305 Y53.896
X7.352 Y53.956
X7.384 Y53.991
X7.418 Y54.026
X7.451 Y54.056
X7.484 Y54.084
X7.55 Y54.133
X7.616 Y54.174
X7.619 Y54.188
X7.616 Y54.203
X7.608 Y54.256
X7.602 Y54.309
X7.533 Y55.015 Z-0.067
X7.515 Y55.192
X7.513 Y55.236
X7.512 Y55.28
X7.516 Y55.368
X7.575 Y56.074
X7.606 Y56.427
X7.616 Y56.488
X7.736 Y57.134 Z-0.068
X7.802 Y57.487
X7.87 Y57.84
X7.905 Y58.015
X7.918 Y58.059
X7.933 Y58.103
X7.949 Y58.147
X7.969 Y58.191
X7.97 Y58.193
X7.992 Y58.237
X8.018 Y58.281
X8.046 Y58.325
X8.078 Y58.37
X8.113 Y58.414
X8.153 Y58.458 Z-0.069
X8.202 Y58.505
X8.25 Y58.546
X8.286 Y58.573
X8.321 Y58.598
X8.378 Y58.633
X8.407 Y58.648
X8.421 Y58.656
X8.435 Y58.673
X8.397 Y59.076
X8.391 Y59.164
Y59.208
X8.392 Y59.252
X8.434 Y59.605
X8.554 Y60.577 Z-0.07
X8.561 Y60.621
X8.57 Y60.665
X8.669 Y61.018
X8.87 Y61.724
X8.974 Y62.077 Z-0.071
X9.027 Y62.251
X9.08 Y62.43
X9.096 Y62.474
X9.113 Y62.519
X9.134 Y62.563
X9.156 Y62.607
X9.182 Y62.651
X9.211 Y62.695
X9.244 Y62.739
X9.28 Y62.783
X9.33 Y62.836
X9.379 Y62.882
X9.415 Y62.911
X9.451 Y62.938
X9.523 Y62.985
X9.592 Y63.023
X9.627 Y63.039
X9.644 Y63.046
X9.662 Y63.061
X9.666 Y63.137
X9.697 Y63.49 Z-0.072
X9.732 Y63.88
X9.742 Y63.959
X9.758 Y64.038
X9.796 Y64.196
X9.926 Y64.726
X9.95 Y64.814
X9.982 Y64.902
X10.437 Y66.064 Z-0.073
X10.537 Y66.315
X10.683 Y66.668 Z-0.074
X10.729 Y66.774
X10.757 Y66.827
X10.789 Y66.881
X10.839 Y66.951
X10.868 Y66.986
X10.899 Y67.021
X10.96 Y67.08
X11.021 Y67.13
X11.081 Y67.173
X11.142 Y67.21
X11.207 Y67.243
X11.272 Y67.27
X11.337 Y67.292
X11.367 Y67.301
X11.381 Y67.305
X11.395 Y67.317
X11.439 Y67.727
X11.447 Y67.789
X11.459 Y67.851
X11.494 Y67.976
X11.634 Y68.433 Z-0.075
X11.743 Y68.786
X11.766 Y68.841
X11.792 Y68.896
X12.447 Y70.199 Z-0.076
X12.552 Y70.406
X12.632 Y70.552
X12.83 Y70.905
X12.865 Y70.955
X12.905 Y71.006
X12.943 Y71.048
X12.986 Y71.091
X13.026 Y71.127
X13.067 Y71.159
X13.108 Y71.188 Z-0.077
X13.148 Y71.214
X13.189 Y71.237
X13.229 Y71.258
X13.257 Y71.271
X13.301 Y71.29
X13.345 Y71.306
X13.389 Y71.32
X13.434 Y71.331
X13.478 Y71.341
X13.522 Y71.348
X13.566 Y71.354
X13.61 Y71.357
X13.654 Y71.359
X13.698
X13.742 Y71.356
X13.786 Y71.352
X13.83 Y71.346
X13.874 Y71.337
X13.918 Y71.327
X13.962 Y71.315
X14.034 Y71.289
X14.105 Y71.258
X14.158 Y71.231
X14.21 Y71.199
X14.263 Y71.163
X14.315 Y71.121
X14.369 Y71.071
X14.424 Y71.013
X14.467 Y70.959
X14.505 Y70.905
X14.527 Y70.87
X14.539 Y70.887
X14.58 Y70.959
X14.614 Y71.013 Z-0.078
X14.667 Y71.084
X15.02 Y71.51
X15.106 Y71.611
X15.14 Y71.645
X15.173 Y71.676
X15.502 Y71.964
X15.725 Y72.157
X15.962 Y72.317 Z-0.079
X16.078 Y72.395
X16.43 Y72.629
X16.507 Y72.67
X17.164 Y73.024
X17.205 Y73.044
X17.245 Y73.063
X17.326 Y73.093
X17.407 Y73.116 Z-0.08
X17.488 Y73.131
X17.532 Y73.137
X17.576 Y73.141
X17.62 Y73.143
X17.664 Y73.142
X17.708 Y73.14
X17.752 Y73.136
X17.796 Y73.13
X17.84 Y73.122
X17.908 Y73.105
X17.976 Y73.084
X18.043 Y73.057
X18.111 Y73.024
X18.152 Y73.
X18.193 Y72.974
X18.238 Y72.943
X18.282 Y72.907
X18.327 Y72.867
X18.371 Y72.822
X18.405 Y72.784
X18.435 Y72.746
X18.462 Y72.708
X18.487 Y72.67
X18.518 Y72.616
X18.546 Y72.562
X18.571 Y72.501
X18.592 Y72.44
X18.609 Y72.378
X18.622 Y72.317
X18.629 Y72.273
X18.634 Y72.229
X18.637 Y72.185 Z-0.081
X18.638 Y72.141
X18.626 Y71.964
X18.506 Y70.552
X18.496 Y70.464
X18.48 Y70.375 Z-0.082
X18.436 Y70.199
X18.347 Y69.846
X18.302 Y69.669
X18.275 Y69.581
X18.239 Y69.493
X18.041 Y69.012
X18.012 Y68.944
X17.995 Y68.904
X17.984 Y68.88
X17.978 Y68.866
X17.992 Y68.848
X18.064 Y68.864
X18.117 Y68.875 Z-0.083
X18.193 Y68.886
X18.237 Y68.889
X18.281 Y68.891
X18.325
X18.369 Y68.889
X18.413 Y68.885
X18.457 Y68.879
X18.501 Y68.87
X18.546 Y68.86
X18.595 Y68.846
X18.645 Y68.829
X18.695 Y68.809
X18.745 Y68.786
X18.783 Y68.766
X18.821 Y68.744
X18.86 Y68.719
X18.898 Y68.692
X18.934 Y68.664
X18.969 Y68.633
X19.004 Y68.6
X19.04 Y68.562
X19.094 Y68.498
X19.139 Y68.433
X19.174 Y68.374
X19.204 Y68.315
X19.23 Y68.256
X19.251 Y68.197
X19.268 Y68.139
X19.281 Y68.08
X19.288 Y68.036
X19.294 Y67.992
X19.297 Y67.948
X19.299 Y67.904 Z-0.084
X19.298 Y67.859
X19.296 Y67.815
X19.291 Y67.771
X19.285 Y67.727
X19.271 Y67.656
X19.251 Y67.585
X19.232 Y67.532
X19.21 Y67.48
X19.156 Y67.374
X18.476 Y66.093 Z-0.085
X18.437 Y66.027
X18.393 Y65.961
X18.193 Y65.69
X17.603 Y64.902
X17.488 Y64.749 Z-0.086
X17.446 Y64.699
X17.445 Y64.674
X17.452 Y64.649
X17.465 Y64.599
X17.476 Y64.549
X17.483 Y64.502
X17.488 Y64.455
X17.491 Y64.373
X17.488 Y64.29
X17.483 Y64.243
X17.476 Y64.196
X17.467 Y64.152
X17.456 Y64.108
X17.442 Y64.063
X17.427 Y64.019
X17.356 Y63.843
X16.862 Y62.621 Z-0.087
X16.826 Y62.539
X16.783 Y62.458
X16.768 Y62.43
X16.558 Y62.077
X16.078 Y61.272 Z-0.088
X16.001 Y61.145
X15.99 Y61.129
X15.981 Y61.113
X15.995 Y61.081
X16.02 Y61.018
X16.035 Y60.974
X16.047 Y60.93
X16.057 Y60.885
X16.065 Y60.841
X16.071 Y60.797
X16.075 Y60.753
X16.077 Y60.709
Y60.665
X16.075 Y60.621
X16.072 Y60.577
X16.066 Y60.532
X16.058 Y60.488
X16.011 Y60.312
X15.706 Y59.252 Z-0.089
X15.602 Y58.899
X15.567 Y58.811
X15.529 Y58.723
X14.957 Y57.487 Z-0.09
X14.936 Y57.443
X14.913 Y57.399
X14.901 Y57.376
X14.908 Y57.354
X14.931 Y57.31
X14.952 Y57.266
X14.97 Y57.222
X14.986 Y57.178
X14.999 Y57.134
X15.011 Y57.089
X15.02 Y57.044
X15.03 Y56.978
X15.035 Y56.912
X15.036 Y56.847
X15.033 Y56.781
X15.028 Y56.732
X15.02 Y56.684
X14.786 Y55.368 Z-0.091
X14.754 Y55.192
X14.733 Y55.103
X14.707 Y55.015
X14.667 Y54.897 Z-0.092
X14.315 Y53.867
X14.224 Y53.603
X14.178 Y53.492
X14.191 Y53.47
X14.217 Y53.426
X14.239 Y53.382
X14.258 Y53.338
X14.276 Y53.294
X14.29 Y53.25 Z-0.093
X14.304 Y53.202
X14.315 Y53.154
X14.326 Y53.089
X14.333 Y53.025
X14.335 Y52.961
X14.334 Y52.896
X14.252 Y51.661
X14.246 Y51.572
X14.235 Y51.484 Z-0.094
X14.169 Y51.131
X14.037 Y50.425
X13.968 Y50.072
X13.962 Y50.051
X13.935 Y49.968
X13.901 Y49.885
X13.53 Y49.012 Z-0.095
X13.378 Y48.659
X13.354 Y48.605
X13.326 Y48.551
X13.293 Y48.497
X13.257 Y48.443
X12.905 Y47.948 Z-0.096
X12.842 Y47.861
X12.773 Y47.774
X12.605 Y47.6
X12.562 Y47.556
X12.559 Y47.534
X12.612 Y47.423
X12.692 Y47.247
X12.707 Y47.203
X12.721 Y47.158
X12.732 Y47.114
X12.741 Y47.07
X12.762 Y46.894
X12.779 Y46.717
X12.781 Y46.673
X12.782 Y46.629 Z-0.097
X12.776 Y46.54
X12.758 Y46.364
X12.747 Y46.276
X12.739 Y46.231
X12.729 Y46.187
X12.717 Y46.143
X12.702 Y46.099
X12.685 Y46.055
X12.677 Y46.033
X12.673 Y46.011
X12.89 Y45.834
X12.905 Y45.821
X12.949 Y45.779
X12.989 Y45.736
X13.066 Y45.651
X13.257 Y45.438
X13.529 Y45.128 Z-0.098
X13.573 Y45.067
X13.61 Y45.006
X13.741 Y44.775
X14.136 Y44.069
X14.315 Y43.746
X14.33 Y43.716
X14.366 Y43.627 Z-0.099
X14.394 Y43.539
X14.447 Y43.362
X14.762 Y42.303
X14.787 Y42.215
X14.804 Y42.127
X15.02 Y40.863 Z-0.1
X15.031 Y40.782
X15.034 Y40.7
X15.032 Y40.619
X15.022 Y40.538
X15.02 Y40.524
X15.002 Y40.439
X14.989 Y40.397
X14.975 Y40.354
X14.959 Y40.312
X14.94 Y40.269
X14.919 Y40.227 Z-0.101
X14.895 Y40.184
X14.902 Y40.168
X14.911 Y40.151
X14.928 Y40.118
X14.959 Y40.053
X15.389 Y39.125
X15.551 Y38.772
X15.587 Y38.684
X15.617 Y38.596 Z-0.102
X16.024 Y37.183
X16.048 Y37.095
X16.057 Y37.051
X16.064 Y37.007
X16.068 Y36.962
X16.071 Y36.918 Z-0.103
X16.072 Y36.874
X16.071 Y36.83
X16.069 Y36.786
X16.064 Y36.742
X16.057 Y36.698
X16.048 Y36.653
X16.025 Y36.571
X16.011 Y36.53
X15.995 Y36.488
X15.986 Y36.468
X16. Y36.447
X16.028 Y36.406
X16.078 Y36.324
X16.724 Y35.241 Z-0.104
X16.783 Y35.141
X16.85 Y35.014
X16.904 Y34.888
X17.439 Y33.564 Z-0.105
X17.456 Y33.52
X17.471 Y33.475
X17.488 Y33.411
X17.502 Y33.339
X17.51 Y33.266
X17.514 Y33.194
X17.512 Y33.122
X17.503 Y33.041
X17.488 Y32.96
X17.471 Y32.895
X17.461 Y32.863
X17.488 Y32.831
X17.536 Y32.769
X18.329 Y31.71 Z-0.106
X18.391 Y31.624
X18.45 Y31.539
X18.546 Y31.367
X19.187 Y30.161 Z-0.107
X19.222 Y30.093
X19.251 Y30.024
X19.277 Y29.944
X19.289 Y29.9
X19.299 Y29.856
X19.306 Y29.812
X19.312 Y29.768
X19.315 Y29.724
X19.317 Y29.68
X19.316 Y29.635
X19.314 Y29.591
X19.31 Y29.547
X19.303 Y29.503
X19.3 Y29.481
X19.319 Y29.459
X19.364 Y29.415
X19.525 Y29.238
X20.308 Y28.381 Z-0.108
X20.396 Y28.28
X20.437 Y28.229
X20.475 Y28.179
X20.711 Y27.826
X21.324 Y26.908 Z-0.109
X21.366 Y26.838
X21.401 Y26.766
X21.42 Y26.722
X21.436 Y26.678
X21.45 Y26.634
X21.462 Y26.59
X21.471 Y26.546
X21.479 Y26.502
X21.484 Y26.457
X21.487 Y26.413
X21.489 Y26.369
X21.488 Y26.325
X21.486 Y26.281
X21.482 Y26.237
X21.475 Y26.193
X21.467 Y26.148 Z-0.11
X21.456 Y26.104
X21.444 Y26.06
X21.428 Y26.014
X21.41 Y25.968
X21.39 Y25.923
X21.366 Y25.877
X21.341 Y25.834
X21.314 Y25.792
X21.283 Y25.749
X21.249 Y25.707
X21.19 Y25.644
X21.131 Y25.591
X21.072 Y25.545
X21.013 Y25.506
X20.969 Y25.48
X20.925 Y25.457
X20.881 Y25.437
X20.837 Y25.42
X20.793 Y25.405
X20.749 Y25.392
X20.705 Y25.381
X20.661 Y25.372
X20.617 Y25.365
X20.573 Y25.361
X20.529 Y25.358
X20.485 Y25.357
X20.441 Y25.358
X20.396 Y25.361
X20.285 Y25.373
X20.262 Y25.354
X20.308 Y25.274
X20.456 Y25.001 Z-0.111
X20.644 Y24.648
X20.661 Y24.611
X20.777 Y24.295
X20.906 Y23.941
X20.936 Y23.853
X20.948 Y23.809
X20.958 Y23.765
X21.195 Y22.529 Z-0.112
X21.259 Y22.176
X21.263 Y22.132
X21.265 Y22.088
X21.266 Y22.044
X21.264 Y21.999
X21.26 Y21.955
X21.254 Y21.911
X21.246 Y21.867
X21.236 Y21.823 Z-0.113
X21.224 Y21.779
X21.21 Y21.735
X21.194 Y21.69
X21.175 Y21.646
X21.153 Y21.602
X21.129 Y21.558
X21.101 Y21.514
X21.071 Y21.47
X21.043 Y21.435
X21.013 Y21.399
X20.969 Y21.353
X20.925 Y21.312
X20.881 Y21.275
X20.837 Y21.243
X20.793 Y21.214
X20.749 Y21.188
X20.705 Y21.165
X20.661 Y21.145
X20.588 Y21.117
X20.518 Y21.096
X20.448 Y21.08
X20.378 Y21.07
X20.308 Y21.064
X20.264 Y21.063
X20.22 Y21.064
X20.176 Y21.067
X20.132 Y21.072
X20.088 Y21.079
X20.044 Y21.088
X20. Y21.099
X19.956 Y21.113
X19.944 Y21.117
X19.603 Y21.254 Z-0.114
X19.251 Y21.399
X19.086 Y21.47
X18.898 Y21.569
X18.546 Y21.757
X18.422 Y21.823
X18.365 Y21.857
X18.308 Y21.896
X18.193 Y21.977 Z-0.115
X17.84 Y22.229
X17.756 Y22.29
X17.714 Y22.325
X17.672 Y22.364
X17.488 Y22.545
X17.231 Y22.798
X17.191 Y22.84
X17.156 Y22.882
X17.135 Y22.909
X17.106 Y22.95
X17.09 Y22.964
X17.068 Y22.923
X17.044 Y22.882
X16.996 Y22.812
X16.969 Y22.777 Z-0.116
X16.938 Y22.742
X16.9 Y22.701
X16.861 Y22.664
X16.822 Y22.631
X16.783 Y22.601
X16.725 Y22.562
X16.668 Y22.529
X16.608 Y22.5
X16.549 Y22.475
X16.49 Y22.454
X16.43 Y22.438
X16.386 Y22.428
X16.342 Y22.421
X16.298 Y22.415
X16.254 Y22.412
X16.21 Y22.41
X16.166
X16.122 Y22.413
X16.078 Y22.417
X16.034 Y22.423
X15.99 Y22.431
X15.945 Y22.441
X15.901 Y22.454
X15.857 Y22.468
X15.813 Y22.485
X15.769 Y22.505
X15.725 Y22.527
X15.721 Y22.529
X15.678 Y22.554
X15.634 Y22.582
X15.59 Y22.613
X15.547 Y22.648
X15.498 Y22.693
X15.448 Y22.744
X15.408 Y22.792 Z-0.117
X15.373 Y22.84
X15.099 Y23.235
X15.02 Y23.356
X14.104 Y24.824 Z-0.118
X14.05 Y24.913
X14.027 Y24.957
X14.006 Y25.001
X13.962 Y25.114
X13.747 Y25.707
X13.684 Y25.884 Z-0.119
X13.652 Y25.972
X13.638 Y26.016
X13.626 Y26.06
X13.61 Y26.139
X13.605 Y26.173
X13.603 Y26.189
X13.585 Y26.204
X13.566 Y26.207
X13.522 Y26.214
X13.478 Y26.223
X13.434 Y26.233
X13.389 Y26.247
X13.345 Y26.262
X13.301 Y26.28
X13.257 Y26.3
X13.212 Y26.323
X13.167 Y26.35
X13.122 Y26.38
X13.077 Y26.413
X13.029 Y26.454
X12.98 Y26.5
X12.94 Y26.544
X12.905 Y26.588
X12.872 Y26.632
X12.843 Y26.677
X12.793 Y26.766
X12.6 Y27.119 Z-0.12
X12.552 Y27.209
X11.847 Y28.611
X11.782 Y28.748 Z-0.121
X11.736 Y28.885
X11.521 Y29.591
X11.494 Y29.681
X11.48 Y29.747
X11.47 Y29.813
X11.437 Y30.121
X11.425 Y30.233
X11.407 Y30.252
X11.389 Y30.257
X11.349 Y30.268
X11.271 Y30.297 Z-0.122
X11.206 Y30.327
X11.142 Y30.363
X11.104 Y30.387
X11.065 Y30.414
X11.027 Y30.443
X10.988 Y30.476
X10.943 Y30.52
X10.903 Y30.563
X10.867 Y30.607
X10.835 Y30.651
X10.789 Y30.722
X10.753 Y30.793
X10.722 Y30.863
X10.663 Y31.004
X10.517 Y31.357
X10.025 Y32.618 Z-0.123
X9.996 Y32.694
X9.971 Y32.769
X9.884 Y33.122
X9.798 Y33.475 Z-0.124
X9.777 Y33.564
X9.764 Y33.652
X9.748 Y33.829
X9.701 Y34.358
X9.694 Y34.446
X9.692 Y34.491
X9.67 Y34.506
X9.649 Y34.515
X9.606 Y34.535
X9.549 Y34.565
X9.493 Y34.6
X9.436 Y34.64
X9.379 Y34.687
X9.327 Y34.737
X9.281 Y34.787
X9.241 Y34.838
X9.206 Y34.888
X9.179 Y34.932 Z-0.125
X9.155 Y34.976
X9.133 Y35.02
X9.115 Y35.064
X9.058 Y35.241
X8.951 Y35.594
X8.85 Y35.947
X8.597 Y36.83 Z-0.126
X8.576 Y36.918
X8.562 Y37.007
X8.43 Y38.066
X8.409 Y38.242
X8.401 Y38.331
Y38.375 Z-0.127
X8.402 Y38.419
X8.435 Y38.772
X8.45 Y38.937
X8.434 Y38.953
X8.417 Y38.961
X8.384 Y38.979
X8.321 Y39.017
X8.253 Y39.066
X8.219 Y39.094
X8.184 Y39.125
X8.147 Y39.162
X8.114 Y39.199
X8.083 Y39.236
X8.056 Y39.273
X8.031 Y39.31
X8.008 Y39.347
X7.969 Y39.421
X7.944 Y39.478
X7.927 Y39.522
X7.913 Y39.567
X7.901 Y39.611
X7.891 Y39.655
X7.857 Y39.831
X7.789 Y40.184 Z-0.128
X7.616 Y41.117
X7.605 Y41.181
X7.597 Y41.244
X7.539 Y41.95 Z-0.129
X7.511 Y42.303
X7.51 Y42.347
X7.511 Y42.391
X7.518 Y42.48
X7.558 Y43.009
X7.575 Y43.186
X7.592 Y43.274
X7.746 Y43.892 Z-0.13
X7.768 Y43.98
X7.795 Y44.069
X7.947 Y44.422
X8.105 Y44.775
X8.188 Y44.951
X8.301 Y45.128 Z-0.131
X8.409 Y45.292
X8.414 Y45.308
X8.374 Y45.358
X8.321 Y45.424
X8.281 Y45.481
X8.254 Y45.525
X8.23 Y45.569
X8.208 Y45.614
X8.19 Y45.658
X8.173 Y45.702
X8.159 Y45.746
X8.137 Y45.834
X8.013 Y46.364
X7.993 Y46.452
X7.986 Y46.496
X7.98 Y46.54
X7.976 Y46.585
X7.974 Y46.629
X7.975 Y46.673
X7.977 Y46.717 Z-0.132
X7.981 Y46.761
X7.987 Y46.805
X8.004 Y46.894
X8.075 Y47.247
X8.111 Y47.423
X8.122 Y47.467
X8.135 Y47.511
X8.151 Y47.556
X8.169 Y47.6
X8.189 Y47.644
X8.213 Y47.688
X8.268 Y47.776
X8.283 Y47.798
X8.268 Y47.82
X7.969 Y48.186
X7.921 Y48.246
X7.878 Y48.306 Z-0.133
X7.85 Y48.35
X7.826 Y48.394
X7.418 Y49.189
X7.373 Y49.277
X7.353 Y49.321
X7.335 Y49.365
X7.314 Y49.427
X7.297 Y49.49
X7.264 Y49.614
X7.096 Y50.248 Z-0.134
X7.072 Y50.336
X7.063 Y50.381
X7.055 Y50.425
X7.026 Y50.778
X6.986 Y51.307
X6.981 Y51.396
X6.983 Y51.484
X7.05 Y52.543 Z-0.135
X7.073 Y52.896
X7.097 Y53.174
X7.116 Y53.404 Z-0.136
X7.127 Y53.481
X7.143 Y53.556
X7.166 Y53.63
X7.194 Y53.702
X7.227 Y53.772
X7.264 Y53.837
X7.307 Y53.898
X7.353 Y53.957
X7.404 Y54.012
X7.459 Y54.062
X7.517 Y54.109
X7.581 Y54.153
X7.622 Y54.177
X7.613 Y54.223
X7.58 Y54.53
X7.52 Y55.144 Z-0.137
X7.513 Y55.221
X7.512 Y55.299
X7.523 Y55.453
X7.6 Y56.375
X7.61 Y56.452
X7.624 Y56.528
X7.765 Y57.287 Z-0.138
X7.88 Y57.893
X7.894 Y57.969
X7.913 Y58.044
X7.938 Y58.117
X7.968 Y58.188
X8.003 Y58.256
X8.044 Y58.322
X8.089 Y58.384
X8.139 Y58.443 Z-0.139
X8.191 Y58.495
X8.246 Y58.542
X8.304 Y58.586
X8.366 Y58.625
X8.404 Y58.647
X8.435 Y58.677
X8.398 Y59.066
X8.392 Y59.143
X8.391 Y59.22
X8.396 Y59.297
X8.405 Y59.373
X8.424 Y59.527
X8.538 Y60.445 Z-0.14
X8.558 Y60.598
X8.573 Y60.674
X8.593 Y60.749
X8.762 Y61.343
X8.931 Y61.936 Z-0.141
X9.021 Y62.232
X9.065 Y62.379
X9.088 Y62.453
X9.116 Y62.525
X9.15 Y62.594
X9.188 Y62.661
X9.232 Y62.725
X9.281 Y62.784
X9.334 Y62.84
X9.391 Y62.892
X9.452 Y62.939
X9.517 Y62.982
X9.589 Y63.021
X9.626 Y63.039
X9.662 Y63.06
X9.664 Y63.101
X9.667 Y63.142
X9.674 Y63.224
X9.733 Y63.895 Z-0.142
X9.744 Y63.972
X9.76 Y64.047
X9.778 Y64.122
X9.925 Y64.722
X9.945 Y64.796
X9.97 Y64.87
X10.138 Y65.301 Z-0.143
X10.363 Y65.875
X10.592 Y66.449
X10.71 Y66.733 Z-0.144
X10.744 Y66.803
X10.782 Y66.87
X10.826 Y66.934
X10.875 Y66.994
X10.928 Y67.05
X10.985 Y67.102
X11.046 Y67.149
X11.111 Y67.192
X11.178 Y67.229
X11.249 Y67.261
X11.321 Y67.287
X11.358 Y67.299
X11.395 Y67.311
X11.427 Y67.618
X11.444 Y67.772
X11.458 Y67.848
X11.478 Y67.923
X11.726 Y68.735 Z-0.145
X11.752 Y68.808
X11.783 Y68.878
X11.887 Y69.085
X12.442 Y70.188 Z-0.146
X12.732 Y70.733
X12.807 Y70.868
X12.848 Y70.933
X12.895 Y70.994
X12.946 Y71.052
X13.002 Y71.105
X13.061 Y71.155
X13.125 Y71.199 Z-0.147
X13.191 Y71.238
X13.26 Y71.272
X13.332 Y71.301
X13.405 Y71.324
X13.481 Y71.341
X13.557 Y71.353
X13.634 Y71.358
X13.711
X13.788 Y71.352
X13.864 Y71.34
X13.939 Y71.321
X14.013 Y71.298
X14.084 Y71.268
X14.153 Y71.233
X14.219 Y71.193
X14.281 Y71.148
X14.326 Y71.112
X14.368 Y71.072
X14.408 Y71.031
X14.446 Y70.987
X14.474 Y70.95
X14.501 Y70.911
X14.53 Y70.871
X14.554 Y70.914
X14.581 Y70.961
X14.618 Y71.019 Z-0.148
X14.659 Y71.074
X15.053 Y71.55
X15.103 Y71.608
X15.158 Y71.662
X15.274 Y71.764
X15.622 Y72.07
X15.68 Y72.12
X15.741 Y72.168
X15.997 Y72.341 Z-0.149
X16.253 Y72.513
X16.381 Y72.599
X16.515 Y72.675
X17.059 Y72.967
X17.195 Y73.04
X17.265 Y73.071
X17.338 Y73.097
X17.413 Y73.117 Z-0.15
X17.489 Y73.132
X17.565 Y73.14
X17.642 Y73.143
X17.72 Y73.139
X17.796 Y73.13
X17.872 Y73.115
X17.946 Y73.094
X18.018 Y73.067
X18.089 Y73.035
X18.156 Y72.998
X18.22 Y72.955
X18.281 Y72.908
X18.338 Y72.856
X18.391 Y72.8
X18.44 Y72.74
X18.483 Y72.676
X18.522 Y72.609
X18.555 Y72.54
X18.583 Y72.468
X18.606 Y72.394
X18.622 Y72.318
X18.633 Y72.242
X18.637 Y72.165 Z-0.151
X18.636 Y72.087
X18.63 Y72.011
X18.512 Y70.627
X18.498 Y70.473
X18.485 Y70.397 Z-0.152
X18.467 Y70.322
X18.392 Y70.023
X18.316 Y69.724
X18.297 Y69.649
X18.273 Y69.576
X18.215 Y69.432
X18.037 Y69.002
X18.006 Y68.93
X17.991 Y68.895
X17.975 Y68.859
X18.013 Y68.853
X18.052 Y68.861
X18.127 Y68.876 Z-0.153
X18.203 Y68.887
X18.279 Y68.891
X18.356 Y68.89
X18.432 Y68.882
X18.508 Y68.869
X18.582 Y68.85
X18.655 Y68.826
X18.726 Y68.795
X18.794 Y68.76
X18.86 Y68.719
X18.922 Y68.673
X18.98 Y68.623
X19.035 Y68.568
X19.085 Y68.509
X19.13 Y68.447
X19.17 Y68.381
X19.206 Y68.312
X19.235 Y68.241
X19.26 Y68.168
X19.278 Y68.093
X19.291 Y68.017
X19.297 Y67.94
X19.298 Y67.863 Z-0.154
X19.293 Y67.786
X19.282 Y67.709
X19.265 Y67.634
X19.242 Y67.56
X19.214 Y67.488
X19.18 Y67.419
X18.492 Y66.124 Z-0.155
X18.455 Y66.057
X18.414 Y65.992
X18.233 Y65.742
X17.863 Y65.247
X17.493 Y64.754 Z-0.156
X17.465 Y64.721
X17.441 Y64.687
X17.453 Y64.646
X17.464 Y64.605
X17.479 Y64.531
X17.488 Y64.456
X17.491 Y64.382
X17.489 Y64.307
X17.482 Y64.233
X17.468 Y64.16
X17.449 Y64.085
X17.424 Y64.012
X17.366 Y63.869
X16.904 Y62.724 Z-0.157
X16.845 Y62.581
X16.775 Y62.444
X16.461 Y61.912
X16.066 Y61.25 Z-0.158
X16.027 Y61.184
X16.006 Y61.152
X15.984 Y61.12
X15.994 Y61.083
X16.009 Y61.048
X16.034 Y60.975
X16.054 Y60.9
X16.068 Y60.825
X16.075 Y60.748
X16.077 Y60.67
X16.073 Y60.593
X16.063 Y60.517
X16.048 Y60.441
X16.027 Y60.367
X15.643 Y59.032 Z-0.159
X15.597 Y58.885
X15.539 Y58.742
X15.41 Y58.462
X14.959 Y57.488 Z-0.16
X14.943 Y57.454
X14.925 Y57.42
X14.905 Y57.383
X14.914 Y57.343
X14.932 Y57.309
X14.949 Y57.274
X14.977 Y57.203
X15.001 Y57.129
X15.018 Y57.054
X15.03 Y56.978
X15.036 Y56.901
Y56.824
X15.029 Y56.747
X15.004 Y56.594 Z-0.161
X14.914 Y56.089
X14.786 Y55.368
X14.754 Y55.192
X14.733 Y55.103
X14.707 Y55.015
X14.667 Y54.893
X14.315 Y53.863
X14.224 Y53.603
X14.178 Y53.492
X14.191 Y53.47
X14.217 Y53.426
X14.239 Y53.382
X14.258 Y53.338
X14.276 Y53.294
X14.29 Y53.25
X14.304 Y53.202
X14.315 Y53.154
X14.326 Y53.089
X14.333 Y53.025
X14.335 Y52.961
X14.334 Y52.896
X14.252 Y51.661
X14.246 Y51.572
X14.235 Y51.484
X14.169 Y51.131
X14.037 Y50.425
X13.968 Y50.072
X13.962 Y50.051
X13.936 Y49.968
X13.901 Y49.885
X13.53 Y49.012
X13.378 Y48.659
X13.354 Y48.605
X13.326 Y48.551
X13.293 Y48.497
X13.257 Y48.443
X12.905 Y47.947
X12.842 Y47.86
X12.773 Y47.774
X12.605 Y47.6
X12.562 Y47.556
X12.559 Y47.534
X12.612 Y47.423
X12.692 Y47.247
X12.707 Y47.203
X12.721 Y47.158
X12.732 Y47.114
X12.741 Y47.07
X12.762 Y46.894
X12.779 Y46.717
X12.781 Y46.673
X12.782 Y46.629
X12.776 Y46.54
X12.758 Y46.364
X12.747 Y46.276
X12.739 Y46.231
X12.729 Y46.187
X12.717 Y46.143
X12.702 Y46.099
X12.685 Y46.055
X12.677 Y46.033
X12.673 Y46.011
X12.89 Y45.834
X12.905 Y45.821
X12.989 Y45.736
X13.067 Y45.651
X13.257 Y45.438
X13.529 Y45.128
X13.573 Y45.067
X13.61 Y45.006
X13.741 Y44.775
X14.136 Y44.069
X14.315 Y43.747
X14.33 Y43.716
X14.366 Y43.627
X14.394 Y43.539
X14.447 Y43.362
X14.762 Y42.303
X14.787 Y42.215
X14.804 Y42.127
X15.02 Y40.863
X15.031 Y40.782
X15.034 Y40.7
X15.032 Y40.619
X15.022 Y40.538
X15.02 Y40.524
X15.002 Y40.439
X14.989 Y40.397
X14.975 Y40.354
X14.959 Y40.312
X14.94 Y40.269
X14.919 Y40.227
X14.895 Y40.184
X14.902 Y40.168
X14.911 Y40.152
X14.928 Y40.119
X14.959 Y40.054
X15.39 Y39.125
X15.551 Y38.772
X15.587 Y38.684
X15.617 Y38.596
X16.024 Y37.183
X16.048 Y37.095
X16.057 Y37.051
X16.064 Y37.007
X16.068 Y36.962
X16.071 Y36.918
X16.072 Y36.874
X16.071 Y36.83
X16.069 Y36.786
X16.064 Y36.742
X16.057 Y36.698
X16.048 Y36.653
X16.026 Y36.572
X15.996 Y36.49
X15.987 Y36.469
X15.999 Y36.449
X16.027 Y36.408
X16.078 Y36.326
X16.725 Y35.241
X16.783 Y35.141
X16.85 Y35.014
X16.904 Y34.888
X17.439 Y33.564
X17.456 Y33.52
X17.471 Y33.475
X17.488 Y33.411
X17.502 Y33.339
X17.51 Y33.266
X17.514 Y33.194
X17.512 Y33.122
X17.503 Y33.041
X17.488 Y32.96
X17.471 Y32.896
X17.461 Y32.864
X17.474 Y32.848
X17.488 Y32.832
X17.514 Y32.8
X17.538 Y32.769
X18.331 Y31.71
X18.392 Y31.624
X18.45 Y31.539
X18.546 Y31.367
X19.187 Y30.161
X19.222 Y30.093
X19.251 Y30.024
X19.277 Y29.944
X19.289 Y29.9
X19.299 Y29.856
X19.306 Y29.812
X19.312 Y29.768
X19.315 Y29.724
X19.317 Y29.68
X19.316 Y29.635
X19.314 Y29.591
X19.31 Y29.547
X19.303 Y29.503
X19.3 Y29.481
X19.319 Y29.459
X19.365 Y29.415
X19.527 Y29.238
X20.308 Y28.382
X20.395 Y28.281
X20.437 Y28.23
X20.475 Y28.179
X20.711 Y27.826
X21.324 Y26.908
X21.366 Y26.838
X21.401 Y26.766
X21.42 Y26.722
X21.436 Y26.678
X21.45 Y26.634
X21.462 Y26.59
X21.471 Y26.546
X21.479 Y26.502
X21.484 Y26.457
X21.487 Y26.413
X21.489 Y26.369
X21.488 Y26.325
X21.486 Y26.281
X21.482 Y26.237
X21.475 Y26.193
X21.467 Y26.148
X21.456 Y26.104
X21.444 Y26.06
X21.428 Y26.014
X21.41 Y25.968
X21.39 Y25.923
X21.366 Y25.877
X21.341 Y25.834
X21.314 Y25.792
X21.283 Y25.749
X21.249 Y25.707
X21.19 Y25.644
X21.131 Y25.591
X21.072 Y25.545
X21.013 Y25.506
X20.969 Y25.48
X20.925 Y25.457
X20.881 Y25.437
X20.837 Y25.42
X20.793 Y25.405
X20.749 Y25.392
X20.705 Y25.381
X20.661 Y25.372
X20.617 Y25.365
X20.573 Y25.361
X20.529 Y25.358
X20.485 Y25.357
X20.441 Y25.358
X20.396 Y25.361
X20.285 Y25.373
X20.262 Y25.354
X20.308 Y25.274
X20.456 Y25.001
X20.644 Y24.648
X20.661 Y24.611
X20.777 Y24.295
X20.906 Y23.941
X20.936 Y23.853
X20.948 Y23.809
X20.958 Y23.765
X21.195 Y22.529
X21.259 Y22.176
X21.263 Y22.132
X21.265 Y22.088
X21.266 Y22.044
X21.264 Y21.999
X21.26 Y21.955
X21.254 Y21.911
X21.246 Y21.867
X21.236 Y21.823
X21.224 Y21.779
X21.21 Y21.735
X21.194 Y21.69
X21.175 Y21.646
X21.153 Y21.602
X21.129 Y21.558
X21.101 Y21.514
X21.071 Y21.47
X21.043 Y21.435
X21.013 Y21.399
X20.969 Y21.353
X20.925 Y21.312
X20.881 Y21.275
X20.837 Y21.243
X20.793 Y21.214
X20.749 Y21.188
X20.705 Y21.165
X20.661 Y21.145
X20.588 Y21.117
X20.518 Y21.096
X20.448 Y21.08
X20.378 Y21.07
X20.308 Y21.064
X20.264 Y21.063
X20.22 Y21.064
X20.176 Y21.067
X20.132 Y21.072
X20.088 Y21.079
X20.044 Y21.088
X20. Y21.099
X19.956 Y21.113
X19.944 Y21.117
X19.603 Y21.254
X19.251 Y21.399
X19.086 Y21.47
X18.898 Y21.569
X18.546 Y21.757
X18.422 Y21.823
X18.365 Y21.857
X18.308 Y21.896
X18.193 Y21.977
X17.84 Y22.229
X17.756 Y22.29
X17.714 Y22.325
X17.672 Y22.364
X17.488 Y22.545
X17.316 Y22.714
X17.231 Y22.798
X17.191 Y22.84
X17.156 Y22.882
X17.135 Y22.909
X17.106 Y22.95
X17.09 Y22.964
X17.068 Y22.923
X17.044 Y22.882
X16.996 Y22.812
X16.969 Y22.777
X16.938 Y22.742
X16.9 Y22.701
X16.861 Y22.664
X16.822 Y22.631
X16.783 Y22.601
X16.725 Y22.562
X16.668 Y22.529
X16.608 Y22.5
X16.549 Y22.475
X16.49 Y22.454
X16.43 Y22.438
X16.386 Y22.428
X16.342 Y22.421
X16.298 Y22.415
X16.254 Y22.412
X16.21 Y22.41
X16.166
X16.122 Y22.413
X16.078 Y22.417
X16.034 Y22.423
X15.99 Y22.431
X15.945 Y22.441
X15.901 Y22.454
X15.857 Y22.468
X15.813 Y22.485
X15.769 Y22.505
X15.725 Y22.527
X15.721 Y22.529
X15.678 Y22.554
X15.634 Y22.582
X15.59 Y22.613
X15.547 Y22.648
X15.498 Y22.693
X15.448 Y22.744
X15.408 Y22.792
X15.373 Y22.84
X15.099 Y23.235
X15.02 Y23.356
X14.104 Y24.824
X14.05 Y24.913
X14.027 Y24.957
X14.006 Y25.001
X13.962 Y25.114
X13.747 Y25.707
X13.684 Y25.884
X13.652 Y25.972
X13.638 Y26.016
X13.626 Y26.06
X13.61 Y26.138
X13.604 Y26.172
X13.602 Y26.188
X13.585 Y26.204
X13.566 Y26.207
X13.522 Y26.214
X13.478 Y26.223
X13.434 Y26.233
X13.389 Y26.247
X13.345 Y26.262
X13.301 Y26.28
X13.257 Y26.3
X13.212 Y26.323
X13.167 Y26.35
X13.122 Y26.38
X13.077 Y26.413
X13.029 Y26.454
X12.98 Y26.5
X12.94 Y26.544
X12.905 Y26.588
X12.872 Y26.632
X12.843 Y26.677
X12.793 Y26.766
X12.6 Y27.119
X12.552 Y27.209
X11.847 Y28.61
X11.782 Y28.748
X11.736 Y28.885
X11.521 Y29.591
X11.494 Y29.681
X11.48 Y29.747
X11.47 Y29.813
X11.437 Y30.121
X11.425 Y30.233
X11.407 Y30.252
X11.389 Y30.257
X11.349 Y30.268
X11.271 Y30.297
X11.206 Y30.327
X11.142 Y30.363
X11.104 Y30.387
X11.065 Y30.414
X11.027 Y30.443
X10.988 Y30.476
X10.943 Y30.52
X10.903 Y30.563
X10.867 Y30.607
X10.835 Y30.651
X10.789 Y30.722
X10.753 Y30.793
X10.722 Y30.863
X10.663 Y31.004
X10.517 Y31.357
X10.025 Y32.618
X9.996 Y32.694
X9.971 Y32.769
X9.884 Y33.122
X9.798 Y33.475
X9.777 Y33.564
X9.763 Y33.652
X9.748 Y33.829
X9.701 Y34.358
X9.694 Y34.446
X9.692 Y34.491
X9.67 Y34.506
X9.649 Y34.515
X9.606 Y34.535
X9.549 Y34.565
X9.493 Y34.6
X9.436 Y34.64
X9.379 Y34.687
X9.327 Y34.737
X9.281 Y34.787
X9.241 Y34.838
X9.206 Y34.888
X9.179 Y34.932
X9.155 Y34.976
X9.133 Y35.02
X9.115 Y35.064
X9.058 Y35.241
X8.951 Y35.594
X8.85 Y35.947
X8.597 Y36.83
X8.576 Y36.918
X8.562 Y37.007
X8.43 Y38.066
X8.409 Y38.242
X8.401 Y38.331
Y38.375
X8.402 Y38.419
X8.435 Y38.772
X8.45 Y38.937
X8.434 Y38.953
X8.417 Y38.961
X8.384 Y38.979
X8.321 Y39.017
X8.253 Y39.066
X8.219 Y39.094
X8.184 Y39.125
X8.147 Y39.162
X8.114 Y39.199
X8.083 Y39.236
X8.056 Y39.273
X8.031 Y39.31
X8.008 Y39.347
X7.969 Y39.421
X7.944 Y39.478
X7.927 Y39.522
X7.913 Y39.567
X7.901 Y39.611
X7.891 Y39.655
X7.857 Y39.831
X7.789 Y40.184
X7.616 Y41.117
X7.605 Y41.181
X7.597 Y41.244
X7.539 Y41.95
X7.511 Y42.303
X7.51 Y42.347
X7.511 Y42.391
X7.518 Y42.48
X7.558 Y43.009
X7.575 Y43.186
X7.592 Y43.274
X7.738 Y43.862
X7.746 Y43.892
X7.768 Y43.98
X7.795 Y44.069
X7.947 Y44.422
X8.104 Y44.775
X8.188 Y44.951
X8.3 Y45.128
X8.409 Y45.292
X8.414 Y45.308
X8.374 Y45.358
X8.321 Y45.424
X8.281 Y45.481
X8.254 Y45.525
X8.23 Y45.569
X8.208 Y45.614
X8.19 Y45.658
X8.173 Y45.702
X8.159 Y45.746
X8.137 Y45.834
X8.054 Y46.187
X8.013 Y46.364
X7.993 Y46.452
X7.986 Y46.496
X7.98 Y46.54
X7.976 Y46.585
X7.974 Y46.629
X7.975 Y46.673
X7.977 Y46.717
X7.981 Y46.761
X7.987 Y46.805
X8.004 Y46.894
X8.075 Y47.247
X8.111 Y47.423
X8.122 Y47.467
X8.135 Y47.511
X8.151 Y47.556
X8.169 Y47.6
X8.189 Y47.644
X8.213 Y47.688
X8.268 Y47.776
X8.283 Y47.798
X8.268 Y47.82
X7.969 Y48.186
X7.921 Y48.246
X7.878 Y48.306
X7.85 Y48.35
X7.826 Y48.394
X7.418 Y49.189
X7.373 Y49.277
X7.353 Y49.321
X7.335 Y49.365
X7.314 Y49.427
X7.297 Y49.489
X7.264 Y49.614
X7.096 Y50.248
X7.072 Y50.336
X7.063 Y50.381
X7.055 Y50.425
X7.026 Y50.778
X6.986 Y51.307
X6.981 Y51.396
X6.983 Y51.484
X7.05 Y52.543
X7.073 Y52.896
X7.103 Y53.25
X7.119 Y53.426
X7.125 Y53.47
X7.133 Y53.514
X7.144 Y53.558
X7.157 Y53.603
X7.177 Y53.661
X7.201 Y53.719
X7.23 Y53.777
X7.264 Y53.836
X7.305 Y53.896
X7.352 Y53.956
X7.384 Y53.991
X7.418 Y54.026
X7.451 Y54.056
X7.484 Y54.084
X7.55 Y54.133
X7.616 Y54.174
X7.619 Y54.188
X7.616 Y54.203
X7.608 Y54.256
X7.602 Y54.309
X7.533 Y55.015
X7.515 Y55.192
X7.513 Y55.236
X7.512 Y55.28
X7.516 Y55.368
X7.575 Y56.074
X7.606 Y56.427
X7.616 Y56.488
X7.736 Y57.134
X7.802 Y57.487
X7.87 Y57.84
X7.905 Y58.015
X7.918 Y58.059
X7.933 Y58.103
X7.949 Y58.147
X7.969 Y58.191
X7.97 Y58.193
X7.992 Y58.237
X8.018 Y58.281
X8.046 Y58.325
X8.078 Y58.37
X8.113 Y58.414
X8.153 Y58.458
X8.202 Y58.505
X8.25 Y58.546
X8.286 Y58.573
X8.321 Y58.598
X8.378 Y58.633
X8.407 Y58.648
X8.421 Y58.656
X8.435 Y58.673
X8.397 Y59.076
X8.391 Y59.164
Y59.208
X8.392 Y59.252
X8.434 Y59.605
X8.543 Y60.488
X8.554 Y60.577
X8.561 Y60.621
X8.57 Y60.665
X8.669 Y61.018
X8.87 Y61.724
X8.974 Y62.077
X9.027 Y62.251
X9.08 Y62.43
X9.096 Y62.474
X9.113 Y62.519
X9.134 Y62.563
X9.156 Y62.607
X9.182 Y62.651
X9.211 Y62.695
X9.244 Y62.739
X9.28 Y62.783
X9.33 Y62.836
X9.379 Y62.882
X9.415 Y62.911
X9.451 Y62.938
X9.523 Y62.985
X9.592 Y63.023
X9.627 Y63.039
X9.644 Y63.046
X9.662 Y63.061
X9.666 Y63.137
X9.697 Y63.49
X9.732 Y63.881
X9.742 Y63.96
X9.758 Y64.038
X9.796 Y64.196
X9.926 Y64.726
X9.95 Y64.814
X9.982 Y64.902
X10.437 Y66.064
X10.537 Y66.315
X10.683 Y66.668
X10.729 Y66.774
X10.757 Y66.827
X10.789 Y66.881
X10.839 Y66.951
X10.868 Y66.986
X10.899 Y67.021
X10.96 Y67.08
X11.021 Y67.13
X11.081 Y67.173
X11.142 Y67.21
X11.207 Y67.243
X11.272 Y67.27
X11.337 Y67.292
X11.367 Y67.301
X11.381 Y67.305
X11.395 Y67.317
X11.439 Y67.727
X11.447 Y67.789
X11.459 Y67.851
X11.494 Y67.976
X11.634 Y68.433
X11.743 Y68.786
X11.766 Y68.841
X11.792 Y68.896
X12.447 Y70.199
X12.552 Y70.406
X12.632 Y70.552
X12.83 Y70.905
X12.865 Y70.955
X12.905 Y71.006
X12.943 Y71.048
X12.986 Y71.091
X13.026 Y71.127
X13.067 Y71.159
X13.108 Y71.188
X13.148 Y71.214
X13.189 Y71.237
X13.229 Y71.258
X13.257 Y71.271
X13.301 Y71.29
X13.345 Y71.306
X13.389 Y71.32
X13.434 Y71.331
X13.478 Y71.341
X13.522 Y71.348
X13.566 Y71.354
X13.61 Y71.357
X13.654 Y71.359
X13.698
X13.742 Y71.356
X13.786 Y71.352
X13.83 Y71.346
X13.874 Y71.337
X13.918 Y71.327
X13.962 Y71.315
X14.034 Y71.289
X14.105 Y71.258
X14.158 Y71.231
X14.21 Y71.199
X14.263 Y71.163
X14.315 Y71.121
X14.369 Y71.071
X14.424 Y71.013
X14.467 Y70.959
X14.505 Y70.905
X14.527 Y70.87
X14.539 Y70.887
X14.58 Y70.959
X14.614 Y71.013
X14.667 Y71.084
X15.02 Y71.51
X15.106 Y71.611
X15.14 Y71.645
X15.173 Y71.676
X15.502 Y71.964
X15.725 Y72.157
X15.962 Y72.317
X16.078 Y72.395
X16.43 Y72.629
X16.507 Y72.67
X17.164 Y73.024
X17.205 Y73.044
X17.245 Y73.063
X17.326 Y73.093
X17.407 Y73.116
X17.488 Y73.131
X17.532 Y73.137
X17.576 Y73.141
X17.62 Y73.143
X17.664 Y73.142
X17.708 Y73.14
X17.752 Y73.136
X17.796 Y73.13
X17.84 Y73.122
X17.908 Y73.105
X17.976 Y73.084
X18.043 Y73.057
X18.111 Y73.024
X18.152 Y73.
X18.193 Y72.974
X18.238 Y72.943
X18.282 Y72.907
X18.327 Y72.867
X18.371 Y72.822
X18.405 Y72.784
X18.435 Y72.746
X18.462 Y72.708
X18.487 Y72.67
X18.518 Y72.616
X18.546 Y72.562
X18.571 Y72.501
X18.592 Y72.44
X18.609 Y72.378
X18.622 Y72.317
X18.629 Y72.273
X18.634 Y72.229
X18.637 Y72.185
X18.638 Y72.141
X18.626 Y71.964
X18.506 Y70.552
X18.496 Y70.464
X18.48 Y70.375
X18.436 Y70.199
X18.347 Y69.846
X18.302 Y69.669
X18.275 Y69.581
X18.24 Y69.493
X18.041 Y69.012
X18.012 Y68.944
X17.995 Y68.904
X17.984 Y68.88
X17.978 Y68.866
X17.992 Y68.848
X18.064 Y68.864
X18.117 Y68.875
X18.193 Y68.886
X18.237 Y68.889
X18.281 Y68.891
X18.325
X18.369 Y68.889
X18.413 Y68.885
X18.457 Y68.879
X18.501 Y68.87
X18.546 Y68.86
X18.595 Y68.846
X18.645 Y68.829
X18.695 Y68.809
X18.745 Y68.786
X18.783 Y68.766
X18.821 Y68.744
X18.86 Y68.719
X18.898 Y68.692
X18.934 Y68.664
X18.969 Y68.633
X19.004 Y68.6
X19.04 Y68.562
X19.094 Y68.498
X19.139 Y68.433
X19.174 Y68.374
X19.204 Y68.315
X19.23 Y68.256
X19.251 Y68.197
X19.268 Y68.139
X19.281 Y68.08
X19.288 Y68.036
X19.294 Y67.992
X19.297 Y67.948
X19.299 Y67.904
X19.298 Y67.859
X19.296 Y67.815
X19.291 Y67.771
X19.285 Y67.727
X19.271 Y67.656
X19.251 Y67.585
X19.232 Y67.532
X19.21 Y67.48
X19.156 Y67.374
X18.476 Y66.093
X18.437 Y66.027
X18.393 Y65.961
X18.193 Y65.688
X17.605 Y64.902
X17.488 Y64.748
X17.446 Y64.698
X17.445 Y64.673
X17.453 Y64.648
X17.465 Y64.599
X17.476 Y64.549
X17.483 Y64.502
X17.488 Y64.455
X17.491 Y64.373
X17.488 Y64.29
X17.483 Y64.243
X17.476 Y64.196
X17.467 Y64.152
X17.456 Y64.108
X17.442 Y64.063
X17.427 Y64.019
X17.356 Y63.843
X16.862 Y62.621
X16.826 Y62.539
X16.783 Y62.458
X16.768 Y62.43
X16.56 Y62.077
X16.078 Y61.27
X16. Y61.144
X15.989 Y61.128
X15.981 Y61.112
X15.995 Y61.081
X16.02 Y61.018
X16.035 Y60.974
X16.047 Y60.93
X16.057 Y60.885
X16.065 Y60.841
X16.071 Y60.797
X16.075 Y60.753
X16.077 Y60.709
Y60.665
X16.075 Y60.621
X16.072 Y60.577
X16.066 Y60.532
X16.058 Y60.488
X16.011 Y60.312
X15.706 Y59.252
X15.602 Y58.899
X15.567 Y58.811
X15.53 Y58.723
X15.449 Y58.546
X14.958 Y57.487
X14.937 Y57.443
X14.913 Y57.399
X14.901 Y57.376
X14.908 Y57.354
X14.931 Y57.31
X14.952 Y57.266
X14.97 Y57.222
X14.986 Y57.178
X14.999 Y57.134
X15.011 Y57.089
X15.02 Y57.044
X15.03 Y56.978
X15.035 Y56.912
X15.036 Y56.847
X15.033 Y56.781
X15.028 Y56.732
X15.02 Y56.684
X14.914 Y56.089
G3 X15.174 Y55.865 I0.197 J-0.035
G0 Z5.
X27.302 Y35.088
Z1.903
G1 Z-0.065 F200.
G3 X27.584 Y34.849 I0.191 J-0.061
G1 X27.659 Y34.888
X27.712 Y34.911 Z-0.066
X27.756 Y34.927
X27.8 Y34.941
X27.844 Y34.953
X27.888 Y34.962
X27.932 Y34.97
X27.976 Y34.975
X28.02 Y34.979
X28.065 Y34.981
X28.109 Y34.98
X28.153 Y34.978
X28.197 Y34.974
X28.241 Y34.968
X28.285 Y34.959
X28.329 Y34.949
X28.373 Y34.937
X28.417 Y34.922
X28.459 Y34.906 Z-0.067
X28.5 Y34.888
X28.568 Y34.853
X28.635 Y34.812
X28.702 Y34.763
X28.736 Y34.735
X28.77 Y34.704
X28.812 Y34.662
X28.849 Y34.62
X28.915 Y34.535
X29.598 Y33.637 Z-0.069
X29.659 Y33.556
X29.687 Y33.516
X29.712 Y33.475
X29.751 Y33.402
X29.783 Y33.329
X29.808 Y33.256
X29.827 Y33.183
X29.839 Y33.122
X29.845 Y33.073
X29.865 Y33.05 Z-0.07
X29.885 Y33.042
X29.924 Y33.024
X29.967 Y33.002
X30.009 Y32.978
X30.052 Y32.951
X30.095 Y32.92
X30.137 Y32.886
X30.18 Y32.848
X30.219 Y32.809
X30.255 Y32.769
X30.532 Y32.406 Z-0.071
X30.873 Y31.959
X30.885 Y31.944
X30.944 Y31.895 Z-0.072
X31.003 Y31.838
X31.12 Y31.71
X32.41 Y30.297 Z-0.074
X32.648 Y30.036 Z-0.075
X32.685 Y29.99
X32.717 Y29.944
X32.761 Y29.872
X32.781 Y29.836
X32.793 Y29.825
X32.806 Y29.817
X32.831 Y29.799
X32.874 Y29.768
X32.916 Y29.732
X33. Y29.654
X33.838 Y28.885 Z-0.077
X33.958 Y28.773
X34.009 Y28.717
X34.058 Y28.661
X34.351 Y28.292 Z-0.078
X34.382 Y28.251
X34.411 Y28.211
X34.431 Y28.179
X34.482 Y28.091
X34.503 Y28.046
X34.522 Y28.002
X34.555 Y27.914
X34.579 Y27.826
X34.591 Y27.782
X34.606 Y27.766 Z-0.079
X34.625 Y27.769
X34.671 Y27.772
X34.717 Y27.774
X34.763 Y27.773
X34.807 Y27.77
X34.851 Y27.766
X34.895 Y27.759
X34.939 Y27.75
X34.983 Y27.74
X35.028 Y27.727
X35.072 Y27.712
X35.116 Y27.694
X35.158 Y27.675
X35.2 Y27.653
X35.243 Y27.629
X35.285 Y27.602
X35.455 Y27.473 Z-0.08
X36.358 Y26.766 Z-0.081
X36.442 Y26.697
X36.487 Y26.654
X36.526 Y26.611
X36.543 Y26.59
X36.562 Y26.569
X36.597 Y26.55 Z-0.082
X36.669 Y26.507
X38.641 Y25.215 Z-0.085
X38.787 Y25.12
X38.823 Y25.094
X38.86 Y25.066
X38.896 Y25.035
X38.932 Y25.001
X38.964 Y24.967
X38.994 Y24.934
X39.023 Y24.898
X39.049 Y24.863
X39.094 Y24.791
X39.132 Y24.719
X39.163 Y24.648 Z-0.086
X39.175 Y24.614
X39.182 Y24.594
X39.192 Y24.573
X39.209 Y24.58
X39.254 Y24.598
X39.3 Y24.614
X39.346 Y24.627
X39.398 Y24.639
X39.449 Y24.648
X39.512 Y24.655
X39.574 Y24.658
X39.636
X39.699 Y24.653
X39.743 Y24.648
X39.82 Y24.633
X39.897 Y24.612 Z-0.087
X39.974 Y24.584
X40.051 Y24.549
X40.14 Y24.505
X40.184 Y24.481
X40.228 Y24.453
X40.272 Y24.421
X40.316 Y24.386
X40.36 Y24.347
X40.404 Y24.303
X40.411 Y24.295
X40.449 Y24.25
X40.483 Y24.206 Z-0.088
X40.513 Y24.162
X40.54 Y24.118
X40.564 Y24.074
X40.585 Y24.03
X40.603 Y23.986
X40.619 Y23.941
X40.633 Y23.897
X40.645 Y23.853
X40.654 Y23.809
X40.661 Y23.765
X40.667 Y23.721
X40.67 Y23.677
X40.672 Y23.633
X40.671 Y23.588
X40.648 Y23.235 Z-0.089
X40.625 Y22.882
X40.642 Y22.862
X40.659 Y22.882
X40.757 Y23.
X40.793 Y23.038 Z-0.09
X40.833 Y23.077
X40.871 Y23.11
X40.909 Y23.14
X40.948 Y23.167
X40.986 Y23.191
X41.062 Y23.235
X41.109 Y23.262
X41.285 Y23.363
X41.329 Y23.385
X41.374 Y23.404
X41.418 Y23.421
X41.462 Y23.436 Z-0.091
X41.638 Y23.486
X41.814 Y23.519
X41.858 Y23.524
X41.902 Y23.527
X41.99 Y23.529
X42.167 Y23.528
X42.255 Y23.523 Z-0.092
X42.343 Y23.511
X42.519 Y23.485
X42.563 Y23.477
X42.607 Y23.467
X42.696 Y23.441
X42.74 Y23.425
X42.784 Y23.408
X42.872 Y23.366
X43.132 Y23.235 Z-0.093
X43.155 Y23.222
X43.178
X43.224
X43.269 Y23.22
X43.313 Y23.216
X43.357 Y23.209
X43.401 Y23.201
X43.445 Y23.191
X43.489 Y23.179
X43.577 Y23.149
X43.665 Y23.117
X43.709 Y23.097
X43.753 Y23.075 Z-0.094
X43.797 Y23.049
X43.841 Y23.021
X43.885 Y22.989
X43.93 Y22.953
X43.967 Y22.919
X44.004 Y22.882
X44.043 Y22.838
X44.078 Y22.794
X44.109 Y22.75
X44.137 Y22.706
X44.162 Y22.661
X44.183 Y22.617
X44.203 Y22.573
X44.22 Y22.529
X44.234 Y22.485 Z-0.095
X44.246 Y22.441
X44.256 Y22.397
X44.264 Y22.353
X44.27 Y22.308
X44.274 Y22.264
X44.277 Y22.22
Y22.176
X44.275 Y22.132
X44.271 Y22.088
X44.265 Y22.044
X44.257 Y21.999
X44.248 Y21.955
X44.236 Y21.911
X44.207 Y21.823
X43.897 Y20.865 Z-0.097
X43.879 Y20.814
X43.858 Y20.764
X43.838 Y20.719
X43.814 Y20.675
X43.788 Y20.631
X43.758 Y20.587
X43.724 Y20.543
X43.719 Y20.521
X43.726 Y20.499
X43.738 Y20.455
X43.749 Y20.41
X43.757 Y20.366
X43.764 Y20.322
X43.768 Y20.278
X43.77 Y20.234
X43.771 Y20.19 Z-0.098
X43.769 Y20.146
X43.762 Y20.057
X43.747 Y19.881
X43.74 Y19.792
X43.735 Y19.748
X43.728 Y19.704
X43.718 Y19.66
X43.707 Y19.616
X43.694 Y19.572
X43.678 Y19.528
X43.66 Y19.484
X43.64 Y19.439
X43.592 Y19.351 Z-0.099
X43.44 Y19.08
X43.416 Y19.039
X43.388 Y18.998
X43.354 Y18.953
X43.316 Y18.908
X43.27 Y18.859
X43.224 Y18.817
X43.002 Y18.645 Z-0.1
X42.872 Y18.546
X42.828 Y18.517
X42.784 Y18.491
X42.74 Y18.468
X42.696 Y18.447
X42.652 Y18.429
X42.607 Y18.413
X42.519 Y18.388
X42.167 Y18.301 Z-0.101
X42.122 Y18.292
X42.045 Y18.281
X41.968 Y18.276
X41.891
X41.814 Y18.283
X41.752 Y18.292
X41.462 Y18.334 Z-0.102
X41.374 Y18.348
X41.329 Y18.356
X41.285 Y18.367
X41.241 Y18.379
X41.197 Y18.394
X41.153 Y18.411
X41.109 Y18.431
X40.757 Y18.621 Z-0.103
X40.724 Y18.639
X40.707 Y18.64
X40.691 Y18.639
X40.625 Y18.636
X40.559 Y18.638
X40.494 Y18.645
X40.449 Y18.652
X40.404 Y18.661
X40.36 Y18.672
X40.316 Y18.685
X40.228 Y18.715
X40.184 Y18.73 Z-0.104
X40.14 Y18.749
X40.096 Y18.769
X40.051 Y18.793
X39.988 Y18.832
X39.924 Y18.878
X39.861 Y18.933
X39.828 Y18.965
X39.797 Y18.998
X39.773 Y19.027
X39.748 Y19.043
X39.699 Y19.041
X39.655 Y19.042
X39.611 Y19.045
X39.567 Y19.05
X39.523 Y19.057 Z-0.105
X39.479 Y19.066
X39.434 Y19.077
X39.39 Y19.09
X39.346 Y19.106
X39.302 Y19.123
X39.258 Y19.144
X38.289 Y19.63 Z-0.106
X38.141 Y19.704
X38.09 Y19.733 Z-0.107
X38.039 Y19.766
X37.987 Y19.804
X37.936 Y19.847
X37.882 Y19.9
X37.835 Y19.952
X37.795 Y20.005
X37.759 Y20.057
X37.751 Y20.071
X37.737 Y20.085
X37.715 Y20.083
X37.671 Y20.08
X37.627 Y20.079
X37.584 Y20.08
X37.539 Y20.083
X37.495 Y20.088
X37.451 Y20.095 Z-0.108
X37.407 Y20.105
X37.363 Y20.116
X37.319 Y20.129
X37.275 Y20.145
X37.231 Y20.163
X36.878 Y20.338
X36.35 Y20.604 Z-0.109
X36.261 Y20.65
X36.217 Y20.677
X36.173 Y20.707
X36.138 Y20.734
X36.102 Y20.764
X36.063 Y20.799
X36.025 Y20.839 Z-0.11
X35.991 Y20.877
X35.962 Y20.915
X35.927 Y20.964
X35.911 Y20.988
X35.891 Y21.013
X35.821 Y21.026
X35.759 Y21.042
X35.697 Y21.062
X35.635 Y21.087
X35.574 Y21.117
X35.521 Y21.146
X35.468 Y21.18
X34.411 Y21.871 Z-0.112
X34.332 Y21.925
X34.293 Y21.956
X34.254 Y21.991
X34.207 Y22.037
X34.166 Y22.083
X34.129 Y22.13
X34.097 Y22.176 Z-0.113
X34.058 Y22.24
X34.026 Y22.303
X34. Y22.365
X33.978 Y22.427
X33.969 Y22.459
X33.964 Y22.476
X33.949 Y22.492
X33.93 Y22.491
X33.882 Y22.49
X33.838
X33.794 Y22.493
X33.75 Y22.497
X33.705 Y22.503
X33.649 Y22.515
X33.593 Y22.529
X33.533 Y22.549 Z-0.114
X33.473 Y22.572
X33.413 Y22.601
X33.353 Y22.635
X33.312 Y22.661
X33.271 Y22.69
X33.189 Y22.754
X32.215 Y23.518 Z-0.116
X32.175 Y23.551
X32.134 Y23.588
X32.086 Y23.638
X32.063 Y23.663
X32.039 Y23.673
X31.991 Y23.696
X31.943 Y23.722
X31.874 Y23.765
X31.805 Y23.817
X31.668 Y23.941
X31.157 Y24.409 Z-0.117
X31.115 Y24.451
X31.077 Y24.492
X31.044 Y24.531 Z-0.118
X31.015 Y24.57
X30.989 Y24.609
X30.965 Y24.648
X30.942 Y24.69
X30.922 Y24.732
X30.903 Y24.774
X30.895 Y24.795
X30.885 Y24.816
X30.841 Y24.829
X30.797 Y24.844
X30.753 Y24.861
X30.709 Y24.881
X30.665 Y24.904
X30.621 Y24.929
X30.577 Y24.958
X30.532 Y24.99
X30.519 Y25.001
X30.18 Y25.309 Z-0.119
X29.746 Y25.707 Z-0.12
X29.475 Y25.956
X29.424 Y26.008
X29.381 Y26.06
X29.35 Y26.102
X29.323 Y26.143 Z-0.121
X29.298 Y26.184
X29.276 Y26.226
X29.256 Y26.267
X29.239 Y26.308
X29.232 Y26.327
X29.21 Y26.345
X29.18 Y26.359
X29.122 Y26.391
X29.086 Y26.413
X29.046 Y26.44
X29.007 Y26.47
X28.967 Y26.503
X28.928 Y26.539
X28.77 Y26.71 Z-0.122
X27.359 Y28.255 Z-0.124
X27.235 Y28.393
X27.182 Y28.463 Z-0.125
X27.138 Y28.532
X27.114 Y28.576
X27.093 Y28.62
X27.074 Y28.664
X27.058 Y28.708
X27.044 Y28.753
X27.032 Y28.797
X27.022 Y28.841
X27.015 Y28.885
X27.007 Y28.953
X27.004 Y29.033
X27.007 Y29.113
X27.014 Y29.175
X27.025 Y29.238 Z-0.126
X27.035 Y29.282
X27.048 Y29.326
X27.063 Y29.371
X27.08 Y29.415
X27.099 Y29.459
X27.121 Y29.503
X27.146 Y29.547
X27.174 Y29.591
X27.206 Y29.635
X27.241 Y29.68
X27.3 Y29.743
X27.359 Y29.799
Y29.813
X27.007 Y29.716 Z-0.127
X26.831 Y29.67
X26.787 Y29.661
X26.742 Y29.655
X26.698 Y29.651
X26.654 Y29.648
X26.61
X26.566 Y29.65
X26.522 Y29.653
X26.478 Y29.659 Z-0.128
X26.434 Y29.666
X26.39 Y29.676
X26.346 Y29.687
X26.302 Y29.701
X26.258 Y29.717
X26.214 Y29.736
X26.17 Y29.757
X26.126 Y29.781
X26.081 Y29.808
X26.037 Y29.838
X25.993 Y29.872
X25.949 Y29.91
X25.913 Y29.944
X25.872 Y29.988
X25.836 Y30.033 Z-0.129
X25.769 Y30.121
X25.739 Y30.165
X25.711 Y30.209
X25.687 Y30.253
X25.665 Y30.297
