(1001)
(T1  D=1. CR=0. - ZMIN=-0.781 - FLAT END MILL)
G0 G90 G94 G17
G21
G53 G0 Z0.

(1MM  FLATEND  POCKET)
M5
M9
T1
S12000 M3
G4 P4.
G55
G0 X32.313 Y29.728
Z15.
Z2.504
G1 Z2.3 F17.
Z-0.219 F100.
X32.314 Y29.721 Z-0.25
X32.315 Y29.704 Z-0.276
X32.317 Y29.678 Z-0.293
X32.32 Y29.648 Z-0.299
X32.327 Y29.617
X32.363 Y29.533
X32.374 Y29.501 F25.
X32.38 Y29.468
X32.397 Y29.462 F100.
X32.459 Y29.439
X32.483 Y29.428
X32.506 Y29.423
X32.528 Y29.428
X32.546 Y29.444
X32.555 Y29.466
X32.552 Y29.489
X32.471 Y29.717
X32.458 Y29.739
X32.335 Y29.856
X32.315 Y29.867
X32.292 Y29.866
X32.272 Y29.854
X32.262 Y29.834
X32.263 Y29.81
X32.275 Y29.774 Z-0.307
X32.285 Y29.744 Z-0.328
X32.292 Y29.723 Z-0.36
X32.298 Y29.702 Z-0.392
X32.309 Y29.672 Z-0.413
X32.32 Y29.636 Z-0.421
X32.327 Y29.617
X32.363 Y29.533
X32.374 Y29.501 F25.
X32.38 Y29.468
X32.397 Y29.462 F100.
X32.459 Y29.439
X32.483 Y29.428
X32.506 Y29.423
X32.528 Y29.428
X32.546 Y29.444
X32.555 Y29.466
X32.552 Y29.489
X32.471 Y29.717
X32.458 Y29.739
X32.335 Y29.856
X32.315 Y29.867
X32.292 Y29.866
X32.272 Y29.854
X32.262 Y29.834
X32.263 Y29.81
X32.275 Y29.774 Z-0.428
X32.285 Y29.744 Z-0.45
X32.292 Y29.723 Z-0.482
X32.298 Y29.702 Z-0.514
X32.309 Y29.672 Z-0.535
X32.32 Y29.636 Z-0.543
X32.327 Y29.617
X32.363 Y29.533
X32.374 Y29.501 F25.
X32.38 Y29.468
X32.397 Y29.462 F100.
X32.459 Y29.439
X32.483 Y29.428
X32.507 Y29.424
X32.529 Y29.434
X32.541 Y29.455
X32.54 Y29.479
X32.48 Y29.648
X32.42 Y29.76
X32.321 Y29.864
X32.304 Y29.874
X32.284
X32.266 Y29.863
X32.257 Y29.846
X32.258 Y29.825
X32.27 Y29.79 Z-0.55
X32.28 Y29.76 Z-0.57
X32.286 Y29.739 Z-0.601
X32.289 Y29.731 Z-0.638
X32.292 Y29.722 Z-0.675
X32.299 Y29.701 Z-0.706
X32.309 Y29.671 Z-0.726
X32.32 Y29.636 Z-0.733
X32.327 Y29.617
X32.363 Y29.533
X32.374 Y29.501 F25.
X32.38 Y29.468
X32.397 Y29.462 F100.
X32.459 Y29.439
X32.492 Y29.423
X32.518 Y29.417
X32.543 Y29.425
X32.561 Y29.444
X32.566 Y29.47
X32.558 Y29.495
X32.358 Y29.786
X32.344 Y29.8
X32.326 Y29.807
X32.331 Y29.806
X32.31 Y29.808
X32.29 Y29.799
X32.279 Y29.78
X32.28 Y29.759
X32.291 Y29.726 Z-0.74
X32.3 Y29.697 Z-0.757
X32.31 Y29.668 Z-0.775
X32.32 Y29.636 Z-0.781
X32.327 Y29.617
X32.363 Y29.533
X32.374 Y29.501 F25.
X32.38 Y29.468
X32.397 Y29.462 F100.
X32.459 Y29.439
X32.497 Y29.421
X35.082 Y27.899
X35.115 Y27.88 Z-0.774
X35.143 Y27.863 Z-0.752
X35.162 Y27.852 Z-0.719
X35.168 Y27.849 Z-0.681
G0 Z5.
X31.428 Y24.805
Z2.505
G1 Z2.3 F17.
Z-0.219 F100.
X31.426 Y24.811 Z-0.25
X31.422 Y24.828 Z-0.276
X31.415 Y24.853 Z-0.293
X31.407 Y24.882 Z-0.299
X31.395 Y24.911
X31.388 Y24.921
X31.365 Y24.965
X31.352 Y25.012
X31.335 Y25.109
X31.331 Y25.144
X31.332 Y25.18
X31.348 Y25.329 F25.
X31.284 Y25.304
X31.243 Y25.292 F100.
X31.2 Y25.287
X31.118 Y25.284
X31.076 Y25.286
X31.036 Y25.295
X30.955 Y25.321
X30.928 Y25.331
X28.189 Y26.554
X28.154 Y26.57 Z-0.291
X28.124 Y26.583 Z-0.27
X28.104 Y26.592 Z-0.237
X28.097 Y26.595 Z-0.199
G0 Z5.
X31.428 Y24.805
Z2.505
G1 Z2.201 F17.
Z-0.341 F100.
X31.426 Y24.811 Z-0.371
X31.422 Y24.828 Z-0.397
X31.415 Y24.853 Z-0.415
X31.407 Y24.882 Z-0.421
X31.395 Y24.911
X31.388 Y24.921
X31.365 Y24.965
X31.352 Y25.012
X31.335 Y25.109
X31.331 Y25.144
X31.332 Y25.18
X31.348 Y25.329 F25.
X31.284 Y25.304
X31.243 Y25.292 F100.
X31.2 Y25.287
X31.118 Y25.284
X31.076 Y25.286
X31.036 Y25.295
X30.955 Y25.321
X30.928 Y25.331
X28.189 Y26.554
X28.154 Y26.57 Z-0.413
X28.124 Y26.583 Z-0.392
X28.104 Y26.592 Z-0.359
X28.097 Y26.595 Z-0.321
G0 Z5.
X31.428 Y24.805
Z2.505
G1 Z2.079 F17.
Z-0.463 F100.
X31.426 Y24.811 Z-0.493
X31.422 Y24.828 Z-0.519
X31.415 Y24.853 Z-0.536
X31.407 Y24.882 Z-0.543
X31.395 Y24.911
X31.388 Y24.921
X31.365 Y24.965
X31.352 Y25.012
X31.335 Y25.109
X31.331 Y25.144
X31.332 Y25.18
X31.348 Y25.329 F25.
X31.284 Y25.304
X31.243 Y25.292 F100.
X31.2 Y25.287
X31.118 Y25.284
X31.076 Y25.286
X31.036 Y25.295
X30.955 Y25.321
X30.928 Y25.331
X28.189 Y26.554
X28.154 Y26.57 Z-0.535
X28.124 Y26.583 Z-0.513
X28.104 Y26.592 Z-0.481
X28.097 Y26.595 Z-0.443
G0 Z5.
X31.428 Y24.805
Z2.505
G1 Z1.862 F17.
Z-0.653 F100.
X31.426 Y24.811 Z-0.684
X31.422 Y24.828 Z-0.71
X31.415 Y24.853 Z-0.727
X31.407 Y24.882 Z-0.733
X31.395 Y24.911
X31.388 Y24.921
X31.365 Y24.965
X31.352 Y25.012
X31.335 Y25.109
X31.331 Y25.144
X31.332 Y25.18
X31.348 Y25.329 F25.
X31.284 Y25.304
X31.243 Y25.292 F100.
X31.2 Y25.287
X31.118 Y25.284
X31.076 Y25.286
X31.036 Y25.295
X30.955 Y25.321
X30.928 Y25.331
X30.902 Y25.335
X30.878 Y25.325
X30.861 Y25.305
X30.858 Y25.279
X30.868 Y25.254
X31.236 Y24.784
X31.252 Y24.77
X31.273 Y24.765
X31.426 Y24.756
X31.474 Y24.767
X31.458 Y24.797 Z-0.74
X31.443 Y24.824 Z-0.757
X31.429 Y24.85 Z-0.775
X31.413 Y24.881 Z-0.781
X31.395 Y24.911
X31.388 Y24.921
X31.365 Y24.965
X31.352 Y25.012
X31.335 Y25.109
X31.331 Y25.144
X31.332 Y25.18
X31.348 Y25.329 F25.
X31.284 Y25.304
X31.243 Y25.292 F100.
X31.2 Y25.287
X31.118 Y25.284
X31.076 Y25.286
X31.036 Y25.295
X30.955 Y25.321
X30.928 Y25.331
X28.189 Y26.554
X28.154 Y26.57 Z-0.774
X28.124 Y26.583 Z-0.752
X28.104 Y26.592 Z-0.719
X28.097 Y26.595 Z-0.681
G0 Z5.
X33.987 Y28.011
Z2.505
G1 Z2.3 F17.
Z-0.219 F100.
X33.988 Y28.005 Z-0.25
X33.991 Y27.988 Z-0.276
X33.996 Y27.962 Z-0.293
X34.001 Y27.932 Z-0.299
X34.011 Y27.902
X34.07 Y27.792
X34.085 Y27.755
X34.148 Y27.572
X34.158 Y27.529
X34.186 Y27.344
X34.189 Y27.299
X34.183 Y27.114
X34.177 Y27.067
X34.135 Y26.882
X34.121 Y26.84
X34.054 Y26.682
X34.034 Y26.644
X33.936 Y26.494
X33.909 Y26.459
X33.784 Y26.327
X33.755 Y26.3
X33.638 Y26.21
X33.601 Y26.186
X33.441 Y26.103
X33.398 Y26.085
X33.244 Y26.038
X33.199 Y26.029
X33.014 Y26.008
X32.97 Y26.007
X32.829 Y26.016 F25.
X32.779 Y25.566 F100.
X32.775 Y25.423
X32.769 Y25.223 F25.
X32.857 Y25.043 F100.
X32.946 Y24.864 F25.
X32.982 Y24.86
X33.028 Y24.851
X33.071 Y24.833
X33.129 Y24.803
X33.167 Y24.841
X34.18 Y26.163 F100.
X34.302 Y26.322 F25.
X34.322 Y26.357
X34.296 Y26.382
X34.269 Y26.413 F100.
X34.248 Y26.447
X34.213 Y26.517
X34.197 Y26.557
X34.188 Y26.599
X34.176 Y26.691
X34.175 Y26.738
X34.182 Y26.785
X34.206 Y26.877
X34.221 Y26.92
X34.244 Y26.959
X34.326 Y27.074
X34.361 Y27.114
X34.42 Y27.168
X34.456 Y27.195
X34.496 Y27.215
X34.588 Y27.252
X34.635 Y27.265
X34.683 Y27.27
X34.764 Y27.269
X34.788 Y27.272 Z-0.292
X34.812 Y27.281 Z-0.286
X34.84 Y27.304 Z-0.249
X34.848 Y27.314 Z-0.199
G0 Z5.
X32.497 Y23.878
Z2.504
G1 Z2.3 F17.
Z-0.219 F100.
X32.495 Y23.883 Z-0.25
X32.489 Y23.899 Z-0.276
X32.479 Y23.924 Z-0.293
X32.468 Y23.952 Z-0.299
X32.453 Y23.979
X32.433 Y24.007 F25.
X32.383 Y24.089
X32.348 Y24.095 F100.
X32.314 Y24.107
X32.245 Y24.132
X32.223 Y24.133
X32.204 Y24.12
X32.196 Y24.099
X32.202 Y24.078
X32.285 Y23.951
X32.407 Y23.828
X32.534 Y23.758
X32.555 Y23.753
X32.575 Y23.76
X32.589 Y23.777
X32.592 Y23.798
X32.583 Y23.818
X32.559 Y23.848 Z-0.307
X32.539 Y23.873 Z-0.328
X32.525 Y23.89 Z-0.36
X32.512 Y23.907 Z-0.392
X32.491 Y23.932 Z-0.413
X32.467 Y23.961 Z-0.421
X32.453 Y23.979
X32.433 Y24.007 F25.
X32.383 Y24.089
X32.348 Y24.095 F100.
X32.314 Y24.107
X32.245 Y24.132
X32.221 Y24.138 Z-0.414
X32.196 Y24.137 Z-0.407
X32.162 Y24.125 Z-0.371
X32.15 Y24.118 Z-0.321
G0 Z5.
X33.987 Y28.011
Z2.505
G1 Z2.201 F17.
Z-0.341 F100.
X33.988 Y28.005 Z-0.371
X33.991 Y27.988 Z-0.397
X33.996 Y27.962 Z-0.415
X34.001 Y27.932 Z-0.421
X34.011 Y27.902
X34.07 Y27.792
X34.085 Y27.755
X34.148 Y27.572
X34.158 Y27.529
X34.186 Y27.344
X34.189 Y27.299
X34.183 Y27.114
X34.177 Y27.067
X34.135 Y26.882
X34.121 Y26.84
X34.054 Y26.682
X34.034 Y26.644
X33.936 Y26.494
X33.909 Y26.459
X33.784 Y26.327
X33.755 Y26.3
X33.638 Y26.21
X33.601 Y26.186
X33.441 Y26.103
X33.398 Y26.085
X33.244 Y26.038
X33.199 Y26.029
X33.014 Y26.008
X32.97 Y26.007
X32.829 Y26.016 F25.
X32.779 Y25.567 F100.
X32.775 Y25.42
X32.77 Y25.22 F25.
X32.857 Y25.043 F100.
X32.946 Y24.864 F25.
X32.982 Y24.86
X33.028 Y24.851
X33.071 Y24.833
X33.129 Y24.803
X33.167 Y24.841
X34.18 Y26.163 F100.
X34.302 Y26.322 F25.
X34.322 Y26.357
X34.296 Y26.382
X34.269 Y26.413 F100.
X34.248 Y26.447
X34.213 Y26.517
X34.197 Y26.557
X34.188 Y26.599
X34.176 Y26.691
X34.175 Y26.738
X34.182 Y26.785
X34.206 Y26.877
X34.221 Y26.92
X34.244 Y26.959
X34.326 Y27.074
X34.361 Y27.114
X34.42 Y27.168
X34.456 Y27.195
X34.496 Y27.215
X34.588 Y27.252
X34.635 Y27.265
X34.683 Y27.27
X34.764 Y27.269
X34.788 Y27.272 Z-0.414
X34.812 Y27.281 Z-0.407
X34.84 Y27.304 Z-0.371
X34.848 Y27.314 Z-0.321
G0 Z5.
X33.984 Y28.017
Z2.505
G1 Z2.079 F17.
Z-0.463 F100.
X33.985 Y28.011 Z-0.493
X33.988 Y27.994 Z-0.519
X33.993 Y27.968 Z-0.536
X33.998 Y27.938 Z-0.543
X34.008 Y27.908
X34.07 Y27.792
X34.085 Y27.755
X34.148 Y27.572
X34.158 Y27.529
X34.186 Y27.344
X34.189 Y27.299
X34.183 Y27.114
X34.177 Y27.067
X34.135 Y26.882
X34.121 Y26.84
X34.054 Y26.682
X34.034 Y26.644
X33.936 Y26.494
X33.909 Y26.459
X33.784 Y26.327
X33.755 Y26.3
X33.638 Y26.21
X33.601 Y26.186
X33.441 Y26.103
X33.398 Y26.085
X33.244 Y26.038
X33.199 Y26.029
X33.014 Y26.008
X32.97 Y26.007
X32.829 Y26.016 F25.
X32.78 Y25.569 F100.
X32.778 Y25.41
X32.775 Y25.21 F25.
X32.857 Y25.043 F100.
X32.946 Y24.864 F25.
X32.982 Y24.86
X33.028 Y24.851
X33.07 Y24.833
X33.129 Y24.803
X33.167 Y24.841
X34.18 Y26.163 F100.
X34.302 Y26.322 F25.
X34.322 Y26.357
X34.296 Y26.382
X34.269 Y26.413 F100.
X34.248 Y26.447
X34.213 Y26.517
X34.197 Y26.557
X34.188 Y26.599
X34.176 Y26.691
X34.175 Y26.738
X34.182 Y26.785
X34.206 Y26.877
X34.221 Y26.92
X34.244 Y26.959
X34.326 Y27.074
X34.361 Y27.114
X34.42 Y27.168
X34.456 Y27.195
X34.496 Y27.215
X34.588 Y27.252
X34.635 Y27.265
X34.683 Y27.27
X34.764 Y27.269
X34.788 Y27.272 Z-0.536
X34.812 Y27.281 Z-0.529
X34.84 Y27.304 Z-0.493
X34.848 Y27.314 Z-0.443
G0 Z5.
X32.497 Y23.878
Z2.504
G1 Z2.079 F17.
Z-0.463 F100.
X32.495 Y23.883 Z-0.493
X32.489 Y23.899 Z-0.519
X32.479 Y23.924 Z-0.536
X32.468 Y23.952 Z-0.543
X32.453 Y23.979
X32.433 Y24.007 F25.
X32.383 Y24.089
X32.348 Y24.095 F100.
X32.314 Y24.107
X32.245 Y24.132
X32.223 Y24.133
X32.204 Y24.12
X32.196 Y24.1
X32.202 Y24.078
X32.284 Y23.951
X32.418 Y23.816
X32.544 Y23.746
X32.565 Y23.742
X32.585 Y23.749
X32.599 Y23.765
X32.602 Y23.786
X32.593 Y23.806
X32.57 Y23.835 Z-0.55
X32.55 Y23.86 Z-0.57
X32.536 Y23.877 Z-0.601
X32.53 Y23.884 Z-0.638
X32.525 Y23.89 Z-0.675
X32.511 Y23.907 Z-0.706
X32.491 Y23.932 Z-0.726
X32.467 Y23.961 Z-0.733
X32.453 Y23.979
X32.433 Y24.007 F25.
X32.383 Y24.089
X32.348 Y24.095 F100.
X32.314 Y24.107
X32.245 Y24.132
X32.221 Y24.138 Z-0.727
X32.196 Y24.137 Z-0.72
X32.162 Y24.125 Z-0.683
X32.15 Y24.118 Z-0.633
G0 Z5.
X33.978 Y28.028
Z2.505
G1 Z1.862 F17.
Z-0.653 F100.
X33.979 Y28.022 Z-0.684
X33.982 Y28.005 Z-0.71
X33.986 Y27.98 Z-0.727
X33.992 Y27.949 Z-0.733
X34.002 Y27.92
X34.07 Y27.792
X34.085 Y27.755
X34.148 Y27.572
X34.158 Y27.529
X34.186 Y27.344
X34.189 Y27.299
X34.183 Y27.114
X34.177 Y27.067
X34.135 Y26.882
X34.121 Y26.84
X34.054 Y26.682
X34.034 Y26.644
X33.936 Y26.494
X33.909 Y26.459
X33.784 Y26.327
X33.755 Y26.3
X33.638 Y26.21
X33.601 Y26.186
X33.441 Y26.103
X33.398 Y26.085
X33.244 Y26.038
X33.199 Y26.029
X33.014 Y26.008
X32.97 Y26.007
X32.829 Y26.016 F25.
X32.78 Y25.569 F100.
X32.778 Y25.41
X32.775 Y25.21 F25.
X32.857 Y25.043 F100.
X32.946 Y24.864 F25.
X32.982 Y24.86
X33.028 Y24.851
X33.07 Y24.833
X33.129 Y24.803
X33.167 Y24.841
X34.18 Y26.163 F100.
X34.302 Y26.322 F25.
X34.322 Y26.357
X34.296 Y26.382
X34.269 Y26.413 F100.
X34.248 Y26.447
X34.213 Y26.517
X34.197 Y26.557
X34.188 Y26.599
X34.176 Y26.691
X34.175 Y26.738
X34.182 Y26.785
X34.206 Y26.877
X34.221 Y26.92
X34.244 Y26.959
X34.326 Y27.074
X34.361 Y27.114
X34.42 Y27.168
X34.456 Y27.195
X34.496 Y27.215
X34.588 Y27.252
X34.635 Y27.265
X34.683 Y27.27
X34.769 Y27.269
X34.794 Y27.272 Z-0.727
X34.817 Y27.281 Z-0.72
X34.846 Y27.304 Z-0.683
X34.854 Y27.314 Z-0.633
G0 Z5.
X33.978 Y28.028
Z2.505
G1 Z1.767 F17.
Z-0.701 F100.
X33.979 Y28.022 Z-0.732
X33.982 Y28.005 Z-0.758
X33.986 Y27.98 Z-0.775
X33.992 Y27.949 Z-0.781
X34.002 Y27.92
X34.07 Y27.792
X34.085 Y27.755
X34.148 Y27.572
X34.158 Y27.529
X34.186 Y27.344
X34.189 Y27.299
X34.183 Y27.114
X34.177 Y27.067
X34.135 Y26.882
X34.121 Y26.84
X34.054 Y26.682
X34.034 Y26.644
X33.936 Y26.494
X33.909 Y26.459
X33.784 Y26.327
X33.755 Y26.3
X33.638 Y26.21
X33.601 Y26.186
X33.441 Y26.103
X33.398 Y26.085
X33.244 Y26.038
X33.199 Y26.029
X33.014 Y26.008
X32.97 Y26.007
X32.829 Y26.016 F25.
X32.78 Y25.569 F100.
X32.778 Y25.41
X32.775 Y25.21 F25.
X32.857 Y25.043 F100.
X32.946 Y24.864 F25.
X32.982 Y24.86
X33.028 Y24.851
X33.07 Y24.833
X33.129 Y24.803
X33.167 Y24.841
X34.18 Y26.163 F100.
X34.302 Y26.322 F25.
X34.322 Y26.357
X34.296 Y26.382
X34.269 Y26.413 F100.
X34.248 Y26.447
X34.213 Y26.517
X34.197 Y26.557
X34.188 Y26.599
X34.176 Y26.691
X34.175 Y26.738
X34.182 Y26.785
X34.206 Y26.877
X34.221 Y26.92
X34.244 Y26.959
X34.326 Y27.074
X34.361 Y27.114
X34.42 Y27.168
X34.456 Y27.195
X34.496 Y27.215
X34.588 Y27.252
X34.635 Y27.265
X34.683 Y27.27
X34.769 Y27.269
X34.794 Y27.272 Z-0.774
X34.817 Y27.281 Z-0.768
X34.846 Y27.304 Z-0.731
X34.854 Y27.314 Z-0.681
G0 Z5.
X32.497 Y23.878
Z2.504
G1 Z1.767 F17.
Z-0.701 F100.
X32.495 Y23.883 Z-0.732
X32.489 Y23.899 Z-0.758
X32.479 Y23.924 Z-0.775
X32.468 Y23.952 Z-0.781
X32.453 Y23.979
X32.433 Y24.007 F25.
X32.383 Y24.089
X32.348 Y24.095 F100.
X32.314 Y24.107
X32.245 Y24.132
X32.221 Y24.138 Z-0.774
X32.196 Y24.137 Z-0.768
X32.162 Y24.125 Z-0.731
X32.15 Y24.118 Z-0.681
G0 Z5.
X29.761 Y26.331
Z2.504
G1 Z2.3 F17.
Z-0.219 F100.
X29.759 Y26.337 Z-0.25
X29.755 Y26.354 Z-0.276
X29.749 Y26.379 Z-0.293
X29.742 Y26.409 Z-0.299
X29.73 Y26.438
X29.713 Y26.471
X29.701 Y26.506
X29.677 Y26.598
X29.67 Y26.645 F25.
X29.671 Y26.692
X29.68 Y26.761
X29.613 Y26.756
X29.565 Y26.758 F100.
X29.518 Y26.769
X29.426 Y26.799
X29.4 Y26.809
X29.376 Y26.814
X29.353 Y26.807
X29.336 Y26.79
X29.329 Y26.766
X29.333 Y26.743
X29.523 Y26.336
X29.54 Y26.316
X29.622 Y26.261
X29.788 Y26.195
X29.809 Y26.192
X29.829 Y26.2
X29.843 Y26.216
X29.847 Y26.237
X29.841 Y26.257
X29.821 Y26.29 Z-0.307
X29.804 Y26.317 Z-0.328
X29.793 Y26.336 Z-0.36
X29.781 Y26.354 Z-0.392
X29.764 Y26.382 Z-0.413
X29.744 Y26.414 Z-0.421
X29.73 Y26.438
X29.713 Y26.471
X29.701 Y26.506
X29.677 Y26.598
X29.67 Y26.645 F25.
X29.671 Y26.692
X29.68 Y26.761
X29.613 Y26.756
X29.565 Y26.758 F100.
X29.518 Y26.769
X29.426 Y26.799
X29.4 Y26.809
X29.376 Y26.814
X29.353 Y26.807
X29.336 Y26.79
X29.329 Y26.766
X29.333 Y26.743
X29.523 Y26.336
X29.54 Y26.316
X29.622 Y26.261
X29.788 Y26.195
X29.809 Y26.192
X29.829 Y26.2
X29.843 Y26.216
X29.847 Y26.237
X29.841 Y26.257
X29.821 Y26.29 Z-0.428
X29.804 Y26.317 Z-0.45
X29.793 Y26.336 Z-0.482
X29.781 Y26.354 Z-0.514
X29.764 Y26.382 Z-0.535
X29.744 Y26.414 Z-0.543
X29.73 Y26.438
X29.713 Y26.471
X29.701 Y26.506
X29.677 Y26.598
X29.67 Y26.645 F25.
X29.671 Y26.692
X29.68 Y26.761
X29.613 Y26.756
X29.565 Y26.758 F100.
X29.518 Y26.769
X29.426 Y26.799
X29.4 Y26.809
X29.376 Y26.814
X29.353 Y26.807
X29.336 Y26.79
X29.329 Y26.767
X29.333 Y26.744
X29.484 Y26.412
X29.656 Y26.261
X29.796 Y26.187
X29.817 Y26.183
X29.836 Y26.189
X29.85 Y26.204
X29.855 Y26.224
X29.849 Y26.244
X29.829 Y26.276 Z-0.55
X29.813 Y26.303 Z-0.57
X29.801 Y26.322 Z-0.601
X29.797 Y26.329 Z-0.638
X29.792 Y26.337 Z-0.675
X29.78 Y26.355 Z-0.706
X29.764 Y26.383 Z-0.726
X29.744 Y26.414 Z-0.733
X29.73 Y26.438
X29.713 Y26.471
X29.701 Y26.506
X29.677 Y26.598
X29.67 Y26.645 F25.
X29.671 Y26.692
X29.68 Y26.761
X29.613 Y26.756
X29.565 Y26.758 F100.
X29.518 Y26.769
X29.426 Y26.799
X29.4 Y26.809
X29.373 Y26.814
X29.348 Y26.804
X29.332 Y26.782
X29.33 Y26.756
X29.341 Y26.731
X29.709 Y26.3
X29.727 Y26.287
X29.749 Y26.283
X29.812 Y26.304
X29.794 Y26.333 Z-0.74
X29.778 Y26.359 Z-0.757
X29.762 Y26.385 Z-0.775
X29.744 Y26.414 Z-0.781
X29.73 Y26.438
X29.713 Y26.471
X29.701 Y26.506
X29.677 Y26.598
X29.67 Y26.645 F25.
X29.671 Y26.692
X29.68 Y26.761
X29.613 Y26.756
X29.565 Y26.758 F100.
X29.518 Y26.769
X29.426 Y26.799
X29.4 Y26.809
X29.376 Y26.817 Z-0.774
X29.351 Y26.818 Z-0.768
X29.316 Y26.809 Z-0.731
X29.304 Y26.803 Z-0.681
G0 Z5.
X27.332 Y29.468
Z2.503
G1 Z2.3 F17.
Z-0.209 F100.
X27.337 Y29.473 Z-0.244
X27.351 Y29.486 Z-0.273
X27.373 Y29.506 Z-0.292
X27.398 Y29.529 Z-0.299
X27.409 Y29.541
X27.429 Y29.563
G2 X28.235 Y29.776 I0.576 J-0.548
G1 X28.284 Y29.767
X28.334 Y29.768
X28.383 Y29.779
X28.428 Y29.8
X28.468 Y29.83
X28.877 Y30.211
G3 X28.721 Y30.49 I-0.112 J0.12
X27.669 Y30.113 I1.952 J-7.113
G2 X27.079 Y29.929 I-1.085 J2.432
G1 X27.056 Y29.919 Z-0.292
X27.036 Y29.904 Z-0.286
X27.015 Y29.875 Z-0.249
X27.01 Y29.862 Z-0.199
G0 Z5.
X26.328 Y30.193
Z2.504
G1 Z2.3 F17.
Z-0.219 F100.
X26.326 Y30.198 Z-0.25
X26.318 Y30.214 Z-0.276
X26.307 Y30.237 Z-0.293
X26.293 Y30.265 Z-0.299
X26.275 Y30.29
X26.254 Y30.314
X26.153 Y30.448
X26.129 Y30.486
X26.113 Y30.528
X26.094 Y30.592
X26.085 Y30.613
X26.071 Y30.632
X24.008 Y32.81
X23.981 Y32.838 Z-0.291
X23.959 Y32.862 Z-0.27
X23.944 Y32.877 Z-0.237
X23.939 Y32.883 Z-0.199
G0 Z5.
X27.459 Y29.017
Z2.504
G1 Z2.3 F17.
Z-0.219 F100.
X27.462 Y29.022 Z-0.25
X27.471 Y29.037 Z-0.276
X27.484 Y29.06 Z-0.293
X27.5 Y29.086 Z-0.299
X27.511 Y29.115
X27.516 Y29.131
X27.54 Y29.215
X27.558 Y29.259
X27.584 Y29.299
X27.648 Y29.381
X27.681 Y29.415
X27.769 Y29.491
X27.8 Y29.514
X27.835 Y29.532
X27.906 Y29.563
X27.948 Y29.576
X27.992 Y29.582
X28.09 Y29.587
X28.135 Y29.585
X28.179 Y29.576
X28.256 Y29.551
X28.298 Y29.533 F25.
X28.337 Y29.507
X28.378 Y29.473
X28.43 Y29.51
X29.636 Y30.634 F100.
X29.782 Y30.77 F25.
X29.81 Y30.804
X29.798 Y30.82
X29.771 Y30.865
X29.729 Y30.89
X29.664 Y30.937
X29.404 Y30.893 F100.
X26.736 Y30.161
X26.702 Y30.154
X26.669 Y30.152
X26.582
X26.557 Y30.149 Z-0.292
X26.534 Y30.14 Z-0.286
X26.506 Y30.117 Z-0.249
X26.498 Y30.107 Z-0.199
G0 Z5.
X27.332 Y29.468
Z2.503
G1 Z2.201 F17.
Z-0.331 F100.
X27.337 Y29.473 Z-0.365
X27.351 Y29.486 Z-0.394
X27.373 Y29.506 Z-0.414
X27.398 Y29.529 Z-0.421
X27.409 Y29.541
X27.429 Y29.563
G2 X28.235 Y29.776 I0.576 J-0.548
G1 X28.284 Y29.767
X28.334 Y29.768
X28.383 Y29.779
X28.428 Y29.8
X28.468 Y29.83
X28.877 Y30.211
G3 X28.721 Y30.49 I-0.112 J0.12
X27.669 Y30.113 I1.952 J-7.113
G2 X27.079 Y29.929 I-1.085 J2.432
G1 X27.056 Y29.919 Z-0.414
X27.036 Y29.904 Z-0.407
X27.015 Y29.875 Z-0.371
X27.01 Y29.862 Z-0.321
G0 Z5.
X26.328 Y30.193
Z2.504
G1 Z2.201 F17.
Z-0.341 F100.
X26.326 Y30.198 Z-0.371
X26.318 Y30.214 Z-0.397
X26.307 Y30.237 Z-0.415
X26.293 Y30.265 Z-0.421
X26.275 Y30.29
X26.254 Y30.314
X26.153 Y30.448
X26.129 Y30.486
X26.113 Y30.528
X26.094 Y30.592
X26.085 Y30.613
X26.071 Y30.632
X24.008 Y32.81
X23.981 Y32.838 Z-0.413
X23.959 Y32.862 Z-0.392
X23.944 Y32.877 Z-0.359
X23.939 Y32.883 Z-0.321
G0 Z5.
X27.475 Y29.01
Z2.505
G1 Z2.201 F17.
Z-0.331 F100.
X27.477 Y29.016 Z-0.365
X27.484 Y29.035 Z-0.394
X27.494 Y29.062 Z-0.414
X27.506 Y29.094 Z-0.421
X27.51 Y29.11
X27.516 Y29.131
X27.54 Y29.215
X27.558 Y29.259
X27.584 Y29.299
X27.648 Y29.381
X27.681 Y29.415
X27.769 Y29.491
X27.8 Y29.514
X27.835 Y29.532
X27.906 Y29.563
X27.948 Y29.576
X27.992 Y29.582
X28.09 Y29.587
X28.135 Y29.585
X28.179 Y29.576
X28.256 Y29.551
X28.298 Y29.533 F25.
X28.337 Y29.507
X28.378 Y29.473
X28.43 Y29.51
X29.636 Y30.634 F100.
X29.782 Y30.77 F25.
X29.81 Y30.804
X29.798 Y30.82
X29.771 Y30.865
X29.73 Y30.89
X29.664 Y30.937
X29.404 Y30.893 F100.
X26.736 Y30.161
X26.702 Y30.154
X26.669 Y30.152
X26.582
X26.557 Y30.149 Z-0.414
X26.534 Y30.14 Z-0.407
X26.506 Y30.117 Z-0.371
X26.498 Y30.107 Z-0.321
G0 Z5.
X27.332 Y29.468
Z2.503
G1 Z2.079 F17.
Z-0.453 F100.
X27.337 Y29.473 Z-0.487
X27.351 Y29.486 Z-0.516
X27.373 Y29.506 Z-0.536
X27.398 Y29.529 Z-0.543
X27.409 Y29.541
X27.429 Y29.563
G2 X28.235 Y29.776 I0.576 J-0.548
G1 X28.284 Y29.767
X28.334 Y29.768
X28.383 Y29.779
X28.428 Y29.8
X28.468 Y29.83
X28.877 Y30.211
G3 X28.722 Y30.49 I-0.112 J0.12
X27.669 Y30.113 I1.952 J-7.114
G2 X27.079 Y29.929 I-1.085 J2.432
G1 X27.056 Y29.919 Z-0.536
X27.036 Y29.904 Z-0.529
X27.015 Y29.875 Z-0.493
X27.01 Y29.862 Z-0.443
G0 Z5.
X26.328 Y30.193
Z2.504
G1 Z2.079 F17.
Z-0.463 F100.
X26.326 Y30.198 Z-0.493
X26.318 Y30.214 Z-0.519
X26.307 Y30.237 Z-0.536
X26.293 Y30.265 Z-0.543
X26.275 Y30.29
X26.254 Y30.314
X26.153 Y30.448
X26.129 Y30.486
X26.113 Y30.528
X26.094 Y30.592
X26.085 Y30.613
X26.071 Y30.632
X24.008 Y32.81
X23.981 Y32.838 Z-0.535
X23.959 Y32.862 Z-0.513
X23.944 Y32.877 Z-0.481
X23.939 Y32.883 Z-0.443
G0 Z5.
X27.475 Y29.01
Z2.505
G1 Z2.079 F17.
Z-0.453 F100.
X27.477 Y29.016 Z-0.487
X27.484 Y29.035 Z-0.516
X27.494 Y29.062 Z-0.536
X27.506 Y29.094 Z-0.543
X27.51 Y29.11
X27.516 Y29.131
X27.54 Y29.215
X27.558 Y29.259
X27.584 Y29.299
X27.648 Y29.381
X27.681 Y29.415
X27.769 Y29.491
X27.8 Y29.514
X27.835 Y29.532
X27.906 Y29.563
X27.948 Y29.576
X27.992 Y29.582
X28.09 Y29.587
X28.135 Y29.585
X28.179 Y29.576
X28.256 Y29.551
X28.298 Y29.533 F25.
X28.337 Y29.507
X28.378 Y29.473
X28.43 Y29.51
X29.636 Y30.634 F100.
X29.782 Y30.77 F25.
X29.81 Y30.804
X29.798 Y30.82
X29.771 Y30.865
X29.73 Y30.89
X29.663 Y30.937
X29.404 Y30.893 F100.
X26.736 Y30.161
X26.702 Y30.154
X26.669 Y30.152
X26.582
X26.557 Y30.149 Z-0.536
X26.534 Y30.14 Z-0.529
X26.506 Y30.117 Z-0.493
X26.498 Y30.107 Z-0.443
G0 Z5.
X27.332 Y29.468
Z2.503
G1 Z1.862 F17.
Z-0.643 F100.
X27.337 Y29.473 Z-0.678
X27.351 Y29.486 Z-0.707
X27.373 Y29.506 Z-0.727
X27.398 Y29.529 Z-0.733
X27.409 Y29.541
X27.429 Y29.563
G2 X28.235 Y29.776 I0.576 J-0.548
G1 X28.284 Y29.767
X28.334 Y29.768
X28.383 Y29.779
X28.428 Y29.8
X28.468 Y29.83
X28.877 Y30.211
G3 X28.722 Y30.49 I-0.112 J0.12
X27.669 Y30.113 I1.952 J-7.115
G2 X27.079 Y29.929 I-1.085 J2.433
G1 X27.056 Y29.919 Z-0.727
X27.036 Y29.904 Z-0.72
X27.015 Y29.875 Z-0.683
X27.01 Y29.862 Z-0.633
G0 Z5.
X26.328 Y30.193
Z2.504
G1 Z1.862 F17.
Z-0.653 F100.
X26.326 Y30.198 Z-0.684
X26.318 Y30.214 Z-0.71
X26.307 Y30.237 Z-0.727
X26.293 Y30.265 Z-0.733
X26.275 Y30.29
X26.254 Y30.314
X26.153 Y30.448
X26.129 Y30.486
X26.113 Y30.528
X26.094 Y30.592
X26.085 Y30.613
X26.071 Y30.632
X24.008 Y32.81
X23.981 Y32.838 Z-0.726
X23.959 Y32.862 Z-0.704
X23.944 Y32.877 Z-0.672
X23.939 Y32.883 Z-0.633
G0 Z5.
X27.475 Y29.01
Z2.505
G1 Z1.862 F17.
Z-0.643 F100.
X27.477 Y29.016 Z-0.678
X27.484 Y29.035 Z-0.707
X27.494 Y29.062 Z-0.727
X27.506 Y29.094 Z-0.733
X27.51 Y29.11
X27.516 Y29.131
X27.54 Y29.215
X27.558 Y29.259
X27.584 Y29.299
X27.648 Y29.381
X27.681 Y29.415
X27.769 Y29.491
X27.8 Y29.514
X27.835 Y29.532
X27.906 Y29.563
X27.948 Y29.576
X27.992 Y29.582
X28.09 Y29.587
X28.135 Y29.585
X28.179 Y29.576
X28.256 Y29.551
X28.298 Y29.533 F25.
X28.337 Y29.507
X28.378 Y29.473
X28.43 Y29.51
X29.636 Y30.634 F100.
X29.782 Y30.77 F25.
X29.81 Y30.804
X29.798 Y30.82
X29.771 Y30.865
X29.73 Y30.89
X29.663 Y30.937
X29.404 Y30.893 F100.
X26.736 Y30.161
X26.702 Y30.154
X26.669 Y30.152
X26.582
X26.557 Y30.149 Z-0.727
X26.534 Y30.14 Z-0.72
X26.506 Y30.117 Z-0.683
X26.498 Y30.107 Z-0.633
G0 Z5.
X27.332 Y29.468
Z2.503
G1 Z1.767 F17.
Z-0.691 F100.
X27.337 Y29.473 Z-0.726
X27.351 Y29.486 Z-0.755
X27.373 Y29.506 Z-0.774
X27.398 Y29.529 Z-0.781
X27.409 Y29.541
X27.429 Y29.563
G2 X28.235 Y29.776 I0.576 J-0.548
G1 X28.284 Y29.767
X28.334 Y29.768
X28.383 Y29.779
X28.428 Y29.8
X28.468 Y29.83
X28.877 Y30.211
G3 X28.722 Y30.49 I-0.112 J0.12
X27.669 Y30.113 I1.952 J-7.115
G2 X27.079 Y29.929 I-1.085 J2.433
G1 X27.056 Y29.919 Z-0.774
X27.036 Y29.904 Z-0.768
X27.015 Y29.875 Z-0.731
X27.01 Y29.862 Z-0.681
G0 Z5.
X26.328 Y30.193
Z2.504
G1 Z1.767 F17.
Z-0.701 F100.
X26.326 Y30.198 Z-0.732
X26.318 Y30.214 Z-0.758
X26.307 Y30.237 Z-0.775
X26.293 Y30.265 Z-0.781
X26.275 Y30.29
X26.254 Y30.314
X26.153 Y30.448
X26.129 Y30.486
X26.113 Y30.528
X26.094 Y30.592
X26.085 Y30.613
X26.071 Y30.632
X24.008 Y32.81
X23.981 Y32.838 Z-0.774
X23.959 Y32.862 Z-0.752
X23.944 Y32.877 Z-0.719
X23.939 Y32.883 Z-0.681
G0 Z5.
X27.475 Y29.01
Z2.505
G1 Z1.767 F17.
Z-0.691 F100.
X27.477 Y29.016 Z-0.726
X27.484 Y29.035 Z-0.755
X27.494 Y29.062 Z-0.774
X27.506 Y29.094 Z-0.781
X27.51 Y29.11
X27.516 Y29.131
X27.54 Y29.215
X27.558 Y29.259
X27.584 Y29.299
X27.648 Y29.381
X27.681 Y29.415
X27.769 Y29.491
X27.8 Y29.514
X27.835 Y29.532
X27.906 Y29.563
X27.948 Y29.576
X27.992 Y29.582
X28.09 Y29.587
X28.135 Y29.585
X28.179 Y29.576
X28.256 Y29.551
X28.298 Y29.533 F25.
X28.337 Y29.507
X28.378 Y29.473
X28.43 Y29.51
X29.636 Y30.634 F100.
X29.782 Y30.77 F25.
X29.81 Y30.804
X29.798 Y30.82
X29.771 Y30.865
X29.73 Y30.89
X29.663 Y30.937
X29.404 Y30.893 F100.
X26.736 Y30.161
X26.702 Y30.154
X26.669 Y30.152
X26.582
X26.557 Y30.149 Z-0.774
X26.534 Y30.14 Z-0.768
X26.506 Y30.117 Z-0.731
X26.498 Y30.107 Z-0.681
G0 Z5.
X29.341 Y33.149
Z2.505
G1 Z2.3 F17.
Z-0.209 F100.
X29.342 Y33.142 Z-0.244
Y33.123 Z-0.273
X29.343 Y33.093 Z-0.292
Y33.059 Z-0.299
X29.345 Y33.043
X29.349 Y32.984
X29.343 Y32.892
X29.335 Y32.843
X29.318 Y32.797
X29.274 Y32.705
X29.249 Y32.664
X29.216 Y32.628
X29.137 Y32.557
X29.109 Y32.536
X29.028 Y32.481
X28.989 Y32.459
X28.948 Y32.445
X28.855 Y32.422
X28.808 Y32.415
X28.761 Y32.417
X28.669 Y32.43
X28.633 Y32.438 F25.
X28.598 Y32.451
X28.57 Y32.409
X28.339 Y31.989 F100.
X28.243 Y31.814 F25.
X28.649 Y31.927 F100.
X28.842 Y31.981 F25.
X28.932 Y32.014
X28.929 Y32.1 F100.
X28.932 Y32.147
X28.944 Y32.192
X28.978 Y32.284
X28.997 Y32.326
X29.025 Y32.364
X29.081 Y32.428
X29.123 Y32.466
X29.239 Y32.55
X29.277 Y32.573
X29.32 Y32.588
X29.408 Y32.612
X29.454 Y32.62
X29.5 Y32.619
X29.593 Y32.609
X29.633 Y32.602
X29.67 Y32.588
X29.732 Y32.559
X29.758 Y32.556
X29.781 Y32.568
X29.794 Y32.591
X29.792 Y32.617
X29.717 Y32.793
X29.481 Y33.168
X29.373 Y33.277
X29.352 Y33.288
X29.328 Y33.284
X29.312 Y33.267
X29.309 Y33.244
X29.315 Y33.206 Z-0.307
X29.321 Y33.175 Z-0.328
X29.325 Y33.153 Z-0.36
X29.329 Y33.132 Z-0.392
X29.335 Y33.1 Z-0.413
X29.342 Y33.063 Z-0.421
X29.345 Y33.043
X29.349 Y32.984
X29.343 Y32.892
X29.335 Y32.843
X29.318 Y32.797
X29.274 Y32.705
X29.249 Y32.664
X29.216 Y32.628
X29.137 Y32.557
X29.109 Y32.536
X29.028 Y32.481
X28.989 Y32.459
X28.948 Y32.445
X28.855 Y32.422
X28.808 Y32.415
X28.761 Y32.417
X28.669 Y32.43
X28.633 Y32.438 F25.
X28.598 Y32.451
X28.57 Y32.409
X28.339 Y31.989 F100.
X28.243 Y31.814 F25.
X28.651 Y31.928 F100.
X28.843 Y31.981 F25.
X28.932 Y32.012
X28.929 Y32.1 F100.
X28.932 Y32.147
X28.944 Y32.192
X28.978 Y32.284
X28.997 Y32.326
X29.025 Y32.364
X29.081 Y32.428
X29.123 Y32.466
X29.239 Y32.55
X29.277 Y32.573
X29.32 Y32.588
X29.408 Y32.612
X29.454 Y32.62
X29.5 Y32.619
X29.593 Y32.609
X29.633 Y32.602
X29.67 Y32.588
X29.732 Y32.559
X29.757 Y32.555
X29.781 Y32.563
X29.797 Y32.582
X29.803 Y32.606
X29.796 Y32.631
X29.456 Y33.195
X29.443 Y33.209
X29.426 Y33.218
X29.321 Y33.247
X29.308 Y33.248
X29.315 Y33.21 Z-0.428
X29.321 Y33.178 Z-0.45
X29.324 Y33.157 Z-0.482
X29.328 Y33.136 Z-0.514
X29.334 Y33.104 Z-0.535
X29.341 Y33.066 Z-0.543
X29.345 Y33.043
X29.349 Y32.984
X29.343 Y32.892
X29.335 Y32.843
X29.318 Y32.797
X29.274 Y32.705
X29.249 Y32.664
X29.216 Y32.628
X29.137 Y32.557
X29.109 Y32.536
X29.028 Y32.481
X28.989 Y32.459
X28.948 Y32.445
X28.855 Y32.422
X28.808 Y32.415
X28.761 Y32.417
X28.669 Y32.43
X28.633 Y32.438 F25.
X28.598 Y32.451
X28.57 Y32.409
X28.339 Y31.989 F100.
X28.243 Y31.814 F25.
X28.651 Y31.928 F100.
X28.843 Y31.981 F25.
X28.932 Y32.012
X28.929 Y32.1 F100.
X28.932 Y32.147
X28.944 Y32.192
X28.978 Y32.284
X28.997 Y32.326
X29.025 Y32.364
X29.081 Y32.428
X29.123 Y32.466
X29.239 Y32.55
X29.277 Y32.573
X29.32 Y32.588
X29.408 Y32.612
X29.454 Y32.62
X29.5 Y32.619
X29.593 Y32.609
X29.633 Y32.602
X29.67 Y32.588
X29.732 Y32.559
X29.757 Y32.555
X29.78 Y32.563
X29.797 Y32.581
X29.803 Y32.605
X29.797 Y32.629
X29.463 Y33.223
X29.451 Y33.237
X29.435 Y33.246
X29.351 Y33.274
X29.291 Y33.276
X29.3 Y33.24 Z-0.55
X29.307 Y33.209 Z-0.57
X29.312 Y33.188 Z-0.601
X29.314 Y33.179 Z-0.638
X29.316 Y33.17 Z-0.675
X29.321 Y33.149 Z-0.706
X29.328 Y33.118 Z-0.726
X29.336 Y33.082 Z-0.733
X29.343 Y33.055
X29.348 Y33.02
X29.349 Y32.984
X29.343 Y32.892
X29.335 Y32.843
X29.318 Y32.797
X29.274 Y32.705
X29.249 Y32.664
X29.216 Y32.628
X29.137 Y32.557
X29.109 Y32.536
X29.028 Y32.481
X28.989 Y32.459
X28.948 Y32.445
X28.855 Y32.422
X28.808 Y32.415
X28.761 Y32.417
X28.669 Y32.43
X28.633 Y32.438 F25.
X28.598 Y32.451
X28.57 Y32.409
X28.339 Y31.989 F100.
X28.243 Y31.814 F25.
X28.651 Y31.928 F100.
X28.843 Y31.981 F25.
X28.932 Y32.012
X28.929 Y32.1 F100.
X28.932 Y32.147
X28.944 Y32.192
X28.978 Y32.284
X28.997 Y32.326
X29.025 Y32.364
X29.081 Y32.428
X29.123 Y32.466
X29.239 Y32.55
X29.277 Y32.573
X29.32 Y32.588
X29.408 Y32.612
X29.454 Y32.62
X29.5 Y32.619
X29.593 Y32.609
X29.633 Y32.602
X29.67 Y32.588
X29.732 Y32.559
X29.755 Y32.555
X29.778 Y32.561
X29.795 Y32.578
X29.803 Y32.6
X29.799 Y32.624
X29.7 Y32.862
X29.491 Y33.141
X29.371 Y33.246
X29.348 Y33.256
X29.325 Y33.25
X29.309 Y33.232
X29.307 Y33.208
X29.315 Y33.174 Z-0.74
X29.322 Y33.145 Z-0.757
X29.329 Y33.115 Z-0.775
X29.336 Y33.082 Z-0.781
X29.343 Y33.055
X29.348 Y33.02
X29.349 Y32.984
X29.343 Y32.892
X29.335 Y32.843
X29.318 Y32.797
X29.274 Y32.705
X29.249 Y32.664
X29.216 Y32.628
X29.137 Y32.557
X29.109 Y32.536
X29.028 Y32.481
X28.989 Y32.459
X28.948 Y32.445
X28.855 Y32.422
X28.808 Y32.415
X28.761 Y32.417
X28.669 Y32.43
X28.633 Y32.438 F25.
X28.598 Y32.451
X28.57 Y32.409
X28.339 Y31.989 F100.
X28.243 Y31.814 F25.
X28.651 Y31.928 F100.
X28.843 Y31.981 F25.
X28.932 Y32.012
X28.929 Y32.1 F100.
X28.932 Y32.147
X28.944 Y32.192
X28.978 Y32.284
X28.997 Y32.326
X29.025 Y32.364
X29.081 Y32.428
X29.123 Y32.466
X29.239 Y32.55
X29.277 Y32.573
X29.32 Y32.588
X29.408 Y32.612
X29.454 Y32.62
X29.5 Y32.619
X29.593 Y32.609
X29.633 Y32.602
X29.67 Y32.588
X29.732 Y32.559
X29.756 Y32.552 Z-0.774
X29.781 Y32.55 Z-0.768
X29.816 Y32.559 Z-0.731
X29.828 Y32.566 Z-0.681
G0 Z5.
X27.469 Y33.987
Z2.502
G1 Z2.3 F17.
Z-0.229 F100.
X27.472 Y33.991 Z-0.256
X27.483 Y34.002 Z-0.279
X27.498 Y34.019 Z-0.294
X27.516 Y34.039 Z-0.299
X27.529 Y34.058
X27.538 Y34.08
X27.544 Y34.101
X27.558 Y34.139
X27.577 Y34.174
X27.62 Y34.238
X27.645 Y34.27
X27.676 Y34.297
X27.812 Y34.401
X27.85 Y34.425
X27.892 Y34.442
X27.985 Y34.469
X28.031 Y34.478
X28.079 Y34.479
X28.171 Y34.47
X28.219 Y34.461
X28.264 Y34.443
X28.308 Y34.42
X28.331 Y34.411 Z-0.292
X28.356 Y34.409 Z-0.286
X28.391 Y34.416 Z-0.249
X28.403 Y34.422 Z-0.199
G0 Z5.
X27.368 Y33.27
Z2.505
G1 Z2.3 F17.
Z-0.219 F100.
X27.372 Y33.274 Z-0.25
X27.385 Y33.286 Z-0.276
X27.404 Y33.304 Z-0.293
X27.426 Y33.325 Z-0.299
X27.445 Y33.35
X27.533 Y33.511
X27.595 Y33.646 F25.
X27.545 Y33.755 F100.
X27.533 Y33.785
X27.475 Y33.807
X27.463 Y33.813
X27.456 Y33.824
X27.457 Y33.838
X27.47 Y33.873 Z-0.307
X27.48 Y33.904 Z-0.328
X27.488 Y33.924 Z-0.36
X27.495 Y33.945 Z-0.392
X27.506 Y33.975 Z-0.413
X27.519 Y34.011 Z-0.421
X27.526 Y34.033
X27.544 Y34.101
X27.558 Y34.139
X27.577 Y34.174
X27.62 Y34.238
X27.645 Y34.27
X27.676 Y34.297
X27.812 Y34.401
X27.85 Y34.425
X27.892 Y34.442
X27.985 Y34.469
X28.031 Y34.478
X28.079 Y34.479
X28.171 Y34.47
X28.219 Y34.461
X28.264 Y34.443
X28.341 Y34.403
X28.364 Y34.394 Z-0.414
X28.389 Y34.392 Z-0.407
X28.424 Y34.399 Z-0.371
X28.437 Y34.405 Z-0.321
G0 Z5.
X27.368 Y33.27
Z2.505
G1 Z2.201 F17.
Z-0.341 F100.
X27.372 Y33.274 Z-0.371
X27.385 Y33.286 Z-0.397
X27.404 Y33.304 Z-0.415
X27.426 Y33.325 Z-0.421
X27.445 Y33.35
X27.533 Y33.511
X27.595 Y33.647 F25.
X27.545 Y33.755 F100.
X27.533 Y33.785
X27.475 Y33.807
X27.463 Y33.813
X27.456 Y33.824
X27.457 Y33.838
X27.47 Y33.873 Z-0.428
X27.48 Y33.904 Z-0.45
X27.488 Y33.924 Z-0.482
X27.495 Y33.945 Z-0.514
X27.506 Y33.975 Z-0.535
X27.519 Y34.011 Z-0.543
X27.526 Y34.033
X27.544 Y34.101
X27.558 Y34.139
X27.577 Y34.174
X27.62 Y34.238
X27.645 Y34.27
X27.676 Y34.297
X27.812 Y34.401
X27.85 Y34.425
X27.892 Y34.442
X27.985 Y34.469
X28.031 Y34.478
X28.079 Y34.479
X28.171 Y34.47
X28.219 Y34.461
X28.264 Y34.443
X28.341 Y34.403
X28.364 Y34.394 Z-0.536
X28.389 Y34.392 Z-0.529
X28.424 Y34.399 Z-0.493
X28.437 Y34.405 Z-0.443
G0 Z5.
X27.381 Y33.266
Z2.505
G1 Z2.079 F17.
Z-0.453 F100.
X27.385 Y33.271 Z-0.487
X27.397 Y33.286 Z-0.516
X27.415 Y33.31 Z-0.536
X27.436 Y33.337 Z-0.543
X27.445 Y33.35
X27.532 Y33.51
X27.595 Y33.647 F25.
X27.545 Y33.755 F100.
X27.533 Y33.785
X27.521 Y33.798
X27.504 Y33.799
X27.479 Y33.789
X27.463 Y33.79
X27.451 Y33.801
X27.45 Y33.818
X27.463 Y33.853 Z-0.55
X27.473 Y33.883 Z-0.57
X27.481 Y33.903 Z-0.601
X27.484 Y33.912 Z-0.638
X27.487 Y33.92 Z-0.675
X27.494 Y33.941 Z-0.706
X27.505 Y33.971 Z-0.726
X27.517 Y34.006 Z-0.733
X27.524 Y34.028
X27.544 Y34.101
X27.558 Y34.139
X27.577 Y34.174
X27.62 Y34.238
X27.645 Y34.27
X27.676 Y34.297
X27.812 Y34.401
X27.85 Y34.425
X27.892 Y34.442
X27.985 Y34.469
X28.031 Y34.478
X28.079 Y34.479
X28.171 Y34.47
X28.219 Y34.461
X28.264 Y34.443
X28.346 Y34.4
X28.37 Y34.391 Z-0.727
X28.394 Y34.389 Z-0.72
X28.43 Y34.396 Z-0.683
X28.442 Y34.402 Z-0.633
G0 Z5.
X27.367 Y33.27
Z2.505
G1 Z1.862 F17.
Z-0.653 F100.
X27.372 Y33.274 Z-0.684
X27.384 Y33.286 Z-0.71
X27.403 Y33.304 Z-0.727
X27.426 Y33.325 Z-0.733
X27.445 Y33.35
X27.532 Y33.51
X27.594 Y33.647 F25.
X27.545 Y33.755 F100.
X27.533 Y33.785
X27.478 Y33.851
X27.471 Y33.864
X27.472 Y33.879
X27.484 Y33.911 Z-0.74
X27.494 Y33.94 Z-0.757
X27.504 Y33.968 Z-0.775
X27.516 Y34.001 Z-0.781
X27.523 Y34.023
X27.544 Y34.101
X27.558 Y34.139
X27.577 Y34.174
X27.62 Y34.238
X27.645 Y34.27
X27.676 Y34.297
X27.812 Y34.401
X27.85 Y34.425
X27.892 Y34.442
X27.985 Y34.469
X28.031 Y34.478
X28.079 Y34.479
X28.171 Y34.47
X28.219 Y34.461
X28.264 Y34.443
X28.346 Y34.4
X28.37 Y34.391 Z-0.774
X28.394 Y34.389 Z-0.768
X28.43 Y34.396 Z-0.731
X28.442 Y34.402 Z-0.681
G0 Z5.
X27.367 Y33.27
Z2.505
G1 Z1.767 F17.
Z-0.701 F100.
X27.372 Y33.274 Z-0.732
X27.384 Y33.286 Z-0.758
X27.403 Y33.304 Z-0.775
X27.426 Y33.325 Z-0.781
X27.445 Y33.35
X27.532 Y33.51
X27.594 Y33.647 F25.
X27.545 Y33.755 F100.
X27.533 Y33.785
X27.523 Y33.808 Z-0.774
X27.507 Y33.827 Z-0.768
X27.477 Y33.847 Z-0.731
X27.464 Y33.851 Z-0.681
G0 Z5.
X18.831 Y29.808
Z2.504
G1 Z2.3 F17.
Z-0.219 F100.
X18.83 Y29.802 Z-0.25
X18.827 Y29.784 Z-0.276
X18.822 Y29.759 Z-0.293
X18.816 Y29.729 Z-0.299
X18.815 Y29.698
X18.817 Y29.661
X18.813 Y29.624
X18.799 Y29.542
X18.789 Y29.502
X18.773 Y29.465
X18.736 Y29.397 F25.
X18.714 Y29.363
X18.687 Y29.333
X18.681 Y29.328
X18.844 Y29.21 F100.
X18.867 Y29.191
X19.095 Y28.981
X19.107 Y28.969
X21.177 Y26.798
X21.203 Y26.77 Z-0.291
X21.226 Y26.747 Z-0.27
X21.241 Y26.731 Z-0.237
X21.246 Y26.725 Z-0.199
G0 Z5.
X18.831 Y29.808
Z2.504
G1 Z2.201 F17.
Z-0.341 F100.
X18.83 Y29.802 Z-0.371
X18.827 Y29.784 Z-0.397
X18.822 Y29.759 Z-0.415
X18.816 Y29.729 Z-0.421
X18.815 Y29.698
X18.817 Y29.661
X18.813 Y29.624
X18.799 Y29.542
X18.789 Y29.502
X18.773 Y29.465
X18.736 Y29.397
X18.714 Y29.363 F25.
X18.687 Y29.333
X18.733 Y29.295
X18.74 Y29.29 F100.
X18.852 Y29.204
X18.871 Y29.188
X19.112 Y28.963
X19.132 Y28.948 Z-0.414
X19.156 Y28.939 Z-0.407
X19.192 Y28.937 Z-0.371
X19.205 Y28.939 Z-0.321
G0 Z5.
X18.831 Y29.808
Z2.504
G1 Z2.079 F17.
Z-0.463 F100.
X18.83 Y29.802 Z-0.493
X18.827 Y29.784 Z-0.519
X18.822 Y29.759 Z-0.536
X18.816 Y29.729 Z-0.543
X18.815 Y29.698
X18.817 Y29.661
X18.813 Y29.624
X18.799 Y29.542
X18.789 Y29.502
X18.773 Y29.465
X18.736 Y29.397
X18.714 Y29.363 F25.
X18.687 Y29.333
X18.736 Y29.295
X18.752 Y29.283 F100.
X18.973 Y29.097
X18.986 Y29.085
X19.113 Y28.962
X19.133 Y28.947 Z-0.536
X19.156 Y28.937 Z-0.529
X19.193 Y28.934 Z-0.493
X19.206 Y28.936 Z-0.443
G0 Z5.
X18.828 Y29.813
Z2.505
G1 Z1.862 F17.
Z-0.653 F100.
X18.827 Y29.807 Z-0.684
X18.824 Y29.79 Z-0.71
X18.82 Y29.765 Z-0.727
X18.814 Y29.735 Z-0.733
Y29.703
X18.817 Y29.664
X18.813 Y29.624
X18.799 Y29.542
X18.789 Y29.502
X18.773 Y29.465
X18.736 Y29.397 F25.
X18.714 Y29.363
X18.687 Y29.333
X18.739 Y29.296
X18.761 Y29.279 F100.
X19.041 Y29.033
X19.049 Y29.026
X19.108 Y28.969
X19.128 Y28.954 Z-0.727
X19.151 Y28.945 Z-0.72
X19.187 Y28.942 Z-0.683
X19.2 Y28.944 Z-0.633
G0 Z5.
X18.828 Y29.813
Z2.505
G1 Z1.767 F17.
Z-0.701 F100.
X18.827 Y29.807 Z-0.732
X18.824 Y29.79 Z-0.758
X18.82 Y29.765 Z-0.775
X18.814 Y29.735 Z-0.781
Y29.703
X18.817 Y29.664
X18.813 Y29.624
X18.799 Y29.542
X18.789 Y29.502
X18.773 Y29.465
X18.736 Y29.397 F25.
X18.714 Y29.363
X18.687 Y29.333
X18.739 Y29.296
X18.761 Y29.279 F100.
X19.041 Y29.033
X19.049 Y29.026
X19.108 Y28.969
X19.128 Y28.954 Z-0.774
X19.151 Y28.945 Z-0.768
X19.187 Y28.942 Z-0.731
X19.2 Y28.944 Z-0.681
G0 Z5.
X17.057 Y33.153
Z2.504
G1 Z2.3 F17.
Z-0.219 F100.
X17.053 Y33.148 Z-0.25
X17.043 Y33.134 Z-0.276
X17.027 Y33.113 Z-0.293
X17.009 Y33.089 Z-0.299
X16.994 Y33.061
X16.967 Y32.98
X16.949 Y32.94
X16.924 Y32.903
X16.875 Y32.841 F25.
X16.848 Y32.813
X16.817 Y32.79
X17.008 Y32.616 F100.
X17.03 Y32.594
X17.218 Y32.376
X17.229 Y32.362
X17.902 Y31.456
X17.908 Y31.447
X17.975 Y31.348
X17.984 Y31.336
X20.032 Y29.144
X20.058 Y29.116 Z-0.291
X20.08 Y29.092 Z-0.27
X20.095 Y29.076 Z-0.237
X20.1 Y29.07 Z-0.199
G0 Z5.
X17.057 Y33.153
Z2.504
G1 Z2.201 F17.
Z-0.341 F100.
X17.053 Y33.148 Z-0.371
X17.043 Y33.134 Z-0.397
X17.027 Y33.113 Z-0.415
X17.009 Y33.089 Z-0.421
X16.994 Y33.061
X16.967 Y32.98
X16.949 Y32.94
X16.924 Y32.903
X16.875 Y32.841 F25.
X16.848 Y32.814
X16.818 Y32.79
X17.009 Y32.616 F100.
X17.029 Y32.595
X17.275 Y32.312
X17.287 Y32.297
X17.291 Y32.292
X17.371 Y32.229
X17.391 Y32.196 Z-0.428
X17.407 Y32.169 Z-0.45
X17.419 Y32.15 Z-0.482
X17.43 Y32.132 Z-0.514
X17.447 Y32.104 Z-0.535
X17.467 Y32.072 Z-0.543
X17.519 Y31.994
X17.782 Y31.634
X17.787 Y31.626
X17.981 Y31.339
X17.991 Y31.326
X20.038 Y29.134
X20.065 Y29.106 Z-0.535
X20.087 Y29.082 Z-0.513
X20.102 Y29.066 Z-0.481
X20.107 Y29.061 Z-0.443
G0 Z5.
X17.057 Y33.153
Z2.504
G1 Z2.079 F17.
Z-0.463 F100.
X17.053 Y33.148 Z-0.493
X17.043 Y33.134 Z-0.519
X17.027 Y33.113 Z-0.536
X17.009 Y33.089 Z-0.543
X16.994 Y33.061
X16.967 Y32.98
X16.949 Y32.94
X16.924 Y32.903
X16.875 Y32.841 F25.
X16.85 Y32.815
X16.821 Y32.792
X17.011 Y32.613 F100.
X17.03 Y32.594
X17.296 Y32.285
X17.448 Y32.153
X17.467 Y32.121 Z-0.55
X17.482 Y32.093 Z-0.57
X17.493 Y32.074 Z-0.601
X17.498 Y32.066 Z-0.638
X17.502 Y32.059 Z-0.675
X17.513 Y32.039 Z-0.706
X17.529 Y32.012 Z-0.726
X17.547 Y31.98 Z-0.733
X17.578 Y31.93
X17.996 Y31.316
X18.006 Y31.304
X20.061 Y29.118
X20.087 Y29.091 Z-0.726
X20.11 Y29.067 Z-0.704
X20.124 Y29.051 Z-0.672
X20.13 Y29.046 Z-0.633
G0 Z5.
X17.057 Y33.153
Z2.504
G1 Z1.862 F17.
Z-0.653 F100.
X17.053 Y33.148 Z-0.684
X17.043 Y33.134 Z-0.71
X17.027 Y33.113 Z-0.727
X17.009 Y33.089 Z-0.733
X16.994 Y33.061
X16.967 Y32.98
X16.949 Y32.94
X16.924 Y32.903
X16.875 Y32.841 F25.
X16.85 Y32.815
X16.822 Y32.793
X17.012 Y32.613 F100.
X17.03 Y32.594
X17.3 Y32.279
X17.46 Y32.184
X17.475 Y32.103
X17.492 Y32.073 Z-0.74
X17.508 Y32.047 Z-0.757
X17.523 Y32.021 Z-0.775
X17.54 Y31.991 Z-0.781
X17.571 Y31.941
X17.996 Y31.316
X18.006 Y31.304
X20.061 Y29.118
X20.087 Y29.09 Z-0.774
X20.109 Y29.067 Z-0.752
X20.124 Y29.051 Z-0.719
X20.129 Y29.045 Z-0.681
G0 Z5.
X17.057 Y33.153
Z2.504
G1 Z1.767 F17.
Z-0.701 F100.
X17.053 Y33.148 Z-0.732
X17.043 Y33.134 Z-0.758
X17.027 Y33.113 Z-0.775
X17.009 Y33.089 Z-0.781
X16.994 Y33.061
X16.967 Y32.98
X16.949 Y32.94
X16.924 Y32.903
X16.875 Y32.841 F25.
X16.85 Y32.815
X16.822 Y32.793
X17.012 Y32.613 F100.
X17.03 Y32.594
X17.3 Y32.279
X17.319 Y32.262 Z-0.774
X17.341 Y32.25 Z-0.768
X17.377 Y32.244 Z-0.731
X17.39 Y32.245 Z-0.681
G0 Z5.
X15.6 Y36.814
Z2.505
G1 Z2.3 F17.
Z-0.209 F100.
X15.597 Y36.808 Z-0.244
X15.587 Y36.791 Z-0.273
X15.572 Y36.766 Z-0.292
X15.555 Y36.736 Z-0.299
X15.548 Y36.722
X15.54 Y36.705
X15.496 Y36.613
X15.472 Y36.574
X15.442 Y36.539
X15.383 Y36.484 F25.
X15.344 Y36.454
X15.514 Y36.262 F100.
X15.532 Y36.24
X15.697 Y36.003
X15.707 Y35.988
X16.011 Y35.479
X16.02 Y35.467
X17.941 Y33.163
X17.966 Y33.133 Z-0.291
X17.986 Y33.108 Z-0.27
X18. Y33.092 Z-0.237
X18.005 Y33.086 Z-0.199
G0 Z5.
X15.6 Y36.814
Z2.505
G1 Z2.201 F17.
Z-0.331 F100.
X15.597 Y36.808 Z-0.365
X15.587 Y36.791 Z-0.394
X15.572 Y36.766 Z-0.414
X15.555 Y36.736 Z-0.421
X15.548 Y36.722
X15.54 Y36.705
X15.496 Y36.613
X15.472 Y36.574
X15.442 Y36.539
X15.383 Y36.484 F25.
X15.345 Y36.455
X15.551 Y36.215 F100.
X15.568 Y36.193
X15.755 Y35.917
X15.772 Y35.898 Z-0.414
X15.792 Y35.884 Z-0.407
X15.827 Y35.874 Z-0.371
X15.841 Y35.873 Z-0.321
G0 Z5.
X15.6 Y36.814
Z2.505
G1 Z2.079 F17.
Z-0.453 F100.
X15.597 Y36.808 Z-0.487
X15.587 Y36.791 Z-0.516
X15.572 Y36.766 Z-0.536
X15.555 Y36.736 Z-0.543
X15.548 Y36.722
X15.54 Y36.705
X15.496 Y36.613
X15.472 Y36.574
X15.442 Y36.539
X15.383 Y36.484 F25.
X15.347 Y36.456
X15.399 Y36.401
X15.414 Y36.383 F100.
X15.606 Y36.137
X15.614 Y36.125
X15.779 Y35.888
X15.796 Y35.869 Z-0.536
X15.816 Y35.855 Z-0.529
X15.851 Y35.845 Z-0.493
X15.865 Z-0.443
G0 Z5.
X15.6 Y36.814
Z2.505
G1 Z1.862 F17.
Z-0.643 F100.
X15.597 Y36.808 Z-0.678
X15.587 Y36.791 Z-0.707
X15.572 Y36.766 Z-0.727
X15.555 Y36.736 Z-0.733
X15.548 Y36.722
X15.54 Y36.705
X15.496 Y36.613
X15.472 Y36.574
X15.442 Y36.539
X15.383 Y36.484 F25.
X15.349 Y36.457
X15.401 Y36.401
X15.418 Y36.382 F100.
X15.607 Y36.135
X15.616 Y36.124
X15.9 Y35.705
X15.916 Y35.687 Z-0.727
X15.937 Y35.673 Z-0.72
X15.972 Y35.662 Z-0.683
X15.985 Z-0.633
G0 Z5.
X15.6 Y36.814
Z2.505
G1 Z1.767 F17.
Z-0.691 F100.
X15.597 Y36.808 Z-0.726
X15.587 Y36.791 Z-0.755
X15.572 Y36.766 Z-0.774
X15.555 Y36.736 Z-0.781
X15.548 Y36.722
X15.54 Y36.705
X15.496 Y36.613
X15.472 Y36.574
X15.442 Y36.539
X15.383 Y36.484 F25.
X15.349 Y36.457
X15.401 Y36.401
X15.418 Y36.382 F100.
X15.607 Y36.135
X15.616 Y36.124
X15.911 Y35.689
X15.927 Y35.67 Z-0.774
X15.948 Y35.656 Z-0.768
X15.983 Y35.646 Z-0.731
X15.996 Y35.645 Z-0.681
G0 Z5.
X14.321 Y42.159
Z2.505
G1 Z2.3 F17.
Z-0.219 F100.
Y42.153 Z-0.25
X14.318 Y42.135 Z-0.276
X14.314 Y42.11 Z-0.293
X14.31 Y42.079 Z-0.299
Y42.048
X14.505 Y40.886
X14.512 Y40.87
X14.525 Y40.86
X14.593 Y40.828
X14.608 Y40.816
X14.614 Y40.797
X14.62 Y40.607
X14.616 Y40.588
X14.605 Y40.573
X14.588 Y40.564
X14.534 Y40.55
X14.516 Y40.54
X14.505 Y40.524
X14.486 Y40.484
X14.438 Y40.402
X14.412 Y40.365
X14.38 Y40.334
X14.316 Y40.282 F25.
X14.284 Y40.26
X14.249 Y40.244
X14.378 Y40.07 F100.
X14.395 Y40.042
X14.533 Y39.792
X14.548 Y39.772 Z-0.292
X14.567 Y39.756 Z-0.286
X14.601 Y39.742 Z-0.249
X14.614 Y39.741 Z-0.199
G0 Z5.
X14.57 Y40.614
Z2.504
G1 Z2.201 F17.
Z-0.341 F100.
X14.566 Y40.609 Z-0.371
X14.555 Y40.595 Z-0.397
X14.539 Y40.575 Z-0.415
X14.52 Y40.551 Z-0.421
X14.505 Y40.524
X14.486 Y40.484
X14.438 Y40.402
X14.412 Y40.365
X14.38 Y40.334
X14.316 Y40.282 F25.
X14.285 Y40.261
X14.251 Y40.244
X14.379 Y40.068 F100.
X14.395 Y40.042
X14.533 Y39.791
X14.548 Y39.771 Z-0.414
X14.567 Y39.755 Z-0.407
X14.601 Y39.741 Z-0.371
X14.614 Y39.74 Z-0.321
G0 Z5.
X14.315 Y42.18
Z2.505
G1 Z2.201 F17.
Z-0.341 F100.
X14.314 Y42.174 Z-0.371
X14.312 Y42.157 Z-0.397
X14.308 Y42.131 Z-0.415
X14.304 Y42.101 Z-0.421
Y42.07
X14.506 Y40.881
X14.57 Y40.756
X14.575 Y40.739
X14.573 Y40.721
X14.56 Y40.686 Z-0.428
X14.55 Y40.655 Z-0.45
X14.543 Y40.634 Z-0.482
X14.536 Y40.614 Z-0.514
X14.525 Y40.583 Z-0.535
X14.513 Y40.547 Z-0.543
X14.507 Y40.529
X14.486 Y40.484
X14.438 Y40.402
X14.412 Y40.365
X14.38 Y40.334
X14.316 Y40.282 F25.
X14.285 Y40.261
X14.251 Y40.244
X14.379 Y40.068 F100.
X14.395 Y40.042
X14.534 Y39.792
X14.548 Y39.772 Z-0.536
X14.567 Y39.756 Z-0.529
X14.601 Y39.743 Z-0.493
X14.615 Y39.741 Z-0.443
G0 Z5.
X14.315 Y42.18
Z2.505
G1 Z2.079 F17.
Z-0.463 F100.
X14.314 Y42.174 Z-0.493
X14.312 Y42.157 Z-0.519
X14.308 Y42.131 Z-0.536
X14.304 Y42.101 Z-0.543
Y42.07
X14.506 Y40.881
X14.574 Y40.776
X14.581 Y40.758
X14.579 Y40.74
X14.567 Y40.705 Z-0.55
X14.557 Y40.675 Z-0.57
X14.55 Y40.654 Z-0.601
X14.547 Y40.646 Z-0.638
X14.544 Y40.637 Z-0.675
X14.537 Y40.616 Z-0.706
X14.526 Y40.586 Z-0.726
X14.514 Y40.551 Z-0.733
X14.507 Y40.529
X14.486 Y40.484
X14.438 Y40.402
X14.412 Y40.365
X14.38 Y40.334
X14.316 Y40.282 F25.
X14.286 Y40.262
X14.254 Y40.245
X14.33 Y40.144 F100.
X14.346 Y40.119
X14.535 Y39.788
X14.55 Y39.768 Z-0.727
X14.569 Y39.752 Z-0.72
X14.603 Y39.739 Z-0.683
X14.617 Y39.738 Z-0.633
G0 Z5.
X14.315 Y42.18
Z2.505
G1 Z1.862 F17.
Z-0.653 F100.
X14.314 Y42.174 Z-0.684
X14.312 Y42.157 Z-0.71
X14.308 Y42.131 Z-0.727
X14.304 Y42.101 Z-0.733
Y42.07
X14.506 Y40.881
X14.557 Y40.706
X14.559 Y40.69
X14.556 Y40.674
X14.545 Y40.641 Z-0.74
X14.535 Y40.612 Z-0.757
X14.525 Y40.584 Z-0.775
X14.514 Y40.551 Z-0.781
X14.507 Y40.529
X14.486 Y40.484
X14.438 Y40.402
X14.412 Y40.365
X14.38 Y40.334
X14.316 Y40.282 F25.
X14.286 Y40.262
X14.254 Y40.245
X14.33 Y40.144 F100.
X14.346 Y40.119
X14.535 Y39.788
X14.55 Y39.768 Z-0.774
X14.569 Y39.752 Z-0.768
X14.603 Y39.739 Z-0.731
X14.617 Y39.738 Z-0.681
G0 Z5.
X14.314 Y42.187
Z2.505
G1 Z1.767 F17.
Z-0.701 F100.
X14.313 Y42.181 Z-0.732
X14.311 Y42.164 Z-0.758
X14.307 Y42.138 Z-0.775
X14.303 Y42.108 Z-0.781
Y42.077
X14.506 Y40.881
X14.51 Y40.866
X15.468 Y38.023
X15.48 Y37.987 Z-0.774
X15.49 Y37.956 Z-0.752
X15.497 Y37.936 Z-0.719
X15.5 Y37.928 Z-0.681
G0 Z5.
X12.911 Y48.772
Z2.505
G1 Z2.3 F17.
Z-0.219 F100.
X12.906 Y48.768 Z-0.25
X12.892 Y48.758 Z-0.276
X12.871 Y48.743 Z-0.293
X12.846 Y48.724 Z-0.299
X12.825 Y48.702
X12.431 Y48.145
X12.406 Y48.116
X12.09 Y47.789
X11.95 Y47.646 F25.
X12.221 Y47.074 F100.
X12.228 Y47.059
X12.239 Y47.042
X12.256 Y47.031
X12.353 Y46.995
X12.371 Y46.983
X12.382 Y46.965
X12.385 Y46.944
X12.345 Y46.354
X12.337 Y46.332
X12.317 Y46.32
X12.26 Y46.306
X12.245 Y46.298
X12.235 Y46.284
X12.139 Y46.044
X12.066 Y45.858 F25.
X12.546 Y45.47 F100.
X12.567 Y45.457 Z-0.292
X12.591 Y45.449 Z-0.286
X12.627 Z-0.249
X12.64 Y45.453 Z-0.199
G0 Z5.
X12.304 Y46.379
Z2.504
G1 Z2.201 F17.
Z-0.341 F100.
X12.3 Y46.374 Z-0.371
X12.289 Y46.361 Z-0.397
X12.272 Y46.341 Z-0.415
X12.253 Y46.317 Z-0.421
X12.237 Y46.29
X12.139 Y46.044
X12.066 Y45.858 F25.
X12.546 Y45.47 F100.
X12.567 Y45.457 Z-0.414
X12.591 Y45.449 Z-0.407
X12.627 Z-0.371
X12.64 Y45.453 Z-0.321
G0 Z5.
X12.636 Y48.375
Z2.505
G1 Z2.201 F17.
Z-0.341 F100.
X12.631 Y48.372 Z-0.371
X12.617 Y48.362 Z-0.397
X12.595 Y48.347 Z-0.415
X12.57 Y48.329 Z-0.421
X12.548 Y48.307
X12.394 Y48.1
X12.372 Y48.075
X12.091 Y47.788
X11.951 Y47.645 F25.
X12.221 Y47.074 F100.
X12.229 Y47.055
X12.239 Y47.039
X12.253 Y47.028
X12.426 Y46.937
X12.441 Y46.925
X12.45 Y46.908
X12.452 Y46.889
X12.431 Y46.558
X12.422 Y46.535
X12.401 Y46.522
X12.341 Y46.507
X12.324 Y46.498
X12.313 Y46.483
X12.299 Y46.448 Z-0.428
X12.288 Y46.418 Z-0.45
X12.28 Y46.398 Z-0.482
X12.272 Y46.377 Z-0.514
X12.26 Y46.347 Z-0.535
X12.246 Y46.312 Z-0.543
X12.237 Y46.29
X12.139 Y46.044
X12.066 Y45.858 F25.
X12.546 Y45.47 F100.
X12.567 Y45.457 Z-0.536
X12.591 Y45.449 Z-0.529
X12.627 Z-0.493
X12.64 Y45.453 Z-0.443
G0 Z5.
X12.896 Y48.75
Z2.505
G1 Z2.079 F17.
Z-0.463 F100.
X12.891 Y48.746 Z-0.493
X12.878 Y48.735 Z-0.519
X12.858 Y48.719 Z-0.536
X12.834 Y48.7 Z-0.543
X12.813 Y48.676
X12.794 Y48.647
X12.785 Y48.634
X12.395 Y48.101
X12.372 Y48.074
X12.091 Y47.787
X11.951 Y47.645 F25.
X12.221 Y47.074 F100.
X12.229 Y47.055
X12.239 Y47.039
X12.253 Y47.028
X12.432 Y46.935
X12.452 Y46.916
X12.459 Y46.889
X12.447 Y46.581
X12.442 Y46.563
X12.431 Y46.548
X12.414 Y46.54
X12.35 Y46.524
X12.331 Y46.515
X12.319 Y46.498
X12.306 Y46.463 Z-0.55
X12.294 Y46.434 Z-0.57
X12.286 Y46.413 Z-0.601
X12.282 Y46.405 Z-0.638
X12.279 Y46.397 Z-0.675
X12.271 Y46.376 Z-0.706
X12.259 Y46.347 Z-0.726
X12.246 Y46.312 Z-0.733
X12.237 Y46.29
X12.14 Y46.045
X12.066 Y45.859 F25.
X12.479 Y45.532 F100.
X12.492 Y45.521
X12.542 Y45.475
X12.562 Y45.461 Z-0.727
X12.586 Y45.452 Z-0.72
X12.622 Y45.45 Z-0.683
X12.635 Y45.453 Z-0.633
G0 Z5.
X12.888 Y48.737
Z2.505
G1 Z1.862 F17.
Z-0.653 F100.
X12.884 Y48.734 Z-0.684
X12.87 Y48.722 Z-0.71
X12.85 Y48.706 Z-0.727
X12.827 Y48.686 Z-0.733
X12.806 Y48.662
X12.798 Y48.65
X12.788 Y48.635
X12.429 Y48.142
X12.418 Y48.129
X12.348 Y48.046
X12.334 Y48.03
X12.092 Y47.786
X11.951 Y47.644 F25.
X12.221 Y47.074 F100.
X12.229 Y47.055
X12.246 Y47.032
X12.509 Y46.832
X12.523 Y46.817
X12.529 Y46.798
X12.527 Y46.778
X12.448 Y46.508
X12.436 Y46.489
X12.416 Y46.479
X12.324 Y46.459
X12.305 Y46.449
X12.293 Y46.433
X12.281 Y46.4 Z-0.74
X12.27 Y46.372 Z-0.757
X12.258 Y46.344 Z-0.775
X12.246 Y46.312 Z-0.781
X12.237 Y46.29
X12.14 Y46.045
X12.066 Y45.859 F25.
X12.479 Y45.532 F100.
X12.493 Y45.521
X12.542 Y45.475
X12.562 Y45.461 Z-0.774
X12.586 Y45.452 Z-0.768
X12.622 Y45.45 Z-0.731
X12.635 Y45.452 Z-0.681
G0 Z5.
X12.891 Y48.742
Z2.505
G1 Z1.767 F17.
Z-0.701 F100.
X12.886 Y48.738 Z-0.732
X12.873 Y48.727 Z-0.758
X12.853 Y48.71 Z-0.775
X12.83 Y48.69 Z-0.781
X12.809 Y48.667
X12.798 Y48.65
X12.788 Y48.635
X12.429 Y48.142
X12.418 Y48.129
X12.348 Y48.046
X12.334 Y48.03
X12.092 Y47.786
X11.951 Y47.644 F25.
X12.221 Y47.074 F100.
X12.229 Y47.055
X12.236 Y47.04
X13.714 Y44.43
X13.733 Y44.396 Z-0.774
X13.749 Y44.368 Z-0.752
X13.76 Y44.349 Z-0.719
X13.763 Y44.343 Z-0.681
G0 Z5.
X13.773 Y51.572
Z2.505
G1 Z2.3 F17.
Z-0.219 F100.
X13.77 Y51.566 Z-0.25
X13.762 Y51.551 Z-0.276
X13.75 Y51.529 Z-0.293
X13.735 Y51.502 Z-0.299
X13.724 Y51.472
X13.493 Y50.256
X13.491 Y50.241
X13.397 Y47.242
X13.396 Y47.204 Z-0.291
X13.395 Y47.172 Z-0.27
X13.394 Y47.15 Z-0.237
Y47.142 Z-0.199
G0 Z5.
X13.772 Y51.566
Z2.505
G1 Z2.201 F17.
Z-0.341 F100.
X13.769 Y51.56 Z-0.371
X13.761 Y51.545 Z-0.397
X13.749 Y51.522 Z-0.415
X13.734 Y51.496 Z-0.421
X13.723 Y51.466
X13.499 Y50.273
X13.497 Y50.257
X13.41 Y47.258
X13.409 Y47.22 Z-0.413
X13.408 Y47.188 Z-0.392
X13.407 Y47.166 Z-0.359
Y47.158 Z-0.321
G0 Z5.
X13.772 Y51.566
Z2.505
G1 Z2.079 F17.
Z-0.463 F100.
X13.769 Y51.56 Z-0.493
X13.761 Y51.545 Z-0.519
X13.749 Y51.522 Z-0.536
X13.734 Y51.496 Z-0.543
X13.723 Y51.466
X13.499 Y50.273
X13.497 Y50.257
X13.41 Y47.258
X13.409 Y47.22 Z-0.535
X13.408 Y47.188 Z-0.513
X13.407 Y47.166 Z-0.481
Y47.158 Z-0.443
G0 Z5.
X13.772 Y51.566
Z2.505
G1 Z1.862 F17.
Z-0.653 F100.
X13.769 Y51.56 Z-0.684
X13.761 Y51.545 Z-0.71
X13.749 Y51.522 Z-0.727
X13.734 Y51.496 Z-0.733
X13.723 Y51.466
X13.497 Y50.264
X13.495 Y50.249
X13.409 Y47.25
X13.407 Y47.212 Z-0.726
X13.406 Y47.179 Z-0.704
Y47.158 Z-0.672
Y47.15 Z-0.633
G0 Z5.
X13.772 Y51.566
Z2.505
G1 Z1.767 F17.
Z-0.701 F100.
X13.769 Y51.56 Z-0.732
X13.761 Y51.545 Z-0.758
X13.749 Y51.522 Z-0.775
X13.734 Y51.496 Z-0.781
X13.723 Y51.466
X13.497 Y50.264
X13.495 Y50.249
X13.409 Y47.25
X13.407 Y47.212 Z-0.774
X13.406 Y47.179 Z-0.752
Y47.158 Z-0.719
Y47.15 Z-0.681
G0 Z5.
X13.856 Y53.96
Z2.505
G1 Z2.3 F17.
Z-0.219 F100.
X13.852 Y53.955 Z-0.25
X13.842 Y53.942 Z-0.276
X13.826 Y53.921 Z-0.293
X13.808 Y53.897 Z-0.299
X13.793 Y53.869
X13.784 Y53.847
X13.671 Y53.601
X13.66 Y53.578
X13.554 Y53.398 F25.
X13.613 Y53.367
X13.651 Y53.342 F100.
X13.684 Y53.31
X13.739 Y53.245
X13.765 Y53.209
X13.784 Y53.169
X13.808 Y53.104
X13.82 Y53.082 Z-0.292
X13.836 Y53.063 Z-0.286
X13.868 Y53.044 Z-0.249
X13.88 Y53.041 Z-0.199
G0 Z5.
X13.865 Y53.962
Z2.505
G1 Z2.201 F17.
Z-0.341 F100.
X13.861 Y53.957 Z-0.371
X13.849 Y53.944 Z-0.397
X13.832 Y53.925 Z-0.415
X13.811 Y53.902 Z-0.421
X13.794 Y53.876
X13.674 Y53.604
X13.661 Y53.578
X13.555 Y53.398 F25.
X13.613 Y53.367
X13.651 Y53.342 F100.
X13.684 Y53.31
X13.739 Y53.245
X13.765 Y53.209
X13.784 Y53.169
X13.808 Y53.104
X13.82 Y53.082 Z-0.414
X13.836 Y53.063 Z-0.407
X13.868 Y53.044 Z-0.371
X13.88 Y53.041 Z-0.321
G0 Z5.
X13.866 Y53.971
Z2.505
G1 Z2.079 F17.
Z-0.463 F100.
X13.862 Y53.967 Z-0.493
X13.851 Y53.954 Z-0.519
X13.834 Y53.934 Z-0.536
X13.813 Y53.911 Z-0.543
X13.796 Y53.885
X13.674 Y53.605
X13.661 Y53.578
X13.555 Y53.398 F25.
X13.613 Y53.367
X13.651 Y53.342 F100.
X13.684 Y53.31
X13.739 Y53.245
X13.765 Y53.209
X13.784 Y53.169
X13.808 Y53.104
X13.82 Y53.082 Z-0.536
X13.836 Y53.063 Z-0.529
X13.868 Y53.044 Z-0.493
X13.88 Y53.041 Z-0.443
G0 Z5.
X13.869 Y53.982
Z2.505
G1 Z1.862 F17.
Z-0.653 F100.
X13.865 Y53.977 Z-0.684
X13.854 Y53.964 Z-0.71
X13.836 Y53.944 Z-0.727
X13.816 Y53.921 Z-0.733
X13.799 Y53.895
X13.675 Y53.606
X13.668 Y53.591
X13.612 Y53.481
X13.603 Y53.465 F25.
X13.56 Y53.395
X13.613 Y53.367
X13.651 Y53.342 F100.
X13.684 Y53.31
X13.739 Y53.245
X13.765 Y53.209
X13.784 Y53.169
X13.808 Y53.104
X13.82 Y53.082 Z-0.727
X13.836 Y53.063 Z-0.72
X13.868 Y53.044 Z-0.683
X13.88 Y53.041 Z-0.633
G0 Z5.
X13.869 Y53.982
Z2.505
G1 Z1.767 F17.
Z-0.701 F100.
X13.865 Y53.977 Z-0.732
X13.854 Y53.964 Z-0.758
X13.836 Y53.944 Z-0.775
X13.816 Y53.921 Z-0.781
X13.799 Y53.895
X13.675 Y53.606
X13.668 Y53.591
X13.612 Y53.481
X13.603 Y53.465 F25.
X13.56 Y53.395
X13.613 Y53.367
X13.651 Y53.342 F100.
X13.684 Y53.31
X13.739 Y53.245
X13.765 Y53.209
X13.784 Y53.169
X13.808 Y53.104
X13.82 Y53.082 Z-0.774
X13.836 Y53.063 Z-0.768
X13.868 Y53.044 Z-0.731
X13.88 Y53.041 Z-0.681
G0 Z5.
X14.557 Y56.772
Z2.505
G1 Z2.3 F17.
Z-0.219 F100.
X14.554 Y56.767 Z-0.25
X14.546 Y56.751 Z-0.276
X14.533 Y56.728 Z-0.293
X14.519 Y56.701 Z-0.299
X14.509 Y56.672
X14.261 Y55.284
X14.26 Y55.269
X14.202 Y52.269
X14.201 Y52.231 Z-0.291
X14.2 Y52.199 Z-0.27
Y52.177 Z-0.237
Y52.169 Z-0.199
G0 Z5.
X14.614 Y57.829
Z2.504
G1 Z2.3 F17.
Z-0.219 F100.
X14.609 Y57.825 Z-0.25
X14.597 Y57.813 Z-0.276
X14.577 Y57.795 Z-0.293
X14.555 Y57.775 Z-0.299
X14.535 Y57.75
X14.404 Y57.52
X14.388 Y57.495
X14.254 Y57.313 F25.
X14.31 Y57.282
X14.342 Y57.26 F100.
X14.37 Y57.234
X14.429 Y57.171
X14.454 Y57.138
X14.474 Y57.102
X14.506 Y57.03
X14.51 Y57.021
X14.566 Y56.899
X14.557 Y56.863 Z-0.307
X14.548 Y56.831 Z-0.328
X14.543 Y56.81 Z-0.36
X14.537 Y56.789 Z-0.392
X14.529 Y56.758 Z-0.413
X14.52 Y56.721 Z-0.421
X14.509 Y56.672
X14.261 Y55.284
X14.26 Y55.269
X14.202 Y52.269
X14.201 Y52.231 Z-0.413
X14.2 Y52.199 Z-0.392
Y52.177 Z-0.359
Y52.169 Z-0.321
G0 Z5.
X14.615 Y57.835
Z2.504
G1 Z2.201 F17.
Z-0.341 F100.
X14.611 Y57.83 Z-0.371
X14.598 Y57.819 Z-0.397
X14.579 Y57.801 Z-0.415
X14.557 Y57.78 Z-0.421
X14.537 Y57.756
X14.405 Y57.521
X14.388 Y57.495
X14.254 Y57.313 F25.
X14.31 Y57.282
X14.342 Y57.26 F100.
X14.37 Y57.234
X14.429 Y57.171
X14.454 Y57.138
X14.474 Y57.102
X14.506 Y57.03
X14.51 Y57.021
X14.566 Y56.899
X14.557 Y56.863 Z-0.428
X14.548 Y56.831 Z-0.45
X14.543 Y56.81 Z-0.482
X14.537 Y56.789 Z-0.514
X14.529 Y56.758 Z-0.535
X14.52 Y56.721 Z-0.543
X14.509 Y56.672
X14.261 Y55.284
X14.26 Y55.269
X14.202 Y52.269
X14.201 Y52.231 Z-0.535
X14.2 Y52.199 Z-0.513
Y52.177 Z-0.481
Y52.169 Z-0.443
G0 Z5.
X14.604 Y57.846
Z2.505
G1 Z2.079 F17.
Z-0.453 F100.
X14.6 Y57.84 Z-0.487
X14.588 Y57.825 Z-0.516
X14.57 Y57.802 Z-0.536
X14.549 Y57.775 Z-0.543
X14.54 Y57.762
X14.405 Y57.521
X14.392 Y57.5
X14.259 Y57.31 F25.
X14.31 Y57.282
X14.342 Y57.26 F100.
X14.37 Y57.234
X14.429 Y57.171
X14.454 Y57.138
X14.474 Y57.102
X14.506 Y57.03
X14.51 Y57.021
X14.566 Y56.94
X14.571 Y56.928
X14.57 Y56.915
X14.561 Y56.879 Z-0.55
X14.553 Y56.848 Z-0.57
X14.547 Y56.827 Z-0.601
X14.545 Y56.818 Z-0.638
X14.543 Y56.809 Z-0.675
X14.537 Y56.788 Z-0.706
X14.529 Y56.757 Z-0.726
X14.52 Y56.721 Z-0.733
X14.509 Y56.672
X14.261 Y55.284
X14.26 Y55.269
X14.202 Y52.269
X14.201 Y52.231 Z-0.726
X14.2 Y52.199 Z-0.704
Y52.177 Z-0.672
Y52.169 Z-0.633
G0 Z5.
X14.62 Y57.847
Z2.504
G1 Z1.862 F17.
Z-0.653 F100.
X14.615 Y57.843 Z-0.684
X14.603 Y57.831 Z-0.71
X14.584 Y57.813 Z-0.727
X14.561 Y57.792 Z-0.733
X14.542 Y57.768
X14.406 Y57.522
X14.392 Y57.5
X14.26 Y57.31 F25.
X14.31 Y57.282
X14.342 Y57.26 F100.
X14.37 Y57.234
X14.429 Y57.171
X14.454 Y57.138
X14.474 Y57.102
X14.506 Y57.03
X14.51 Y57.021
X14.523 Y57.003
X14.541 Y56.994
X14.615 Y56.975
X14.631 Y56.968
X14.643 Y56.954
X14.648 Y56.936
X14.649 Y56.93
X14.644 Y56.906
X14.625 Y56.891
X14.575 Y56.872
X14.561 Y56.862
X14.552 Y56.847
X14.544 Y56.813 Z-0.74
X14.536 Y56.784 Z-0.757
X14.528 Y56.755 Z-0.775
X14.52 Y56.721 Z-0.781
X14.509 Y56.672
X14.261 Y55.284
X14.26 Y55.269
X14.202 Y52.269
X14.201 Y52.231 Z-0.774
X14.2 Y52.199 Z-0.752
Y52.177 Z-0.719
Y52.169 Z-0.681
G0 Z5.
X14.62 Y57.847
Z2.504
G1 Z1.767 F17.
Z-0.701 F100.
X14.616 Y57.843 Z-0.732
X14.603 Y57.831 Z-0.758
X14.584 Y57.813 Z-0.775
X14.561 Y57.792 Z-0.781
X14.542 Y57.768
X14.406 Y57.522
X14.392 Y57.5
X14.26 Y57.31 F25.
X14.31 Y57.282
X14.342 Y57.26 F100.
X14.37 Y57.234
X14.429 Y57.171
X14.454 Y57.138
X14.474 Y57.102
X14.506 Y57.03
X14.51 Y57.021
X14.522 Y56.999 Z-0.774
X14.539 Y56.981 Z-0.768
X14.571 Y56.963 Z-0.731
X14.584 Y56.959 Z-0.681
G0 Z5.
X16.073 Y62.14
Z2.505
G1 Z2.3 F17.
Z-0.229 F100.
X16.069 Y62.137 Z-0.256
X16.056 Y62.129 Z-0.279
X16.037 Y62.117 Z-0.294
X16.014 Y62.102 Z-0.299
X15.996 Y62.088
X15.981 Y62.069
X15.648 Y61.514
X15.636 Y61.496
X15.487 Y61.29
X15.47 Y61.269
X15.328 Y61.112 F25.
X15.388 Y61.073
X15.426 Y61.042 F100.
X15.457 Y61.005
X15.514 Y60.923
X15.538 Y60.88
X15.552 Y60.833
X15.555 Y60.822
X15.563 Y60.798 Z-0.292
X15.577 Y60.777 Z-0.286
X15.605 Y60.754 Z-0.249
X15.617 Y60.749 Z-0.199
G0 Z5.
X15.816 Y61.679
Z2.504
G1 Z2.201 F17.
Z-0.351 F100.
X15.811 Y61.677 Z-0.378
X15.798 Y61.67 Z-0.4
X15.777 Y61.659 Z-0.415
X15.754 Y61.647 Z-0.421
X15.734 Y61.633
X15.719 Y61.616
X15.488 Y61.292
X15.47 Y61.269
X15.328 Y61.112 F25.
X15.388 Y61.073
X15.426 Y61.042 F100.
X15.457 Y61.005
X15.514 Y60.923
X15.538 Y60.88
X15.552 Y60.833
X15.555 Y60.822
X15.563 Y60.798 Z-0.414
X15.577 Y60.777 Z-0.407
X15.605 Y60.754 Z-0.371
X15.617 Y60.749 Z-0.321
G0 Z5.
X16.037 Y62.051
Z2.504
G1 Z2.079 F17.
Z-0.473 F100.
X16.033 Y62.048 Z-0.499
X16.02 Y62.04 Z-0.522
X16.001 Y62.028 Z-0.537
X15.978 Y62.014 Z-0.543
X15.96 Y62.
X15.945 Y61.981
X15.775 Y61.698
X15.765 Y61.683
X15.489 Y61.292
X15.471 Y61.27
X15.329 Y61.112 F25.
X15.388 Y61.073
X15.426 Y61.042 F100.
X15.457 Y61.005
X15.514 Y60.923
X15.538 Y60.88
X15.552 Y60.833
X15.555 Y60.822
X15.563 Y60.798 Z-0.536
X15.577 Y60.777 Z-0.529
X15.605 Y60.754 Z-0.493
X15.617 Y60.749 Z-0.443
G0 Z5.
X15.964 Y61.919
Z2.504
G1 Z1.862 F17.
Z-0.653 F100.
X15.959 Y61.915 Z-0.684
X15.945 Y61.904 Z-0.71
X15.925 Y61.889 Z-0.727
X15.9 Y61.87 Z-0.733
X15.879 Y61.847
X15.567 Y61.396
X15.558 Y61.385
X15.4 Y61.181 F25.
X15.385 Y61.164
X15.333 Y61.109
X15.388 Y61.073
X15.426 Y61.042 F100.
X15.457 Y61.005
X15.514 Y60.923
X15.538 Y60.88
X15.552 Y60.833
X15.555 Y60.822
X15.563 Y60.798 Z-0.727
X15.577 Y60.777 Z-0.72
X15.605 Y60.754 Z-0.683
X15.617 Y60.749 Z-0.633
G0 Z5.
X15.968 Y61.924
Z2.504
G1 Z1.767 F17.
Z-0.701 F100.
X15.963 Y61.92 Z-0.732
X15.949 Y61.91 Z-0.758
X15.928 Y61.894 Z-0.775
X15.904 Y61.876 Z-0.781
X15.882 Y61.853
X15.567 Y61.396
X15.558 Y61.385
X15.4 Y61.181 F25.
X15.385 Y61.164
X15.333 Y61.109
X15.388 Y61.073
X15.426 Y61.042 F100.
X15.457 Y61.005
X15.514 Y60.923
X15.538 Y60.88
X15.552 Y60.833
X15.555 Y60.822
X15.563 Y60.798 Z-0.774
X15.577 Y60.777 Z-0.768
X15.605 Y60.754 Z-0.731
X15.617 Y60.749 Z-0.681
G0 Z5.
X18.042 Y66.28
Z2.505
G1 Z2.3 F17.
Z-0.219 F100.
X18.038 Y66.277 Z-0.25
X18.024 Y66.266 Z-0.276
X18.003 Y66.251 Z-0.293
X17.978 Y66.233 Z-0.299
X17.956 Y66.21
X17.713 Y65.867
X17.708 Y65.861
X17.15 Y65.122
X17.14 Y65.11
X17.029 Y64.981
X17.008 Y64.96
X16.795 Y64.766 F25.
X16.841 Y64.727
X16.87 Y64.699 F100.
X16.893 Y64.668
X16.932 Y64.606
X16.951 Y64.569
X16.964 Y64.529
X16.971 Y64.5
X16.979 Y64.476 Z-0.292
X16.993 Y64.456 Z-0.286
X17.022 Y64.433 Z-0.249
X17.034 Y64.428 Z-0.199
G0 Z5.
X17.366 Y65.347
Z2.505
G1 Z2.201 F17.
Z-0.341 F100.
X17.361 Y65.344 Z-0.371
X17.347 Y65.334 Z-0.397
X17.326 Y65.319 Z-0.415
X17.3 Y65.302 Z-0.421
X17.278 Y65.28
X17.219 Y65.202
X17.209 Y65.19
X17.03 Y64.982
X17.011 Y64.962
X16.798 Y64.763 F25.
X16.841 Y64.727
X16.87 Y64.699 F100.
X16.893 Y64.668
X16.932 Y64.606
X16.951 Y64.569
X16.964 Y64.529
X16.971 Y64.5
X16.979 Y64.476 Z-0.414
X16.993 Y64.456 Z-0.407
X17.022 Y64.433 Z-0.371
X17.034 Y64.428 Z-0.321
G0 Z5.
X18.037 Y66.274
Z2.505
G1 Z2.201 F17.
Z-0.341 F100.
X18.032 Y66.27 Z-0.371
X18.019 Y66.259 Z-0.397
X17.998 Y66.243 Z-0.415
X17.974 Y66.225 Z-0.421
X17.952 Y66.202
X17.745 Y65.898
X17.415 Y65.406
X17.388 Y65.379 Z-0.428
X17.365 Y65.356 Z-0.45
X17.35 Y65.341 Z-0.482
X17.335 Y65.325 Z-0.514
X17.312 Y65.303 Z-0.535
X17.285 Y65.276 Z-0.543
X17.261 Y65.25
X17.03 Y64.982
X17.012 Y64.963
X16.799 Y64.762 F25.
X16.841 Y64.727
X16.87 Y64.699 F100.
X16.893 Y64.668
X16.932 Y64.606
X16.951 Y64.569
X16.964 Y64.529
X16.971 Y64.5
X16.979 Y64.476 Z-0.536
X16.993 Y64.456 Z-0.529
X17.022 Y64.433 Z-0.493
X17.034 Y64.428 Z-0.443
G0 Z5.
X18.044 Y66.283
Z2.505
G1 Z2.079 F17.
Z-0.463 F100.
X18.039 Y66.279 Z-0.493
X18.025 Y66.269 Z-0.519
X18.004 Y66.253 Z-0.536
X17.98 Y66.234 Z-0.543
X17.958 Y66.212
X17.61 Y65.71
X17.429 Y65.42
X17.402 Y65.393 Z-0.55
X17.38 Y65.371 Z-0.57
X17.364 Y65.356 Z-0.601
X17.358 Y65.349 Z-0.638
X17.352 Y65.343 Z-0.675
X17.336 Y65.328 Z-0.706
X17.313 Y65.305 Z-0.726
X17.287 Y65.279 Z-0.733
X17.263 Y65.253
X17.03 Y64.982
X17.013 Y64.964
X16.8 Y64.761 F25.
X16.841 Y64.727
X16.87 Y64.699 F100.
X16.893 Y64.668
X16.932 Y64.606
X16.951 Y64.569
X16.964 Y64.529
X16.971 Y64.5
X16.979 Y64.476 Z-0.727
X16.993 Y64.456 Z-0.72
X17.022 Y64.433 Z-0.683
X17.034 Y64.428 Z-0.633
G0 Z5.
X18.044 Y66.291
Z2.505
G1 Z1.862 F17.
Z-0.653 F100.
X18.04 Y66.287 Z-0.684
X18.026 Y66.276 Z-0.71
X18.006 Y66.259 Z-0.727
X17.983 Y66.24 Z-0.733
X17.962 Y66.216
X17.903 Y66.124
X17.898 Y66.115
X17.564 Y65.634
X17.557 Y65.615
X17.56 Y65.595
X17.6 Y65.502
X17.603 Y65.482
X17.596 Y65.463
X17.545 Y65.386
X17.526 Y65.37
X17.501 Y65.367
X17.418 Y65.382
X17.397 Y65.381
X17.379 Y65.37
X17.354 Y65.346 Z-0.74
X17.333 Y65.325 Z-0.757
X17.312 Y65.303 Z-0.775
X17.287 Y65.279 Z-0.781
X17.263 Y65.253
X17.03 Y64.982
X17.013 Y64.964
X16.8 Y64.761 F25.
X16.841 Y64.727
X16.87 Y64.699 F100.
X16.893 Y64.668
X16.932 Y64.606
X16.951 Y64.569
X16.964 Y64.529
X16.971 Y64.5
X16.979 Y64.476 Z-0.774
X16.993 Y64.456 Z-0.768
X17.022 Y64.433 Z-0.731
X17.034 Y64.428 Z-0.681
G0 Z5.
X18.044 Y66.291
Z2.505
G1 Z1.767 F17.
Z-0.701 F100.
X18.04 Y66.287 Z-0.732
X18.026 Y66.276 Z-0.758
X18.006 Y66.259 Z-0.775
X17.983 Y66.24 Z-0.781
X17.962 Y66.216
X17.903 Y66.124
X17.898 Y66.115
X17.552 Y65.617
X17.539 Y65.589
X16.675 Y62.716
X16.664 Y62.679 Z-0.774
X16.655 Y62.648 Z-0.752
X16.648 Y62.627 Z-0.719
X16.646 Y62.62 Z-0.681
G0 Z5.
X17.835 Y69.224
Z2.504
G1 Z2.3 F17.
Z-0.199 F100.
X17.832 Y69.217 Z-0.237
X17.823 Y69.198 Z-0.27
X17.808 Y69.169 Z-0.291
X17.791 Y69.135 Z-0.299
X17.787 Y69.126
X17.684 Y68.928
G3 X17.969 Y68.544 I0.23 J-0.127
G1 X18.112 Y68.573
X18.128 Y68.578
X20.945 Y69.609
X20.981 Y69.622 Z-0.291
X21.011 Y69.634 Z-0.27
X21.031 Y69.641 Z-0.237
X21.039 Y69.644 Z-0.199
G0 Z5.
X17.868 Y69.878
Z2.505
G1 Z2.3 F17.
Z-0.219 F100.
X17.865 Y69.873 Z-0.25
X17.855 Y69.858 Z-0.276
X17.842 Y69.836 Z-0.293
X17.825 Y69.811 Z-0.299
X17.813 Y69.782
X17.809 Y69.767
X17.797 Y69.731
X17.511 Y69.053
X17.492 Y69.016
X17.104 Y68.401
X17.08 Y68.369
X16.929 Y68.198
X16.796 Y68.048 F25.
X17.014 Y68.114 F100.
X17.029 Y68.118
X17.522 Y68.234
X17.528 Y68.235
X18.237 Y68.386
X18.278 Y68.391
X18.32 Y68.389
X18.394 Y68.379
X18.425 Y68.38
X18.455 Y68.391
X21.089 Y69.827
X21.122 Y69.845 Z-0.291
X21.151 Y69.861 Z-0.27
X21.17 Y69.871 Z-0.237
X21.176 Y69.875 Z-0.199
G0 Z5.
X17.835 Y69.225
Z2.504
G1 Z2.201 F17.
Z-0.321 F100.
X17.832 Y69.218 Z-0.359
X17.822 Y69.199 Z-0.392
X17.808 Y69.17 Z-0.413
X17.791 Y69.135 Z-0.421
X17.787 Y69.126
X17.685 Y68.929
G3 X17.971 Y68.545 I0.232 J-0.126
G1 X18.114 Y68.574
X18.129 Y68.578
X20.947 Y69.607
X20.983 Y69.621 Z-0.413
X21.014 Y69.632 Z-0.392
X21.034 Y69.639 Z-0.359
X21.041 Y69.642 Z-0.321
G0 Z5.
X17.869 Y69.883
Z2.505
G1 Z2.201 F17.
Z-0.341 F100.
X17.866 Y69.878 Z-0.371
X17.857 Y69.863 Z-0.397
X17.843 Y69.841 Z-0.415
X17.826 Y69.815 Z-0.421
X17.814 Y69.787
X17.809 Y69.767
X17.797 Y69.731
X17.511 Y69.053
X17.493 Y69.017
X17.147 Y68.464
X17.135 Y68.445
X17.04 Y68.32
X17.027 Y68.304
X16.933 Y68.198
X16.799 Y68.049 F25.
X17.014 Y68.114 F100.
X17.029 Y68.118
X17.522 Y68.234
X17.528 Y68.235
X18.237 Y68.386
X18.278 Y68.391
X18.32 Y68.389
X18.394 Y68.379
X18.425 Y68.38
X18.455 Y68.391
X21.089 Y69.827
X21.122 Y69.845 Z-0.413
X21.151 Y69.861 Z-0.392
X21.17 Y69.871 Z-0.359
X21.176 Y69.875 Z-0.321
G0 Z5.
X17.835 Y69.225
Z2.504
G1 Z2.079 F17.
Z-0.443 F100.
X17.832 Y69.219 Z-0.481
X17.822 Y69.199 Z-0.513
X17.808 Y69.17 Z-0.535
X17.791 Y69.135 Z-0.543
X17.787 Y69.127
X17.685 Y68.929
G3 X17.971 Y68.545 I0.232 J-0.126
G1 X18.114 Y68.574
X18.129 Y68.578
X20.947 Y69.607
X20.983 Y69.62 Z-0.535
X21.014 Y69.631 Z-0.513
X21.034 Y69.639 Z-0.481
X21.041 Y69.642 Z-0.443
G0 Z5.
X17.877 Y69.87
Z2.505
G1 Z2.079 F17.
Z-0.463 F100.
X17.873 Y69.865 Z-0.493
X17.863 Y69.851 Z-0.519
X17.847 Y69.831 Z-0.536
X17.828 Y69.807 Z-0.543
X17.813 Y69.779
X17.754 Y69.618
X17.749 Y69.605
X17.51 Y69.051
X17.493 Y69.017
X17.147 Y68.464
X17.136 Y68.447
X17.041 Y68.319
X17.026 Y68.301
X16.934 Y68.198
X16.801 Y68.049 F25.
X17.014 Y68.114 F100.
X17.029 Y68.118
X17.522 Y68.234
X17.528 Y68.236
X18.237 Y68.386
X18.278 Y68.391
X18.32 Y68.389
X18.394 Y68.379
X18.425 Y68.38
X18.455 Y68.391
X21.089 Y69.827
X21.122 Y69.845 Z-0.535
X21.151 Y69.861 Z-0.513
X21.17 Y69.871 Z-0.481
X21.176 Y69.875 Z-0.443
G0 Z5.
X17.837 Y69.222
Z2.504
G1 Z1.862 F17.
Z-0.643 F100.
X17.834 Y69.216 Z-0.678
X17.823 Y69.199 Z-0.707
X17.808 Y69.175 Z-0.727
X17.79 Y69.145 Z-0.733
X17.782 Y69.131
X17.688 Y68.936
G3 X17.986 Y68.548 I0.242 J-0.123
G1 X18.106 Y68.572
X18.122 Y68.576
X20.942 Y69.6
X20.978 Y69.613 Z-0.726
X21.008 Y69.624 Z-0.704
X21.028 Y69.631 Z-0.672
X21.036 Y69.634 Z-0.633
G0 Z5.
X17.875 Y69.867
Z2.505
G1 Z1.862 F17.
Z-0.653 F100.
X17.872 Y69.862 Z-0.684
X17.861 Y69.849 Z-0.71
X17.845 Y69.828 Z-0.727
X17.827 Y69.804 Z-0.733
X17.812 Y69.776
X17.756 Y69.62
X17.751 Y69.606
X17.541 Y69.113
X17.534 Y69.098
X17.471 Y68.975
X17.459 Y68.954
X17.225 Y68.585
X17.22 Y68.578
X17.046 Y68.324
X17.025 Y68.298
X16.934 Y68.197
X16.8 Y68.049 F25.
X17.014 Y68.114 F100.
X17.029 Y68.118
X17.522 Y68.234
X17.528 Y68.236
X18.237 Y68.386
X18.278 Y68.391
X18.32 Y68.389
X18.394 Y68.379
X18.425 Y68.38
X18.455 Y68.391
X21.089 Y69.827
X21.122 Y69.845 Z-0.726
X21.151 Y69.861 Z-0.704
X21.17 Y69.871 Z-0.672
X21.176 Y69.875 Z-0.633
G0 Z5.
X17.837 Y69.222
Z2.504
G1 Z1.767 F17.
Z-0.691 F100.
X17.834 Y69.216 Z-0.726
X17.823 Y69.199 Z-0.755
X17.808 Y69.175 Z-0.774
X17.79 Y69.145 Z-0.781
X17.782 Y69.131
X17.688 Y68.936
G3 X17.986 Y68.548 I0.242 J-0.123
G1 X18.106 Y68.572
X18.122 Y68.576
X20.942 Y69.6
X20.978 Y69.613 Z-0.774
X21.008 Y69.624 Z-0.752
X21.028 Y69.631 Z-0.719
X21.036 Y69.634 Z-0.681
G0 Z5.
X17.875 Y69.867
Z2.505
G1 Z1.767 F17.
Z-0.701 F100.
X17.872 Y69.862 Z-0.732
X17.861 Y69.849 Z-0.758
X17.845 Y69.828 Z-0.775
X17.827 Y69.804 Z-0.781
X17.812 Y69.776
X17.756 Y69.62
X17.751 Y69.606
X17.541 Y69.113
X17.534 Y69.098
X17.471 Y68.975
X17.459 Y68.954
X17.225 Y68.585
X17.22 Y68.578
X17.046 Y68.324
X17.025 Y68.298
X16.934 Y68.197
X16.8 Y68.049 F25.
X17.014 Y68.114 F100.
X17.029 Y68.118
X17.522 Y68.234
X17.528 Y68.236
X18.237 Y68.386
X18.278 Y68.391
X18.32 Y68.389
X18.394 Y68.379
X18.425 Y68.38
X18.455 Y68.391
X21.089 Y69.827
X21.122 Y69.845 Z-0.774
X21.151 Y69.861 Z-0.752
X21.17 Y69.871 Z-0.719
X21.176 Y69.875 Z-0.681
G0 Z5.
X16.023 Y71.792
Z2.505
G1 Z2.3 F17.
Z-0.219 F100.
X16.029 Y71.794 Z-0.25
X16.046 Y71.799 Z-0.276
X16.071 Y71.806 Z-0.293
X16.1 Y71.814 Z-0.299
X16.129 Y71.827
X16.636 Y72.163
X16.648 Y72.172
X18.859 Y74.2
X18.887 Y74.225 Z-0.291
X18.911 Y74.247 Z-0.27
X18.927 Y74.262 Z-0.237
X18.933 Y74.267 Z-0.199
G0 Z5.
X16.029 Y71.796
Z2.505
G1 Z2.201 F17.
Z-0.341 F100.
X16.035 Y71.798 Z-0.371
X16.051 Y71.803 Z-0.397
X16.076 Y71.809 Z-0.415
X16.106 Y71.818 Z-0.421
X16.134 Y71.831
X16.636 Y72.163
X16.648 Y72.172
X18.859 Y74.199
X18.888 Y74.225 Z-0.413
X18.911 Y74.247 Z-0.392
X18.927 Y74.262 Z-0.359
X18.933 Y74.267 Z-0.321
G0 Z5.
X16.023 Y71.793
Z2.505
G1 Z2.079 F17.
Z-0.463 F100.
X16.029 Y71.794 Z-0.493
X16.046 Y71.799 Z-0.519
X16.071 Y71.806 Z-0.536
X16.1 Y71.814 Z-0.543
X16.129 Y71.827
X16.636 Y72.163
X16.648 Y72.172
X18.86 Y74.199
X18.888 Y74.225 Z-0.535
X18.912 Y74.247 Z-0.513
X18.928 Y74.262 Z-0.481
X18.933 Y74.267 Z-0.443
G0 Z5.
X16.023 Y71.793
Z2.505
G1 Z1.862 F17.
Z-0.653 F100.
X16.029 Y71.794 Z-0.684
X16.046 Y71.799 Z-0.71
X16.071 Y71.806 Z-0.727
X16.1 Y71.814 Z-0.733
X16.129 Y71.827
X16.636 Y72.163
X16.648 Y72.172
X18.86 Y74.199
X18.888 Y74.225 Z-0.726
X18.912 Y74.247 Z-0.704
X18.928 Y74.262 Z-0.672
X18.934 Y74.267 Z-0.633
G0 Z5.
X16.023 Y71.793
Z2.505
G1 Z1.767 F17.
Z-0.701 F100.
X16.029 Y71.794 Z-0.732
X16.046 Y71.799 Z-0.758
X16.071 Y71.806 Z-0.775
X16.1 Y71.814 Z-0.781
X16.129 Y71.827
X16.636 Y72.163
X16.648 Y72.172
X18.86 Y74.199
X18.888 Y74.225 Z-0.774
X18.912 Y74.247 Z-0.752
X18.928 Y74.262 Z-0.719
X18.934 Y74.267 Z-0.681
G0 Z5.
X21.58 Y74.22
Z2.505
G1 Z2.3 F17.
Z-0.219 F100.
X21.576 Y74.225 Z-0.25
X21.566 Y74.239 Z-0.276
X21.551 Y74.26 Z-0.293
X21.533 Y74.284 Z-0.299
X21.51 Y74.306
X21.024 Y74.657
X21.011 Y74.665
X18.332 Y76.016
X18.298 Y76.033 Z-0.291
X18.269 Y76.048 Z-0.27
X18.25 Y76.058 Z-0.237
X18.243 Y76.061 Z-0.199
G0 Z5.
X21.581 Y74.219
Z2.505
G1 Z2.201 F17.
Z-0.341 F100.
X21.577 Y74.224 Z-0.371
X21.567 Y74.238 Z-0.397
X21.551 Y74.259 Z-0.415
X21.533 Y74.284 Z-0.421
X21.511 Y74.306
X21.121 Y74.584
X21.108 Y74.593
X18.425 Y75.936
X18.391 Y75.953 Z-0.413
X18.362 Y75.967 Z-0.392
X18.343 Y75.977 Z-0.359
X18.336 Y75.981 Z-0.321
G0 Z5.
X21.572 Y74.225
Z2.505
G1 Z2.079 F17.
Z-0.463 F100.
X21.569 Y74.23 Z-0.493
X21.558 Y74.244 Z-0.519
X21.542 Y74.264 Z-0.536
X21.524 Y74.289 Z-0.543
X21.501 Y74.31
X21.342 Y74.421
X21.336 Y74.425
X21.237 Y74.498
X21.224 Y74.506
X18.559 Y75.884
X18.525 Y75.902 Z-0.535
X18.496 Y75.917 Z-0.513
X18.477 Y75.927 Z-0.481
X18.47 Y75.93 Z-0.443
G0 Z5.
X48.983 Y86.314
Z2.504
G1 Z2.3 F17.
Z-0.219 F100.
X48.978 Y86.317 Z-0.25
X48.963 Y86.327 Z-0.276
X48.942 Y86.342 Z-0.293
X48.917 Y86.36 Z-0.299
X48.889 Y86.374
X48.843 Y86.388
X48.798 Y86.406
X48.758 Y86.433
X48.684 Y86.493
X48.65 Y86.528
X47.442 Y87.987
X47.314 Y88.141 F25.
X47.351 Y87.698 F100.
X47.365 Y87.586
X47.39 Y87.388 F25.
X47.719 Y87.381 F100.
X47.756 Y87.378
X47.791 Y87.369
X47.884 Y87.339
X47.926 Y87.321
X47.965 Y87.295
X48.032 Y87.24
X48.063 Y87.21
X48.089 Y87.175
X48.133 Y87.101
X48.153 Y87.06
X48.165 Y87.017
X48.183 Y86.916
X48.186 Y86.886
X48.196 Y86.733
X48.195 Y86.696
X48.189 Y86.659
X48.17 Y86.579
X48.157 Y86.541
X48.139 Y86.506
X48.097 Y86.439
X48.071 Y86.404
X48.038 Y86.373
X48.018 Y86.358
X48.001 Y86.341 Z-0.292
X47.988 Y86.319 Z-0.286
X47.979 Y86.284 Z-0.249
X47.98 Y86.271 Z-0.199
G0 Z5.
X48.983 Y86.314
Z2.504
G1 Z2.201 F17.
Z-0.341 F100.
X48.978 Y86.317 Z-0.371
X48.963 Y86.327 Z-0.397
X48.942 Y86.342 Z-0.415
X48.917 Y86.36 Z-0.421
X48.889 Y86.374
X48.843 Y86.388
X48.798 Y86.406
X48.758 Y86.433
X48.684 Y86.493
X48.65 Y86.528
X47.442 Y87.987
X47.314 Y88.141 F25.
X47.351 Y87.698 F100.
X47.365 Y87.586
X47.39 Y87.388 F25.
X47.719 Y87.381 F100.
X47.756 Y87.378
X47.791 Y87.369
X47.884 Y87.339
X47.926 Y87.321
X47.965 Y87.295
X48.032 Y87.24
X48.063 Y87.21
X48.089 Y87.175
X48.133 Y87.101
X48.153 Y87.06
X48.165 Y87.017
X48.183 Y86.916
X48.186 Y86.886
X48.196 Y86.733
X48.195 Y86.696
X48.189 Y86.659
X48.17 Y86.579
X48.157 Y86.541
X48.139 Y86.506
X48.097 Y86.439
X48.071 Y86.404
X48.038 Y86.373
X48.008 Y86.351
X47.991 Y86.333 Z-0.414
X47.978 Y86.312 Z-0.407
X47.97 Y86.276 Z-0.371
Y86.263 Z-0.321
G0 Z5.
X48.983 Y86.314
Z2.504
G1 Z2.079 F17.
Z-0.463 F100.
X48.978 Y86.317 Z-0.493
X48.963 Y86.327 Z-0.519
X48.942 Y86.342 Z-0.536
X48.917 Y86.36 Z-0.543
X48.889 Y86.374
X48.843 Y86.388
X48.798 Y86.406
X48.758 Y86.433
X48.684 Y86.493
X48.65 Y86.528
X47.442 Y87.987
X47.314 Y88.141 F25.
X47.351 Y87.698 F100.
X47.365 Y87.586
X47.39 Y87.388 F25.
X47.719 Y87.381 F100.
X47.756 Y87.378
X47.791 Y87.369
X47.884 Y87.339
X47.926 Y87.321
X47.965 Y87.295
X48.032 Y87.24
X48.063 Y87.21
X48.089 Y87.175
X48.133 Y87.101
X48.153 Y87.06
X48.165 Y87.017
X48.183 Y86.916
X48.186 Y86.886
X48.196 Y86.733
X48.195 Y86.696
X48.189 Y86.659
X48.17 Y86.579
X48.157 Y86.541
X48.139 Y86.506
X48.097 Y86.439
X48.071 Y86.404
X48.038 Y86.373
X48.008 Y86.351
X47.991 Y86.333 Z-0.536
X47.978 Y86.312 Z-0.529
X47.97 Y86.276 Z-0.493
Y86.263 Z-0.443
G0 Z5.
X48.983 Y86.314
Z2.504
G1 Z1.862 F17.
Z-0.653 F100.
X48.978 Y86.317 Z-0.684
X48.963 Y86.327 Z-0.71
X48.942 Y86.342 Z-0.727
X48.917 Y86.36 Z-0.733
X48.889 Y86.374
X48.843 Y86.388
X48.798 Y86.406
X48.758 Y86.433
X48.684 Y86.493
X48.65 Y86.528
X47.442 Y87.987
X47.314 Y88.141 F25.
X47.351 Y87.698 F100.
X47.365 Y87.587
X47.39 Y87.388 F25.
X47.719 Y87.381 F100.
X47.756 Y87.378
X47.791 Y87.369
X47.884 Y87.339
X47.926 Y87.321
X47.965 Y87.295
X48.032 Y87.24
X48.063 Y87.21
X48.089 Y87.175
X48.133 Y87.101
X48.153 Y87.06
X48.165 Y87.017
X48.183 Y86.916
X48.186 Y86.886
X48.196 Y86.733
X48.195 Y86.696
X48.189 Y86.659
X48.17 Y86.579
X48.157 Y86.541
X48.139 Y86.506
X48.097 Y86.439
X48.071 Y86.404
X48.038 Y86.373
X48.008 Y86.351
X47.991 Y86.333 Z-0.727
X47.978 Y86.312 Z-0.72
X47.97 Y86.276 Z-0.683
Y86.263 Z-0.633
G0 Z5.
X48.983 Y86.314
Z2.504
G1 Z1.767 F17.
Z-0.701 F100.
X48.978 Y86.317 Z-0.732
X48.963 Y86.327 Z-0.758
X48.942 Y86.342 Z-0.775
X48.917 Y86.36 Z-0.781
X48.889 Y86.374
X48.843 Y86.388
X48.798 Y86.406
X48.758 Y86.433
X48.684 Y86.493
X48.65 Y86.528
X47.442 Y87.987
X47.314 Y88.141 F25.
X47.351 Y87.698 F100.
X47.365 Y87.587
X47.39 Y87.389 F25.
X47.719 Y87.381 F100.
X47.756 Y87.378
X47.791 Y87.369
X47.884 Y87.339
X47.926 Y87.321
X47.965 Y87.295
X48.032 Y87.24
X48.063 Y87.21
X48.089 Y87.175
X48.133 Y87.101
X48.153 Y87.06
X48.165 Y87.017
X48.183 Y86.916
X48.186 Y86.886
X48.196 Y86.733
X48.195 Y86.696
X48.189 Y86.659
X48.17 Y86.579
X48.157 Y86.541
X48.139 Y86.506
X48.097 Y86.439
X48.071 Y86.404
X48.038 Y86.373
X48.008 Y86.351
X47.991 Y86.333 Z-0.774
X47.978 Y86.312 Z-0.768
X47.97 Y86.276 Z-0.731
Y86.263 Z-0.681
G0 Z5.
X77. Y80.67
Z2.505
G1 Z0.6 F17.
X77.005 Y80.676 Z0.562
X77.017 Y80.693 Z0.53
X77.034 Y80.72 Z0.508
X77.056 Y80.751 Z0.5
X77.085 Y80.793 Z0.499
X77.372 Y81.426 Z0.485
X77.412 Y82.002 Z0.473
X77.35 Y82.157 Z0.47
X77.166 Y82.362 Z0.464
X76.962 Y82.477 Z0.459
X76.76 Y82.513 Z0.455
X76.377 Y82.417 Z0.447
X75.975 Y82.164 Z0.437
X75.172 Y81.329 Z0.414
X74.765 Y80.735 Z0.399
X74.483 Y80.117 Z0.385
X74.435 Y79.525 Z0.373
X74.498 Y79.365 Z0.37
X74.505 Y79.355 Z0.369
X74.678 Y79.165 Z0.364
X74.906 Y79.04 Z0.359
X75.07 Y79.014 Z0.355
X75.605 Y79.182 Z0.344
X76.172 Y79.624 Z0.329
X76.675 Y80.195 Z0.314
X77.085 Y80.793 Z0.299
X77.372 Y81.426 Z0.285
X77.412 Y82.002 Z0.273
X77.35 Y82.157 Z0.27
X77.166 Y82.362 Z0.264
X76.962 Y82.477 Z0.259
X76.76 Y82.513 Z0.255
X76.377 Y82.417 Z0.247
X75.975 Y82.164 Z0.237
X75.172 Y81.329 Z0.214
X74.765 Y80.735 Z0.199
X74.483 Y80.117 Z0.185
X74.435 Y79.525 Z0.173
X74.498 Y79.365 Z0.17
X74.505 Y79.355 Z0.169
X74.678 Y79.165 Z0.164
X74.906 Y79.04 Z0.159
X75.07 Y79.014 Z0.155
X75.605 Y79.182 Z0.144
X76.172 Y79.624 Z0.129
X76.675 Y80.195 Z0.114
X77.085 Y80.793 Z0.099
X77.372 Y81.426 Z0.085
X77.412 Y82.002 Z0.073
X77.35 Y82.157 Z0.07
X77.166 Y82.362 Z0.064
X76.962 Y82.477 Z0.059
X76.76 Y82.513 Z0.055
X76.377 Y82.417 Z0.047
X75.975 Y82.164 Z0.037
X75.172 Y81.329 Z0.014
X74.765 Y80.735 Z-0.001
X74.483 Y80.117 Z-0.015
X74.435 Y79.525 Z-0.027
X74.498 Y79.365 Z-0.03
X74.505 Y79.355 Z-0.031
X74.678 Y79.165 Z-0.036
X74.906 Y79.04 Z-0.041
X75.07 Y79.014 Z-0.045
X75.605 Y79.182 Z-0.056
X76.172 Y79.624 Z-0.071
X76.675 Y80.195 Z-0.086
X77.085 Y80.793 Z-0.101
X77.372 Y81.426 Z-0.115
X77.412 Y82.002 Z-0.127
X77.35 Y82.157 Z-0.13
X77.166 Y82.362 Z-0.136
X76.962 Y82.477 Z-0.141
X76.76 Y82.513 Z-0.145
X76.377 Y82.417 Z-0.153
X75.975 Y82.164 Z-0.163
X75.172 Y81.329 Z-0.186
X74.765 Y80.735 Z-0.201
X74.483 Y80.117 Z-0.215
X74.435 Y79.525 Z-0.227
X74.498 Y79.365 Z-0.23
X74.505 Y79.355 Z-0.231
X74.678 Y79.165 Z-0.236
X74.906 Y79.04 Z-0.241
X75.07 Y79.014 Z-0.245
X75.605 Y79.182 Z-0.256
X76.172 Y79.624 Z-0.271
X76.675 Y80.195 Z-0.286
X77.031 Y80.714 Z-0.299
G3 X76.86 Y81.03 I-0.167 J0.114 F100.
G2 X76.663 Y81.331 I-0.004 J0.213
G3 X76.27 Y81.597 I-0.219 J0.099
X75.671 Y80.946 I15.043 J-14.45
X75.189 Y80.204 I2.269 J-2.001
X75.557 Y79.913 I0.22 J-0.101
X75.886 Y80.23 I-1.344 J1.725
X76.174 Y80.585 I-9.257 J7.786
X76.441 Y80.944 I-8.222 J6.401
X76.663 Y81.331 I-1.887 J1.343
G2 X77.064 Y81.609 I0.434 J-0.197
G3 X77.409 Y81.954 I-0.026 J0.371
G1 X77.412 Y82.002 F25.
X77.35 Y82.157 F100.
X77.166 Y82.362
X76.962 Y82.477
X76.76 Y82.513
X76.377 Y82.417
X75.975 Y82.164
X75.172 Y81.329
X74.765 Y80.735
X74.483 Y80.117
X74.451 Y79.725
X74.435 Y79.525 F25.
X74.498 Y79.365 F100.
X74.505 Y79.355
X74.678 Y79.165
X74.906 Y79.04
X75.07 Y79.014 F25.
X75.605 Y79.182 F100.
X76.172 Y79.624
X76.675 Y80.195
X77.085 Y80.793
X77.372 Y81.426
X77.409 Y81.954
X77.407 Y81.979 Z-0.292
X77.4 Y82.003 Z-0.286
X77.379 Y82.033 Z-0.249
X77.369 Y82.041 Z-0.199
G0 Z5.
X75.509 Y81.679
Z2.505
G1 Z0.8 F17.
X75.504 Y81.674 Z0.762
X75.489 Y81.659 Z0.73
X75.467 Y81.636 Z0.708
X75.441 Y81.609 Z0.7
X75.172 Y81.329 Z0.692
X74.766 Y80.736 Z0.677
X74.476 Y80.091 Z0.663
X74.435 Y79.527 Z0.651
X74.5 Y79.364 Z0.648
X74.506 Y79.354
X74.678 Y79.165 Z0.642
X74.906 Y79.041 Z0.637
X75.071 Y79.014 Z0.634
X75.605 Y79.182 Z0.622
X76.171 Y79.624 Z0.608
X76.675 Y80.195 Z0.592
X77.085 Y80.794 Z0.577
X77.372 Y81.426 Z0.563
X77.412 Y82.001 Z0.551
X77.349 Y82.156 Z0.548
X77.166 Y82.362 Z0.542
X76.964 Y82.477 Z0.538
X76.751 Y82.511 Z0.533
X76.377 Y82.417 Z0.525
X75.975 Y82.164 Z0.516
X75.172 Y81.329 Z0.492
X74.766 Y80.736 Z0.477
X74.476 Y80.091 Z0.463
X74.435 Y79.527 Z0.451
X74.5 Y79.364 Z0.448
X74.506 Y79.354
X74.678 Y79.165 Z0.442
X74.906 Y79.041 Z0.437
X75.071 Y79.014 Z0.434
X75.605 Y79.182 Z0.422
X76.171 Y79.624 Z0.408
X76.675 Y80.195 Z0.392
X77.085 Y80.794 Z0.377
X77.372 Y81.426 Z0.363
X77.412 Y82.001 Z0.351
X77.349 Y82.156 Z0.348
X77.166 Y82.362 Z0.342
X76.964 Y82.477 Z0.338
X76.751 Y82.511 Z0.333
X76.377 Y82.417 Z0.325
X75.975 Y82.164 Z0.316
X75.172 Y81.329 Z0.292
X74.766 Y80.736 Z0.277
X74.476 Y80.091 Z0.263
X74.435 Y79.527 Z0.251
X74.5 Y79.364 Z0.248
X74.506 Y79.354
X74.678 Y79.165 Z0.242
X74.906 Y79.041 Z0.237
X75.071 Y79.014 Z0.234
X75.605 Y79.182 Z0.222
X76.171 Y79.624 Z0.208
X76.675 Y80.195 Z0.192
X77.085 Y80.794 Z0.177
X77.372 Y81.426 Z0.163
X77.412 Y82.001 Z0.151
X77.349 Y82.156 Z0.148
X77.166 Y82.362 Z0.142
X76.964 Y82.477 Z0.138
X76.751 Y82.511 Z0.133
X76.377 Y82.417 Z0.125
X75.975 Y82.164 Z0.116
X75.172 Y81.329 Z0.092
X74.766 Y80.736 Z0.077
X74.476 Y80.091 Z0.063
X74.435 Y79.527 Z0.051
X74.5 Y79.364 Z0.048
X74.506 Y79.354
X74.678 Y79.165 Z0.042
X74.906 Y79.041 Z0.037
X75.071 Y79.014 Z0.034
X75.605 Y79.182 Z0.022
X76.171 Y79.624 Z0.008
X76.675 Y80.195 Z-0.008
X77.085 Y80.794 Z-0.023
X77.372 Y81.426 Z-0.037
X77.412 Y82.001 Z-0.049
X77.349 Y82.156 Z-0.052
X77.166 Y82.362 Z-0.058
X76.964 Y82.477 Z-0.062
X76.751 Y82.511 Z-0.067
X76.377 Y82.417 Z-0.075
X75.975 Y82.164 Z-0.084
X75.172 Y81.329 Z-0.108
X74.766 Y80.736 Z-0.123
X74.476 Y80.091 Z-0.137
X74.435 Y79.527 Z-0.149
X74.5 Y79.364 Z-0.152
X74.506 Y79.354
X74.678 Y79.165 Z-0.158
X74.906 Y79.041 Z-0.163
X75.071 Y79.014 Z-0.166
X75.605 Y79.182 Z-0.178
X76.171 Y79.624 Z-0.192
X76.675 Y80.195 Z-0.208
X77.085 Y80.794 Z-0.223
X77.372 Y81.426 Z-0.237
X77.412 Y82.001 Z-0.249
X77.349 Y82.156 Z-0.252
X77.166 Y82.362 Z-0.258
X76.964 Y82.477 Z-0.262
X76.751 Y82.511 Z-0.267
X76.377 Y82.417 Z-0.275
X75.975 Y82.164 Z-0.284
X75.172 Y81.329 Z-0.308
X74.766 Y80.736 Z-0.323
X74.476 Y80.091 Z-0.337
X74.435 Y79.527 Z-0.349
X74.5 Y79.364 Z-0.352
X74.506 Y79.354
X74.678 Y79.165 Z-0.358
X74.906 Y79.041 Z-0.363
X75.071 Y79.014 Z-0.366
X75.605 Y79.182 Z-0.378
X76.171 Y79.624 Z-0.392
X76.675 Y80.195 Z-0.408
X77.034 Y80.72 Z-0.421
G3 X76.864 Y81.034 I-0.166 J0.113 F100.
G2 X76.666 Y81.332 I-0.006 J0.211
G3 X76.27 Y81.6 I-0.221 J0.1
X75.667 Y80.944 I14.613 J-14.037
X75.185 Y80.195 I2.248 J-1.977
X75.552 Y79.907 I0.219 J-0.098
X75.884 Y80.226 I-1.381 J1.77
X76.175 Y80.584 I-8.619 J7.297
X76.443 Y80.944 I-8.087 J6.298
X76.666 Y81.332 I-1.9 J1.351
G2 X77.065 Y81.61 I0.433 J-0.196
G3 X77.409 Y81.954 I-0.026 J0.37
G1 X77.412 Y82.001 F25.
X77.349 Y82.156 F100.
X77.166 Y82.362
X76.964 Y82.477
X76.751 Y82.511
X76.377 Y82.417
X75.975 Y82.164
X75.172 Y81.329
X74.766 Y80.736
X74.476 Y80.091
X74.449 Y79.726
X74.435 Y79.527 F25.
X74.5 Y79.364 F100.
X74.506 Y79.354
X74.678 Y79.165
X74.906 Y79.041
X75.071 Y79.014 F25.
X75.605 Y79.182 F100.
X76.171 Y79.624
X76.675 Y80.195
X77.085 Y80.794
X77.372 Y81.426
X77.409 Y81.954
X77.407 Y81.979 Z-0.414
X77.4 Y82.002 Z-0.407
X77.379 Y82.032 Z-0.371
X77.369 Y82.041 Z-0.321
G0 Z5.
X76.326 Y82.384
Z2.505
G1 Z0.8 F17.
X76.32 Y82.38 Z0.762
X76.302 Y82.369 Z0.73
X76.275 Y82.352 Z0.708
X76.243 Y82.332 Z0.7
X75.975 Y82.164 Z0.694
X75.172 Y81.329 Z0.67
X74.766 Y80.736 Z0.655
X74.476 Y80.091 Z0.641
X74.435 Y79.527 Z0.629
X74.501 Y79.364 Z0.626
X74.507 Y79.353 Z0.625
X74.679 Y79.164 Z0.62
X74.883 Y79.049 Z0.615
X75.073 Y79.014 Z0.612
X75.605 Y79.182 Z0.6
X76.171 Y79.624 Z0.586
X76.675 Y80.195 Z0.57
X77.085 Y80.794 Z0.555
X77.372 Y81.426 Z0.541
X77.412 Y82.001 Z0.529
X77.349 Y82.156 Z0.526
X77.165 Y82.363 Z0.52
X76.964 Y82.477 Z0.516
X76.751 Y82.511 Z0.511
X76.377 Y82.416 Z0.503
X75.975 Y82.164 Z0.494
X75.172 Y81.329 Z0.47
X74.766 Y80.736 Z0.455
X74.476 Y80.091 Z0.441
X74.435 Y79.527 Z0.429
X74.501 Y79.364 Z0.426
X74.507 Y79.353 Z0.425
X74.679 Y79.164 Z0.42
X74.883 Y79.049 Z0.415
X75.073 Y79.014 Z0.412
X75.605 Y79.182 Z0.4
X76.171 Y79.624 Z0.386
X76.675 Y80.195 Z0.37
X77.085 Y80.794 Z0.355
X77.372 Y81.426 Z0.341
X77.412 Y82.001 Z0.329
X77.349 Y82.156 Z0.326
X77.165 Y82.363 Z0.32
X76.964 Y82.477 Z0.316
X76.751 Y82.511 Z0.311
X76.377 Y82.416 Z0.303
X75.975 Y82.164 Z0.294
X75.172 Y81.329 Z0.27
X74.766 Y80.736 Z0.255
X74.476 Y80.091 Z0.241
X74.435 Y79.527 Z0.229
X74.501 Y79.364 Z0.226
X74.507 Y79.353 Z0.225
X74.679 Y79.164 Z0.22
X74.883 Y79.049 Z0.215
X75.073 Y79.014 Z0.212
X75.605 Y79.182 Z0.2
X76.171 Y79.624 Z0.186
X76.675 Y80.195 Z0.17
X77.085 Y80.794 Z0.155
X77.372 Y81.426 Z0.141
X77.412 Y82.001 Z0.129
X77.349 Y82.156 Z0.126
X77.165 Y82.363 Z0.12
X76.964 Y82.477 Z0.116
X76.751 Y82.511 Z0.111
X76.377 Y82.416 Z0.103
X75.975 Y82.164 Z0.094
X75.172 Y81.329 Z0.07
X74.766 Y80.736 Z0.055
X74.476 Y80.091 Z0.041
X74.435 Y79.527 Z0.029
X74.501 Y79.364 Z0.026
X74.507 Y79.353 Z0.025
X74.679 Y79.164 Z0.02
X74.883 Y79.049 Z0.015
X75.073 Y79.014 Z0.012
X75.605 Y79.182 Z0.
X76.171 Y79.624 Z-0.014
X76.675 Y80.195 Z-0.03
X77.085 Y80.794 Z-0.045
X77.372 Y81.426 Z-0.059
X77.412 Y82.001 Z-0.071
X77.349 Y82.156 Z-0.074
X77.165 Y82.363 Z-0.08
X76.964 Y82.477 Z-0.084
X76.751 Y82.511 Z-0.089
X76.377 Y82.416 Z-0.097
X75.975 Y82.164 Z-0.106
X75.172 Y81.329 Z-0.13
X74.766 Y80.736 Z-0.145
X74.476 Y80.091 Z-0.159
X74.435 Y79.527 Z-0.171
X74.501 Y79.364 Z-0.174
X74.507 Y79.353 Z-0.175
X74.679 Y79.164 Z-0.18
X74.883 Y79.049 Z-0.185
X75.073 Y79.014 Z-0.188
X75.605 Y79.182 Z-0.2
X76.171 Y79.624 Z-0.214
X76.675 Y80.195 Z-0.23
X77.085 Y80.794 Z-0.245
X77.372 Y81.426 Z-0.259
X77.412 Y82.001 Z-0.271
X77.349 Y82.156 Z-0.274
X77.165 Y82.363 Z-0.28
X76.964 Y82.477 Z-0.284
X76.751 Y82.511 Z-0.289
X76.377 Y82.416 Z-0.297
X75.975 Y82.164 Z-0.306
X75.172 Y81.329 Z-0.33
X74.766 Y80.736 Z-0.345
X74.476 Y80.091 Z-0.359
X74.435 Y79.527 Z-0.371
X74.501 Y79.364 Z-0.374
X74.507 Y79.353 Z-0.375
X74.679 Y79.164 Z-0.38
X74.883 Y79.049 Z-0.385
X75.073 Y79.014 Z-0.388
X75.605 Y79.182 Z-0.4
X76.171 Y79.624 Z-0.414
X76.675 Y80.195 Z-0.43
X77.085 Y80.794 Z-0.445
X77.372 Y81.426 Z-0.459
X77.412 Y82.001 Z-0.471
X77.349 Y82.156 Z-0.474
X77.165 Y82.363 Z-0.48
X76.964 Y82.477 Z-0.484
X76.751 Y82.511 Z-0.489
X76.377 Y82.416 Z-0.497
X75.975 Y82.164 Z-0.506
X75.172 Y81.329 Z-0.53
X74.827 Y80.824 Z-0.543
G3 X74.991 Y80.501 I0.171 J-0.117 F100.
G2 X75.184 Y80.193 I-0.006 J-0.218
G3 X75.551 Y79.905 I0.219 J-0.098
X75.884 Y80.226 I-1.392 J1.784
X76.176 Y80.584 I-8.46 J7.176
X76.443 Y80.944 I-8.037 J6.26
X76.666 Y81.332 I-1.903 J1.352
X76.27 Y81.6 I-0.221 J0.1
X75.667 Y80.944 I14.506 J-13.933
X75.184 Y80.193 I2.253 J-1.979
G2 X74.784 Y79.914 I-0.433 J0.194
G3 X74.438 Y79.57 I0.025 J-0.371
G1 X74.435 Y79.527 F25.
X74.501 Y79.364 F100.
X74.507 Y79.353
X74.679 Y79.164
X74.883 Y79.049
X75.073 Y79.014 F25.
X75.605 Y79.182 F100.
X76.171 Y79.624
X76.675 Y80.195
X77.085 Y80.794
X77.372 Y81.426
X77.398 Y81.801
X77.412 Y82.001 F25.
X77.349 Y82.156 F100.
X77.165 Y82.363
X76.964 Y82.477
X76.751 Y82.511
X76.377 Y82.416
X75.975 Y82.164
X75.172 Y81.329
X74.766 Y80.736
X74.476 Y80.091
X74.438 Y79.57
X74.439 Y79.545 Z-0.536
X74.447 Y79.522 Z-0.529
X74.467 Y79.492 Z-0.493
X74.478 Y79.483 Z-0.443
G0 Z5.
X75.908 Y79.419
Z2.505
G1 Z0.8 F17.
X75.914 Y79.424 Z0.762
X75.931 Y79.437 Z0.73
X75.956 Y79.456 Z0.708
X75.985 Y79.479 Z0.7
X76.171 Y79.624 Z0.695
X76.675 Y80.195 Z0.68
X77.086 Y80.795 Z0.665
X77.372 Y81.426 Z0.651
X77.412 Y82. Z0.639
X77.345 Y82.161 Z0.635
X77.291 Y82.228 Z0.634
X77.168 Y82.361 Z0.63
X76.964 Y82.476 Z0.625
X76.752 Y82.511 Z0.621
X76.377 Y82.415 Z0.613
X75.975 Y82.164 Z0.603
X75.172 Y81.329 Z0.58
X74.766 Y80.736 Z0.565
X74.476 Y80.09 Z0.551
X74.435 Y79.528 Z0.539
X74.503 Y79.362 Z0.535
X74.508 Y79.351
X74.679 Y79.164 Z0.53
X74.883 Y79.049 Z0.525
X75.073 Y79.014 Z0.521
X75.605 Y79.182 Z0.51
X76.171 Y79.624 Z0.495
X76.675 Y80.195 Z0.48
X77.086 Y80.795 Z0.465
X77.372 Y81.426 Z0.451
X77.412 Y82. Z0.439
X77.345 Y82.161 Z0.435
X77.291 Y82.228 Z0.434
X77.168 Y82.361 Z0.43
X76.964 Y82.476 Z0.425
X76.752 Y82.511 Z0.421
X76.377 Y82.415 Z0.413
X75.975 Y82.164 Z0.403
X75.172 Y81.329 Z0.38
X74.766 Y80.736 Z0.365
X74.476 Y80.09 Z0.351
X74.435 Y79.528 Z0.339
X74.503 Y79.362 Z0.335
X74.508 Y79.351
X74.679 Y79.164 Z0.33
X74.883 Y79.049 Z0.325
X75.073 Y79.014 Z0.321
X75.605 Y79.182 Z0.31
X76.171 Y79.624 Z0.295
X76.675 Y80.195 Z0.28
X77.086 Y80.795 Z0.265
X77.372 Y81.426 Z0.251
X77.412 Y82. Z0.239
X77.345 Y82.161 Z0.235
X77.291 Y82.228 Z0.234
X77.168 Y82.361 Z0.23
X76.964 Y82.476 Z0.225
X76.752 Y82.511 Z0.221
X76.377 Y82.415 Z0.213
X75.975 Y82.164 Z0.203
X75.172 Y81.329 Z0.18
X74.766 Y80.736 Z0.165
X74.476 Y80.09 Z0.151
X74.435 Y79.528 Z0.139
X74.503 Y79.362 Z0.135
X74.508 Y79.351
X74.679 Y79.164 Z0.13
X74.883 Y79.049 Z0.125
X75.073 Y79.014 Z0.121
X75.605 Y79.182 Z0.11
X76.171 Y79.624 Z0.095
X76.675 Y80.195 Z0.08
X77.086 Y80.795 Z0.065
X77.372 Y81.426 Z0.051
X77.412 Y82. Z0.039
X77.345 Y82.161 Z0.035
X77.291 Y82.228 Z0.034
X77.168 Y82.361 Z0.03
X76.964 Y82.476 Z0.025
X76.752 Y82.511 Z0.021
X76.377 Y82.415 Z0.013
X75.975 Y82.164 Z0.003
X75.172 Y81.329 Z-0.02
X74.766 Y80.736 Z-0.035
X74.476 Y80.09 Z-0.049
X74.435 Y79.528 Z-0.061
X74.503 Y79.362 Z-0.065
X74.508 Y79.351
X74.679 Y79.164 Z-0.07
X74.883 Y79.049 Z-0.075
X75.073 Y79.014 Z-0.079
X75.605 Y79.182 Z-0.09
X76.171 Y79.624 Z-0.105
X76.675 Y80.195 Z-0.12
X77.086 Y80.795 Z-0.135
X77.372 Y81.426 Z-0.149
X77.412 Y82. Z-0.161
X77.345 Y82.161 Z-0.165
X77.291 Y82.228 Z-0.166
X77.168 Y82.361 Z-0.17
X76.964 Y82.476 Z-0.175
X76.752 Y82.511 Z-0.179
X76.377 Y82.415 Z-0.187
X75.975 Y82.164 Z-0.197
X75.172 Y81.329 Z-0.22
X74.766 Y80.736 Z-0.235
X74.476 Y80.09 Z-0.249
X74.435 Y79.528 Z-0.261
X74.503 Y79.362 Z-0.265
X74.508 Y79.351
X74.679 Y79.164 Z-0.27
X74.883 Y79.049 Z-0.275
X75.073 Y79.014 Z-0.279
X75.605 Y79.182 Z-0.29
X76.171 Y79.624 Z-0.305
X76.675 Y80.195 Z-0.32
X77.086 Y80.795 Z-0.335
X77.372 Y81.426 Z-0.349
X77.412 Y82. Z-0.361
X77.345 Y82.161 Z-0.365
X77.291 Y82.228 Z-0.366
X77.168 Y82.361 Z-0.37
X76.964 Y82.476 Z-0.375
X76.752 Y82.511 Z-0.379
X76.377 Y82.415 Z-0.387
X75.975 Y82.164 Z-0.397
X75.172 Y81.329 Z-0.42
X74.766 Y80.736 Z-0.435
X74.476 Y80.09 Z-0.449
X74.435 Y79.528 Z-0.461
X74.503 Y79.362 Z-0.465
X74.508 Y79.351
X74.679 Y79.164 Z-0.47
X74.883 Y79.049 Z-0.475
X75.073 Y79.014 Z-0.479
X75.605 Y79.182 Z-0.49
X76.171 Y79.624 Z-0.505
X76.675 Y80.195 Z-0.52
X77.086 Y80.795 Z-0.535
X77.372 Y81.426 Z-0.549
X77.412 Y82. Z-0.561
X77.345 Y82.161 Z-0.565
X77.291 Y82.228 Z-0.566
X77.168 Y82.361 Z-0.57
X76.964 Y82.476 Z-0.575
X76.752 Y82.511 Z-0.579
X76.377 Y82.415 Z-0.587
X75.975 Y82.164 Z-0.597
X75.172 Y81.329 Z-0.62
X74.766 Y80.736 Z-0.635
X74.476 Y80.09 Z-0.649
X74.435 Y79.528 Z-0.661
X74.503 Y79.362 Z-0.665
X74.508 Y79.351
X74.679 Y79.164 Z-0.67
X74.883 Y79.049 Z-0.675
X75.073 Y79.014 Z-0.679
X75.605 Y79.182 Z-0.69
X76.171 Y79.624 Z-0.705
X76.675 Y80.195 Z-0.72
X77.038 Y80.724 Z-0.733
G3 X76.865 Y81.036 I-0.164 J0.113 F100.
G2 X76.666 Y81.332 I-0.008 J0.209
G3 X76.27 Y81.6 I-0.221 J0.1
X75.666 Y80.943 I14.54 J-13.964
X75.184 Y80.193 I2.25 J-1.977
X75.551 Y79.906 I0.219 J-0.098
X75.884 Y80.226 I-1.4 J1.792
X76.176 Y80.584 I-8.41 J7.14
X76.443 Y80.943 I-8.034 J6.261
X76.666 Y81.332 I-1.9 J1.35
G2 X77.065 Y81.609 I0.432 J-0.196
G3 X77.409 Y81.953 I-0.026 J0.369
G1 X77.412 Y82. F25.
X77.345 Y82.161 F100.
X77.291 Y82.228
X77.168 Y82.361
X76.964 Y82.476
X76.752 Y82.511
X76.377 Y82.415
X75.975 Y82.164
X75.172 Y81.329
X74.766 Y80.736
X74.476 Y80.09
X74.449 Y79.727
X74.435 Y79.528 F25.
X74.503 Y79.362 F100.
X74.508 Y79.351
X74.679 Y79.164
X74.883 Y79.049
X75.073 Y79.014 F25.
X75.605 Y79.182 F100.
X76.171 Y79.624
X76.675 Y80.195
X77.086 Y80.795
X77.372 Y81.426
X77.409 Y81.953
X77.407 Y81.978 Z-0.727
X77.4 Y82.002 Z-0.72
X77.379 Y82.031 Z-0.683
X77.369 Y82.04 Z-0.633
G0 Z5.
X82.621 Y75.082
Z2.505
G1 Z2.3 F17.
Z-0.209 F100.
X82.616 Y75.087 Z-0.244
X82.603 Y75.101 Z-0.273
X82.582 Y75.122 Z-0.292
X82.558 Y75.147 Z-0.299
X82.546 Y75.157
X82.507 Y75.186
X82.469 Y75.221
X82.345 Y75.361
X82.32 Y75.393
X82.302 Y75.429
X82.266 Y75.513
X82.252 Y75.557
X82.246 Y75.603
X82.244 Y75.695 F25.
X82.247 Y75.746
X81.383 Y74.944 F100.
X81.373 Y74.933
X79.519 Y72.574
X79.496 Y72.543 Z-0.291
X79.476 Y72.518 Z-0.27
X79.462 Y72.501 Z-0.237
X79.458 Y72.495 Z-0.199
G0 Z5.
X82.621 Y75.082
Z2.505
G1 Z2.201 F17.
Z-0.331 F100.
X82.616 Y75.087 Z-0.365
X82.603 Y75.101 Z-0.394
X82.582 Y75.122 Z-0.414
X82.558 Y75.147 Z-0.421
X82.546 Y75.157
X82.507 Y75.186
X82.469 Y75.221
X82.345 Y75.361
X82.32 Y75.393
X82.302 Y75.429
X82.266 Y75.513
X82.252 Y75.557
X82.246 Y75.603
X82.244 Y75.695 F25.
X82.247 Y75.746
X81.383 Y74.944 F100.
X81.373 Y74.933
X79.519 Y72.574
X79.496 Y72.543 Z-0.413
X79.476 Y72.518 Z-0.392
X79.462 Y72.501 Z-0.359
X79.458 Y72.495 Z-0.321
G0 Z5.
X82.621 Y75.082
Z2.505
G1 Z2.079 F17.
Z-0.453 F100.
X82.616 Y75.087 Z-0.487
X82.603 Y75.101 Z-0.516
X82.582 Y75.122 Z-0.536
X82.558 Y75.147 Z-0.543
X82.546 Y75.157
X82.507 Y75.186
X82.469 Y75.221
X82.345 Y75.361
X82.32 Y75.393
X82.302 Y75.429
X82.266 Y75.513
X82.252 Y75.557
X82.246 Y75.603
X82.244 Y75.695 F25.
X82.247 Y75.746
X81.383 Y74.944 F100.
X81.373 Y74.933
X79.519 Y72.574
X79.496 Y72.543 Z-0.535
X79.476 Y72.518 Z-0.513
X79.462 Y72.501 Z-0.481
X79.458 Y72.495 Z-0.443
G0 Z5.
X82.621 Y75.082
Z2.505
G1 Z1.862 F17.
Z-0.643 F100.
X82.616 Y75.087 Z-0.678
X82.603 Y75.101 Z-0.707
X82.582 Y75.122 Z-0.727
X82.558 Y75.147 Z-0.733
X82.546 Y75.157
X82.507 Y75.186
X82.469 Y75.221
X82.345 Y75.361
X82.32 Y75.393
X82.302 Y75.429
X82.266 Y75.513
X82.252 Y75.557
X82.246 Y75.603
X82.244 Y75.695 F25.
X82.247 Y75.746
X81.383 Y74.944 F100.
X81.373 Y74.933
X79.519 Y72.574
X79.496 Y72.543 Z-0.726
X79.476 Y72.518 Z-0.704
X79.462 Y72.501 Z-0.672
X79.458 Y72.495 Z-0.633
G0 Z5.
X82.621 Y75.082
Z2.505
G1 Z1.767 F17.
Z-0.691 F100.
X82.616 Y75.087 Z-0.726
X82.603 Y75.101 Z-0.755
X82.582 Y75.122 Z-0.774
X82.558 Y75.147 Z-0.781
X82.546 Y75.157
X82.507 Y75.186
X82.469 Y75.221
X82.345 Y75.361
X82.32 Y75.393
X82.302 Y75.429
X82.266 Y75.513
X82.252 Y75.557
X82.246 Y75.603
X82.244 Y75.695 F25.
X82.247 Y75.746
X81.383 Y74.944 F100.
X81.373 Y74.933
X79.519 Y72.574
X79.496 Y72.543 Z-0.774
X79.476 Y72.518 Z-0.752
X79.462 Y72.501 Z-0.719
X79.458 Y72.495 Z-0.681
G0 Z5.
X80.246 Y74.085
Z2.504
G1 Z2.3 F17.
Z-0.219 F100.
X80.241 Y74.088 Z-0.25
X80.227 Y74.098 Z-0.276
X80.206 Y74.114 Z-0.293
X80.181 Y74.131 Z-0.299
X80.153 Y74.145
X80.116 Y74.157
X80.079 Y74.172
X80.045 Y74.193
X79.981 Y74.239
X79.94 Y74.276
X79.802 Y74.432
X79.775 Y74.469
X79.755 Y74.511
X79.721 Y74.601
X79.709 Y74.647
X79.705 Y74.694
X79.708 Y74.786
X79.714 Y74.834
X79.729 Y74.881
X79.769 Y74.973
X79.798 Y75.022
X80.1 Y75.427
X80.185 Y75.65 F25.
X80.159 Y75.811
X79.378 Y75.082 F100.
X79.195 Y74.901 F25.
X79.185 Y74.882
X79.396 Y74.595 F100.
X79.416 Y74.562
X79.431 Y74.527
X79.453 Y74.46
X79.464 Y74.419
X79.467 Y74.376
X79.465 Y74.277
X79.459 Y74.227
X79.444 Y74.18
X79.404 Y74.09
X79.38 Y74.047
X79.347 Y74.009
X79.204 Y73.874
X79.182 Y73.845
X79.173 Y73.81
X79.177 Y73.773
X80.019 Y70.894
X80.03 Y70.857 Z-0.291
X80.039 Y70.826 Z-0.27
X80.045 Y70.806 Z-0.237
X80.047 Y70.798 Z-0.199
G0 Z5.
X80.246 Y74.085
Z2.504
G1 Z2.201 F17.
Z-0.341 F100.
X80.241 Y74.088 Z-0.371
X80.227 Y74.098 Z-0.397
X80.206 Y74.114 Z-0.415
X80.181 Y74.131 Z-0.421
X80.153 Y74.145
X80.116 Y74.157
X80.079 Y74.172
X80.045 Y74.193
X79.981 Y74.239
X79.94 Y74.276
X79.802 Y74.432
X79.775 Y74.469
X79.755 Y74.511
X79.721 Y74.601
X79.709 Y74.647
X79.705 Y74.694
X79.708 Y74.786
X79.714 Y74.834
X79.729 Y74.881
X79.769 Y74.973
X79.798 Y75.022
X80.099 Y75.426
X80.181 Y75.65 F25.
X80.157 Y75.809
X79.378 Y75.082 F100.
X79.195 Y74.901 F25.
X79.185 Y74.882
X79.396 Y74.595 F100.
X79.416 Y74.562
X79.431 Y74.527
X79.453 Y74.46
X79.464 Y74.419
X79.467 Y74.376
X79.465 Y74.277
X79.459 Y74.227
X79.444 Y74.18
X79.404 Y74.09
X79.38 Y74.047
X79.347 Y74.009
X79.204 Y73.874
X79.182 Y73.845
X79.173 Y73.81
X79.177 Y73.773
X80.019 Y70.894
X80.03 Y70.857 Z-0.413
X80.039 Y70.826 Z-0.392
X80.045 Y70.806 Z-0.359
X80.047 Y70.798 Z-0.321
G0 Z5.
X80.246 Y74.085
Z2.504
G1 Z2.079 F17.
Z-0.463 F100.
X80.241 Y74.088 Z-0.493
X80.227 Y74.098 Z-0.519
X80.206 Y74.114 Z-0.536
X80.181 Y74.131 Z-0.543
X80.153 Y74.145
X80.116 Y74.157
X80.079 Y74.172
X80.045 Y74.193
X79.981 Y74.239
X79.94 Y74.276
X79.802 Y74.432
X79.775 Y74.469
X79.755 Y74.511
X79.721 Y74.601
X79.709 Y74.647
X79.705 Y74.694
X79.708 Y74.786
X79.714 Y74.834
X79.729 Y74.881
X79.769 Y74.973
X79.798 Y75.022
X80.099 Y75.427
X80.172 Y75.622
X80.183 Y75.666 F25.
X80.158 Y75.81
X79.378 Y75.082 F100.
X79.196 Y74.901 F25.
X79.185 Y74.882
X79.396 Y74.595 F100.
X79.416 Y74.562
X79.431 Y74.527
X79.453 Y74.46
X79.464 Y74.419
X79.467 Y74.376
X79.465 Y74.277
X79.459 Y74.227
X79.444 Y74.18
X79.404 Y74.09
X79.38 Y74.047
X79.347 Y74.009
X79.204 Y73.874
X79.182 Y73.845
X79.173 Y73.81
X79.177 Y73.773
X80.019 Y70.894
X80.03 Y70.857 Z-0.535
X80.039 Y70.826 Z-0.513
X80.045 Y70.806 Z-0.481
X80.047 Y70.798 Z-0.443
G0 Z5.
X80.246 Y74.085
Z2.504
G1 Z1.862 F17.
Z-0.653 F100.
X80.241 Y74.088 Z-0.684
X80.227 Y74.098 Z-0.71
X80.206 Y74.114 Z-0.727
X80.181 Y74.131 Z-0.733
X80.153 Y74.145
X80.116 Y74.157
X80.079 Y74.172
X80.045 Y74.193
X79.981 Y74.239
X79.94 Y74.276
X79.802 Y74.432
X79.775 Y74.469
X79.755 Y74.511
X79.721 Y74.601
X79.709 Y74.647
X79.705 Y74.694
X79.708 Y74.786
X79.714 Y74.834
X79.729 Y74.881
X79.769 Y74.973
X79.797 Y75.022
X80.098 Y75.426
X80.149 Y75.566
X80.18 Y75.669 F25.
X80.177 Y75.7 F100.
X80.159 Y75.792 F25.
X80.154 Y75.806
X79.378 Y75.081 F100.
X79.196 Y74.901 F25.
X79.185 Y74.882
X79.396 Y74.595 F100.
X79.416 Y74.562
X79.431 Y74.527
X79.453 Y74.46
X79.464 Y74.419
X79.467 Y74.376
X79.465 Y74.277
X79.459 Y74.227
X79.444 Y74.18
X79.404 Y74.09
X79.38 Y74.047
X79.347 Y74.009
X79.204 Y73.874
X79.182 Y73.845
X79.173 Y73.81
X79.177 Y73.773
X80.019 Y70.894
X80.03 Y70.857 Z-0.726
X80.039 Y70.826 Z-0.704
X80.045 Y70.806 Z-0.672
X80.047 Y70.798 Z-0.633
G0 Z5.
X80.246 Y74.085
Z2.504
G1 Z1.767 F17.
Z-0.701 F100.
X80.241 Y74.088 Z-0.732
X80.227 Y74.098 Z-0.758
X80.206 Y74.114 Z-0.775
X80.181 Y74.131 Z-0.781
X80.153 Y74.145
X80.116 Y74.157
X80.079 Y74.172
X80.045 Y74.193
X79.981 Y74.239
X79.94 Y74.276
X79.802 Y74.432
X79.775 Y74.469
X79.755 Y74.511
X79.721 Y74.601
X79.709 Y74.647
X79.705 Y74.694
X79.708 Y74.786
X79.714 Y74.834
X79.729 Y74.881
X79.769 Y74.973
X79.797 Y75.021
X80.097 Y75.426
X80.146 Y75.563
X80.179 Y75.682 F25.
X80.157 Y75.794
X80.153 Y75.805
X79.378 Y75.081 F100.
X79.196 Y74.901 F25.
X79.185 Y74.882
X79.396 Y74.595 F100.
X79.416 Y74.562
X79.431 Y74.527
X79.453 Y74.46
X79.464 Y74.419
X79.467 Y74.376
X79.465 Y74.277
X79.459 Y74.227
X79.444 Y74.18
X79.404 Y74.09
X79.38 Y74.047
X79.347 Y74.009
X79.204 Y73.874
X79.182 Y73.845
X79.173 Y73.81
X79.177 Y73.773
X80.019 Y70.894
X80.03 Y70.857 Z-0.774
X80.039 Y70.826 Z-0.752
X80.045 Y70.806 Z-0.719
X80.047 Y70.798 Z-0.681
G0 Z5.
