(1001)
(T1  D=2. CR=0. - ZMIN=-2.828 - FLAT END MILL)
G0 G90 G94 G17
G21
G53 G0 Z0.

(2MM  FLATEND  MORPHED-SPIRAL UPPER RELIEF)
M5
M9
T1
S12000 M3
G4 P4.
G55
G0 X30.794 Y41.386
Z15.
Z1.907
G1 Z-0.703 F200.
X30.795 Y41.381 Z-0.747
X30.8 Y41.368 Z-0.789
X30.808 Y41.346 Z-0.826
X30.833 Y41.277 Z-0.92 F50.
X31.689 Y39.248 F200.
X31.709 Y39.2 Z-0.913
X31.728 Y39.156 Z-0.893
X31.744 Y39.118 Z-0.861
X31.756 Y39.088 Z-0.82
X31.764 Y39.07 Z-0.771
X31.766 Y39.064 Z-0.72
G0 Z5.
X69.96 Y38.539
Z1.895
G1 Z-0.72 F200.
X69.962 Y38.545 Z-0.771
X69.971 Y38.564 Z-0.82
X69.984 Y38.592 Z-0.861
X70.001 Y38.63 Z-0.893
X70.021 Y38.674 Z-0.913
X70.043 Y38.721 Z-0.92
X70.916 Y40.627
X71.368 Y41.862
X71.386 Y41.911 Z-0.913
X71.403 Y41.956 Z-0.893
X71.417 Y41.995 Z-0.861
X71.428 Y42.025 Z-0.82
X71.435 Y42.043 Z-0.771
X71.437 Y42.05 Z-0.72
G0 Z5.
X30.037 Y43.55
Z1.904
G1 Z-0.72 F200.
X30.039 Y43.544 Z-0.771
X30.045 Y43.525 Z-0.82
X30.055 Y43.495 Z-0.861
X30.067 Y43.455 Z-0.893
X30.082 Y43.409 Z-0.913
X30.097 Y43.36 Z-0.92
X30.876 Y40.902
X31.94 Y38.549
X32.265 Y37.954
X32.29 Y37.909 Z-0.913
X32.313 Y37.867 Z-0.893
X32.332 Y37.83 Z-0.861
X32.348 Y37.802 Z-0.82
X32.357 Y37.785 Z-0.771
X32.361 Y37.779 Z-0.72
G0 Z5.
X69.438 Y37.421
Z1.862
G1 Z-0.72 F200.
X69.441 Y37.427 Z-0.771
X69.45 Y37.445 Z-0.82
X69.464 Y37.473 Z-0.861
X69.483 Y37.51 Z-0.893
X69.505 Y37.553 Z-0.913
X69.529 Y37.599 Z-0.92
X70.697 Y39.865
X71.593 Y42.253
X71.934 Y43.524 Z-0.918
X72.037 Y43.911 F50.
X72.05 Y43.964 Z-0.831 F200.
X72.054 Y43.981 Z-0.798
X72.056 Y43.992 Z-0.761
X72.057 Y43.995 Z-0.723
G0 Z5.
X29.674 Y44.87
Z1.906
G1 Z-0.82 F200.
X29.675 Y44.864 Z-0.92 F50.
X30.283 Y42.341 F200.
X31.164 Y39.948
X32.317 Y37.673
X33.061 Y36.484
X33.088 Y36.44 Z-0.913
X33.114 Y36.399 Z-0.893
X33.136 Y36.364 Z-0.861
X33.153 Y36.337 Z-0.82
X33.163 Y36.32 Z-0.771
X33.167 Y36.314 Z-0.72
G0 Z5.
X68.513 Y35.853
Z1.884
G1 Z-0.72 F200.
X68.517 Y35.859 Z-0.771
X68.527 Y35.876 Z-0.82
X68.544 Y35.903 Z-0.861
X68.566 Y35.938 Z-0.893
X68.592 Y35.979 Z-0.913
X68.619 Y36.023 Z-0.92
X69.975 Y38.192
X71.067 Y40.496
X71.837 Y42.746
X72.392 Y45.214
X72.396 Y45.237
X72.398 Y45.247 Z-0.908
Y45.25 Z-0.893
G0 Z5.
X29.407 Y45.948
Z1.907
G1 Z-0.778 F200.
Y45.942 Z-0.828
X29.411 Y45.918 Z-0.92 F50.
X29.917 Y43.304 F200.
X30.685 Y40.872
X31.729 Y38.545
X33.07 Y36.302
X34.123 Y34.907
X34.364 Y34.587 F50.
Y34.586 Z-0.845 F200.
Z-0.842
G0 Z5.
X67.399 Y34.313
Z1.904
G1 Z-0.812 F200.
X67.4 Z-0.834
X67.406 Y34.32 Z-0.92 F50.
X68.987 Y36.388 F200.
X70.315 Y38.63
X71.284 Y40.79
X72.062 Y43.214
X72.586 Y45.852
X72.609 Y46.024
X72.66 Y46.421 F50.
X72.661 Y46.438 Z-0.827 F200.
X72.662 Y46.441 Z-0.791
G0 Z5.
X29.195 Y47.005
Z1.908
G1 Z-0.765 F200.
Y47.003 Z-0.796
X29.196 Y46.995 Z-0.827
X29.198 Y46.965 Z-0.92 F50.
X29.59 Y44.311 F200.
X30.252 Y41.814
X31.185 Y39.44
X32.385 Y37.19
X33.835 Y35.093
X34.63 Y34.146
X34.888 Y33.84 F50.
X34.894 Y33.833 Z-0.868 F200.
X34.897 Y33.83 Z-0.83
G0 Z5.
X66.98 Y33.701
Z1.904
G1 Z-0.873 F200.
X66.981 Z-0.888
X68.395 Y35.396 Z-0.92
X69.81 Y37.517
X70.972 Y39.787
X71.865 Y42.176
X72.5 Y44.743
X72.833 Y47.276
X72.834 Y47.284 Z-0.896
Y47.287 Z-0.872
G0 Z5.
X29.052 Y47.75
Z1.909
G1 Z-0.753 F200.
X29.053 Y47.744 Z-0.803
X29.054 Y47.725 Z-0.85
X29.055 Y47.686 Z-0.92 F50.
X29.301 Y45.37 F200.
X29.863 Y42.77
X30.685 Y40.356
X31.778 Y38.052
X33.127 Y35.888
X34.503 Y34.131
X35.026 Y33.55
X35.06 Y33.511 Z-0.913
X35.092 Y33.475 Z-0.893
X35.12 Y33.445 Z-0.861
X35.141 Y33.421 Z-0.82
X35.155 Y33.406 Z-0.771
X35.159 Y33.401 Z-0.72
G0 Z5.
X66.785 Y33.338
Z1.886
G1 Z-0.72 F200.
X66.79 Y33.343 Z-0.771
X66.803 Y33.358 Z-0.82
X66.823 Y33.382 Z-0.861
X66.85 Y33.414 Z-0.893
X66.881 Y33.451 Z-0.913
X66.914 Y33.491 Z-0.92
X68.47 Y35.338
X69.886 Y37.459
X71.049 Y39.728
X71.946 Y42.116
X72.492 Y44.222
X72.876 Y46.669
X72.961 Y47.909
X72.963 Y47.94 Z-0.914
X72.965 Y47.965 Z-0.897
X72.966 Y47.982 Z-0.871
X72.967 Y47.988 Z-0.841
G0 Z5.
X28.931 Y48.149
Z1.885
G1 Z-0.72 F200.
X28.932 Y48.142 Z-0.771
X28.934 Y48.122 Z-0.82
X28.937 Y48.091 Z-0.861
X28.941 Y48.049 Z-0.893
X28.945 Y48.001 Z-0.913
X28.95 Y47.95 Z-0.92
X29.169 Y45.611
X29.64 Y43.243
X30.406 Y40.81
X31.443 Y38.481
X32.739 Y36.285
X34.315 Y34.205
X35.046 Y33.389
X35.08 Y33.351 Z-0.913
X35.113 Y33.315 Z-0.893
X35.14 Y33.284 Z-0.861
X35.162 Y33.26 Z-0.82
X35.175 Y33.245 Z-0.771
X35.179 Y33.24 Z-0.72
G0 Z5.
X66.772 Y33.186
Z1.855
G1 Z-0.72 F200.
X66.776 Y33.191 Z-0.771
X66.789 Y33.206 Z-0.82
X66.81 Y33.231 Z-0.861
X66.836 Y33.262 Z-0.893
X66.868 Y33.299 Z-0.913
X66.901 Y33.339 Z-0.92
X68.545 Y35.28
X69.961 Y37.401
X71.127 Y39.669
X72.026 Y42.055
X72.584 Y44.202
X72.969 Y46.657
X73.058 Y47.978
X73.061 Y48.029 Z-0.913
X73.065 Y48.077 Z-0.893
X73.067 Y48.119 Z-0.861
X73.07 Y48.15 Z-0.82
X73.071 Y48.17 Z-0.771
Y48.177 Z-0.72
G0 Z5.
X28.836 Y48.207
Z1.849
G1 Z-0.72 F200.
Y48.2 Z-0.771
X28.838 Y48.18 Z-0.82
X28.841 Y48.149 Z-0.861
X28.845 Y48.107 Z-0.893
X28.849 Y48.059 Z-0.913
X28.854 Y48.008 Z-0.92
X29.075 Y45.6
X29.548 Y43.223
X30.313 Y40.79
X31.348 Y38.459
X32.641 Y36.261
X34.174 Y34.224
X35.045 Y33.252
X35.079 Y33.214 Z-0.913
X35.112 Y33.178 Z-0.893
X35.139 Y33.147 Z-0.861
X35.16 Y33.124 Z-0.82
X35.174 Y33.109 Z-0.771
X35.178 Y33.104 Z-0.72
G0 Z5.
X66.773 Y33.053
Z1.818
G1 Z-0.72 F200.
X66.777 Y33.059 Z-0.771
X66.79 Y33.074 Z-0.82
X66.811 Y33.098 Z-0.861
X66.839 Y33.129 Z-0.893
X66.87 Y33.165 Z-0.913
X66.904 Y33.204 Z-0.92
X68.308 Y34.818
X69.773 Y36.906
X70.991 Y39.146
X71.947 Y41.51
X72.622 Y43.932
X73.043 Y46.456
X73.154 Y48.03
X73.158 Y48.082 Z-0.913
X73.161 Y48.13 Z-0.893
X73.164 Y48.171 Z-0.861
X73.166 Y48.203 Z-0.82
X73.168 Y48.223 Z-0.771
Y48.229 Z-0.72
G0 Z5.
X28.741 Y48.246
Z1.806
G1 Z-0.72 F200.
Y48.24 Z-0.771
X28.743 Y48.22 Z-0.82
X28.746 Y48.188 Z-0.861
X28.75 Y48.147 Z-0.893
X28.754 Y48.099 Z-0.913
X28.759 Y48.047 Z-0.92
X28.973 Y45.651
X29.456 Y43.202
X30.219 Y40.769
X31.253 Y38.438
X32.543 Y36.238
X34.072 Y34.198
X35.034 Y33.127
X35.069 Y33.088 Z-0.913
X35.101 Y33.052 Z-0.893
X35.128 Y33.021 Z-0.861
X35.15 Y32.998 Z-0.82
X35.163 Y32.983 Z-0.771
X35.168 Y32.978 Z-0.72
G0 Z5.
X66.795 Y32.94
Z1.773
G1 Z-0.72 F200.
X66.8 Y32.945 Z-0.771
X66.813 Y32.96 Z-0.82
X66.834 Y32.984 Z-0.861
X66.861 Y33.016 Z-0.893
X66.893 Y33.052 Z-0.913
X66.927 Y33.091 Z-0.92
X68.383 Y34.761
X69.848 Y36.848
X71.068 Y39.087
X72.026 Y41.45
X72.701 Y43.849
X73.129 Y46.381
X73.249 Y48.066
X73.253 Y48.118 Z-0.913
X73.256 Y48.166 Z-0.893
X73.259 Y48.207 Z-0.861
X73.262 Y48.239 Z-0.82
X73.263 Y48.259 Z-0.771
Y48.266 Z-0.72
G0 Z5.
X28.646 Y48.281
Z1.758
G1 Z-0.72 F200.
X28.647 Y48.274 Z-0.771
X28.648 Y48.254 Z-0.82
X28.651 Y48.223 Z-0.861
X28.655 Y48.181 Z-0.893
X28.659 Y48.133 Z-0.913
X28.663 Y48.082 Z-0.92
X28.87 Y45.703
X29.364 Y43.182
X30.126 Y40.749
X31.158 Y38.416
X32.444 Y36.215
X33.971 Y34.172
X35.009 Y33.016
X35.044 Y32.977 Z-0.913
X35.076 Y32.941 Z-0.893
X35.103 Y32.91 Z-0.861
X35.125 Y32.887 Z-0.82
X35.138 Y32.872 Z-0.771
X35.143 Y32.867 Z-0.72
G0 Z5.
X66.818 Y32.828
Z1.72
G1 Z-0.72 F200.
X66.823 Y32.833 Z-0.771
X66.836 Y32.848 Z-0.82
X66.857 Y32.872 Z-0.861
X66.884 Y32.903 Z-0.893
X66.916 Y32.939 Z-0.913
X66.95 Y32.978 Z-0.92
X68.458 Y34.703
X69.923 Y36.79
X71.145 Y39.028
X72.106 Y41.39
X72.807 Y43.891
X73.222 Y46.369
X73.344 Y48.095
X73.348 Y48.146 Z-0.913
X73.351 Y48.194 Z-0.893
X73.354 Y48.236 Z-0.861
X73.356 Y48.267 Z-0.82
X73.358 Y48.287 Z-0.771
Y48.294 Z-0.72
G0 Z5.
X28.551 Y48.307
Z1.704
G1 Z-0.72 F200.
X28.552 Y48.3 Z-0.771
X28.554 Y48.28 Z-0.82
X28.556 Y48.248 Z-0.861
X28.56 Y48.207 Z-0.893
X28.564 Y48.159 Z-0.913
X28.569 Y48.107 Z-0.92
X28.776 Y45.692
X29.271 Y43.161
X30.033 Y40.728
X31.062 Y38.395
X32.382 Y36.138
X33.869 Y34.146
X34.99 Y32.899
X35.024 Y32.861 Z-0.913
X35.057 Y32.825 Z-0.893
X35.084 Y32.794 Z-0.861
X35.105 Y32.77 Z-0.82
X35.119 Y32.755 Z-0.771
X35.123 Y32.75 Z-0.72
G0 Z5.
X66.852 Y32.727
Z1.661
G1 Z-0.72 F200.
X66.856 Y32.732 Z-0.771
X66.87 Y32.747 Z-0.82
X66.89 Y32.771 Z-0.861
X66.918 Y32.802 Z-0.893
X66.95 Y32.838 Z-0.913
X66.984 Y32.877 Z-0.92
X68.533 Y34.645
X69.999 Y36.732
X71.221 Y38.97
X72.206 Y41.391
X72.842 Y43.622
X73.284 Y46.089
X73.439 Y48.115
X73.443 Y48.167 Z-0.913
X73.447 Y48.215 Z-0.893
X73.45 Y48.256 Z-0.861
X73.452 Y48.288 Z-0.82
X73.454 Y48.308 Z-0.771
Y48.315 Z-0.72
G0 Z5.
X28.456 Y48.33
Z1.642
G1 Z-0.72 F200.
X28.457 Y48.323 Z-0.771
X28.459 Y48.303 Z-0.82
X28.462 Y48.271 Z-0.861
X28.465 Y48.23 Z-0.893
X28.469 Y48.182 Z-0.913
X28.474 Y48.13 Z-0.92
X28.692 Y45.618
X29.179 Y43.141
X29.94 Y40.707
X30.967 Y38.373
X32.248 Y36.168
X33.767 Y34.12
X34.959 Y32.794
X34.994 Y32.756 Z-0.913
X35.026 Y32.72 Z-0.893
X35.054 Y32.689 Z-0.861
X35.075 Y32.665 Z-0.82
X35.089 Y32.651 Z-0.771
X35.093 Y32.646 Z-0.72
G0 Z5.
X66.884 Y32.624
Z1.595
G1 Z-0.72 F200.
X66.889 Y32.629 Z-0.771
X66.902 Y32.644 Z-0.82
X66.923 Y32.668 Z-0.861
X66.95 Y32.699 Z-0.893
X66.982 Y32.736 Z-0.913
X67.016 Y32.775 Z-0.92
X68.608 Y34.587
X70.074 Y36.674
X71.298 Y38.911
X72.295 Y41.361
X72.984 Y43.819
X73.379 Y46.093
X73.533 Y48.128
X73.537 Y48.179 Z-0.913
X73.541 Y48.227 Z-0.893
X73.544 Y48.269 Z-0.861
X73.547 Y48.3 Z-0.82
X73.548 Y48.32 Z-0.771
X73.549 Y48.327 Z-0.72
G0 Z5.
X28.362 Y48.337
Z1.572
G1 Z-0.72 F200.
X28.363 Y48.331 Z-0.771
X28.364 Y48.311 Z-0.82
X28.367 Y48.279 Z-0.861
X28.371 Y48.238 Z-0.893
X28.375 Y48.19 Z-0.913
X28.379 Y48.138 Z-0.92
X28.598 Y45.606
X29.087 Y43.121
X29.673 Y41.166
X30.431 Y39.272
X31.61 Y37.01
X33.032 Y34.894
X34.758 Y32.867
X34.924 Y32.695
X34.96 Y32.658 Z-0.913
X34.993 Y32.623 Z-0.893
X35.022 Y32.593 Z-0.861
X35.044 Y32.57 Z-0.82
X35.058 Y32.556 Z-0.771
X35.063 Y32.551 Z-0.72
G0 Z5.
X66.922 Y32.528
Z1.521
G1 Z-0.72 F200.
X66.926 Y32.533 Z-0.771
X66.939 Y32.548 Z-0.82
X66.96 Y32.572 Z-0.861
X66.988 Y32.603 Z-0.893
X67.02 Y32.639 Z-0.913
X67.054 Y32.678 Z-0.92
X68.617 Y34.446
X70.149 Y36.616
X71.375 Y38.852
X72.364 Y41.271
X73.026 Y43.581
X73.473 Y46.082
X73.628 Y48.14
X73.632 Y48.192 Z-0.913
X73.635 Y48.24 Z-0.893
X73.639 Y48.281 Z-0.861
X73.641 Y48.313 Z-0.82
X73.642 Y48.333 Z-0.771
X73.643 Y48.339 Z-0.72
G0 Z5.
X28.268 Y48.341
Z1.494
G1 Z-0.72 F200.
X28.269 Y48.334 Z-0.771
X28.27 Y48.314 Z-0.82
X28.273 Y48.282 Z-0.861
X28.277 Y48.241 Z-0.893
X28.281 Y48.193 Z-0.913
X28.285 Y48.142 Z-0.92
X28.496 Y45.658
X28.995 Y43.1
X29.581 Y41.146
X30.337 Y39.25
X31.513 Y36.988
X32.932 Y34.869
X34.649 Y32.844
X34.877 Y32.607
X34.913 Y32.57 Z-0.913
X34.946 Y32.535 Z-0.893
X34.975 Y32.506 Z-0.861
X34.997 Y32.483 Z-0.82
X35.011 Y32.468 Z-0.771
X35.016 Y32.463 Z-0.72
G0 Z5.
X66.965 Y32.437
Z1.436
G1 Z-0.72 F200.
X66.97 Y32.442 Z-0.771
X66.983 Y32.457 Z-0.82
X67.004 Y32.481 Z-0.861
X67.032 Y32.512 Z-0.893
X67.063 Y32.548 Z-0.913
X67.098 Y32.587 Z-0.92
X68.758 Y34.472
X70.225 Y36.558
X71.479 Y38.851
X72.464 Y41.272
X73.119 Y43.561
X73.574 Y46.133
X73.722 Y48.137
X73.726 Y48.188 Z-0.913
X73.729 Y48.236 Z-0.893
X73.732 Y48.278 Z-0.861
X73.735 Y48.309 Z-0.82
X73.736 Y48.329 Z-0.771
X73.737 Y48.336 Z-0.72
G0 Z5.
X28.175 Y48.328
Z1.403
G1 Z-0.72 F200.
Y48.322 Z-0.771
X28.177 Y48.302 Z-0.82
X28.18 Y48.27 Z-0.861
X28.183 Y48.229 Z-0.893
X28.187 Y48.181 Z-0.913
X28.191 Y48.129 Z-0.92
X28.384 Y45.773
X28.784 Y43.576
X29.365 Y41.487
X30.038 Y39.697
X31.162 Y37.408
X32.531 Y35.256
X34.192 Y33.197
X34.83 Y32.52
X34.865 Y32.482 Z-0.913
X34.899 Y32.447 Z-0.893
X34.927 Y32.417 Z-0.861
X34.949 Y32.394 Z-0.82
X34.962 Y32.379 Z-0.771
X34.967 Y32.374 Z-0.72
G0 Z5.
X67.02 Y32.357
Z1.339
G1 Z-0.72 F200.
X67.025 Y32.362 Z-0.771
X67.038 Y32.377 Z-0.82
X67.059 Y32.401 Z-0.861
X67.086 Y32.432 Z-0.893
X67.118 Y32.468 Z-0.913
X67.152 Y32.507 Z-0.92
X68.833 Y34.414
X70.3 Y36.5
X71.555 Y38.792
X72.502 Y41.091
X73.171 Y43.373
X73.626 Y45.806
X73.816 Y48.125
X73.82 Y48.177 Z-0.913
X73.824 Y48.225 Z-0.893
X73.827 Y48.266 Z-0.861
X73.83 Y48.298 Z-0.82
X73.832 Y48.318 Z-0.771
Y48.324 Z-0.72
G0 Z5.
X28.081 Y48.316
Z1.325
G1 Z-0.72 F200.
X28.082 Y48.309 Z-0.771
X28.083 Y48.289 Z-0.82
X28.086 Y48.258 Z-0.861
X28.089 Y48.216 Z-0.893
X28.093 Y48.168 Z-0.913
X28.097 Y48.117 Z-0.92
X28.291 Y45.762
X28.692 Y43.556
X29.272 Y41.467
X29.945 Y39.676
X31.066 Y37.385
X32.432 Y35.232
X33.782 Y33.517
X34.772 Y32.443
X34.807 Y32.405 Z-0.913
X34.84 Y32.37 Z-0.893
X34.868 Y32.34 Z-0.861
X34.889 Y32.316 Z-0.82
X34.903 Y32.301 Z-0.771
X34.908 Y32.296 Z-0.72
G0 Z5.
X67.074 Y32.277
Z1.286
G1 Z-0.72 F200.
X67.078 Y32.282 Z-0.772
X67.091 Y32.297 Z-0.82
X67.113 Y32.321 Z-0.862
X67.14 Y32.352 Z-0.894
X67.172 Y32.388 Z-0.914
X67.206 Y32.427 Z-0.92
X68.908 Y34.356
X70.375 Y36.442
X71.66 Y38.791
X72.664 Y41.273
X73.303 Y43.52
X73.752 Y46.039
X73.91 Y48.106
X73.913 Y48.157 Z-0.913
X73.917 Y48.205 Z-0.893
X73.92 Y48.247 Z-0.861
X73.923 Y48.278 Z-0.82
X73.924 Y48.298 Z-0.771
X73.925 Y48.305 Z-0.72
G0 Z5.
X27.99 Y48.296
Z1.274
G1 Z-0.727 F200.
X27.991 Y48.289 Z-0.779
X27.992 Y48.269 Z-0.827
X27.994 Y48.237 Z-0.869
X27.997 Y48.195 Z-0.9
X28. Y48.147 Z-0.92
X28.004 Y48.095 Z-0.927
X28.118 Y46.396 Z-0.92
X28.473 Y44.121
X28.989 Y42.055
X29.675 Y40.083
X30.801 Y37.671
X32.041 Y35.627
X33.587 Y33.598
X34.636 Y32.448 Z-0.941
X34.718 Y32.363 Z-0.949
X34.756 Y32.325 Z-0.946
X34.792 Y32.288 Z-0.928
X34.823 Y32.256 Z-0.896
X34.847 Y32.231 Z-0.854
X34.862 Y32.216 Z-0.804
X34.867 Y32.211 Z-0.75
G0 Z5.
X67.248 Y32.334
Z1.227
G1 Z-1.771 F200.
Z-1.788
X67.308 Y32.396 Z-2.828
X67.316 Y32.403 F50.
X67.351 Y32.439 Z-0.934 F200.
X68.745 Y34.002 Z-0.92
X70.175 Y35.954
X71.455 Y38.16
X72.485 Y40.493
X73.277 Y43.013
X73.794 Y45.644
X73.998 Y47.928 Z-0.922
X74.002 Y48.052 Z-0.972 F50.
X74.004 Y48.101 Z-0.961 F200.
X74.005 Y48.151 Z-0.942
X74.006 Y48.194 Z-0.91
X74.007 Y48.227 Z-0.868
X74.008 Y48.248 Z-0.819
Y48.255 Z-0.766
G0 Z5.
X27.908 Y48.156
Z1.21
G1 Z-2.768 F200.
Y48.152 Z-2.791
Y48.139 Z-2.811
X27.909 Y48.119 Z-2.824
X27.91 Y48.096 Z-2.828
X27.912 Y47.995 F50.
X27.914 Y47.951 Z-0.939 F200.
X28.027 Y46.362 Z-0.92
X28.38 Y44.105
X28.99 Y41.729
X29.757 Y39.634
X30.936 Y37.23
X32.382 Y34.976
X33.976 Y33.012
X34.581 Y32.368 Z-0.952
X34.597 Y32.351 Z-2.428
X34.601 Y32.347 Z-2.828 F50.
X34.667 Y32.28 F200.
X34.704 Y32.243 Z-2.822
X34.737 Y32.208 Z-2.802
X34.766 Y32.179 Z-2.77
X34.789 Y32.156 Z-2.728
X34.803 Y32.142 Z-2.68
X34.807 Y32.137 Z-2.628
G0 Z5.
X67.168 Y32.118
Z1.176
G1 Z-2.628 F200.
X67.173 Y32.123 Z-2.68
X67.187 Y32.137 Z-2.728
X67.209 Y32.16 Z-2.77
X67.238 Y32.189 Z-2.802
X67.272 Y32.223 Z-2.822
X67.308 Y32.26 Z-2.828
X67.377 Y32.33 F50.
X67.406 Y32.36 Z-0.939 F200.
X68.817 Y33.94 Z-0.92
X70.251 Y35.896
X71.531 Y38.101
X72.608 Y40.553
X73.336 Y42.865
X73.878 Y45.565
X74.088 Y47.804
X74.094 Y47.975 Z-1.015
X74.095 Y47.991 Z-2.428
Y47.995 Z-2.828 F50.
X74.097 Y48.075 F200.
X74.099 Y48.126 Z-2.822
X74.1 Y48.175 Z-2.802
X74.101 Y48.216 Z-2.77
X74.102 Y48.248 Z-2.728
X74.103 Y48.268 Z-2.68
Y48.275 Z-2.628
G0 Z5.
X27.81 Y48.262
Z1.155
G1 Z-2.628 F200.
Y48.255 Z-2.68
X27.811 Y48.235 Z-2.728
X27.812 Y48.203 Z-2.77
X27.813 Y48.162 Z-2.802
X27.815 Y48.114 Z-2.822
X27.816 Y48.062 Z-2.828
X27.82 Y47.954 F50.
X27.821 Y47.911 Z-0.94 F200.
X27.937 Y46.317 Z-0.92
X28.287 Y44.089
X28.897 Y41.709
X29.566 Y39.849
X30.656 Y37.543
X31.845 Y35.58
X33.428 Y33.493
X34.511 Y32.303 Z-0.943
X34.536 Y32.278 Z-2.429
X34.542 Y32.272 Z-2.828 F50.
X34.604 Y32.209 F200.
X34.64 Y32.172 Z-2.822
X34.674 Y32.138 Z-2.802
X34.703 Y32.108 Z-2.77
X34.725 Y32.085 Z-2.728
X34.739 Y32.071 Z-2.68
X34.744 Y32.066 Z-2.628
G0 Z5.
X67.236 Y32.052
Z1.105
G1 Z-2.628 F200.
X67.241 Y32.057 Z-2.68
X67.255 Y32.071 Z-2.728
X67.277 Y32.093 Z-2.77
X67.306 Y32.123 Z-2.802
X67.34 Y32.157 Z-2.822
X67.376 Y32.194 Z-2.828
X67.442 Y32.261 F50.
X67.471 Y32.291 Z-0.938 F200.
X68.889 Y33.879 Z-0.92
X70.326 Y35.838
X71.607 Y38.043
X72.687 Y40.493
X73.427 Y42.84
X73.971 Y45.549
X74.184 Y47.859 Z-0.927
X74.187 Y47.929 Z-1.016
Y47.947 Z-2.428
Y47.952 Z-2.828 F50.
X74.19 Y48.039 F200.
X74.192 Y48.091 Z-2.822
X74.193 Y48.139 Z-2.802
X74.195 Y48.181 Z-2.77
X74.196 Y48.212 Z-2.728
Y48.232 Z-2.68
X74.197 Y48.239 Z-2.628
G0 Z5.
X27.717 Y48.213
Z1.078
G1 Z-2.628 F200.
Y48.207 Z-2.68
X27.718 Y48.187 Z-2.728
X27.719 Y48.155 Z-2.77
X27.72 Y48.113 Z-2.802
X27.722 Y48.065 Z-2.822
X27.724 Y48.013 Z-2.828
X27.727 Y47.903 F50.
X27.729 Y47.862 Z-0.944 F200.
X27.848 Y46.26 Z-0.92
X28.3 Y43.574
X28.824 Y41.628
X29.521 Y39.71
X30.682 Y37.297
X32.036 Y35.136
X33.493 Y33.272
X34.442 Y32.239 Z-0.943
X34.467 Y32.214 Z-2.429
X34.473 Y32.207 Z-2.828 F50.
X34.535 Y32.144 F200.
X34.571 Y32.107 Z-2.822
X34.605 Y32.073 Z-2.802
X34.634 Y32.043 Z-2.77
X34.656 Y32.021 Z-2.728
X34.67 Y32.006 Z-2.68
X34.675 Y32.001 Z-2.628
G0 Z5.
X67.302 Y31.983
Z1.084
G1 Z-2.628 F200.
X67.307 Y31.988 Z-2.68
X67.321 Y32.003 Z-2.728
X67.343 Y32.025 Z-2.77
X67.372 Y32.055 Z-2.802
X67.406 Y32.089 Z-2.822
X67.442 Y32.126 Z-2.828
X67.509 Y32.195 F50.
X67.537 Y32.223 Z-0.942 F200.
X68.799 Y33.62 Z-0.92
X70.116 Y35.357
X71.446 Y37.533
X72.533 Y39.839
X73.385 Y42.322
X73.981 Y44.998
X74.248 Y47.271
X74.278 Y47.859 Z-0.975
X74.28 Y47.892 Z-2.429
Y47.901 Z-2.828 F50.
X74.283 Y47.983 F200.
X74.284 Y48.035 Z-2.822
X74.286 Y48.083 Z-2.802
X74.287 Y48.125 Z-2.77
X74.289 Y48.156 Z-2.728
Y48.176 Z-2.68
Y48.183 Z-2.628
G0 Z5.
X27.624 Y48.154
Z1.048
G1 Z-2.628 F200.
Y48.147 Z-2.68
X27.625 Y48.127 Z-2.728
X27.626 Y48.095 Z-2.77
X27.628 Y48.054 Z-2.802
X27.629 Y48.006 Z-2.822
X27.631 Y47.954 Z-2.828
X27.635 Y47.839 F50.
X27.637 Y47.798 Z-0.946 F200.
X27.734 Y46.441 Z-0.92
X28.153 Y43.808
X28.77 Y41.485
X29.73 Y38.986
X30.838 Y36.831
X32.31 Y34.595
X33.759 Y32.828
X34.373 Y32.173 Z-0.947
X34.394 Y32.152 Z-2.429
X34.4 Y32.147 Z-2.828 F50.
X34.46 Y32.085 F200.
X34.496 Y32.048 Z-2.822
X34.53 Y32.014 Z-2.802
X34.559 Y31.984 Z-2.77
X34.581 Y31.961 Z-2.728
X34.595 Y31.947 Z-2.68
X34.6 Y31.942 Z-2.628
G0 Z5.
X67.373 Y31.921
Z1.13
G1 Z-2.628 F200.
X67.378 Y31.926 Z-2.68
X67.392 Y31.94 Z-2.728
X67.414 Y31.963 Z-2.77
X67.443 Y31.992 Z-2.802
X67.477 Y32.027 Z-2.822
X67.514 Y32.063 Z-2.828
X67.58 Y32.131 F50.
X67.614 Y32.166 Z-0.935 F200.
X69.068 Y33.799 Z-0.92
X70.476 Y35.722
X71.76 Y37.926
X72.844 Y40.374
X73.609 Y42.79
X74.148 Y45.454
X74.367 Y47.731 Z-0.931
X74.37 Y47.801 Z-1.017
X74.371 Y47.816 Z-2.428
Y47.821 Z-2.828 F50.
X74.375 Y47.923 F200.
X74.377 Y47.975 Z-2.822
X74.379 Y48.023 Z-2.802
X74.38 Y48.065 Z-2.77
X74.381 Y48.096 Z-2.728
X74.382 Y48.116 Z-2.68
Y48.123 Z-2.628
G0 Z5.
X27.532 Y48.085
Z1.049
G1 Z-2.628 F200.
Y48.078 Z-2.68
X27.533 Y48.058 Z-2.728
X27.534 Y48.027 Z-2.77
X27.536 Y47.985 Z-2.802
X27.537 Y47.937 Z-2.822
X27.539 Y47.885 Z-2.828
X27.544 Y47.76 F50.
X27.546 Y47.718 Z-0.947 F200.
X27.649 Y46.349 Z-0.92
X28.06 Y43.792
X28.564 Y41.83
X29.191 Y40.023
X30.309 Y37.59
X31.55 Y35.509
X33.078 Y33.467
X34.292 Y32.121 Z-0.938
X34.321 Y32.091 Z-2.429
X34.329 Y32.083 Z-2.828 F50.
X34.391 Y32.02 F200.
X34.427 Y31.983 Z-2.822
X34.461 Y31.949 Z-2.802
X34.49 Y31.919 Z-2.77
X34.512 Y31.896 Z-2.728
X34.526 Y31.882 Z-2.68
X34.531 Y31.877 Z-2.628
G0 Z5.
X67.445 Y31.858
Z1.171
G1 Z-2.628 F200.
X67.45 Y31.863 Z-2.68
X67.464 Y31.877 Z-2.728
X67.486 Y31.9 Z-2.77
X67.515 Y31.93 Z-2.802
X67.549 Y31.964 Z-2.822
X67.585 Y32.001 Z-2.828
X67.65 Y32.068 F50.
X67.68 Y32.098 Z-0.939 F200.
X69.024 Y33.596 Z-0.92
X70.551 Y35.664
X71.836 Y37.867
X72.923 Y40.314
X73.7 Y42.765
X74.241 Y45.438
X74.457 Y47.631 Z-0.929
X74.461 Y47.713 Z-1.015
Y47.723 Z-2.428
Y47.726 Z-2.828 F50.
X74.466 Y47.845 F200.
X74.468 Y47.897 Z-2.822
X74.47 Y47.945 Z-2.802
X74.472 Y47.986 Z-2.77
X74.473 Y48.018 Z-2.728
X74.474 Y48.038 Z-2.68
Y48.045 Z-2.628
G0 Z5.
X27.44 Y47.998
Z1.051
G1 Z-2.628 F200.
Y47.991 Z-2.68
X27.441 Y47.971 Z-2.728
X27.442 Y47.939 Z-2.77
X27.444 Y47.898 Z-2.802
X27.446 Y47.85 Z-2.822
X27.448 Y47.798 Z-2.828
X27.454 Y47.662 F50.
X27.456 Y47.623 Z-0.953 F200.
X27.54 Y46.484 Z-0.92
X27.98 Y43.714
X28.435 Y41.932
X29.289 Y39.529
X30.184 Y37.625
X31.452 Y35.486
X32.976 Y33.441
X34.216 Y32.063 Z-0.934
X34.249 Y32.029 Z-2.429
X34.258 Y32.02 Z-2.828 F50.
X34.316 Y31.961 F200.
X34.352 Y31.924 Z-2.822
X34.386 Y31.889 Z-2.802
X34.415 Y31.86 Z-2.77
X34.437 Y31.837 Z-2.728
X34.451 Y31.823 Z-2.68
X34.456 Y31.818 Z-2.628
G0 Z5.
X67.516 Y31.796
Z1.206
G1 Z-2.628 F200.
X67.521 Y31.801 Z-2.68
X67.535 Y31.815 Z-2.728
X67.557 Y31.837 Z-2.77
X67.586 Y31.867 Z-2.802
X67.62 Y31.901 Z-2.822
X67.656 Y31.938 Z-2.828
X67.72 Y32.003 F50.
X67.757 Y32.041 Z-0.933 F200.
X69.177 Y33.633 Z-0.92
X70.626 Y35.606
X71.912 Y37.809
X72.767 Y39.662
X73.607 Y42.069
X74.071 Y43.938
X74.438 Y46.221
X74.548 Y47.555 Z-0.95
X74.55 Y47.606 Z-2.429
X74.551 Y47.619 Z-2.828 F50.
X74.556 Y47.747 F200.
X74.559 Y47.798 Z-2.822
X74.561 Y47.846 Z-2.802
X74.563 Y47.888 Z-2.77
X74.564 Y47.92 Z-2.728
X74.565 Y47.94 Z-2.68
X74.566 Y47.946 Z-2.628
G0 Z5.
X27.349 Y47.898
Z1.053
G1 Z-2.628 F200.
Y47.891 Z-2.68
X27.35 Y47.871 Z-2.728
X27.352 Y47.839 Z-2.77
X27.354 Y47.798 Z-2.802
X27.356 Y47.75 Z-2.822
X27.358 Y47.698 Z-2.828
X27.366 Y47.536 F50.
X27.368 Y47.495 Z-0.957 F200.
X27.463 Y46.316 Z-0.92
X27.874 Y43.76
X28.342 Y41.912
X29.195 Y39.508
X29.88 Y38.041
X30.049 Y37.678 F50.
X30.072 Y37.634 Z-0.734 F200.
X30.313 Y37.183 Z-0.755
X30.327 Y37.158 Z-0.92 F50.
X31.725 Y34.919 F200.
X33.205 Y33.026
X34.15 Y31.995 Z-0.941
X34.179 Y31.965 Z-2.429
X34.187 Y31.957 Z-2.828 F50.
X34.247 Y31.896 F200.
X34.283 Y31.859 Z-2.822
X34.317 Y31.825 Z-2.802
X34.346 Y31.795 Z-2.77
X34.368 Y31.772 Z-2.728
X34.382 Y31.758 Z-2.68
X34.387 Y31.753 Z-2.628
G0 Z5.
X67.582 Y31.727
Z1.236
G1 Z-2.628 F200.
X67.587 Y31.732 Z-2.68
X67.601 Y31.746 Z-2.728
X67.623 Y31.769 Z-2.77
X67.652 Y31.799 Z-2.802
X67.686 Y31.833 Z-2.822
X67.722 Y31.87 Z-2.828
X67.791 Y31.941 F50.
X67.823 Y31.973 Z-0.937 F200.
X68.923 Y33.179 Z-0.92
X70.524 Y35.283
X71.9 Y37.58
X72.845 Y39.602
X73.749 Y42.223
X74.281 Y44.525
X74.583 Y46.717
X74.635 Y47.438 Z-0.977
X74.637 Y47.471 Z-2.429
X74.638 Y47.48 Z-2.828 F50.
X74.646 Y47.639 F200.
X74.649 Y47.691 Z-2.822
X74.651 Y47.739 Z-2.802
X74.653 Y47.781 Z-2.77
X74.655 Y47.812 Z-2.728
X74.656 Y47.832 Z-2.68
Y47.839 Z-2.628
G0 Z5.
X27.259 Y47.766
Z1.056
G1 Z-2.628 F200.
X27.26 Y47.759 Z-2.68
X27.261 Y47.739 Z-2.728
X27.263 Y47.707 Z-2.77
X27.265 Y47.666 Z-2.802
X27.267 Y47.618 Z-2.822
X27.27 Y47.566 Z-2.828
X27.281 Y47.362 F50.
X27.284 Y47.319 Z-0.962 F200.
X27.363 Y46.365 Z-0.92
X27.754 Y43.869
X28.4 Y41.403
X29.302 Y39.018
X29.685 Y38.209
X29.856 Y37.847 F50.
X29.891 Y37.779 Z-0.707 F200.
X30.433 Y36.775 Z-0.709
X30.523 Y36.62 Z-0.771
X30.527 Y36.612 Z-0.92 F50.
X32.031 Y34.336 F200.
X33.471 Y32.582
X34.091 Y31.92 Z-0.959
X34.112 Y31.899 Z-2.429
X34.117 Y31.893 Z-2.828 F50.
X34.168 Y31.841 F200.
X34.204 Y31.804 Z-2.822
X34.238 Y31.769 Z-2.802
X34.267 Y31.74 Z-2.77
X34.289 Y31.717 Z-2.728
X34.303 Y31.703 Z-2.68
X34.308 Y31.698 Z-2.628
G0 Z5.
X67.659 Y31.67
Z1.261
G1 Z-2.628 F200.
X67.664 Y31.675 Z-2.68
X67.678 Y31.69 Z-2.728
X67.7 Y31.712 Z-2.77
X67.729 Y31.742 Z-2.802
X67.763 Y31.776 Z-2.822
X67.799 Y31.813 Z-2.828
X67.863 Y31.878 F50.
X67.888 Y31.904 Z-0.944 F200.
X69.159 Y33.313 Z-0.92
X70.491 Y35.067
X71.578 Y36.795
X72.723 Y39.074
X73.62 Y41.461
X74.132 Y43.336
X74.562 Y45.691
X74.714 Y47.186 Z-0.947
X74.719 Y47.26 Z-1.018
X74.72 Y47.272 Z-2.428
Y47.275 Z-2.828 F50.
X74.733 Y47.488 F200.
X74.736 Y47.539 Z-2.822
X74.738 Y47.587 Z-2.802
X74.741 Y47.629 Z-2.77
X74.743 Y47.66 Z-2.728
X74.744 Y47.68 Z-2.68
Y47.687 Z-2.628
G0 Z5.
X27.173 Y47.586
Z1.06
G1 Z-2.628 F200.
X27.174 Y47.579 Z-2.68
X27.175 Y47.559 Z-2.728
X27.177 Y47.527 Z-2.77
X27.179 Y47.486 Z-2.802
X27.182 Y47.438 Z-2.822
X27.186 Y47.386 Z-2.828
X27.2 Y47.156 F50.
X27.203 Y47.116 Z-0.963 F200.
X27.321 Y45.911 Z-0.92
X27.814 Y43.165
X28.307 Y41.383
X29.208 Y38.997
X29.538 Y38.294
X29.708 Y37.932 F50.
X29.738 Y37.872 Z-0.702 F200.
X30.575 Y36.345 Z-0.694
X30.785 Y35.999 Z-0.773
X30.79 Y35.99 Z-0.92 F50.
X31.984 Y34.24 F200.
X33.744 Y32.146
X34.018 Y31.859 Z-0.959
X34.036 Y31.84 Z-2.428
X34.041 Y31.835 Z-2.828 F50.
X34.097 Y31.779 F200.
X34.133 Y31.742 Z-2.822
X34.166 Y31.707 Z-2.802
X34.195 Y31.678 Z-2.77
X34.218 Y31.655 Z-2.728
X34.232 Y31.641 Z-2.68
X34.236 Y31.636 Z-2.628
G0 Z5.
X67.73 Y31.608
Z1.281
G1 Z-2.628 F200.
X67.735 Y31.613 Z-2.68
X67.749 Y31.627 Z-2.728
X67.772 Y31.65 Z-2.77
X67.801 Y31.679 Z-2.802
X67.834 Y31.714 Z-2.822
X67.871 Y31.751 Z-2.828
X67.935 Y31.816 F50.
X67.965 Y31.847 Z-0.938 F200.
X69.333 Y33.374 Z-0.92
X70.566 Y35.01
X71.025 Y35.713
X71.244 Y36.048 F50.
X71.263 Y36.078 Z-0.754 F200.
X71.744 Y36.897 Z-0.688
X71.952 Y37.276 Z-0.773
X71.968 Y37.305 Z-0.92 F50.
X73.075 Y39.668 F200.
X73.905 Y42.08
X74.479 Y44.556
X74.789 Y46.923 Z-0.928
X74.8 Y47.057 Z-1.016
X74.801 Y47.071 Z-2.428
Y47.075 Z-2.828 F50.
X74.815 Y47.282 F200.
X74.818 Y47.334 Z-2.822
X74.822 Y47.382 Z-2.802
X74.824 Y47.423 Z-2.77
X74.827 Y47.455 Z-2.728
X74.828 Y47.475 Z-2.68
Y47.482 Z-2.628
G0 Z5.
X27.09 Y47.382
Z1.061
G1 Z-2.628 F200.
Y47.376 Z-2.68
X27.092 Y47.356 Z-2.728
X27.094 Y47.324 Z-2.77
X27.097 Y47.283 Z-2.802
X27.1 Y47.235 Z-2.822
X27.104 Y47.183 Z-2.828
X27.12 Y46.955 F50.
X27.123 Y46.914 Z-0.963 F200.
X27.219 Y45.968 Z-0.92
X27.707 Y43.207
X28.374 Y40.878
X29.324 Y38.511
X29.403 Y38.347
X29.575 Y37.986 F50.
X29.6 Y37.936 Z-0.703 F200.
X30.632 Y36.067 Z-0.681
X31.491 Y34.759 Z-0.778
X31.497 Y34.749 Z-0.92 F50.
X32.751 Y33.12 F200.
X33.927 Y31.816 Z-0.935
X33.962 Y31.781 Z-2.429
X33.971 Y31.771 Z-2.828 F50.
X34.025 Y31.717 F200.
X34.061 Y31.679 Z-2.822
X34.095 Y31.645 Z-2.802
X34.124 Y31.615 Z-2.77
X34.146 Y31.593 Z-2.728
X34.16 Y31.578 Z-2.68
X34.164 Y31.573 Z-2.628
G0 Z5.
X67.802 Y31.545
Z1.297
G1 Z-2.628 F200.
X67.807 Y31.55 Z-2.68
X67.821 Y31.564 Z-2.728
X67.843 Y31.587 Z-2.77
X67.872 Y31.617 Z-2.802
X67.906 Y31.651 Z-2.822
X67.942 Y31.688 Z-2.828
X68.006 Y31.754 F50.
X68.042 Y31.791 Z-0.933 F200.
X69.466 Y33.387 Z-0.92
X70.541 Y34.833
X70.779 Y35.154 F50.
X70.803 Y35.189 Z-0.755 F200.
X71.566 Y36.399 Z-0.681
X72.205 Y37.551 Z-0.71
X72.248 Y37.634 Z-0.764
X72.254 Y37.647 Z-0.92 F50.
X73.318 Y40.025 F200.
X74.022 Y42.148
X74.426 Y43.794
X74.812 Y46.175
X74.876 Y46.831 Z-0.972
X74.879 Y46.863 Z-2.429
X74.88 Y46.872 Z-2.828 F50.
X74.895 Y47.073 F200.
X74.899 Y47.125 Z-2.822
X74.903 Y47.173 Z-2.802
X74.906 Y47.214 Z-2.77
X74.908 Y47.246 Z-2.728
X74.91 Y47.266 Z-2.68
Y47.272 Z-2.628
G0 Z5.
X27.008 Y47.179
Z1.061
G1 Z-2.628 F200.
Y47.172 Z-2.68
X27.01 Y47.152 Z-2.728
X27.013 Y47.121 Z-2.77
X27.016 Y47.079 Z-2.802
X27.02 Y47.031 Z-2.822
X27.024 Y46.98 Z-2.828
X27.042 Y46.756 F50.
X27.046 Y46.709 Z-0.958 F200.
X27.168 Y45.627 Z-0.92
X27.586 Y43.311
X28.122 Y41.342
X29.021 Y38.955
X29.286 Y38.381
X29.454 Y38.018 F50.
X29.484 Y37.957 Z-0.694 F200.
X30.595 Y35.946 Z-0.681
X31.867 Y34.08 Z-0.689
X32.373 Y33.431 Z-0.775
X32.379 Y33.424 Z-0.92 F50.
X33.765 Y31.848 F200.
X33.885 Y31.724 Z-0.991
X33.895 Y31.714 Z-2.428
X33.898 Y31.711 Z-2.828 F50.
X33.954 Y31.654 F200.
X33.99 Y31.617 Z-2.822
X34.023 Y31.582 Z-2.802
X34.052 Y31.552 Z-2.77
X34.075 Y31.53 Z-2.728
X34.089 Y31.515 Z-2.68
X34.093 Y31.511 Z-2.628
G0 Z5.
X67.823 Y31.432
Z1.308
G1 Z-2.628 F200.
X67.828 Y31.437 Z-2.68
X67.842 Y31.451 Z-2.728
X67.864 Y31.473 Z-2.77
X67.893 Y31.503 Z-2.802
X67.927 Y31.537 Z-2.822
X67.963 Y31.574 Z-2.828
X68.078 Y31.692 F50.
X68.108 Y31.722 Z-0.939 F200.
X69.211 Y32.934 Z-0.92
X69.526 Y33.317
X69.779 Y33.627 F50.
X69.808 Y33.662 Z-0.757 F200.
X70.67 Y34.827 Z-0.689
X71.9 Y36.789 Z-0.681
X72.406 Y37.736 Z-0.724
X72.425 Y37.774 Z-0.92 F50.
X73.547 Y40.368 F200.
X74.309 Y42.863
X74.816 Y45.469
X74.953 Y46.626 Z-0.965
X74.956 Y46.661 Z-2.429
X74.957 Y46.671 Z-2.828 F50.
X74.975 Y46.882 F200.
X74.979 Y46.934 Z-2.822
X74.983 Y46.982 Z-2.802
X74.987 Y47.023 Z-2.77
X74.99 Y47.055 Z-2.728
X74.991 Y47.074 Z-2.68
X74.992 Y47.081 Z-2.628
G0 Z5.
X26.928 Y46.976
Z1.061
G1 Z-2.628 F200.
X26.929 Y46.969 Z-2.68
X26.93 Y46.949 Z-2.728
X26.933 Y46.917 Z-2.77
X26.937 Y46.876 Z-2.802
X26.941 Y46.828 Z-2.822
X26.946 Y46.776 Z-2.828
X26.965 Y46.561 F50.
X26.969 Y46.518 Z-0.96 F200.
X27.074 Y45.616 Z-0.92
X27.552 Y43.042
X28.189 Y40.836
X29.266 Y38.191
X29.34 Y38.036 F50.
X29.369 Y37.977 Z-0.693 F200.
X30.57 Y35.807 Z-0.681
X32.107 Y33.613
X32.974 Y32.571 Z-0.741
X33.047 Y32.487 Z-0.773
X33.055 Y32.478 Z-0.92 F50.
X33.798 Y31.677 Z-0.955 F200.
X33.822 Y31.653 Z-2.429
X33.829 Y31.646 Z-2.828 F50.
X35.251 Y30.295 F200.
X36.911 Y28.959
X37.098 Y28.823
X37.123 Y28.795
X37.153 Y28.765
X37.541 Y28.51
X38.463 Y27.904
X38.506 Y27.875 Z-2.822
X38.546 Y27.849 Z-2.802
X38.581 Y27.826 Z-2.77
X38.607 Y27.809 Z-2.728
X38.624 Y27.798 Z-2.68
X38.63 Y27.794 Z-2.628
G0 Z5.
X62.899 Y27.51
Z1.309
G1 Z-2.628 F200.
X62.904 Y27.513 Z-2.68
X62.921 Y27.524 Z-2.728
X62.947 Y27.542 Z-2.77
X62.982 Y27.565 Z-2.802
X63.022 Y27.591 Z-2.822
X63.065 Y27.62 Z-2.828
X64.977 Y28.882
X66.955 Y30.484
X67.779 Y31.27
X68.069 Y31.546 F50.
X68.096 Y31.574 Z-0.968 F200.
X68.141 Y31.62 Z-0.762
X69.283 Y32.872 Z-0.709
X70.601 Y34.563 Z-0.681
X71.963 Y36.703
X72.55 Y37.808 Z-0.716
X72.572 Y37.851 Z-0.92 F50.
X73.522 Y40.026 F200.
X74.272 Y42.344
X74.746 Y44.446
X75.02 Y46.343 Z-0.929
X75.033 Y46.469 Z-1.012
X75.034 Y46.482 Z-2.428
Y46.485 Z-2.828 F50.
X75.052 Y46.68 F200.
X75.057 Y46.731 Z-2.822
X75.062 Y46.779 Z-2.802
X75.065 Y46.82 Z-2.77
X75.068 Y46.852 Z-2.728
X75.07 Y46.872 Z-2.68
X75.071 Y46.879 Z-2.628
G0 Z5.
X26.849 Y46.78
Z1.06
G1 Z-2.628 F200.
X26.85 Y46.773 Z-2.68
X26.852 Y46.754 Z-2.728
X26.855 Y46.722 Z-2.77
X26.859 Y46.681 Z-2.802
X26.864 Y46.633 Z-2.822
X26.869 Y46.581 Z-2.828
X26.889 Y46.37 F50.
X26.893 Y46.335 Z-0.966 F200.
X27.054 Y45.099 Z-0.92
X27.583 Y42.526
X28.445 Y39.857
X29.074 Y38.408
X29.233 Y38.041 F50.
X29.266 Y37.974 Z-0.688 F200.
X30.42 Y35.869 Z-0.681
X31.983 Y33.617
X33.583 Y31.765 Z-0.683
X35.254 Y30.166 Z-0.712
X36.845 Y28.89 Z-0.751
X36.944 Y28.817 Z-0.779
X37.061 Y28.732 Z-1.199
X37.083 Y28.717 Z-2.429
X37.089 Y28.712 Z-2.828 F50.
X37.438 Y28.466 Z-2.688 F200.
X37.745 Y28.256 Z-2.828 F50.
X37.756 Y28.249 Z-0.777 F200.
X38.143 Y27.994 Z-0.781
X38.144 Z-2.428
Y27.993 Z-2.828 F50.
X39.24 Y27.339 F200.
X39.583 Y27.134 F50.
X39.651 Y27.097 Z-0.983 F200.
X40.459 Y26.675 Z-0.92
X42.635 Y25.725
X42.683 Y25.704 Z-0.913
X42.727 Y25.685 Z-0.893
X42.765 Y25.668 Z-0.861
X42.794 Y25.656 Z-0.82
X42.812 Y25.648 Z-0.771
X42.818 Y25.645 Z-0.72
G0 Z5.
X58.877 Y25.533
Z1.869
G1 Z-0.72 F200.
X58.883 Y25.535 Z-0.771
X58.902 Y25.543 Z-0.82
X58.931 Y25.555 Z-0.861
X58.969 Y25.571 Z-0.893
X59.014 Y25.59 Z-0.913
X59.061 Y25.61 Z-0.92
X61.117 Y26.471
X62.201 Y27.02 Z-0.957
X62.291 Y27.069 Z-1.017
X62.331 Y27.091 Z-2.429
X62.343 Y27.097 Z-2.828 F50.
X62.718 Y27.312 F200.
X63.066 Y27.51 F50.
X63.092 Y27.525 Z-1.206 F200.
X63.216 Y27.599 Z-0.98 F50.
X63.239 Y27.614 Z-0.767 F200.
X64.403 Y28.361 Z-0.728
X66.231 Y29.734 Z-0.705
X67.892 Y31.235 Z-0.685
X69.519 Y33.006 Z-0.681
X70.97 Y34.928
X72.136 Y36.82
X72.676 Y37.848 Z-0.709
X72.699 Y37.894 Z-0.92 F50.
X73.466 Y39.622 F200.
X74.295 Y42.073
X74.839 Y44.43
X75.1 Y46.211 Z-0.946
X75.108 Y46.277 Z-1.002
X75.11 Y46.298 Z-2.428
Y46.304 Z-2.828 F50.
X75.13 Y46.495 F200.
X75.135 Y46.547 Z-2.822
X75.14 Y46.595 Z-2.802
X75.144 Y46.636 Z-2.77
X75.147 Y46.668 Z-2.728
X75.149 Y46.687 Z-2.68
X75.15 Y46.694 Z-2.628
G0 Z5.
X26.771 Y46.593
Z1.06
G1 Z-2.628 F200.
X26.772 Y46.586 Z-2.68
X26.774 Y46.566 Z-2.728
X26.777 Y46.535 Z-2.77
X26.782 Y46.494 Z-2.802
X26.787 Y46.446 Z-2.822
X26.792 Y46.394 Z-2.828
X26.815 Y46.181 F50.
X26.819 Y46.14 Z-0.961 F200.
X27.029 Y44.663 Z-0.92
X27.524 Y42.382
X28.003 Y40.795
X29.055 Y38.195
X29.13 Y38.036 F50.
X29.165 Y37.964 Z-0.685 F200.
X30.311 Y35.867 Z-0.681
X31.869 Y33.611
X33.514 Y31.7
X35.359 Y29.95
X37.188 Y28.525 Z-0.683
X39.133 Y27.279 Z-0.689
X41.004 Y26.308 Z-0.709
X42.451 Y25.694 Z-0.76
X42.51 Y25.671 Z-0.92 F50.
X43.23 Y25.415 F200.
X43.607 Y25.281 F50.
X43.617 Y25.278 Z-0.663 F200.
Z-0.655
G0 Z5.
X58.341 Y25.261
Z1.903
G1 Z-0.671 F200.
X58.342 Z-0.68
X58.353 Y25.265 Z-0.92 F50.
X58.796 Y25.419 F200.
X59.174 Y25.55 F50.
X59.196 Y25.558 Z-0.766 F200.
X60.544 Y26.104 Z-0.702
X62.658 Y27.164 Z-0.683
X64.785 Y28.511 Z-0.681
X66.697 Y30.004
X68.448 Y31.665
X70.033 Y33.489
X71.5 Y35.563
X72.633 Y37.553
X72.809 Y37.905 Z-0.744
X72.815 Y37.916 Z-0.92 F50.
X73.767 Y40.141 F200.
X74.421 Y42.171
X74.976 Y44.665
X75.176 Y46.042 Z-0.954
X75.182 Y46.093 Z-1.32
Y46.096 Z-2.428
Y46.097 Z-2.828 F50.
X75.204 Y46.291 F200.
X75.209 Y46.343 Z-2.822
X75.215 Y46.391 Z-2.802
X75.219 Y46.432 Z-2.77
X75.223 Y46.463 Z-2.728
X75.225 Y46.483 Z-2.68
X75.226 Y46.49 Z-2.628
G0 Z5.
X26.695 Y46.398
Z1.06
G1 Z-2.628 F200.
X26.696 Y46.391 Z-2.68
X26.698 Y46.371 Z-2.728
X26.702 Y46.34 Z-2.77
X26.706 Y46.299 Z-2.802
X26.712 Y46.251 Z-2.822
X26.718 Y46.199 Z-2.828
X26.741 Y45.995 F50.
X26.746 Y45.95 Z-0.958 F200.
X26.867 Y45.077 Z-0.92
X27.415 Y42.424
X27.911 Y40.775
X28.96 Y38.173
X29.032 Y38.022 F50.
X29.063 Y37.957 Z-0.687 F200.
X30.044 Y36.128 Z-0.681
X31.453 Y34.002
X32.965 Y32.152
X34.673 Y30.431
X36.529 Y28.888
X38.518 Y27.534
X40.435 Y26.475
X42.826 Y25.451 Z-0.684
X43.891 Y25.091 Z-0.715
X43.897 Y25.089 Z-0.686
X43.899 Y25.088 Z-0.658
G0 Z5.
X58.07 Y25.074
Z1.902
G1 Z-0.64 F200.
X58.072 Y25.075 Z-0.671
X58.079 Y25.078 Z-0.701
X60.109 Y25.815 Z-0.681
X62.255 Y26.834
X64.294 Y28.058
X66.341 Y29.579
X68.023 Y31.098
X69.745 Y32.981
X71.125 Y34.82
X72.297 Y36.719
X72.907 Y37.89 Z-0.706
X72.931 Y37.939 Z-0.92 F50.
X73.876 Y40.165 F200.
X74.611 Y42.516
X75.131 Y45.027
X75.249 Y45.864 Z-0.958
X75.256 Y45.914 Z-2.429
X75.257 Y45.928 Z-2.828 F50.
X75.28 Y46.118 F200.
X75.286 Y46.169 Z-2.822
X75.291 Y46.217 Z-2.802
X75.296 Y46.258 Z-2.77
X75.3 Y46.29 Z-2.728
X75.302 Y46.31 Z-2.68
X75.303 Y46.316 Z-2.628
G0 Z5.
X26.62 Y46.213
Z1.06
G1 Z-2.628 F200.
X26.621 Y46.206 Z-2.68
X26.623 Y46.186 Z-2.728
X26.627 Y46.155 Z-2.77
X26.632 Y46.114 Z-2.802
X26.638 Y46.066 Z-2.822
X26.644 Y46.015 Z-2.828
X26.668 Y45.812 F50.
X26.673 Y45.774 Z-0.962 F200.
X26.889 Y44.369 Z-0.92
X27.44 Y41.972
X28.353 Y39.32
X28.776 Y38.366
X28.938 Y38.001 F50.
X28.969 Y37.936 Z-0.687 F200.
X29.947 Y36.107 Z-0.681
X31.353 Y33.979
X32.936 Y32.044
X34.607 Y30.363
X36.47 Y28.814
X38.467 Y27.454
X40.388 Y26.393
X42.73 Y25.385
X44.158 Y24.91
X44.166 Y24.907 Z-0.668
X44.169 Y24.906 Z-0.652
G0 Z5.
X57.756 Y24.88
Z1.908
G1 Z-0.503 F200.
X57.761 Y24.882 Z-0.548
X57.776 Y24.886 Z-0.591
X57.799 Y24.893 Z-0.629
X57.89 Y24.921 Z-0.681 F50.
X60.144 Y25.726 F200.
X62.298 Y26.749
X64.345 Y27.979
X66.393 Y29.499
X68.27 Y31.21
X69.898 Y33.018
X71.346 Y34.977
X72.62 Y37.117
X73.022 Y37.91 Z-0.726
X73.036 Y37.939 Z-0.92 F50.
X73.841 Y39.802 F200.
X74.568 Y41.998
X75.118 Y44.382
X75.322 Y45.685 Z-0.959
X75.328 Y45.736 Z-2.429
X75.33 Y45.75 Z-2.828 F50.
X75.351 Y45.922 F200.
X75.358 Y45.973 Z-2.822
X75.364 Y46.021 Z-2.802
X75.369 Y46.062 Z-2.77
X75.373 Y46.094 Z-2.728
X75.375 Y46.114 Z-2.68
X75.376 Y46.12 Z-2.628
G0 Z5.
X26.545 Y46.032
Z1.059
G1 Z-2.628 F200.
X26.546 Y46.025 Z-2.68
X26.549 Y46.006 Z-2.728
X26.553 Y45.974 Z-2.77
X26.558 Y45.933 Z-2.802
X26.564 Y45.885 Z-2.822
X26.571 Y45.834 Z-2.828
X26.597 Y45.631 F50.
X26.603 Y45.583 Z-0.955 F200.
X26.892 Y43.852 Z-0.92
X27.383 Y41.829
X27.894 Y40.252
X28.772 Y38.131
X28.848 Y37.969 F50.
X28.881 Y37.9 Z-0.684 F200.
X29.854 Y36.077 Z-0.681
X31.258 Y33.948
X32.993 Y31.841
X34.541 Y30.295
X36.411 Y28.739
X38.415 Y27.375
X40.34 Y26.31
X42.683 Y25.302
X44.41 Y24.738 Z-0.669
X44.417 Y24.736 Z-0.657
X44.42 Y24.735 Z-0.644
G0 Z5.
X57.524 Y24.722
Z1.907
G1 Z-0.498 F200.
X57.529 Y24.723 Z-0.541
X57.543 Y24.727 Z-0.583
X57.587 Y24.74 Z-0.681 F50.
X59.992 Y25.566 F200.
X62.303 Y26.645
X64.397 Y27.899
X66.445 Y29.419
X68.335 Y31.142
X69.97 Y32.957
X71.423 Y34.923
X72.701 Y37.067
X73.121 Y37.898 Z-0.719
X73.137 Y37.931 Z-0.92 F50.
X73.94 Y39.797 F200.
X74.659 Y41.973
X75.211 Y44.366
X75.393 Y45.507 Z-0.959
X75.397 Y45.542 Z-2.429
X75.399 Y45.552 Z-2.828 F50.
X75.425 Y45.746 F200.
X75.431 Y45.798 Z-2.822
X75.438 Y45.846 Z-2.802
X75.443 Y45.887 Z-2.77
X75.447 Y45.918 Z-2.728
X75.45 Y45.938 Z-2.68
X75.451 Y45.945 Z-2.628
G0 Z5.
X26.473 Y45.846
Z1.06
G1 Z-2.628 F200.
X26.474 Y45.839 Z-2.68
X26.476 Y45.819 Z-2.728
X26.481 Y45.788 Z-2.77
X26.486 Y45.746 Z-2.802
X26.493 Y45.699 Z-2.822
X26.5 Y45.647 Z-2.828
X26.526 Y45.453 F50.
X26.532 Y45.406 Z-0.955 F200.
X26.799 Y43.836 Z-0.92
X27.326 Y41.686
X28.166 Y39.278
X28.599 Y38.299
X28.76 Y37.933 F50.
X28.796 Y37.86 Z-0.683 F200.
X30.096 Y35.495 Z-0.681
X31.474 Y33.502
X33.237 Y31.441
X34.855 Y29.886
X37.023 Y28.177
X39.165 Y26.824
X41.45 Y25.692
X43.599 Y24.885
X44.654 Y24.572
X44.662 Y24.57 Z-0.668
X44.665 Y24.569 Z-0.652
G0 Z5.
X57.251 Y24.548
Z1.911
G1 Z-0.503 F200.
X57.254 Y24.549 Z-0.543
X57.266 Y24.552 Z-0.581
X57.285 Y24.557 Z-0.616
X57.328 Y24.569 Z-0.681 F50.
X59.714 Y25.354 F200.
X62.04 Y26.4
X64.021 Y27.54
X66.099 Y29.018
X67.854 Y30.539
X69.549 Y32.31
X71.067 Y34.239
X72.537 Y36.568
X73.216 Y37.878 Z-0.714
X73.23 Y37.908 Z-0.92 F50.
X74.041 Y39.796 F200.
X74.721 Y41.843
X75.282 Y44.234
X75.463 Y45.328 Z-0.958
X75.468 Y45.369 Z-2.429
X75.47 Y45.38 Z-2.828 F50.
X75.496 Y45.568 F200.
X75.503 Y45.619 Z-2.822
X75.51 Y45.667 Z-2.802
X75.515 Y45.708 Z-2.77
X75.52 Y45.739 Z-2.728
X75.522 Y45.759 Z-2.68
X75.523 Y45.766 Z-2.628
G0 Z5.
X26.4 Y45.671
Z1.059
G1 Z-2.628 F200.
X26.401 Y45.665 Z-2.68
X26.404 Y45.645 Z-2.728
X26.408 Y45.613 Z-2.77
X26.414 Y45.572 Z-2.802
X26.421 Y45.525 Z-2.822
X26.428 Y45.473 Z-2.828
X26.456 Y45.276 F50.
X26.461 Y45.237 Z-0.96 F200.
X26.706 Y43.821 Z-0.92
X27.27 Y41.543
X27.885 Y39.732
X28.519 Y38.257
X28.677 Y37.889 F50.
X28.707 Y37.827 Z-0.687 F200.
X29.946 Y35.557 Z-0.681
X31.391 Y33.455
X33.168 Y31.376
X34.789 Y29.817
X36.756 Y28.25
X39.006 Y26.805
X41.403 Y25.61
X43.551 Y24.801
X44.894 Y24.41
X44.902 Y24.407 Z-0.668
X44.905 Z-0.652
G0 Z5.
X56.988 Y24.381
Z1.914
G1 Z-0.475 F200.
X56.993 Y24.382 Z-0.52
X57.008 Y24.386 Z-0.563
X57.032 Y24.392 Z-0.601
X57.095 Y24.409 Z-0.681 F50.
X59.472 Y25.16 F200.
X61.811 Y26.177
X64.072 Y27.46
X66.151 Y28.938
X68.104 Y30.647
X70.013 Y32.711
X71.578 Y34.815
X72.959 Y37.153
X73.314 Y37.863 Z-0.727
X73.323 Y37.882 Z-0.92 F50.
X74.126 Y39.754 F200.
X74.909 Y42.169
X75.452 Y44.648
X75.535 Y45.173 Z-0.974
X75.54 Y45.206 Z-2.429
X75.541 Y45.215 Z-2.828 F50.
X75.566 Y45.388 F200.
X75.574 Y45.44 Z-2.822
X75.581 Y45.487 Z-2.802
X75.587 Y45.528 Z-2.77
X75.591 Y45.56 Z-2.728
X75.594 Y45.58 Z-2.68
X75.595 Y45.586 Z-2.628
G0 Z5.
X26.329 Y45.494
Z1.059
G1 Z-2.628 F200.
X26.33 Y45.487 Z-2.68
X26.332 Y45.468 Z-2.728
X26.337 Y45.436 Z-2.77
X26.343 Y45.395 Z-2.802
X26.35 Y45.348 Z-2.822
X26.358 Y45.296 Z-2.828
X26.386 Y45.1 F50.
X26.394 Y45.052 Z-0.954 F200.
X26.613 Y43.805 Z-0.92
X27.214 Y41.401
X28.176 Y38.766
X28.432 Y38.2
X28.597 Y37.836 F50.
X28.625 Y37.779 Z-0.689 F200.
X29.603 Y35.944 Z-0.681
X31.005 Y33.813
X32.776 Y31.656
X34.723 Y29.749
X36.645 Y28.213
X38.848 Y26.786
X41.296 Y25.552
X43.503 Y24.717
X45.128 Y24.252
X45.136 Y24.25 Z-0.668
X45.138 Y24.249 Z-0.652
G0 Z5.
X56.781 Y24.232
Z1.91
G1 Z-0.535 F200.
X56.788 Y24.233 Z-0.585
X56.812 Y24.239 Z-0.681 F50.
X59.237 Y24.973 F200.
X61.588 Y25.962
X63.887 Y27.231
X65.798 Y28.546
X67.455 Y29.912
X69.425 Y31.883
X71.097 Y33.956
X72.572 Y36.245
X73.395 Y37.813 Z-0.705
X73.415 Y37.856 Z-0.92 F50.
X74.219 Y39.732 F200.
X74.902 Y41.789
X75.534 Y44.569
X75.606 Y45.01 Z-0.987
X75.61 Y45.035 Z-2.428
X75.611 Y45.042 Z-2.828 F50.
X75.637 Y45.215 F200.
X75.644 Y45.266 Z-2.822
X75.652 Y45.314 Z-2.802
X75.658 Y45.355 Z-2.77
X75.662 Y45.386 Z-2.728
X75.665 Y45.406 Z-2.68
X75.666 Y45.413 Z-2.628
G0 Z5.
X26.258 Y45.317
Z1.059
G1 Z-2.628 F200.
X26.259 Y45.31 Z-2.68
X26.262 Y45.291 Z-2.728
X26.267 Y45.259 Z-2.77
X26.273 Y45.218 Z-2.802
X26.28 Y45.171 Z-2.822
X26.288 Y45.119 Z-2.828
X26.317 Y44.927 F50.
X26.324 Y44.886 Z-0.958 F200.
X26.52 Y43.789 Z-0.92
X27.14 Y41.319
X27.699 Y39.691
X28.36 Y38.15
X28.518 Y37.782 F50.
X28.551 Y37.714 Z-0.685 F200.
X29.821 Y35.4 Z-0.681
X31.232 Y33.352
X33.03 Y31.246
X35.086 Y29.311
X37.213 Y27.699
X39.245 Y26.453
X41.542 Y25.344
X43.941 Y24.48
X45.394 Y24.09
X45.403 Y24.088 Z-0.668
X45.405 Y24.087 Z-0.652
G0 Z5.
X56.554 Y24.08
Z1.905
G1 Z-0.604 F200.
X56.555 Z-0.621
X56.56 Y24.081 Z-0.681 F50.
X59.043 Y24.803 F200.
X61.404 Y25.768
X63.798 Y27.065
X65.85 Y28.466
X67.894 Y30.186
X69.765 Y32.125
X71.483 Y34.337
X72.939 Y36.711
X73.485 Y37.783 Z-0.715
X73.5 Y37.815 Z-0.92 F50.
X74.265 Y39.588 F200.
X75.024 Y41.873
X75.645 Y44.658
X75.676 Y44.848 Z-1.016
X75.681 Y44.884 Z-2.429
X75.683 Y44.894 Z-2.828 F50.
X75.706 Y45.039 F200.
X75.714 Y45.09 Z-2.822
X75.721 Y45.138 Z-2.802
X75.727 Y45.179 Z-2.77
X75.732 Y45.21 Z-2.728
X75.735 Y45.23 Z-2.68
X75.736 Y45.237 Z-2.628
G0 Z5.
X26.188 Y45.14
Z1.059
G1 Z-2.628 F200.
X26.189 Y45.133 Z-2.68
X26.192 Y45.114 Z-2.728
X26.197 Y45.082 Z-2.77
X26.204 Y45.041 Z-2.802
X26.211 Y44.994 Z-2.822
X26.22 Y44.943 Z-2.828
X26.249 Y44.755 F50.
X26.255 Y44.723 Z-0.964 F200.
X26.378 Y44.024 Z-0.92
X26.986 Y41.505
X27.792 Y39.195
X28.278 Y38.095
X28.439 Y37.729 F50.
X28.468 Y37.668 Z-0.687 F200.
X29.446 Y35.838 Z-0.681
X30.999 Y33.502
X32.805 Y31.346
X34.591 Y29.612
X36.734 Y27.916
X38.753 Y26.621
X41.026 Y25.464
X43.406 Y24.549
X45.659 Y23.932 Z-0.665
X45.674 Y23.928 Z-0.64
X45.68 Y23.926 Z-0.61
G0 Z5.
X56.316 Y23.927
Z1.903
G1 Z-0.652 F200.
X56.319 Y23.928 Z-0.668
X56.327 Y23.93 Z-0.681
X58.969 Y24.677
X61.16 Y25.551
X63.408 Y26.72
X65.491 Y28.082
X67.58 Y29.77
X69.563 Y31.754
X71.247 Y33.841
X72.733 Y36.144
X73.564 Y37.729 Z-0.707
X73.584 Y37.771 Z-0.92 F50.
X74.388 Y39.647 F200.
X75.054 Y41.636
X75.693 Y44.386
X75.742 Y44.67 Z-0.992
X75.745 Y44.689 Z-2.428
X75.746 Y44.695 Z-2.828 F50.
X75.774 Y44.863 F200.
X75.782 Y44.914 Z-2.822
X75.79 Y44.961 Z-2.802
X75.796 Y45.002 Z-2.77
X75.801 Y45.034 Z-2.728
X75.804 Y45.053 Z-2.68
X75.806 Y45.06 Z-2.628
G0 Z5.
X26.118 Y44.971
Z1.059
G1 Z-2.628 F200.
X26.119 Y44.964 Z-2.68
X26.123 Y44.945 Z-2.728
X26.128 Y44.913 Z-2.77
X26.135 Y44.872 Z-2.802
X26.142 Y44.825 Z-2.822
X26.151 Y44.774 Z-2.828
X26.182 Y44.585 F50.
X26.188 Y44.546 Z-0.959 F200.
X26.459 Y43.162 Z-0.92
X27.05 Y40.974
X27.699 Y39.174
X28.197 Y38.045
X28.358 Y37.679 F50.
X28.395 Y37.603 Z-0.683 F200.
X29.367 Y35.785 Z-0.681
X30.769 Y33.655
X32.388 Y31.661
X34.146 Y29.885
X36.057 Y28.293
X38.106 Y26.896
X40.055 Y25.816
X42.395 Y24.801
X44.827 Y24.035
X45.908 Y23.78
X45.92 Y23.778 Z-0.642
X45.925 Y23.777 Z-0.601
G0 Z5.
X56.072 Y23.778
Z1.902
G1 Z-0.666 F200.
X56.078 Y23.779 Z-0.681
X58.543 Y24.435
X61.116 Y25.426
X63.456 Y26.637
X65.543 Y28.002
X67.642 Y29.698
X69.632 Y31.689
X71.322 Y33.783
X72.813 Y36.094
X73.643 Y37.676 Z-0.709
X73.661 Y37.713 Z-0.92 F50.
X74.467 Y39.588 F200.
X75.29 Y42.131
X75.794 Y44.415 Z-0.933
X75.81 Y44.509 Z-1.017
X75.811 Y44.511 Z-2.428
Y44.512 Z-2.828 F50.
X75.842 Y44.695 F200.
X75.85 Y44.746 Z-2.822
X75.858 Y44.793 Z-2.802
X75.865 Y44.834 Z-2.77
X75.871 Y44.865 Z-2.728
X75.874 Y44.885 Z-2.68
X75.875 Y44.892 Z-2.628
G0 Z5.
X26.049 Y44.802
Z1.058
G1 Z-2.628 F200.
X26.05 Y44.796 Z-2.68
X26.054 Y44.776 Z-2.728
X26.059 Y44.745 Z-2.77
X26.066 Y44.704 Z-2.802
X26.074 Y44.656 Z-2.822
X26.083 Y44.605 Z-2.828
X26.115 Y44.416 F50.
X26.123 Y44.369 Z-0.954 F200.
X26.461 Y42.735 Z-0.92
X27.243 Y40.107
X28.219 Y37.751
X28.279 Y37.625 F50.
X28.313 Y37.555 Z-0.685 F200.
X29.619 Y35.187 Z-0.681
X30.995 Y33.193
X32.823 Y31.052
X34.887 Y29.107
X37.141 Y27.404
X39.103 Y26.206
X41.399 Y25.095
X43.796 Y24.226
X45.198 Y23.856
X45.584 Y23.754 F50.
X45.585 Z-0.581 F200.
Z-0.579
G0 Z5.
X56.416 Y23.756
Z1.817
G1 Z-0.568 F200.
Z-0.581
X56.423 Y23.757 Z-0.681 F50.
X59.043 Y24.501 F200.
X61.292 Y25.402
X63.503 Y26.555
X65.646 Y27.96
X67.704 Y29.627
X69.701 Y31.624
X71.397 Y33.725
X72.893 Y36.044
X73.718 Y37.614 Z-0.71
X73.739 Y37.657 Z-0.92 F50.
X74.366 Y39.075 F200.
X75.216 Y41.516
X75.847 Y44.179 Z-0.921
X75.877 Y44.341 Z-1.017
Y44.345 Z-2.428
X75.878 Z-2.828 F50.
X75.909 Y44.525 F200.
X75.918 Y44.576 Z-2.822
X75.926 Y44.624 Z-2.802
X75.933 Y44.664 Z-2.77
X75.939 Y44.696 Z-2.728
X75.942 Y44.715 Z-2.68
X75.943 Y44.722 Z-2.628
G0 Z5.
X25.982 Y44.631
Z1.058
G1 Z-2.628 F200.
X25.983 Y44.624 Z-2.68
X25.986 Y44.605 Z-2.728
X25.992 Y44.573 Z-2.77
X25.999 Y44.533 Z-2.802
X26.007 Y44.485 Z-2.822
X26.016 Y44.434 Z-2.828
X26.048 Y44.25 F50.
X26.056 Y44.209 Z-0.958 F200.
X26.347 Y42.807 Z-0.92
X26.984 Y40.569
X27.911 Y38.193
X28.032 Y37.934
X28.2 Y37.571 F50.
X28.235 Y37.499 Z-0.684 F200.
X29.507 Y35.188 Z-0.681
X30.917 Y33.139
X32.753 Y30.987
X34.824 Y29.035
X37.055 Y27.347
X39.056 Y26.124
X41.351 Y25.012
X43.748 Y24.142
X44.893 Y23.831
X45.279 Y23.727 F50.
Z-0.581 F200.
G0 Z5.
X56.728 Y23.73
Z1.799
G1 Z-0.572 F200.
X56.729 Z-0.581
X56.733 Y23.732 Z-0.681 F50.
X59.181 Y24.449 F200.
X61.541 Y25.414
X63.988 Y26.736
X66.056 Y28.146
X67.767 Y29.555
X69.77 Y31.559
X71.472 Y33.667
X72.845 Y35.773
X73.79 Y37.545 Z-0.706
X73.81 Y37.587 Z-0.92 F50.
X74.509 Y39.177 F200.
X75.228 Y41.227
X75.908 Y43.991
X75.943 Y44.175 Z-1.017
X75.946 Y44.191 Z-2.428
Y44.196 Z-2.828 F50.
X75.975 Y44.356 F200.
X75.984 Y44.407 Z-2.822
X75.993 Y44.455 Z-2.802
X76. Y44.495 Z-2.77
X76.006 Y44.527 Z-2.728
X76.009 Y44.546 Z-2.68
X76.011 Y44.553 Z-2.628
G0 Z5.
X25.915 Y44.459
Z1.059
G1 Z-2.628 F200.
X25.916 Y44.452 Z-2.68
X25.92 Y44.433 Z-2.728
X25.925 Y44.401 Z-2.77
X25.933 Y44.361 Z-2.802
X25.941 Y44.313 Z-2.822
X25.951 Y44.262 Z-2.828
X25.983 Y44.083 F50.
X25.991 Y44.039 Z-0.955 F200.
X26.219 Y42.942 Z-0.92
X26.851 Y40.669
X27.613 Y38.64
X27.958 Y37.878
X28.123 Y37.514 F50.
X28.154 Y37.449 Z-0.686 F200.
X29.298 Y35.349 Z-0.681
X30.841 Y33.083
X32.516 Y31.1
X34.507 Y29.182
X36.685 Y27.487
X38.841 Y26.135
X41.303 Y24.929
X43.7 Y24.057
X44.671 Y23.789
X45.056 Y23.683 F50.
X45.057 Z-0.581 F200.
Z-0.579
G0 Z5.
X56.947 Y23.685
Z1.799
G1 Z-0.571 F200.
Y23.686 Z-0.581
X56.952 Y23.687 Z-0.681 F50.
X59.166 Y24.343 F200.
X61.529 Y25.303
X63.981 Y26.62
X66.107 Y28.066
X67.829 Y29.484
X69.839 Y31.494
X71.547 Y33.609
X73.053 Y35.943
X73.867 Y37.487 Z-0.712
X73.885 Y37.524 Z-0.92 F50.
X74.722 Y39.461 F200.
X75.413 Y41.518
X75.989 Y43.913 Z-0.931
X76.008 Y44.011 Z-1.016
X76.011 Y44.024 Z-2.428
Y44.028 Z-2.828 F50.
X76.042 Y44.194 F200.
X76.051 Y44.245 Z-2.822
X76.06 Y44.293 Z-2.802
X76.068 Y44.333 Z-2.77
X76.074 Y44.365 Z-2.728
X76.077 Y44.384 Z-2.68
X76.078 Y44.391 Z-2.628
G0 Z5.
X25.847 Y44.299
Z1.058
G1 Z-2.628 F200.
X25.848 Y44.293 Z-2.68
X25.852 Y44.273 Z-2.728
X25.858 Y44.242 Z-2.77
X25.865 Y44.201 Z-2.802
X25.874 Y44.154 Z-2.822
X25.884 Y44.103 Z-2.828
X25.918 Y43.919 F50.
X25.926 Y43.875 Z-0.955 F200.
X26.274 Y42.322 Z-0.92
X26.884 Y40.291
X27.834 Y37.924
X27.881 Y37.824
X28.051 Y37.463 F50.
X28.088 Y37.386 Z-0.683 F200.
X29.428 Y34.971 Z-0.681
X30.769 Y33.03
X32.585 Y30.891
X34.638 Y28.944
X36.839 Y27.265
X38.989 Y25.944
X41.255 Y24.846
X43.651 Y23.973
X44.456 Y23.747
X44.841 Y23.639 F50.
Z-0.581 F200.
G0 Z5.
X57.16 Y23.641
Z1.799
G1 Z-0.565 F200.
Z-0.581
X57.168 Y23.643 Z-0.681 F50.
X59.798 Y24.471 F200.
X62.193 Y25.519
X64.483 Y26.822
X66.563 Y28.297
X68.676 Y30.146
X70.61 Y32.243
X72.057 Y34.17
X73.503 Y36.563
X73.945 Y37.432 Z-0.714
X73.959 Y37.461 Z-0.92 F50.
X75.088 Y40.189 F200.
X75.727 Y42.309
X76.064 Y43.805 Z-0.955
X76.072 Y43.843 Z-2.429
X76.074 Y43.853 Z-2.828 F50.
X76.107 Y44.024 F200.
X76.116 Y44.075 Z-2.822
X76.125 Y44.122 Z-2.802
X76.133 Y44.163 Z-2.77
X76.139 Y44.194 Z-2.728
X76.143 Y44.214 Z-2.68
X76.144 Y44.22 Z-2.628
G0 Z5.
X25.78 Y44.135
Z1.058
G1 Z-2.628 F200.
X25.782 Y44.128 Z-2.68
X25.785 Y44.108 Z-2.728
X25.791 Y44.077 Z-2.77
X25.799 Y44.036 Z-2.802
X25.808 Y43.989 Z-2.822
X25.818 Y43.938 Z-2.828
X25.853 Y43.756 F50.
X25.861 Y43.719 Z-0.959 F200.
X26.112 Y42.581 Z-0.92
X26.838 Y40.136
X27.908 Y37.543
X27.974 Y37.406 F50.
X28.005 Y37.342 Z-0.687 F200.
X29.285 Y35.02 Z-0.681
X30.695 Y32.971
X32.537 Y30.803
X34.576 Y28.873
X36.784 Y27.187
X38.913 Y25.877
X41.208 Y24.764
X43.603 Y23.888
X44.23 Y23.709
X44.615 Y23.599 F50.
Z-0.581 F200.
Z-0.58
G0 Z5.
X57.365 Y23.596
Z1.799
G1 Z-0.527 F200.
X57.372 Y23.598 Z-0.581
X57.399 Y23.605 Z-0.681 F50.
X59.829 Y24.381 F200.
X62.338 Y25.486
X64.534 Y26.742
X66.615 Y28.217
X68.742 Y30.077
X70.661 Y32.157
X72.356 Y34.447
X73.774 Y36.877
X74.025 Y37.38 Z-0.72
X74.037 Y37.404 Z-0.92 F50.
X75.168 Y40.131 F200.
X75.917 Y42.686
X76.13 Y43.652 Z-0.961
X76.139 Y43.696 Z-2.429
X76.141 Y43.707 Z-2.828 F50.
X76.172 Y43.864 F200.
X76.182 Y43.915 Z-2.822
X76.191 Y43.962 Z-2.802
X76.199 Y44.003 Z-2.77
X76.205 Y44.034 Z-2.728
X76.209 Y44.054 Z-2.68
X76.211 Y44.06 Z-2.628
G0 Z5.
X25.715 Y43.97
Z1.058
G1 Z-2.628 F200.
X25.716 Y43.963 Z-2.68
X25.72 Y43.944 Z-2.728
X25.726 Y43.912 Z-2.77
X25.734 Y43.872 Z-2.802
X25.744 Y43.824 Z-2.822
X25.754 Y43.774 Z-2.828
X25.789 Y43.595 F50.
X25.799 Y43.545 Z-0.951 F200.
X26.118 Y42.174 Z-0.92
X26.969 Y39.502
X27.738 Y37.717
X27.896 Y37.349 F50.
X27.931 Y37.278 Z-0.684 F200.
X29.041 Y35.239 Z-0.681
X30.616 Y32.918
X32.452 Y30.755
X34.513 Y28.801
X36.729 Y27.11
X38.866 Y25.795
X41.16 Y24.681
X43.555 Y23.804
X44.07 Y23.655
X44.455 Y23.544 F50.
X44.456 Y23.543 Z-0.581 F200.
Z-0.579
G0 Z5.
X57.548 Y23.547
Z1.798
G1 Z-0.571 F200.
X57.549 Z-0.581
X57.554 Y23.548 Z-0.681 F50.
X60.061 Y24.368 F200.
X62.39 Y25.406
X64.586 Y26.662
X66.666 Y28.137
X68.808 Y30.009
X70.713 Y32.071
X72.354 Y34.273
X73.79 Y36.702
X74.105 Y37.327 Z-0.727
X74.114 Y37.347 Z-0.92 F50.
X75.075 Y39.594 F200.
X75.924 Y42.321
X76.193 Y43.489 Z-0.959
X76.202 Y43.532 Z-2.429
X76.205 Y43.544 Z-2.828 F50.
X76.235 Y43.696 F200.
X76.246 Y43.747 Z-2.822
X76.255 Y43.794 Z-2.802
X76.263 Y43.835 Z-2.77
X76.27 Y43.866 Z-2.728
X76.274 Y43.885 Z-2.68
X76.275 Y43.892 Z-2.628
G0 Z5.
X25.65 Y43.805
Z1.058
G1 Z-2.628 F200.
X25.651 Y43.799 Z-2.68
X25.655 Y43.779 Z-2.728
X25.662 Y43.748 Z-2.77
X25.67 Y43.707 Z-2.802
X25.68 Y43.66 Z-2.822
X25.69 Y43.609 Z-2.828
X25.725 Y43.438 F50.
X25.736 Y43.388 Z-0.952 F200.
X25.989 Y42.296 Z-0.92
X26.579 Y40.309
X27.516 Y37.937
X27.65 Y37.653
X27.819 Y37.291 F50.
X27.853 Y37.221 Z-0.684 F200.
X28.964 Y35.183 Z-0.681
X30.54 Y32.862
X32.353 Y30.722
X33.622 Y29.465
X35.644 Y27.773
X37.746 Y26.338
X40.181 Y25.016
X42.538 Y24.042
X43.944 Y23.6
X44.325 Y23.48 F50.
X44.326 Z-0.581 F200.
Z-0.58
G0 Z5.
X57.672 Y23.482
Z1.833
G1 Z-0.52 F200.
X57.675 Z-0.551
X57.682 Y23.484 Z-0.581
X57.713 Y23.493 Z-0.681 F50.
X60.253 Y24.341 F200.
X62.575 Y25.394
X64.637 Y26.582
X66.718 Y28.057
X68.873 Y29.941
X70.744 Y31.961
X72.432 Y34.219
X73.863 Y36.638
X74.176 Y37.258 Z-0.71
X74.192 Y37.291 Z-0.92 F50.
X75.328 Y40.017 F200.
X76.1 Y42.636
X76.259 Y43.343 Z-0.971
X76.266 Y43.376 Z-2.429
X76.268 Y43.385 Z-2.828 F50.
X76.301 Y43.543 F200.
X76.311 Y43.594 Z-2.822
X76.321 Y43.641 Z-2.802
X76.329 Y43.681 Z-2.77
X76.336 Y43.713 Z-2.728
X76.34 Y43.732 Z-2.68
X76.341 Y43.739 Z-2.628
G0 Z5.
X25.565 Y43.751
Z1.057
G1 Z-2.628 F200.
X25.566 Y43.744 Z-2.68
X25.57 Y43.724 Z-2.728
X25.576 Y43.693 Z-2.77
X25.585 Y43.653 Z-2.802
X25.594 Y43.605 Z-2.822
X25.605 Y43.555 Z-2.828
X25.638 Y43.394 F50.
X25.647 Y43.349 Z-0.953 F200.
X25.908 Y42.231 Z-0.92
X26.491 Y40.275
X27.428 Y37.903
X27.571 Y37.599
X27.741 Y37.237 F50.
X27.77 Y37.177 Z-0.688 F200.
X28.821 Y35.237 Z-0.681
X30.158 Y33.217
X31.759 Y31.231
X33.288 Y29.649
X35.181 Y28.01
X37.262 Y26.53
X39.675 Y25.157
X42.011 Y24.134
X43.835 Y23.537
X44.215 Y23.412 F50.
X44.216 Z-0.581 F200.
Z-0.579
G0 Z5.
X57.792 Y23.416
Z1.881
G1 Z-0.563 F200.
X57.793 Y23.417 Z-0.581
X57.801 Y23.419 Z-0.681 F50.
X59.983 Y24.135 F200.
X62.319 Y25.157
X64.688 Y26.502
X66.77 Y27.977
X68.893 Y29.828
X70.816 Y31.899
X72.367 Y33.953
X73.517 Y35.802
X74.249 Y37.193 Z-0.701
X74.269 Y37.234 Z-0.92 F50.
X75.234 Y39.48 F200.
X76.083 Y42.178
X76.367 Y43.396 Z-0.953
X76.378 Y43.452 Z-2.429
X76.381 Y43.467 Z-2.828 F50.
X76.407 Y43.594 F200.
X76.418 Y43.644 Z-2.822
X76.427 Y43.692 Z-2.802
X76.435 Y43.732 Z-2.77
X76.442 Y43.763 Z-2.728
X76.446 Y43.783 Z-2.68
X76.447 Y43.79 Z-2.628
G0 Z5.
X25.448 Y43.86
Z1.056
G1 Z-2.628 F200.
X25.449 Y43.854 Z-2.68
X25.453 Y43.834 Z-2.728
X25.459 Y43.803 Z-2.77
X25.467 Y43.762 Z-2.802
X25.477 Y43.715 Z-2.822
X25.487 Y43.664 Z-2.828
X25.52 Y43.501 F50.
X25.527 Y43.464 Z-0.957 F200.
X25.768 Y42.401 Z-0.92
X26.522 Y39.898
X27.601 Y37.308
X27.663 Y37.179 F50.
X27.696 Y37.112 Z-0.685 F200.
X28.943 Y34.855 Z-0.681
X30.081 Y33.162
X30.287 Y32.883 F50.
Z-0.581 F200.
G0 Z5.
X30.789 Y32.234
Z2.032
G1 Z-0.565 F200.
Z-0.581
X30.794 Y32.227 Z-0.681 F50.
X30.985 Y31.992
Z-0.581 F200.
G0 Z5.
X32.816 Y29.975
Z2.032
G1 Z-0.573 F200.
Z-0.581
X32.819 Y29.972 Z-0.681 F50.
X33.076 Y29.721
Y29.72 Z-0.581 F200.
Z-0.58
G0 Z5.
X34.024 Y28.848
Z2.032
G1 Z-0.556 F200.
X34.026 Y28.847 Z-0.581
X34.035 Y28.838 Z-0.681 F50.
X36.04 Y27.245 F200.
X38.279 Y25.799
X40.782 Y24.533
X43.41 Y23.551
X43.737 Y23.454
X44.121 Y23.34 F50.
X44.122 Z-0.581 F200.
Z-0.579
G0 Z5.
X57.887 Y23.344
Z1.92
G1 Z-0.573 F200.
Z-0.581
X57.891 Y23.345 Z-0.681 F50.
X60.36 Y24.179 F200.
X62.682 Y25.235
X64.74 Y26.423
X66.821 Y27.896
X68.959 Y29.76
X70.888 Y31.838
X71.442 Y32.536
X71.691 Y32.849 F50.
Y32.85 Z-0.581 F200.
Z-0.58
G0 Z5.
X72.611 Y34.147
Z2.032
G1 Z-0.564 F200.
Z-0.581
X72.616 Y34.154 Z-0.681 F50.
X73.66 Y35.863 F200.
X74.331 Y37.145 Z-0.708
X74.354 Y37.192 Z-0.92 F50.
X75.314 Y39.423 F200.
X76.158 Y42.092
X76.487 Y43.511 Z-0.957
X76.495 Y43.552 Z-2.429
X76.497 Y43.563 Z-2.828 F50.
X76.527 Y43.712 F200.
X76.537 Y43.763 Z-2.822
X76.546 Y43.81 Z-2.802
X76.554 Y43.851 Z-2.77
X76.561 Y43.882 Z-2.728
X76.564 Y43.901 Z-2.68
X76.566 Y43.908 Z-2.628
G0 Z5.
X25.333 Y43.962
Z1.057
G1 Z-2.628 F200.
X25.334 Y43.956 Z-2.68
X25.338 Y43.936 Z-2.728
X25.344 Y43.905 Z-2.77
X25.352 Y43.864 Z-2.802
X25.361 Y43.817 Z-2.822
X25.371 Y43.766 Z-2.828
X25.402 Y43.609 F50.
X25.41 Y43.566 Z-0.953 F200.
X25.69 Y42.323 Z-0.92
X26.302 Y40.243
X27.342 Y37.637
X27.413 Y37.486
X27.585 Y37.125 F50.
X27.616 Y37.061 Z-0.687 F200.
X28.601 Y35.237 Z-0.681
X28.779 Y34.946
X28.988 Y34.604 F50.
Z-0.581 F200.
Z-0.58
G0 Z5.
X34.431 Y28.374
Z2.031
G1 Z-0.681 F200.
X34.853 Y28.034
X35.164 Y27.783 F50.
Z-0.581 F200.
Z-0.58
G0 Z5.
X36.226 Y26.997
Z2.032
G1 Z-0.561 F200.
X36.227 Y26.996 Z-0.581
X36.235 Y26.99 Z-0.681 F50.
X38.232 Y25.717 F200.
X40.735 Y24.45
X43.362 Y23.466
X43.651 Y23.38
X44.034 Y23.266 F50.
Z-0.581 F200.
G0 Z5.
X57.98 Y23.272
Z1.952
G1 Z-0.563 F200.
X57.981 Z-0.581
X57.989 Y23.275 Z-0.681 F50.
X60.277 Y24.044 F200.
X62.604 Y25.089
X64.791 Y26.343
X66.873 Y27.816
X69.025 Y29.692
X70.96 Y31.776
X71.289 Y32.184
X71.54 Y32.496 F50.
X71.541 Y32.497 Z-0.581 F200.
Z-0.577
G0 Z5.
X72.795 Y34.254
Z2.032
G1 Z-0.549 F200.
X72.797 Y34.256 Z-0.581
X72.805 Y34.27 Z-0.681 F50.
X73.864 Y36.036 F200.
X74.41 Y37.092 Z-0.711
X74.438 Y37.15 Z-0.92 F50.
X75.393 Y39.367 F200.
X76.086 Y41.467
X76.596 Y43.574 Z-0.934
X76.612 Y43.655 Z-1.019
X76.614 Y43.665 Z-2.428
Y43.668 Z-2.828 F50.
X76.643 Y43.817 F200.
X76.653 Y43.867 Z-2.822
X76.662 Y43.915 Z-2.802
X76.67 Y43.955 Z-2.77
X76.676 Y43.987 Z-2.728
X76.68 Y44.006 Z-2.68
X76.681 Y44.013 Z-2.628
G0 Z5.
X25.217 Y44.072
Z1.056
G1 Z-2.628 F200.
X25.218 Y44.065 Z-2.68
X25.222 Y44.046 Z-2.728
X25.228 Y44.015 Z-2.77
X25.235 Y43.974 Z-2.802
X25.244 Y43.926 Z-2.822
X25.254 Y43.876 Z-2.828
X25.285 Y43.715 F50.
X25.293 Y43.672 Z-0.952 F200.
X25.676 Y41.997 Z-0.92
X26.42 Y39.624
X27.434 Y37.219
X27.506 Y37.07 F50.
X27.536 Y37.01 Z-0.688 F200.
X28.507 Y35.24 Z-0.682
X28.7 Y34.889 Z-0.681 F50.
Z-0.581 F200.
G0 Z5.
X34.573 Y28.134
Z2.032
G1 Z-0.58 F200.
Z-0.581
Z-0.681 F50.
X34.916 Y27.857
Z-0.581 F200.
G0 Z5.
X38.181 Y25.636
Z2.032
G1 Z-0.574 F200.
Z-0.581
X38.184 Y25.635 Z-0.681 F50.
X40.454 Y24.471 F200.
X42.828 Y23.54
X43.561 Y23.312
X43.943 Y23.193 F50.
X43.944 Z-0.581 F200.
Z-0.579
G0 Z5.
X58.068 Y23.198
Z1.979
G1 Z-0.571 F200.
Z-0.581
X58.073 Y23.2 Z-0.681 F50.
X60.308 Y23.954 F200.
X62.635 Y24.998
X63.196 Y25.298
X63.549 Y25.487 F50.
Z-0.581 F200.
G0 Z5.
X65.06 Y26.403
Z2.032
G1 Z-0.564 F200.
X65.061 Y26.404 Z-0.581
X65.068 Y26.408 Z-0.681 F50.
X65.688 Y26.833 F200.
X66.018 Y27.058 F50.
X66.019 Y27.059 Z-0.581 F200.
Z-0.58
G0 Z5.
X71.175 Y31.887
Z2.032
G1 Z-0.56 F200.
X71.176 Y31.888 Z-0.581
X71.183 Y31.896 Z-0.681 F50.
X71.495 Y32.286
Z-0.581 F200.
G0 Z5.
X72.946 Y34.312
Z2.032
G1 Z-0.568 F200.
Z-0.581
X72.95 Y34.318 Z-0.681 F50.
X74.324 Y36.708 F200.
X74.495 Y37.05 Z-0.73
X74.507 Y37.075 Z-0.92 F50.
X75.473 Y39.311 F200.
X76.131 Y41.283
X76.713 Y43.679 Z-0.933
X76.729 Y43.762 Z-1.019
X76.73 Y43.77 Z-2.428
X76.731 Y43.773 Z-2.828 F50.
X76.76 Y43.926 F200.
X76.769 Y43.977 Z-2.822
X76.778 Y44.024 Z-2.802
X76.786 Y44.065 Z-2.77
X76.792 Y44.096 Z-2.728
X76.796 Y44.116 Z-2.68
X76.797 Y44.122 Z-2.628
G0 Z5.
X25.103 Y44.174
Z1.056
G1 Z-2.628 F200.
X25.104 Y44.168 Z-2.68
X25.108 Y44.148 Z-2.728
X25.114 Y44.117 Z-2.77
X25.121 Y44.076 Z-2.802
X25.13 Y44.028 Z-2.822
X25.139 Y43.978 Z-2.828
X25.168 Y43.821 F50.
X25.176 Y43.782 Z-0.954 F200.
X25.414 Y42.659 Z-0.92
X26.115 Y40.207
X27.045 Y37.832
X27.259 Y37.375
X27.429 Y37.013 F50.
X27.457 Y36.955 Z-0.688 F200.
X28.321 Y35.369 Z-0.682
X28.512 Y35.018 Z-0.681 F50.
X28.532 Y34.983
Z-0.581 F200.
G0 Z5.
X38.996 Y25.078
Z2.032
G1 Z-0.568 F200.
X38.997 Z-0.581
X39.002 Y25.075 Z-0.681 F50.
X39.265 Y24.941 F200.
X39.622 Y24.759 F50.
Z-0.581 F200.
G0 Z5.
X40.498 Y24.348
Z2.032
G1 Z-0.571 F200.
Z-0.581
X40.503 Y24.345 Z-0.681 F50.
X41.941 Y23.768 F200.
X42.312 Y23.618 F50.
X42.313 Z-0.581 F200.
Z-0.578
G0 Z5.
X58.143 Y23.121
Z2.
G1 Z-0.569 F200.
Z-0.581
X58.149 Y23.123 Z-0.681 F50.
X60.17 Y23.8 F200.
X61.152 Y24.207
X61.522 Y24.36 F50.
Z-0.581 F200.
G0 Z5.
X65.335 Y26.471
Z2.032
G1 Z-0.567 F200.
Z-0.581
X65.341 Y26.475 Z-0.681 F50.
X65.581 Y26.64 F200.
X65.911 Y26.866 F50.
Z-0.581 F200.
G0 Z5.
X73.079 Y34.344
Z2.032
G1 Z-0.563 F200.
Y34.345 Z-0.581
X73.084 Y34.352 Z-0.681 F50.
X74.409 Y36.665 F200.
X74.573 Y36.994 Z-0.729
X74.58 Y37.009 Z-0.92 F50.
X75.367 Y38.78 F200.
X76.093 Y40.826
X76.798 Y43.625
X76.845 Y43.868 Z-1.019
X76.848 Y43.885 Z-2.428
X76.849 Y43.89 Z-2.828 F50.
X76.875 Y44.031 F200.
X76.884 Y44.082 Z-2.822
X76.893 Y44.129 Z-2.802
X76.901 Y44.17 Z-2.77
X76.906 Y44.201 Z-2.728
X76.91 Y44.221 Z-2.68
X76.911 Y44.228 Z-2.628
G0 Z5.
X24.989 Y44.281
Z1.056
G1 Z-2.628 F200.
X24.99 Y44.275 Z-2.68
X24.994 Y44.255 Z-2.728
X24.999 Y44.224 Z-2.77
X25.007 Y44.183 Z-2.802
X25.015 Y44.136 Z-2.822
X25.024 Y44.085 Z-2.828
X25.053 Y43.927 F50.
X25.059 Y43.891 Z-0.957 F200.
X25.183 Y43.264 Z-0.92
X25.926 Y40.476
X26.697 Y38.398
X27.186 Y37.321
X27.351 Y36.957 F50.
X27.384 Y36.889 Z-0.684 F200.
X28.199 Y35.389 Z-0.682
X28.389 Y35.038 Z-0.681 F50.
X28.39 Z-0.581 F200.
Z-0.58
G0 Z5.
X39.145 Y24.894
Z2.032
G1 Z-0.529 F200.
X39.151 Y24.89 Z-0.581
X39.175 Y24.878 Z-0.681 F50.
X39.431 Y24.748
X39.432 Z-0.581 F200.
Z-0.58
G0 Z5.
X40.611 Y24.194
Z2.032
G1 Z-0.574 F200.
Z-0.581
X40.615 Y24.192 Z-0.681 F50.
X41.633 Y23.78 F200.
X42.003 Y23.63 F50.
X42.004 Z-0.581 F200.
Z-0.58
G0 Z5.
X58.209 Y23.041
Z2.016
G1 Z-0.571 F200.
X58.21 Y23.042 Z-0.581
X58.214 Y23.043 Z-0.681 F50.
X59.703 Y23.539 F200.
X60.083 Y23.665 F50.
Z-0.581 F200.
G0 Z5.
X65.538 Y26.493
Z2.032
G1 Z-0.581 F200.
X65.545 Y26.497 Z-0.681 F50.
X65.857 Y26.712
Z-0.581 F200.
G0 Z5.
X73.199 Y34.356
Z2.032
G1 Z-0.568 F200.
Z-0.581
X73.202 Y34.361 Z-0.681 F50.
X74.608 Y36.851 F200.
X74.657 Y36.951 Z-0.768
X74.661 Y36.959 Z-0.92 F50.
X75.447 Y38.724 F200.
X76.182 Y40.797
X76.884 Y43.575
X76.959 Y43.966 Z-0.989
X76.961 Y43.976 Z-2.428
Y43.979 Z-2.828 F50.
X76.989 Y44.134 F200.
X76.998 Y44.185 Z-2.822
X77.007 Y44.232 Z-2.802
X77.014 Y44.273 Z-2.77
X77.02 Y44.304 Z-2.728
X77.024 Y44.324 Z-2.68
X77.025 Y44.331 Z-2.628
G0 Z5.
X24.875 Y44.39
Z1.056
G1 Z-2.628 F200.
X24.876 Y44.383 Z-2.68
X24.88 Y44.363 Z-2.728
X24.885 Y44.332 Z-2.77
X24.892 Y44.291 Z-2.802
X24.901 Y44.244 Z-2.822
X24.91 Y44.193 Z-2.828
X24.938 Y44.032 F50.
X24.946 Y43.986 Z-0.95 F200.
X25.289 Y42.373 Z-0.92
X26.011 Y39.927
X26.961 Y37.56
X27.101 Y37.265
X27.272 Y36.904 F50.
X27.304 Y36.839 Z-0.686 F200.
X28.073 Y35.417 Z-0.682
X28.263 Y35.065 Z-0.681 F50.
Z-0.581 F200.
G0 Z5.
X40.681 Y24.06
Z2.032
G1 Z-0.573 F200.
Z-0.581
X40.685 Y24.058 Z-0.681 F50.
X41.403 Y23.766 F200.
X41.774 Y23.615 F50.
Z-0.581 F200.
Z-0.58
G0 Z5.
X58.262 Y22.958
Z2.027
G1 Z-0.571 F200.
X58.263 Z-0.581
X58.268 Y22.96 Z-0.681 F50.
X58.559 Y23.049 F200.
X58.941 Y23.166 F50.
X58.942 Z-0.581 F200.
Z-0.577
X58.935 Y23.164 Z-0.494
X58.916 Y23.158 Z-0.414
X58.884 Y23.147 Z-0.338
X58.841 Y23.133 Z-0.269
X58.796 Y23.118 Z-0.196
X58.764 Y23.107 Z-0.116
X58.746 Y23.101 Z-0.031
X58.741 Y23.1 Z0.056
X58.751 Y23.103 Z0.143
X58.776 Y23.111 Z0.226
X58.813 Y23.124 Z0.304
X58.863 Y23.14 Z0.373
X58.924 Y23.16 Z0.433
X58.993 Y23.184 Z0.48
X59.069 Y23.209 Z0.514
X59.15 Y23.236 Z0.534
X59.232 Y23.264 Z0.538
X59.314 Y23.291 Z0.527
X59.393 Y23.317 Z0.502
X59.467 Y23.342 Z0.462
X59.533 Y23.364 Z0.41
X59.589 Y23.383 Z0.346
X59.632 Y23.397 Z0.277
X59.664 Y23.408 Z0.201
X59.683 Y23.414 Z0.121
X59.689 Y23.416 Z0.038
X59.683 Y23.414 Z-0.044
X59.664 Y23.408 Z-0.124
X59.632 Y23.397 Z-0.2
X59.589 Y23.383 Z-0.269
X59.546 Y23.369 Z-0.338
X59.515 Y23.358 Z-0.414
X59.495 Y23.352 Z-0.494
X59.489 Y23.349 Z-0.577
Z-0.581
X59.493 Y23.351 Z-0.681 F50.
X59.796 Y23.458
Z-0.581 F200.
G0 Z5.
X73.309 Y34.353
Z2.032
G1 Z-0.539 F200.
X73.312 Y34.357 Z-0.581
X73.349 Y34.416 Z-0.681 F50.
X74.449 Y36.331 F200.
X74.728 Y36.881 Z-0.724
X74.742 Y36.909 Z-0.92 F50.
X75.526 Y38.668 F200.
X76.253 Y40.706
X76.964 Y43.492
X77.07 Y44.047 Z-0.96
X77.076 Y44.085 Z-2.429
X77.078 Y44.095 Z-2.828 F50.
X77.103 Y44.239 F200.
X77.112 Y44.29 Z-2.822
X77.121 Y44.338 Z-2.802
X77.128 Y44.378 Z-2.77
X77.133 Y44.41 Z-2.728
X77.137 Y44.429 Z-2.68
X77.138 Y44.436 Z-2.628
G0 Z5.
X24.762 Y44.494
Z1.055
G1 Z-2.628 F200.
X24.763 Y44.487 Z-2.68
X24.767 Y44.467 Z-2.728
X24.772 Y44.436 Z-2.77
X24.779 Y44.395 Z-2.802
X24.787 Y44.348 Z-2.822
X24.796 Y44.297 Z-2.828
X24.824 Y44.136 F50.
X24.831 Y44.095 Z-0.953 F200.
X25.109 Y42.725 Z-0.92
X25.877 Y40.027
X27.028 Y37.191
X27.195 Y36.847 F50.
X27.223 Y36.789 Z-0.688 F200.
X27.956 Y35.431 Z-0.683
X28.145 Y35.079 Z-0.681 F50.
Z-0.581 F200.
G0 Z5.
X40.725 Y23.937
Z2.032
G1 Z-0.571 F200.
X40.726 Z-0.581
X40.73 Y23.935 Z-0.681 F50.
X41.226 Y23.732 F200.
X41.597 Y23.581 F50.
Z-0.581 F200.
Z-0.58
G0 Z5.
X73.418 Y34.348
Z2.032
G1 Z-0.564 F200.
Y34.349 Z-0.581
X73.423 Y34.356 Z-0.681 F50.
X74.386 Y36.009 F200.
X74.805 Y36.824 Z-0.719
X74.819 Y36.853 Z-0.92 F50.
X75.606 Y38.614 F200.
X76.343 Y40.677
X77.056 Y43.472
X77.185 Y44.157 Z-0.965
X77.189 Y44.181 Z-2.428
X77.19 Y44.188 Z-2.828 F50.
X77.216 Y44.338 F200.
X77.225 Y44.389 Z-2.822
X77.233 Y44.436 Z-2.802
X77.24 Y44.477 Z-2.77
X77.245 Y44.508 Z-2.728
X77.249 Y44.528 Z-2.68
X77.25 Y44.535 Z-2.628
G0 Z5.
X24.651 Y44.594
Z1.056
G1 Z-2.628 F200.
X24.652 Y44.587 Z-2.68
X24.655 Y44.567 Z-2.728
X24.66 Y44.536 Z-2.77
X24.667 Y44.495 Z-2.802
X24.675 Y44.448 Z-2.822
X24.684 Y44.396 Z-2.828
X24.71 Y44.24 F50.
X24.717 Y44.2 Z-0.953 F200.
X25.088 Y42.402 Z-0.92
X25.764 Y40.067
X26.907 Y37.228
X27.115 Y36.794 F50.
X27.149 Y36.726 Z-0.685 F200.
X27.846 Y35.432 Z-0.682
X28.035 Y35.08 Z-0.681 F50.
Z-0.581 F200.
G0 Z5.
X40.753 Y23.822
Z2.032
G1 Z-0.565 F200.
X40.754 Z-0.581
X40.761 Y23.818 Z-0.681 F50.
X41.079 Y23.688 F200.
X41.449 Y23.537 F50.
Z-0.581 F200.
G0 Z5.
X73.516 Y34.327
Z2.032
G1 Z-0.569 F200.
X73.517 Z-0.581
X73.52 Y34.333 Z-0.681 F50.
X74.538 Y36.094 F200.
X74.886 Y36.775 Z-0.727
X74.897 Y36.796 Z-0.92 F50.
X75.686 Y38.56 F200.
X76.58 Y41.136
X77.226 Y43.852
X77.301 Y44.277 Z-0.985
X77.304 Y44.293 Z-2.428
X77.305 Y44.298 Z-2.828 F50.
X77.329 Y44.44 F200.
X77.337 Y44.491 Z-2.822
X77.345 Y44.538 Z-2.802
X77.352 Y44.579 Z-2.77
X77.357 Y44.61 Z-2.728
X77.36 Y44.63 Z-2.68
X77.361 Y44.637 Z-2.628
G0 Z5.
X24.54 Y44.693
Z1.056
G1 Z-2.628 F200.
X24.541 Y44.686 Z-2.68
X24.544 Y44.666 Z-2.728
X24.549 Y44.635 Z-2.77
X24.556 Y44.594 Z-2.802
X24.564 Y44.546 Z-2.822
X24.572 Y44.495 Z-2.828
X24.597 Y44.343 F50.
X24.603 Y44.307 Z-0.956 F200.
X24.75 Y43.5 Z-0.92
X25.463 Y40.688
X26.2 Y38.615
X26.873 Y37.106
X27.036 Y36.74 F50.
X27.071 Y36.671 Z-0.685 F200.
X27.742 Y35.423 Z-0.682
X27.931 Y35.071 Z-0.681 F50.
Z-0.581 F200.
G0 Z5.
X40.768 Y23.712
Z2.032
G1 Z-0.568 F200.
Z-0.581
X40.774 Y23.71 Z-0.681 F50.
X40.944 Y23.64 F200.
X41.314 Y23.488 F50.
Z-0.581 F200.
G0 Z5.
X73.612 Y34.302
Z2.032
G1 Z-0.564 F200.
X73.613 Z-0.581
X73.617 Y34.309 Z-0.681 F50.
X74.942 Y36.674 Z-0.686 F200.
X75.002 Y36.797 Z-0.92 F50.
X75.766 Y38.507 F200.
X76.522 Y40.618
X77.079 Y42.683
X77.41 Y44.353 Z-0.956
X77.417 Y44.396 Z-2.429
X77.419 Y44.408 Z-2.828 F50.
X77.44 Y44.539 F200.
X77.449 Y44.59 Z-2.822
X77.456 Y44.638 Z-2.802
X77.463 Y44.679 Z-2.77
X77.468 Y44.71 Z-2.728
X77.471 Y44.73 Z-2.68
X77.472 Y44.736 Z-2.628
G0 Z5.
X24.428 Y44.8
Z1.055
G1 Z-2.628 F200.
X24.429 Y44.793 Z-2.68
X24.433 Y44.773 Z-2.728
X24.438 Y44.742 Z-2.77
X24.444 Y44.701 Z-2.802
X24.452 Y44.653 Z-2.822
X24.46 Y44.602 Z-2.828
X24.485 Y44.446 F50.
X24.491 Y44.405 Z-0.953 F200.
X24.844 Y42.611 Z-0.92
X25.575 Y40.035
X26.714 Y37.194
X26.784 Y37.048
X26.957 Y36.688 F50.
X26.99 Y36.62 Z-0.685 F200.
X27.643 Y35.405 Z-0.682
X27.832 Y35.053 Z-0.681 F50.
Z-0.581 F200.
G0 Z5.
X40.771 Y23.608
Z2.032
G1 Z-0.568 F200.
X40.772 Z-0.581
X40.778 Y23.605 Z-0.681 F50.
X41.2 Y23.432
Y23.431 Z-0.581 F200.
Z-0.58
G0 Z5.
X73.697 Y34.267
Z2.032
G1 Z-0.572 F200.
Z-0.581
X73.7 Y34.271 Z-0.681 F50.
X74.715 Y36.036 F200.
X75.038 Y36.669 Z-0.722
X75.062 Y36.718 Z-0.92 F50.
X75.842 Y38.456 F200.
X76.766 Y41.105
X77.418 Y43.855
X77.526 Y44.477 Z-0.976
X77.53 Y44.501 Z-2.428
X77.531 Y44.508 Z-2.828 F50.
X77.553 Y44.651 F200.
X77.561 Y44.702 Z-2.822
X77.569 Y44.75 Z-2.802
X77.575 Y44.791 Z-2.77
X77.58 Y44.822 Z-2.728
X77.584 Y44.842 Z-2.68
X77.585 Y44.849 Z-2.628
G0 Z5.
X24.319 Y44.899
Z1.055
G1 Z-2.628 F200.
X24.32 Y44.892 Z-2.68
X24.323 Y44.872 Z-2.728
X24.327 Y44.841 Z-2.77
X24.334 Y44.8 Z-2.802
X24.341 Y44.752 Z-2.822
X24.349 Y44.701 Z-2.828
X24.373 Y44.548 F50.
X24.38 Y44.504 Z-0.951 F200.
X24.667 Y42.969 Z-0.92
X25.21 Y40.87
X25.824 Y39.058
X26.718 Y37.002
X26.877 Y36.635 F50.
X26.909 Y36.572 Z-0.687 F200.
X27.549 Y35.379 Z-0.683
X27.738 Y35.026 Z-0.681 F50.
Z-0.581 F200.
G0 Z5.
X40.766 Y23.507
Z2.032
G1 Z-0.565 F200.
X40.767 Z-0.581
X40.774 Y23.504 Z-0.681 F50.
X41.094 Y23.372
Z-0.581 F200.
Z-0.58
G0 Z5.
X73.782 Y34.225
Z2.032
G1 Z-0.566 F200.
X73.783 Z-0.581
X73.787 Y34.232 Z-0.681 F50.
X74.8 Y35.994 F200.
X75.115 Y36.611 Z-0.716
X75.133 Y36.648 Z-0.92 F50.
X76.111 Y38.876 F200.
X76.839 Y41.02
X77.498 Y43.768
X77.636 Y44.572 Z-0.968
X77.642 Y44.607 Z-2.429
X77.643 Y44.617 Z-2.828 F50.
X77.664 Y44.749 F200.
X77.672 Y44.801 Z-2.822
X77.679 Y44.848 Z-2.802
X77.685 Y44.889 Z-2.77
X77.69 Y44.921 Z-2.728
X77.693 Y44.94 Z-2.68
X77.694 Y44.947 Z-2.628
G0 Z5.
X24.209 Y44.998
Z1.055
G1 Z-2.628 F200.
X24.21 Y44.991 Z-2.68
X24.213 Y44.972 Z-2.728
X24.218 Y44.94 Z-2.77
X24.224 Y44.899 Z-2.802
X24.231 Y44.852 Z-2.822
X24.239 Y44.8 Z-2.828
X24.262 Y44.65 F50.
X24.267 Y44.613 Z-0.956 F200.
X24.423 Y43.703 Z-0.92
X25.079 Y40.976
X26.108 Y38.094
X26.634 Y36.942
X26.8 Y36.578 F50.
X26.83 Y36.518 Z-0.687 F200.
X27.459 Y35.345 Z-0.682
X27.648 Y34.993 Z-0.681 F50.
Z-0.581 F200.
G0 Z5.
X73.864 Y34.177
Z2.032
G1 Z-0.574 F200.
Z-0.581
X73.866 Y34.18 Z-0.681 F50.
X74.881 Y35.946 F200.
X75.191 Y36.553 Z-0.71
X75.207 Y36.585 Z-0.92 F50.
X76.191 Y38.822 F200.
X76.931 Y40.996
X77.465 Y43.12
X77.743 Y44.644 Z-0.945
X77.751 Y44.696 Z-1.019
X77.752 Y44.704 Z-2.428
X77.753 Y44.707 Z-2.828 F50.
X77.774 Y44.849 F200.
X77.782 Y44.9 Z-2.822
X77.789 Y44.947 Z-2.802
X77.795 Y44.988 Z-2.77
X77.8 Y45.02 Z-2.728
X77.803 Y45.04 Z-2.68
X77.804 Y45.046 Z-2.628
G0 Z5.
X24.099 Y45.104
Z1.055
G1 Z-2.628 F200.
X24.1 Y45.097 Z-2.68
X24.103 Y45.078 Z-2.728
X24.108 Y45.046 Z-2.77
X24.114 Y45.005 Z-2.802
X24.121 Y44.958 Z-2.822
X24.128 Y44.906 Z-2.828
X24.151 Y44.752 F50.
X24.157 Y44.711 Z-0.953 F200.
X24.416 Y43.25 Z-0.92
X25.134 Y40.472
X26.214 Y37.609
X26.551 Y36.888
X26.721 Y36.525 F50.
X26.749 Y36.468 Z-0.688 F200.
X27.373 Y35.305 Z-0.683
X27.562 Y34.953 Z-0.681 F50.
Z-0.581 F200.
G0 Z5.
X73.941 Y34.123
Z2.032
G1 Z-0.57 F200.
X73.942 Z-0.581
X73.944 Y34.127 Z-0.681 F50.
X74.96 Y35.892 F200.
X75.27 Y36.498 Z-0.708
X75.286 Y36.531 Z-0.92 F50.
X76.272 Y38.769 F200.
X77.153 Y41.432
X77.766 Y44.195
X77.858 Y44.774 Z-0.967
X77.863 Y44.808 Z-2.429
X77.865 Y44.817 Z-2.828 F50.
X77.884 Y44.953 F200.
X77.892 Y45.004 Z-2.822
X77.899 Y45.052 Z-2.802
X77.905 Y45.093 Z-2.77
X77.909 Y45.124 Z-2.728
X77.912 Y45.144 Z-2.68
X77.913 Y45.15 Z-2.628
G0 Z5.
X23.99 Y45.205
Z1.055
G1 Z-2.628 F200.
X23.991 Y45.198 Z-2.68
X23.994 Y45.178 Z-2.728
X23.999 Y45.147 Z-2.77
X24.005 Y45.106 Z-2.802
X24.011 Y45.058 Z-2.822
X24.019 Y45.007 Z-2.828
X24.041 Y44.851 F50.
X24.048 Y44.801 Z-0.947 F200.
X24.335 Y43.171 Z-0.92
X24.821 Y41.189
X25.724 Y38.533
X26.479 Y36.838
X26.641 Y36.472 F50.
X26.673 Y36.409 Z-0.686 F200.
X27.292 Y35.256 Z-0.682
X27.481 Y34.904 Z-0.681 F50.
Z-0.581 F200.
G0 Z5.
X74.019 Y34.069
Z2.032
G1 Z-0.567 F200.
X74.02 Z-0.581
X74.023 Y34.075 Z-0.681 F50.
X75.038 Y35.838 F200.
X75.348 Y36.444 Z-0.707
X75.372 Y36.491 Z-0.92 F50.
X76.352 Y38.715 F200.
X77.253 Y41.439
X77.862 Y44.202
X77.967 Y44.864 Z-0.958
X77.971 Y44.893 Z-2.429
X77.972 Y44.902 Z-2.828 F50.
X77.994 Y45.053 F200.
X78.001 Y45.104 Z-2.822
X78.008 Y45.152 Z-2.802
X78.013 Y45.193 Z-2.77
X78.018 Y45.224 Z-2.728
X78.021 Y45.244 Z-2.68
X78.022 Y45.251 Z-2.628
G0 Z5.
X23.882 Y45.304
Z1.055
G1 Z-2.628 F200.
X23.883 Y45.297 Z-2.68
X23.886 Y45.278 Z-2.728
X23.89 Y45.246 Z-2.77
X23.896 Y45.205 Z-2.802
X23.903 Y45.157 Z-2.822
X23.91 Y45.106 Z-2.828
X23.931 Y44.951 F50.
X23.939 Y44.901 Z-0.946 F200.
X24.242 Y43.156 Z-0.92
X24.947 Y40.44
X26.022 Y37.575
X26.393 Y36.782
X26.562 Y36.42 F50.
X26.59 Y36.362 Z-0.689 F200.
X27.214 Y35.201 Z-0.683
X27.404 Y34.849 Z-0.681 F50.
Y34.848 Z-0.581 F200.
Z-0.58
G0 Z5.
X74.098 Y34.015
Z2.032
G1 Z-0.579 F200.
Z-0.581
Y34.016 Z-0.681 F50.
X74.999 Y35.564 F200.
X75.431 Y36.398 Z-0.716
X75.446 Y36.428 Z-0.92 F50.
X76.613 Y39.138 F200.
X77.319 Y41.322
X77.742 Y43.059
X78.074 Y44.946 Z-0.945
X78.081 Y44.998 Z-1.019
X78.082 Y45.007 Z-2.428
X78.083 Y45.009 Z-2.828 F50.
X78.102 Y45.147 F200.
X78.109 Y45.198 Z-2.822
X78.115 Y45.246 Z-2.802
X78.121 Y45.287 Z-2.77
X78.125 Y45.318 Z-2.728
X78.128 Y45.338 Z-2.68
X78.129 Y45.345 Z-2.628
G0 Z5.
X23.776 Y45.396
Z1.055
G1 Z-2.628 F200.
X23.777 Y45.389 Z-2.68
X23.779 Y45.369 Z-2.728
X23.784 Y45.338 Z-2.77
X23.789 Y45.297 Z-2.802
X23.796 Y45.249 Z-2.822
X23.803 Y45.197 Z-2.828
X23.822 Y45.051 F50.
X23.827 Y45.016 Z-0.956 F200.
X24.005 Y43.892 Z-0.92
X24.532 Y41.527
X25.175 Y39.456
X26.353 Y36.632
X26.483 Y36.367 F50.
X26.515 Y36.302 Z-0.686 F200.
X27.138 Y35.143 Z-0.682
X27.328 Y34.791 Z-0.681 F50.
Z-0.581 F200.
G0 Z5.
X74.175 Y33.961
Z2.032
G1 Z-0.57 F200.
Z-0.581
X74.178 Y33.966 Z-0.681 F50.
X75.195 Y35.729 F200.
X75.511 Y36.346 Z-0.717
X75.529 Y36.382 Z-0.92 F50.
X76.513 Y38.607 F200.
X77.469 Y41.514
X78.065 Y44.273
X78.187 Y45.074 Z-0.967
X78.19 Y45.094 Z-2.428
Y45.1 Z-2.828 F50.
X78.21 Y45.245 F200.
X78.217 Y45.297 Z-2.822
X78.223 Y45.344 Z-2.802
X78.229 Y45.386 Z-2.77
X78.233 Y45.417 Z-2.728
X78.236 Y45.437 Z-2.68
Y45.444 Z-2.628
G0 Z5.
X23.669 Y45.49
Z1.056
G1 Z-2.628 F200.
X23.67 Y45.484 Z-2.68
X23.672 Y45.464 Z-2.728
X23.677 Y45.432 Z-2.77
X23.682 Y45.391 Z-2.802
X23.688 Y45.343 Z-2.822
X23.695 Y45.292 Z-2.828
X23.714 Y45.15 F50.
X23.721 Y45.099 Z-0.946 F200.
X24.082 Y43. Z-0.92
X24.759 Y40.408
X25.83 Y37.542
X26.234 Y36.676
X26.403 Y36.314 F50.
X26.437 Y36.246 Z-0.685 F200.
X27.065 Y35.08 Z-0.682
X27.255 Y34.728 Z-0.681 F50.
Z-0.581 F200.
G0 Z5.
X74.253 Y33.908
Z2.032
G1 Z-0.58 F200.
Z-0.581
X74.254 Z-0.681 F50.
X75.273 Y35.675 F200.
X75.589 Y36.291 Z-0.716
X75.608 Y36.328 Z-0.92 F50.
X76.593 Y38.553 F200.
X77.552 Y41.459
X78.147 Y44.186
X78.294 Y45.162 Z-0.957
X78.298 Y45.194 Z-2.429
X78.299 Y45.202 Z-2.828 F50.
X78.318 Y45.345 F200.
X78.325 Y45.396 Z-2.822
X78.331 Y45.444 Z-2.802
X78.336 Y45.485 Z-2.77
X78.34 Y45.516 Z-2.728
X78.343 Y45.536 Z-2.68
X78.344 Y45.543 Z-2.628
G0 Z5.
X23.561 Y45.6
Z1.054
G1 Z-2.628 F200.
X23.562 Y45.593 Z-2.68
X23.564 Y45.573 Z-2.728
X23.568 Y45.542 Z-2.77
X23.573 Y45.501 Z-2.802
X23.58 Y45.453 Z-2.822
X23.586 Y45.402 Z-2.828
X23.606 Y45.249 F50.
X23.612 Y45.199 Z-0.946 F200.
X23.976 Y43.046 Z-0.92
X24.517 Y40.881
X25.535 Y37.995
X26.159 Y36.624
X26.324 Y36.26 F50.
X26.36 Y36.19 Z-0.684 F200.
X26.997 Y35.009 Z-0.682
X27.187 Y34.657 Z-0.681 F50.
Z-0.581 F200.
G0 Z5.
X74.331 Y33.854
Z2.032
G1 Z-0.581 F200.
Z-0.681 F50.
X75.351 Y35.621 F200.
X75.672 Y36.245 Z-0.726
X75.686 Y36.273 Z-0.92 F50.
X76.673 Y38.499 F200.
X77.635 Y41.404
X78.147 Y43.649
X78.402 Y45.26 Z-0.956
X78.406 Y45.289 Z-2.429
X78.407 Y45.297 Z-2.828 F50.
X78.425 Y45.439 F200.
X78.431 Y45.491 Z-2.822
X78.437 Y45.539 Z-2.802
X78.442 Y45.58 Z-2.77
X78.446 Y45.611 Z-2.728
X78.449 Y45.631 Z-2.68
X78.45 Y45.638 Z-2.628
G0 Z5.
X23.455 Y45.692
Z1.055
G1 Z-2.628 F200.
X23.456 Y45.685 Z-2.68
X23.459 Y45.666 Z-2.728
X23.462 Y45.634 Z-2.77
X23.468 Y45.593 Z-2.802
X23.473 Y45.545 Z-2.822
X23.48 Y45.494 Z-2.828
X23.498 Y45.347 F50.
X23.503 Y45.31 Z-0.954 F200.
X23.726 Y43.844 Z-0.92
X24.285 Y41.355
X25.248 Y38.45
X26.175 Y36.35
X26.245 Y36.207 F50.
X26.274 Y36.15 Z-0.689 F200.
X26.933 Y34.93 Z-0.683
X27.123 Y34.578 Z-0.681 F50.
Z-0.581 F200.
G0 Z5.
X74.409 Y33.8
Z2.032
G1 Z-0.571 F200.
Z-0.581
X74.412 Y33.804 Z-0.681 F50.
X75.43 Y35.567 F200.
X75.751 Y36.191 Z-0.725
X75.765 Y36.22 Z-0.92 F50.
X76.754 Y38.445 F200.
X77.718 Y41.35
X78.231 Y43.587
X78.507 Y45.338 Z-0.943
X78.514 Y45.393 Z-1.019
X78.515 Y45.399 Z-2.428
Y45.401 Z-2.828 F50.
X78.532 Y45.543 F200.
X78.539 Y45.595 Z-2.822
X78.544 Y45.643 Z-2.802
X78.549 Y45.684 Z-2.77
X78.553 Y45.715 Z-2.728
X78.556 Y45.735 Z-2.68
X78.557 Y45.742 Z-2.628
G0 Z5.
X23.35 Y45.791
Z1.055
G1 Z-2.628 F200.
Y45.784 Z-2.68
X23.353 Y45.764 Z-2.728
X23.356 Y45.733 Z-2.77
X23.361 Y45.691 Z-2.802
X23.367 Y45.644 Z-2.822
X23.373 Y45.592 Z-2.828
X23.391 Y45.445 F50.
X23.395 Y45.41 Z-0.956 F200.
X23.589 Y44.084 Z-0.92
X24.146 Y41.497
X25.087 Y38.586
X25.997 Y36.517
X26.158 Y36.151 F50.
X26.196 Y36.077 Z-0.683 F200.
X26.87 Y34.834 Z-0.682
X27.061 Y34.482 Z-0.681 F50.
Z-0.581 F200.
G0 Z5.
X74.487 Y33.746
Z2.032
G1 Z-0.575 F200.
Z-0.581
X74.489 Y33.749 Z-0.681 F50.
X75.508 Y35.513 F200.
X75.829 Y36.137 Z-0.723
X75.843 Y36.165 Z-0.92 F50.
X76.834 Y38.391 F200.
X77.801 Y41.295
X78.371 Y43.824
X78.614 Y45.433 Z-0.941
X78.621 Y45.491 Z-1.019
X78.623 Y45.511 Z-2.428
X78.624 Y45.516 Z-2.828 F50.
X78.639 Y45.643 F200.
X78.645 Y45.694 Z-2.822
X78.65 Y45.742 Z-2.802
X78.655 Y45.783 Z-2.77
X78.659 Y45.815 Z-2.728
X78.661 Y45.835 Z-2.68
X78.662 Y45.841 Z-2.628
G0 Z5.
X23.244 Y45.889
Z1.054
G1 Z-2.628 F200.
X23.245 Y45.882 Z-2.68
X23.247 Y45.863 Z-2.728
X23.251 Y45.831 Z-2.77
X23.256 Y45.79 Z-2.802
X23.261 Y45.742 Z-2.822
X23.267 Y45.691 Z-2.828
X23.284 Y45.544 F50.
X23.29 Y45.494 Z-0.946 F200.
X23.538 Y43.822 Z-0.92
X23.928 Y41.972
X24.815 Y39.043
X26.015 Y36.228
X26.081 Y36.096 F50.
X26.113 Y36.03 Z-0.685 F200.
X26.818 Y34.734 Z-0.682
X27.009 Y34.383 Z-0.681 F50.
X27.01 Y34.382 Z-0.581 F200.
Z-0.58
G0 Z5.
X74.564 Y33.691
Z2.032
G1 Z-0.561 F200.
X74.565 Y33.692 Z-0.581
X74.57 Y33.7 Z-0.681 F50.
X75.586 Y35.459 F200.
X75.908 Y36.083 Z-0.722
X75.922 Y36.111 Z-0.92 F50.
X76.914 Y38.338 F200.
X77.884 Y41.24
X78.395 Y43.437
X78.72 Y45.526 Z-0.939
X78.727 Y45.588 Z-1.019
X78.728 Y45.597 Z-2.428
X78.729 Y45.6 Z-2.828 F50.
X78.744 Y45.732 F200.
X78.75 Y45.784 Z-2.822
X78.755 Y45.832 Z-2.802
X78.76 Y45.873 Z-2.77
X78.763 Y45.904 Z-2.728
X78.766 Y45.924 Z-2.68
Y45.931 Z-2.628
G0 Z5.
X23.139 Y45.988
Z1.054
G1 Z-2.628 F200.
X23.14 Y45.981 Z-2.68
X23.142 Y45.961 Z-2.728
X23.146 Y45.93 Z-2.77
X23.15 Y45.888 Z-2.802
X23.156 Y45.84 Z-2.822
X23.161 Y45.789 Z-2.828
X23.178 Y45.639 F50.
X23.183 Y45.599 Z-0.952 F200.
X23.472 Y43.659 Z-0.92
X24.096 Y40.965
X25.088 Y38.07
X25.837 Y36.407
X26.002 Y36.042 F50.
X26.034 Y35.978 Z-0.686 F200.
X26.774 Y34.622 Z-0.682
X26.966 Y34.27 Z-0.681 F50.
Z-0.581 F200.
G0 Z5.
X74.642 Y33.638
Z2.032
G1 Z-0.57 F200.
X74.643 Z-0.581
X74.645 Y33.642 Z-0.681 F50.
X75.665 Y35.405 F200.
X75.986 Y36.028 Z-0.72
X76. Y36.057 Z-0.92 F50.
X76.995 Y38.284 F200.
X77.966 Y41.186
X78.487 Y43.416
X78.826 Y45.619 Z-0.937
X78.833 Y45.685 Z-1.019
Y45.687 Z-2.428
X78.834 Y45.688 Z-2.828 F50.
X78.849 Y45.829 F200.
X78.855 Y45.88 Z-2.822
X78.86 Y45.928 Z-2.802
X78.864 Y45.969 Z-2.77
X78.868 Y46.001 Z-2.728
X78.87 Y46.021 Z-2.68
X78.871 Y46.027 Z-2.628
G0 Z5.
X23.036 Y46.078
Z1.054
G1 Z-2.628 F200.
X23.037 Y46.072 Z-2.68
X23.039 Y46.052 Z-2.728
X23.042 Y46.02 Z-2.77
X23.046 Y45.979 Z-2.802
X23.052 Y45.931 Z-2.822
X23.057 Y45.88 Z-2.828
X23.073 Y45.736 F50.
X23.078 Y45.689 Z-0.948 F200.
X23.368 Y43.706 Z-0.92
X23.869 Y41.437
X24.807 Y38.524
X25.827 Y36.183
X25.923 Y35.988 F50.
X25.953 Y35.927 Z-0.687 F200.
X26.74 Y34.492 Z-0.682
X26.932 Y34.142 Z-0.681 F50.
Z-0.581 F200.
G0 Z5.
X74.72 Y33.584
Z2.032
G1 Z-0.567 F200.
X74.721 Z-0.581
X74.724 Y33.59 Z-0.681 F50.
X75.743 Y35.351 F200.
X76.065 Y35.974 Z-0.719
X76.079 Y36.003 Z-0.92 F50.
X77.075 Y38.23 F200.
X78.049 Y41.131
X78.693 Y44.028
X78.935 Y45.747 Z-0.956
X78.938 Y45.78 Z-2.429
X78.939 Y45.788 Z-2.828 F50.
X78.953 Y45.919 F200.
X78.959 Y45.971 Z-2.822
X78.964 Y46.019 Z-2.802
X78.968 Y46.06 Z-2.77
X78.971 Y46.092 Z-2.728
X78.974 Y46.112 Z-2.68
Y46.118 Z-2.628
G0 Z5.
X22.932 Y46.177
Z1.054
G1 Z-2.628 F200.
X22.933 Y46.17 Z-2.68
X22.935 Y46.151 Z-2.728
X22.938 Y46.119 Z-2.77
X22.942 Y46.078 Z-2.802
X22.947 Y46.03 Z-2.822
X22.952 Y45.978 Z-2.828
X22.967 Y45.832 F50.
X22.973 Y45.782 Z-0.945 F200.
X23.2 Y44.121 Z-0.92
X23.777 Y41.416
X24.367 Y39.463
X25.299 Y37.089
X25.673 Y36.297
X25.844 Y35.935 F50.
X25.872 Y35.878 Z-0.688 F200.
X26.72 Y34.34 Z-0.682
X26.913 Y33.989 Z-0.681 F50.
Z-0.581 F200.
G0 Z5.
X74.798 Y33.53
Z2.032
G1 Z-0.578 F200.
Z-0.581
X74.799 Y33.531 Z-0.681 F50.
X75.821 Y35.296 F200.
X76.143 Y35.919 Z-0.717
X76.157 Y35.948 Z-0.92 F50.
X77.155 Y38.176 F200.
X78.062 Y40.831
X78.571 Y42.875
X79.02 Y45.66
X79.044 Y45.877 Z-1.019
Y45.881 Z-2.428
Y45.882 Z-2.828 F50.
X79.059 Y46.025 F200.
X79.064 Y46.077 Z-2.822
X79.069 Y46.125 Z-2.802
X79.073 Y46.166 Z-2.77
X79.076 Y46.198 Z-2.728
X79.078 Y46.217 Z-2.68
X79.079 Y46.224 Z-2.628
G0 Z5.
X22.829 Y46.268
Z1.054
G1 Z-2.628 F200.
X22.83 Y46.261 Z-2.68
X22.832 Y46.241 Z-2.728
X22.835 Y46.21 Z-2.77
X22.839 Y46.168 Z-2.802
X22.844 Y46.12 Z-2.822
X22.849 Y46.069 Z-2.828
X22.863 Y45.927 F50.
X22.867 Y45.886 Z-0.951 F200.
X23.107 Y44.11 Z-0.92
X23.684 Y41.396
X24.274 Y39.442
X25.205 Y37.068
X25.592 Y36.247
X25.763 Y35.885 F50.
X25.799 Y35.814 Z-0.684 F200.
X26.715 Y34.163 Z-0.682
X26.91 Y33.813 Z-0.681 F50.
X26.92 Y33.796
Z-0.581 F200.
G0 Z5.
X74.872 Y33.47
Z2.032
G1 Z-0.576 F200.
Z-0.581
X74.873 Y33.472 Z-0.681 F50.
X75.896 Y35.235 F200.
X76.225 Y35.871 Z-0.724
X76.236 Y35.894 Z-0.92 F50.
X77.042 Y37.65 F200.
X77.764 Y39.559
X78.411 Y41.761
X78.951 Y44.436
X79.143 Y45.919 Z-0.943
X79.148 Y45.973 Z-1.019
X79.15 Y45.992 Z-2.428
X79.151 Y45.998 Z-2.828 F50.
X79.162 Y46.117 F200.
X79.167 Y46.168 Z-2.822
X79.172 Y46.216 Z-2.802
X79.176 Y46.258 Z-2.77
X79.179 Y46.289 Z-2.728
X79.181 Y46.309 Z-2.68
Y46.316 Z-2.628
G0 Z5.
X22.726 Y46.367
Z1.054
G1 Z-2.628 F200.
X22.727 Y46.36 Z-2.68
X22.729 Y46.34 Z-2.728
X22.732 Y46.308 Z-2.77
X22.735 Y46.267 Z-2.802
X22.74 Y46.219 Z-2.822
X22.745 Y46.168 Z-2.828
X22.759 Y46.024 F50.
X22.763 Y45.982 Z-0.951 F200.
X23.013 Y44.099 Z-0.92
X23.6 Y41.345
X24.35 Y38.941
X25.111 Y37.047
X25.513 Y36.194
X25.684 Y35.832 F50.
X25.721 Y35.759 Z-0.684 F200.
X26.848 Y33.733 Z-0.681
X26.915 Y33.623 F50.
Z-0.581 F200.
G0 Z5.
X74.941 Y33.402
Z2.032
G1 Z-0.572 F200.
Z-0.581
X74.944 Y33.406 Z-0.681 F50.
X75.966 Y35.167 F200.
X76.304 Y35.818 Z-0.725
X76.318 Y35.847 Z-0.92 F50.
X77.122 Y37.596 F200.
X77.845 Y39.505
X78.494 Y41.707
X79.044 Y44.42
X79.247 Y46.018 Z-0.945
X79.252 Y46.068 Z-2.429
X79.253 Y46.082 Z-2.828 F50.
X79.266 Y46.213 F200.
X79.27 Y46.264 Z-2.822
X79.275 Y46.312 Z-2.802
X79.279 Y46.353 Z-2.77
X79.282 Y46.385 Z-2.728
X79.284 Y46.405 Z-2.68
Y46.412 Z-2.628
G0 Z5.
X22.624 Y46.457
Z1.054
G1 Z-2.628 F200.
X22.625 Y46.451 Z-2.68
X22.626 Y46.431 Z-2.728
X22.629 Y46.399 Z-2.77
X22.633 Y46.358 Z-2.802
X22.637 Y46.31 Z-2.822
X22.642 Y46.258 Z-2.828
X22.655 Y46.119 F50.
X22.66 Y46.069 Z-0.946 F200.
X22.934 Y43.997 Z-0.92
X23.5 Y41.356
X24.089 Y39.402
X25.017 Y37.026
X25.434 Y36.14
X25.605 Y35.778 F50.
X25.638 Y35.712 Z-0.686 F200.
X26.769 Y33.68 Z-0.681
X26.863 Y33.528 F50.
Z-0.581 F200.
G0 Z5.
X75.005 Y33.327
Z2.032
G1 Z-0.563 F200.
X75.006 Z-0.581
X75.011 Y33.335 Z-0.681 F50.
X76.355 Y35.709 Z-0.683 F200.
X76.421 Y35.841 Z-0.92 F50.
X77.202 Y37.542 F200.
X78.086 Y39.935
X78.639 Y41.899
X79.165 Y44.594
X79.351 Y46.116 Z-0.947
X79.356 Y46.168 Z-2.429
X79.357 Y46.182 Z-2.828 F50.
X79.368 Y46.304 F200.
X79.373 Y46.355 Z-2.822
X79.377 Y46.403 Z-2.802
X79.381 Y46.445 Z-2.77
X79.384 Y46.476 Z-2.728
X79.385 Y46.496 Z-2.68
X79.386 Y46.503 Z-2.628
G0 Z5.
X22.522 Y46.556
Z1.053
G1 Z-2.628 F200.
Y46.55 Z-2.68
X22.524 Y46.53 Z-2.728
X22.527 Y46.498 Z-2.77
X22.53 Y46.457 Z-2.802
X22.535 Y46.409 Z-2.822
X22.539 Y46.357 Z-2.828
X22.552 Y46.211 F50.
X22.555 Y46.174 Z-0.954 F200.
X22.677 Y45.086 Z-0.92
X23.166 Y42.327
X23.836 Y39.866
X24.871 Y37.122
X25.356 Y36.087
X25.526 Y35.725 F50.
X25.561 Y35.655 Z-0.685 F200.
X26.691 Y33.627 Z-0.681
X26.81 Y33.432 F50.
X26.811 Z-0.581 F200.
Z-0.58
G0 Z5.
X75.105 Y33.307
Z2.032
G1 Z-0.565 F200.
X75.106 Y33.308 Z-0.581
X75.11 Y33.315 Z-0.681 F50.
X76.444 Y35.676 Z-0.691 F200.
X76.472 Y35.731 Z-0.92 F50.
X77.282 Y37.489 F200.
X78.245 Y40.124
X78.978 Y42.981
X79.394 Y45.615
X79.457 Y46.234 Z-0.967
X79.46 Y46.268 Z-2.429
Y46.277 Z-2.828 F50.
X79.471 Y46.401 F200.
X79.475 Y46.452 Z-2.822
X79.48 Y46.5 Z-2.802
X79.483 Y46.541 Z-2.77
X79.486 Y46.573 Z-2.728
X79.488 Y46.593 Z-2.68
Y46.6 Z-2.628
G0 Z5.
X22.42 Y46.647
Z1.052
G1 Z-2.628 F200.
X22.421 Y46.64 Z-2.68
X22.423 Y46.62 Z-2.728
X22.425 Y46.589 Z-2.77
X22.429 Y46.548 Z-2.802
X22.433 Y46.499 Z-2.822
X22.437 Y46.448 Z-2.828
X22.449 Y46.305 F50.
X22.452 Y46.265 Z-0.951 F200.
X22.672 Y44.443 Z-0.92
X23.19 Y41.81
X23.903 Y39.361
X24.739 Y37.189
X25.278 Y36.034
X25.447 Y35.672 F50.
X25.476 Y35.615 Z-0.688 F200.
X26.562 Y33.686 Z-0.682
X26.758 Y33.337 Z-0.681 F50.
Z-0.581 F200.
G0 Z5.
X75.209 Y33.295
Z2.032
G1 Z-0.564 F200.
X75.21 Y33.296 Z-0.581
X75.214 Y33.303 Z-0.681 F50.
X76.518 Y35.613 Z-0.686 F200.
X76.558 Y35.693 Z-0.92 F50.
X77.765 Y38.442 F200.
X78.402 Y40.314
X79.12 Y43.211
X79.488 Y45.603
X79.559 Y46.321 Z-0.96
X79.562 Y46.356 Z-2.429
X79.563 Y46.365 Z-2.828 F50.
X79.573 Y46.492 F200.
X79.577 Y46.544 Z-2.822
X79.581 Y46.592 Z-2.802
X79.585 Y46.633 Z-2.77
X79.587 Y46.665 Z-2.728
X79.589 Y46.685 Z-2.68
Y46.692 Z-2.628
G0 Z5.
X22.32 Y46.73
Z1.049
G1 Z-2.628 F200.
X22.321 Y46.723 Z-2.68
X22.322 Y46.703 Z-2.728
X22.325 Y46.672 Z-2.77
X22.328 Y46.63 Z-2.802
X22.332 Y46.582 Z-2.822
X22.336 Y46.531 Z-2.828
X22.347 Y46.397 F50.
X22.35 Y46.357 Z-0.95 F200.
X22.489 Y45.063 Z-0.92
X22.981 Y42.286
X23.69 Y39.704
X24.34 Y37.904
X25.202 Y35.987
X25.366 Y35.623 F50.
X25.4 Y35.555 Z-0.685 F200.
X26.509 Y33.591 Z-0.682
X26.706 Y33.242 Z-0.681 F50.
Z-0.581 F200.
G0 Z5.
X75.31 Y33.278
Z2.032
G1 Z-0.681 F200.
X76.456 Y35.285
X76.62 Y35.606 Z-0.725
X76.63 Y35.626 Z-0.92 F50.
X77.823 Y38.33 F200.
X78.484 Y40.26
X79.21 Y43.182
X79.633 Y46.099
X79.662 Y46.427 Z-0.983
X79.664 Y46.444 Z-2.428
Y46.449 Z-2.828 F50.
X79.673 Y46.56 F200.
X79.677 Y46.612 Z-2.822
X79.681 Y46.66 Z-2.802
X79.684 Y46.701 Z-2.77
X79.686 Y46.733 Z-2.728
X79.688 Y46.753 Z-2.68
X79.689 Y46.76 Z-2.628
G0 Z5.
X22.222 Y46.789
Z1.048
G1 Z-2.628 F200.
Y46.782 Z-2.68
X22.224 Y46.763 Z-2.728
X22.226 Y46.731 Z-2.77
X22.229 Y46.69 Z-2.802
X22.233 Y46.641 Z-2.822
X22.237 Y46.59 Z-2.828
X22.246 Y46.472 F50.
X22.249 Y46.431 Z-0.946 F200.
X22.485 Y44.42 Z-0.92
X23.006 Y41.769
X23.637 Y39.562
X24.439 Y37.411
X25.116 Y35.94
X25.284 Y35.576 F50.
X25.318 Y35.509 Z-0.686 F200.
X26.584 Y33.26 Z-0.681
X26.654 Y33.147 F50.
Z-0.581 F200.
Z-0.58
G0 Z5.
X75.401 Y33.246
Z2.032
G1 Z-0.681 F200.
X76.557 Y35.275
X76.699 Y35.552 Z-0.722
X76.71 Y35.573 Z-0.92 F50.
X77.904 Y38.277 F200.
X78.711 Y40.696
X79.335 Y43.334
X79.675 Y45.58
X79.761 Y46.48 Z-0.962
X79.764 Y46.522 Z-2.429
X79.765 Y46.533 Z-2.828 F50.
X79.771 Y46.61 F200.
X79.775 Y46.661 Z-2.822
X79.779 Y46.709 Z-2.802
X79.782 Y46.751 Z-2.77
X79.784 Y46.782 Z-2.728
X79.786 Y46.802 Z-2.68
Y46.809 Z-2.628
G0 Z5.
X22.124 Y46.84
Z1.047
G1 Z-2.628 F200.
Y46.834 Z-2.68
X22.126 Y46.814 Z-2.728
X22.128 Y46.782 Z-2.77
X22.131 Y46.741 Z-2.802
X22.135 Y46.693 Z-2.822
X22.139 Y46.641 Z-2.828
X22.147 Y46.531 F50.
X22.151 Y46.48 Z-0.938 F200.
X22.41 Y44.283 Z-0.92
X22.913 Y41.749
X23.544 Y39.542
X24.346 Y37.39
X25.038 Y35.885
X25.205 Y35.522 F50.
X25.239 Y35.456 Z-0.685 F200.
X26.503 Y33.21 Z-0.681
X26.602 Y33.052 F50.
Z-0.581 F200.
G0 Z5.
X75.489 Y33.207
Z2.032
G1 Z-0.567 F200.
Z-0.581
X75.493 Y33.214 Z-0.681 F50.
X76.625 Y35.2 F200.
X76.782 Y35.506 Z-0.732
X76.792 Y35.528 Z-0.92 F50.
X77.647 Y37.381 F200.
X78.451 Y39.531
X79.085 Y41.737
X79.611 Y44.388
X79.858 Y46.51 Z-0.941
X79.862 Y46.569 Z-2.429
X79.864 Y46.585 Z-2.828 F50.
X79.869 Y46.66 F200.
X79.873 Y46.711 Z-2.822
X79.876 Y46.76 Z-2.802
X79.88 Y46.801 Z-2.77
X79.882 Y46.833 Z-2.728
X79.883 Y46.852 Z-2.68
X79.884 Y46.859 Z-2.628
G0 Z5.
X22.027 Y46.884
Z1.045
G1 Z-2.628 F200.
Y46.877 Z-2.68
X22.029 Y46.857 Z-2.728
X22.031 Y46.825 Z-2.77
X22.034 Y46.784 Z-2.802
X22.038 Y46.736 Z-2.822
X22.041 Y46.684 Z-2.828
X22.049 Y46.576 F50.
X22.053 Y46.528 Z-0.938 F200.
X22.317 Y44.272 Z-0.92
X22.821 Y41.729
X23.451 Y39.521
X24.252 Y37.37
X24.957 Y35.836
X25.124 Y35.472 F50.
X25.153 Y35.415 Z-0.688 F200.
X26.423 Y33.16 Z-0.681
X26.55 Y32.958 F50.
Z-0.581 F200.
G0 Z5.
X58.277 Y20.301
Z2.
G1 Z-0.563 F200.
X58.278 Z-0.581
X58.286 Y20.303 Z-0.681 F50.
X58.639 Y20.399
Z-0.581 F200.
G0 Z5.
X75.582 Y33.171
Z2.032
G1 Z-0.565 F200.
Z-0.581
X75.587 Y33.178 Z-0.681 F50.
X76.634 Y35.004 F200.
X76.861 Y35.445 Z-0.721
X76.875 Y35.471 Z-0.92 F50.
X77.882 Y37.694 F200.
X78.733 Y40.099
X79.473 Y43.051
X79.862 Y45.558
X79.957 Y46.574 Z-0.963
X79.959 Y46.594 Z-2.428
Y46.6 Z-2.828 F50.
X79.966 Y46.691 F200.
X79.97 Y46.743 Z-2.822
X79.973 Y46.791 Z-2.802
X79.976 Y46.832 Z-2.77
X79.978 Y46.864 Z-2.728
X79.98 Y46.884 Z-2.68
Y46.891 Z-2.628
G0 Z5.
X21.931 Y46.911
Z1.044
G1 Z-2.628 F200.
Y46.904 Z-2.68
X21.933 Y46.884 Z-2.728
X21.935 Y46.853 Z-2.77
X21.938 Y46.811 Z-2.802
X21.941 Y46.763 Z-2.822
X21.945 Y46.711 Z-2.828
X21.952 Y46.609 F50.
X21.955 Y46.567 Z-0.94 F200.
X22.199 Y44.418 Z-0.92
X22.729 Y41.709
X23.359 Y39.501
X24.158 Y37.349
X24.877 Y35.786
X25.044 Y35.422 F50.
X25.077 Y35.356 Z-0.685 F200.
X26.342 Y33.111 Z-0.681
X26.498 Y32.863 F50.
Z-0.581 F200.
Z-0.58
G0 Z5.
X58.263 Y20.199
Z1.978
G1 Z-0.571 F200.
X58.264 Z-0.581
X58.268 Y20.2 Z-0.681 F50.
X58.719 Y20.323
X58.72 Z-0.581 F200.
Z-0.58
G0 Z5.
X67.695 Y24.641
Z2.032
G1 Z-0.564 F200.
X67.696 Z-0.581
X67.702 Y24.646 Z-0.681 F50.
X68.064 Y24.909
Z-0.581 F200.
G0 Z5.
X70.116 Y26.568
Z2.032
G1 Z-0.569 F200.
Z-0.581
X70.121 Y26.572 Z-0.681 F50.
X70.366 Y26.792
Z-0.581 F200.
G0 Z5.
X75.671 Y33.135
Z2.032
G1 Z-0.549 F200.
X75.673 Y33.137 Z-0.581
X75.681 Y33.151 Z-0.681 F50.
X76.83 Y35.176 F200.
X76.946 Y35.403 Z-0.741
X76.955 Y35.42 Z-0.92 F50.
X78.104 Y37.997 F200.
X79.029 Y40.776
X79.694 Y43.726
X80.008 Y46.054
X80.054 Y46.61 Z-0.974
X80.057 Y46.641 Z-2.429
Y46.649 Z-2.828 F50.
X80.062 Y46.721 F200.
X80.066 Y46.773 Z-2.822
X80.069 Y46.821 Z-2.802
X80.072 Y46.862 Z-2.77
X80.075 Y46.894 Z-2.728
X80.076 Y46.914 Z-2.68
Y46.921 Z-2.628
G0 Z5.
X21.835 Y46.93
Z1.044
G1 Z-2.628 F200.
X21.836 Y46.924 Z-2.68
X21.837 Y46.904 Z-2.728
X21.839 Y46.872 Z-2.77
X21.842 Y46.831 Z-2.802
X21.846 Y46.782 Z-2.822
X21.849 Y46.731 Z-2.828
X21.856 Y46.633 F50.
X21.859 Y46.597 Z-0.944 F200.
X22.069 Y44.659 Z-0.92
X22.652 Y41.626
X23.514 Y38.756
X24.473 Y36.393
X24.788 Y35.736
X24.962 Y35.375 F50.
X24.999 Y35.302 Z-0.683 F200.
X26.248 Y33.116 Z-0.681
X26.446 Y32.769 F50.
Z-0.581 F200.
G0 Z5.
X58.247 Y20.097
Z1.951
G1 Z-0.549 F200.
X58.25 Z-0.581
X58.266 Y20.102 Z-0.681 F50.
X58.414 Y20.142 F200.
X58.8 Y20.247 F50.
Z-0.581 F200.
G0 Z5.
X70.176 Y26.494
Z2.032
G1 Z-0.578 F200.
Z-0.581
X70.177 Y26.495 Z-0.681 F50.
X70.435 Y26.726
Z-0.581 F200.
G0 Z5.
X75.76 Y33.099
Z2.032
G1 Z-0.571 F200.
Y33.1 Z-0.581
X75.763 Y33.104 Z-0.681 F50.
X76.999 Y35.298 Z-0.687 F200.
X77.036 Y35.37 Z-0.92 F50.
X78.219 Y38.033 F200.
X79.12 Y40.751
X79.684 Y43.151
X80.101 Y46.042
X80.15 Y46.627 Z-0.969
X80.151 Y46.64 Z-2.428
Y46.644 Z-2.828 F50.
X80.158 Y46.737 F200.
X80.161 Y46.789 Z-2.822
X80.165 Y46.837 Z-2.802
X80.168 Y46.878 Z-2.77
X80.17 Y46.91 Z-2.728
X80.171 Y46.93 Z-2.68
X80.172 Y46.937 Z-2.628
G0 Z5.
X21.74 Y46.942
Z1.044
G1 Z-2.628 F200.
X21.741 Y46.935 Z-2.68
X21.742 Y46.915 Z-2.728
X21.744 Y46.883 Z-2.77
X21.747 Y46.842 Z-2.802
X21.75 Y46.794 Z-2.822
X21.754 Y46.742 Z-2.828
X21.761 Y46.648 F50.
X21.764 Y46.608 Z-0.94 F200.
X21.98 Y44.617 Z-0.92
X22.485 Y41.916
X23.315 Y39.037
X24.378 Y36.372
X24.706 Y35.689
X24.879 Y35.329 F50.
X24.916 Y35.256 Z-0.685 F200.
X26.317 Y32.796 Z-0.681
X26.394 Y32.674 F50.
Z-0.581 F200.
G0 Z5.
X58.233 Y19.995
Z1.924
G1 Z-0.546 F200.
X58.236 Y19.996 Z-0.581
X58.298 Y20.012 Z-0.681 F50.
X58.495 Y20.066 F200.
X58.881 Y20.171 F50.
Y20.172 Z-0.581 F200.
Z-0.58
G0 Z5.
X70.235 Y26.419
Z2.032
G1 Z-0.569 F200.
Y26.42 Z-0.581
X70.24 Y26.424 Z-0.681 F50.
X70.505 Y26.661
Z-0.581 F200.
G0 Z5.
X75.845 Y33.056
Z2.032
G1 Z-0.566 F200.
Y33.057 Z-0.581
X75.849 Y33.063 Z-0.681 F50.
X76.966 Y35.026 F200.
X77.106 Y35.3 Z-0.745
X77.115 Y35.318 Z-0.92 F50.
X78.197 Y37.718 F200.
X79.163 Y40.555
X79.817 Y43.344
X80.195 Y46.031
X80.245 Y46.635 Z-0.964
X80.247 Y46.66 Z-2.428
Y46.667 Z-2.828 F50.
X80.253 Y46.746 F200.
X80.256 Y46.798 Z-2.822
X80.26 Y46.846 Z-2.802
X80.263 Y46.887 Z-2.77
X80.265 Y46.919 Z-2.728
X80.266 Y46.939 Z-2.68
X80.267 Y46.946 Z-2.628
G0 Z5.
X21.645 Y46.953
Z1.042
G1 Z-2.628 F200.
X21.646 Y46.946 Z-2.68
X21.647 Y46.926 Z-2.728
X21.649 Y46.895 Z-2.77
X21.652 Y46.853 Z-2.802
X21.655 Y46.805 Z-2.822
X21.659 Y46.754 Z-2.828
X21.666 Y46.654 F50.
X21.669 Y46.605 Z-0.934 F200.
X21.942 Y44.227 Z-0.92
X22.483 Y41.524
X23.349 Y38.655
X24.5 Y35.888
X24.624 Y35.635
X24.8 Y35.276 F50.
X24.83 Y35.216 Z-0.687 F200.
X26.236 Y32.747 Z-0.681
X26.343 Y32.58 F50.
Z-0.581 F200.
G0 Z5.
X58.223 Y19.894
Z1.895
G1 Z-0.565 F200.
Z-0.581
X58.231 Y19.896 Z-0.681 F50.
X58.575 Y19.99 F200.
X58.961 Y20.096 F50.
Z-0.581 F200.
G0 Z5.
X70.332 Y26.379
Z2.032
G1 Z-0.566 F200.
Z-0.581
X70.338 Y26.384 Z-0.681 F50.
X70.579 Y26.6
Z-0.581 F200.
G0 Z5.
X75.926 Y33.007
Z2.032
G1 Z-0.577 F200.
Z-0.581
X75.927 Y33.009 Z-0.681 F50.
X77.117 Y35.114 F200.
X77.188 Y35.253 Z-0.756
X77.194 Y35.264 Z-0.92 F50.
X78.308 Y37.742 F200.
X79.268 Y40.581
X79.951 Y43.553
X80.333 Y46.555
X80.341 Y46.654 Z-1.02
Y46.655 Z-2.428
Z-2.828 F50.
X80.347 Y46.751 F200.
X80.351 Y46.802 Z-2.822
X80.354 Y46.85 Z-2.802
X80.357 Y46.892 Z-2.77
X80.36 Y46.923 Z-2.728
X80.361 Y46.943 Z-2.68
Y46.95 Z-2.628
G0 Z5.
X21.551 Y46.949
Z1.042
G1 Z-2.628 F200.
X21.552 Y46.942 Z-2.68
X21.553 Y46.922 Z-2.728
X21.555 Y46.89 Z-2.77
X21.558 Y46.849 Z-2.802
X21.561 Y46.801 Z-2.822
X21.565 Y46.749 Z-2.828
X21.572 Y46.652 F50.
X21.574 Y46.613 Z-0.94 F200.
X21.792 Y44.594 Z-0.92
X22.301 Y41.876
X23.13 Y38.996
X24.19 Y36.33
X24.546 Y35.587
X24.719 Y35.226 F50.
X24.748 Y35.169 Z-0.688 F200.
X26.018 Y32.915 Z-0.681
X26.077 Y32.823
X26.291 Y32.485 F50.
Z-0.581 F200.
G0 Z5.
X58.211 Y19.793
Z1.862
G1 Z-0.571 F200.
X58.212 Z-0.581
X58.216 Y19.794 Z-0.681 F50.
X58.656 Y19.915 F200.
X59.042 Y20.02 F50.
Z-0.581 F200.
G0 Z5.
X76.001 Y32.95
Z2.032
G1 Z-0.57 F200.
X76.002 Z-0.581
X76.005 Y32.955 Z-0.681 F50.
X77.248 Y35.162 Z-0.695 F200.
X77.276 Y35.218 Z-0.92 F50.
X78.434 Y37.804 F200.
X79.393 Y40.676
X80.044 Y43.537
X80.427 Y46.549
X80.435 Y46.649 Z-1.017
X80.436 Y46.67 Z-2.428
X80.437 Y46.676 Z-2.828 F50.
X80.442 Y46.747 F200.
X80.445 Y46.799 Z-2.822
X80.449 Y46.847 Z-2.802
X80.451 Y46.888 Z-2.77
X80.454 Y46.92 Z-2.728
X80.455 Y46.94 Z-2.68
Y46.947 Z-2.628
G0 Z5.
X21.457 Y46.936
Z1.043
G1 Z-2.628 F200.
X21.458 Y46.929 Z-2.68
X21.459 Y46.909 Z-2.728
X21.462 Y46.878 Z-2.77
X21.464 Y46.836 Z-2.802
X21.468 Y46.788 Z-2.822
X21.471 Y46.737 Z-2.828
X21.478 Y46.643 F50.
X21.481 Y46.601 Z-0.939 F200.
X21.708 Y44.52 Z-0.92
X22.299 Y41.484
X23.179 Y38.569
X24.311 Y35.846
X24.46 Y35.54
X24.636 Y35.181 F50.
X24.67 Y35.115 Z-0.686 F200.
X25.937 Y32.868 Z-0.681
X26.025 Y32.729
X26.239 Y32.391 F50.
Z-0.581 F200.
G0 Z5.
X58.196 Y19.691
Z1.823
G1 Z-0.57 F200.
X58.197 Z-0.581
X58.202 Y19.693 Z-0.681 F50.
X58.736 Y19.839 F200.
X59.122 Y19.944 F50.
Z-0.581 F200.
G0 Z5.
X76.074 Y32.887
Z2.032
G1 Z-0.58 F200.
Z-0.581
Z-0.681 F50.
X77.327 Y35.108 Z-0.692 F200.
X77.352 Y35.158 Z-0.92 F50.
X78.55 Y37.843 F200.
X79.455 Y40.549
X80.084 Y43.234
X80.475 Y45.997
X80.527 Y46.614 Z-0.959
X80.53 Y46.654 Z-2.429
Y46.664 Z-2.828 F50.
X80.535 Y46.728 F200.
X80.538 Y46.779 Z-2.822
X80.542 Y46.828 Z-2.802
X80.545 Y46.869 Z-2.77
X80.547 Y46.901 Z-2.728
X80.548 Y46.92 Z-2.68
X80.549 Y46.927 Z-2.628
G0 Z5.
X21.364 Y46.924
Z1.042
G1 Z-2.628 F200.
Y46.917 Z-2.68
X21.366 Y46.897 Z-2.728
X21.368 Y46.865 Z-2.77
X21.371 Y46.824 Z-2.802
X21.374 Y46.776 Z-2.822
X21.378 Y46.724 Z-2.828
X21.385 Y46.625 F50.
X21.388 Y46.579 Z-0.936 F200.
X21.661 Y44.193 Z-0.92
X22.237 Y41.34
X23.113 Y38.474
X24.216 Y35.825
X24.378 Y35.493
X24.554 Y35.134 F50.
X24.591 Y35.061 Z-0.684 F200.
X25.589 Y33.255 Z-0.681
X25.976 Y32.636
X26.188 Y32.297 F50.
Z-0.581 F200.
Z-0.58
G0 Z5.
X58.187 Y19.591
Z1.798
G1 Z-0.571 F200.
Z-0.581
X58.192 Y19.592 Z-0.681 F50.
X58.816 Y19.763 F200.
X59.202 Y19.869 F50.
Z-0.581 F200.
G0 Z5.
X76.142 Y32.817
Z2.032
G1 Z-0.576 F200.
Z-0.581
X76.143 Y32.819 Z-0.681 F50.
X77.161 Y34.585 F200.
X77.425 Y35.092 Z-0.725
X77.435 Y35.113 Z-0.92 F50.
X78.493 Y37.442 F200.
X79.492 Y40.335
X80.187 Y43.271
X80.569 Y45.985
X80.62 Y46.601 Z-0.973
X80.621 Y46.617 Z-2.428
X80.622 Y46.621 Z-2.828 F50.
X80.628 Y46.708 F200.
X80.631 Y46.76 Z-2.822
X80.635 Y46.808 Z-2.802
X80.638 Y46.849 Z-2.77
X80.64 Y46.881 Z-2.728
X80.641 Y46.901 Z-2.68
X80.642 Y46.908 Z-2.628
G0 Z5.
X21.271 Y46.895
Z1.044
G1 Z-2.628 F200.
X21.272 Y46.888 Z-2.68
X21.273 Y46.869 Z-2.728
X21.275 Y46.837 Z-2.77
X21.278 Y46.795 Z-2.802
X21.282 Y46.747 Z-2.822
X21.285 Y46.696 Z-2.828
X21.292 Y46.598 F50.
X21.295 Y46.561 Z-0.942 F200.
X21.568 Y44.182 Z-0.92
X22.084 Y41.567
X22.79 Y39.116
X23.803 Y36.5
X24.302 Y35.445
X24.473 Y35.084 F50.
X24.508 Y35.016 Z-0.685 F200.
X25.507 Y33.208 Z-0.681
X25.924 Y32.542
X26.136 Y32.203 F50.
Z-0.581 F200.
Y32.202 Z-0.58
G0 Z5.
X58.176 Y19.49
Z1.798
G1 Z-0.571 F200.
X58.177 Z-0.581
X58.182 Y19.491 Z-0.681 F50.
X58.897 Y19.688 F200.
X59.282 Y19.794 F50.
Z-0.581 F200.
G0 Z5.
X76.209 Y32.747
Z2.032
G1 Z-0.57 F200.
Z-0.581
X76.212 Y32.752 Z-0.681 F50.
X77.23 Y34.514 F200.
X77.505 Y35.043 Z-0.724
X77.517 Y35.066 Z-0.92 F50.
X78.721 Y37.761 F200.
X79.666 Y40.601
X80.345 Y43.615
X80.707 Y46.501 Z-0.922
X80.713 Y46.582 Z-1.016
X80.715 Y46.602 Z-2.428
Y46.608 Z-2.828 F50.
X80.72 Y46.679 F200.
X80.724 Y46.731 Z-2.822
X80.727 Y46.779 Z-2.802
X80.73 Y46.82 Z-2.77
X80.732 Y46.852 Z-2.728
X80.734 Y46.872 Z-2.68
Y46.879 Z-2.628
G0 Z5.
X21.179 Y46.867
Z1.044
G1 Z-2.628 F200.
Y46.86 Z-2.68
X21.181 Y46.84 Z-2.728
X21.183 Y46.808 Z-2.77
X21.186 Y46.767 Z-2.802
X21.189 Y46.719 Z-2.822
X21.193 Y46.667 Z-2.828
X21.2 Y46.563 F50.
X21.203 Y46.524 Z-0.942 F200.
X21.474 Y44.17 Z-0.92
X21.992 Y41.547
X22.697 Y39.096
X23.709 Y36.479
X24.22 Y35.399
X24.391 Y35.037 F50.
X24.424 Y34.972 Z-0.686 F200.
X25.426 Y33.16 Z-0.681
X25.872 Y32.448
X26.084 Y32.109 F50.
Z-0.581 F200.
G0 Z5.
X58.163 Y19.389
Z1.799
G1 Z-0.574 F200.
Z-0.581
X58.167 Y19.39 Z-0.681 F50.
