(1001)
(T1  D=3.175 CR=0. - ZMIN=-2.928 - FLAT END MILL)
G0 G90 G94 G17
G21
G53 G0 Z0.

(3.175MM  FLATEND  POCKET)
M5
M9
T1
S16500 M3
G4 P4.
G55
G0 X56.429 Y77.531
Z15.
Z1.8
G1 Z0. F17.
X46.263 Z-0.08
G3 Y76.531 I0. J-0.5
G1 X57.4 Z-0.168
G3 Y77.531 I0. J0.5
G1 X46.263 Z-0.255
G3 Y76.531 I0. J-0.5
G1 X51.832 Z-0.299
X51.854
G3 X51.915 Y78.335 I0.003 J0.903
G2 X51.371 Y78.38 I0.853 J13.446 F600.
G3 X48.593 Y78.382 I-1.397 J-14.249
X45.064 Y77.895 I4.236 J-43.743
X41.578 Y77.165 I10.871 J-60.558
G1 X41.508 Y77.143
X41.441 Y77.114
X41.378 Y77.078
G2 X39.152 Y76.017 I-4.922 J7.46
G3 X39.216 Y75.602 I0.064 J-0.203
G1 X53.377 Y75.691
X62.565 Y75.601
G3 X62.666 Y76.046 I0. J0.234
X62.064 Y76.331 I-29.071 J-60.652
G2 X61.471 Y76.634 I4.113 J8.803
G1 X61.412 Y76.661
X61.35 Y76.68
G2 X59.403 Y77.237 I4.908 J20.835
G3 X57.441 Y77.741 I-4.365 J-12.912
G2 X55.958 Y78.049 I4.942 J27.591
G3 X54.475 Y78.365 I-8.124 J-34.49
X54.148 Y78.379 I-0.212 J-1.109
G2 X51.915 Y78.335 I-1.381 J13.402
X50.71 Y79.308 I0.085 J1.337
G3 X49.434 Y80.186 I-1.166 J-0.329
X45.424 Y79.646 I4.224 J-46.564
X41.15 Y78.752 I13.149 J-73.494
X40.501 Y78.468 I0.47 J-1.959
G2 X37.897 Y77.396 I-3.97 J5.944
G3 X37.353 Y77.17 I0.295 J-1.48
G2 X35.661 Y76.127 I-14.729 J21.999
G3 X33.994 Y75.044 I8.007 J-14.151
G2 X33.406 Y74.69 I-2.153 J2.909
X32.787 Y74.397 I-26.117 J54.411
G3 X32.884 Y73.959 I0.097 J-0.208
G1 X68.556 Y73.957
G3 X68.782 Y74.466 I0. J0.305
G2 X68.327 Y75.031 I4.931 J4.439
X67.906 Y75.622 I62.994 J45.308
G3 X67.34 Y75.97 I-0.69 J-0.487
G2 X64.704 Y76.794 I1.308 J8.82
X62.258 Y78.076 I24.883 J50.445
G3 X61.737 Y78.277 I-0.979 J-1.761
G2 X59.741 Y78.844 I5. J21.393
G3 X57.731 Y79.359 I-4.504 J-13.407
G2 X56.252 Y79.665 I4.972 J27.755
G3 X54.775 Y79.98 I-8.456 J-35.983
X53.99 Y80.014 I-0.508 J-2.642
G2 X53.006 Y79.998 I-0.585 J5.649
G3 X52.024 Y80.064 I-10.787 J-153.208
X51.204 Y80.11 I-3.164 J-49.457
G2 X50.387 Y80.192 I0.369 J7.799
G3 X49.753 Y80.214 I-0.409 J-2.659
X49.434 Y80.186 I3.905 J-46.592
G1 X49.337 Y80.174 Z-0.289
X49.242 Y80.154 Z-0.28
X49.153 Y80.125 Z-0.251
X49.066 Y80.088 Z-0.223
X48.99 Y80.048 Z-0.177
X48.918 Y80. Z-0.131
X48.858 Y79.954 Z-0.068
X48.802 Y79.903 Z-0.006
X48.719 Y79.811 Z0.145
X48.664 Y79.736 Z0.318
X48.635 Y79.687 Z0.506
X48.625 Y79.671 Z0.701
G0 Z5.
X26.22 Y47.816
Z0.
G1 X16.055 Z-0.08 F17.
G3 Y46.816 I0. J-0.5
G1 X27.192 Z-0.168
G3 Y47.816 I0. J0.5
G1 X16.055 Z-0.255
G3 Y46.816 I0. J-0.5
G1 X21.623 Z-0.299
X21.701 Y46.811
X21.97 Y46.777
G3 X22.651 Y47.478 I0.078 J0.606
G2 X22.212 Y51.21 I47.204 J7.441 F600.
X22.178 Y52.973 I15.014 J1.169
G3 X22.213 Y54.736 I-44.668 J1.765
X21.82 Y54.771 I-0.198 J0.
X21.695 Y53.915 I13.537 J-2.407
G2 X21.52 Y53.068 I-4.772 J0.542
G3 X21.339 Y51.637 I4.156 J-1.255
G2 X21.233 Y50.198 I-6.363 J-0.258
X20.943 Y48.876 I-22.112 J4.173
X20.551 Y47.581 I-14.039 J3.535
G3 X20.591 Y46.923 I0.796 J-0.282
G2 X21.325 Y45.221 I-15.311 J-7.611
X21.803 Y43.43 I-9.477 J-3.49
G1 X22.059 Y41.933
G3 X22.397 Y40.451 I13.494 J2.303
X23.046 Y40.243 I0.394 J0.113
G2 X23.35 Y40.471 I4.892 J-6.199
X23.664 Y40.688 I7.331 J-10.272
G3 X24.014 Y41.694 I-0.492 J0.735
G2 X22.833 Y46.399 I34.705 J11.206
X22.651 Y47.478 I47.021 J8.519
X23.217 Y48.683 I1.173 J0.185
G3 X23.821 Y49.871 I-0.636 J1.071
G2 X23.66 Y53.923 I37.305 J3.511
G3 X23.727 Y63.275 I-649.069 J9.377
X23.285 Y63.389 I-0.236 J0.
G2 X23.053 Y63.007 I-4.461 J2.448
X22.8 Y62.641 I-12.854 J8.597
G1 X22.762 Y62.578
X22.735 Y62.51
G2 X22.229 Y61.092 I-16.676 J5.16
X21.583 Y59.731 I-12.302 J5.005
G3 X21.467 Y59.406 I0.971 J-0.53
G2 X21.125 Y57.992 I-14.158 J2.676
X20.631 Y56.622 I-12.037 J3.564
G3 X20.52 Y56.195 I1.36 J-0.581
G2 X19.914 Y53.171 I-16.444 J1.725
G3 X19.851 Y52.786 I1.415 J-0.428
X19.838 Y51.631 I34.252 J-0.976
G2 X19.733 Y50.481 I-6.031 J-0.031
X19.457 Y49.186 I-27.587 J5.206
X19.063 Y47.922 I-9.406 J2.239
G3 X19.155 Y46.405 I1.694 J-0.659
G2 X20.069 Y43.972 I-8.668 J-4.645
X20.512 Y41.412 I-22.867 J-5.279
G3 X20.647 Y40.889 I1.961 J0.229
G2 X21.124 Y39.533 I-12.717 J-5.227
X21.467 Y38.136 I-15.613 J-4.58
G1 X21.494 Y38.041
X21.536 Y37.952
G2 X21.703 Y37.647 I-9.68 J-5.499
X21.856 Y37.335 I-5.353 J-2.824
G3 X22.433 Y37.3 I0.298 J0.136
G2 X25.533 Y39.976 I5.725 J-3.499
G3 X25.9 Y40.781 I-0.258 J0.603
X25.259 Y42.692 I-88.565 J-28.599
G2 X24.693 Y44.627 I19.404 J6.733
X23.821 Y49.871 I36.433 J8.754
G1 X23.807 Y49.967 Z-0.289
X23.784 Y50.062 Z-0.28
X23.754 Y50.151 Z-0.251
X23.715 Y50.236 Z-0.223
X23.673 Y50.311 Z-0.177
X23.624 Y50.383 Z-0.131
X23.576 Y50.441 Z-0.068
X23.524 Y50.496 Z-0.006
X23.43 Y50.578 Z0.145
X23.354 Y50.63 Z0.318
X23.305 Y50.659 Z0.506
X23.288 Y50.668 Z0.701
G0 Z5.
X21.2 Y29.743
Z0.
G1 X27.369 Y20.511 Z-0.087 F17.
G3 X28.062 Y20.373 I0.416 J0.278
X28.2 Y21.067 I-0.278 J0.416
G1 X22.013 Y30.327 Z-0.175
G3 X21.181 Y29.771 I-0.416 J-0.278
G1 X27.369 Y20.511 Z-0.263
G3 X28.062 Y20.373 I0.416 J0.278
X28.2 Y21.067 I-0.278 J0.416
G1 X25.628 Y24.917 Z-0.299
X25.616 Y24.942
X25.613 Y24.969
X25.617 Y24.995
X25.677 Y25.17
X25.695 Y25.2
X25.723 Y25.221
X25.757 Y25.23
X25.792 Y25.224
X25.822 Y25.205
X25.842 Y25.176
X25.85 Y25.142
X25.843 Y25.107
X25.823 Y25.078
X25.793 Y25.058
X25.758 Y25.052
X25.724 Y25.06
X25.695 Y25.081
X25.318 Y25.494 F600.
G3 X24.735 Y25.34 I-0.251 J-0.23
G2 X24.589 Y24.859 I-3.565 J0.818
X24.39 Y24.398 I-5.344 J2.031
G3 X24.777 Y23.902 I0.315 J-0.153
G2 X26.012 Y24.002 I1.016 J-4.855
G3 X26.239 Y24.486 I0.014 J0.289
G1 X25.695 Y25.081
X25.616 Y25.169 Z-0.292
X25.537 Y25.255 Z-0.271
X25.46 Y25.338 Z-0.236
X25.387 Y25.418 Z-0.189
X25.318 Y25.494 Z-0.128
X25.282 Y25.528 Z-0.087
X25.241 Y25.557 Z-0.045
X25.196 Y25.579 Z-0.004
X25.137 Y25.597 Z0.072
X25.076 Y25.605 Z0.147
X25.03 Y25.603 Z0.233
X24.985 Y25.595 Z0.32
X24.932 Y25.577 Z0.507
X24.914 Y25.569 Z0.701
G0 Z5.
X24.634 Y24.683
Z0.
G1 X25.762 Y27.407 Z-0.023 F17.
G3 X24.838 Y27.79 I-0.462 J0.191
G1 X20.576 Y17.501 Z-0.111
G3 X20.847 Y16.848 I0.462 J-0.191
X21.5 Y17.118 I0.191 J0.462
G1 X25.762 Y27.407 Z-0.198
G3 X24.838 Y27.79 I-0.462 J0.191
G1 X20.576 Y17.501 Z-0.286
G3 X20.847 Y16.848 I0.462 J-0.191
X21.5 Y17.118 I0.191 J0.462
G1 X22.131 Y18.641 Z-0.299
G3 X22.064 Y19.117 I-0.437 J0.181
G1 X22.02 Y19.172
G3 X21.464 Y19.313 I-0.371 J-0.294
G2 X20.93 Y19.139 I-1.235 J2.891 F600.
G3 X20.752 Y18.559 I0.078 J-0.342
G1 X20.863 Y18.44
X20.979 Y18.325
G3 X21.468 Y18.223 I0.326 J0.34
G1 X21.646 Y18.282
X21.825 Y18.332
G3 X22.076 Y18.501 I-0.125 J0.454
G1 X22.591 Y19.18
X22.623 Y19.231
X22.646 Y19.286
X22.659 Y19.345
X22.662 Y19.405
X22.658 Y19.515
G3 X22.156 Y19.739 I-0.304 J-0.009
G2 X21.579 Y19.365 I-1.716 J2.019
G1 X21.464 Y19.313
X21.28 Y19.241 Z-0.279
X21.099 Y19.183 Z-0.221
X20.93 Y19.139 Z-0.126
X20.859 Y19.115 Z-0.064
X20.796 Y19.076 Z-0.002
X20.75 Y19.035 Z0.074
X20.713 Y18.987 Z0.149
X20.691 Y18.947 Z0.235
X20.674 Y18.905 Z0.321
X20.662 Y18.85 Z0.507
X20.659 Y18.831 Z0.701
G0 Z5.
X81.125 Y29.762
Z0.
G1 X81.709 Y30.636 Z-0.008 F17.
G3 X80.877 Y31.192 I-0.416 J0.278
G1 X74.69 Y21.932 Z-0.096
G3 X74.828 Y21.238 I0.416 J-0.278
X75.521 Y21.376 I0.278 J0.416
G1 X81.709 Y30.636 Z-0.184
G3 X80.877 Y31.192 I-0.416 J0.278
G1 X74.69 Y21.932 Z-0.271
G3 X74.828 Y21.238 I0.416 J-0.278
X75.521 Y21.376 I0.278 J0.416
G1 X77.492 Y24.325 Z-0.299
X77.506 Y24.347
G3 X76.529 Y24.997 I-0.501 J0.306
G2 X76.167 Y24.554 I-3.855 J2.777 F600.
G3 X76.368 Y24.024 I0.233 J-0.215
G2 X76.938 Y23.93 I-0.456 J-4.547
X77.492 Y23.769 I-1.145 J-4.972
G3 X77.953 Y24.034 I0.117 J0.33
G1 X77.968 Y24.114 F60.
X77.974 Y24.17 F600.
X77.971 Y24.226
X77.959 Y24.282
X77.939 Y24.334
G2 X77.678 Y24.962 I4.888 J2.396
X77.507 Y25.62 I4.231 J1.453
G3 X77.006 Y25.718 I-0.27 J-0.049
G2 X76.612 Y25.117 I-21.918 J13.918
G1 X76.529 Y24.997
X76.438 Y24.875 Z-0.288
X76.346 Y24.759 Z-0.253
X76.254 Y24.651 Z-0.197
X76.167 Y24.554 Z-0.119
X76.137 Y24.516 Z-0.078
X76.113 Y24.473 Z-0.036
X76.096 Y24.428 Z0.005
X76.085 Y24.369 Z0.08
Y24.309 Z0.155
X76.092 Y24.265 Z0.24
X76.105 Y24.223 Z0.326
X76.13 Y24.174 Z0.51
X76.14 Y24.159 Z0.701
G0 Z5.
X74.597 Y41.352
Z0.
G1 X84.762 Z-0.08 F17.
G3 Y42.352 I0. J0.5
G1 X73.625 Z-0.168
G3 Y41.352 I0. J-0.5
G1 X84.762 Z-0.255
G3 Y42.352 I0. J0.5
G1 X79.194 Z-0.299
X79.124 Y42.347
X79.055 Y42.333
X78.988 Y42.31
X77.842 Y41.829
G2 X77.43 Y42.811 I-0.206 J0.491
X78.146 Y42.167 I0.206 J-0.491
X77.716 Y40.807 I-48.219 J14.493 F600.
G3 X78.072 Y39.747 I0.884 J-0.293
X78.491 Y39.518 I1.311 J1.906
G2 X78.924 Y39.319 I-2.649 J-6.34
G3 X79.633 Y39.629 I0.226 J0.45
X79.898 Y40.553 I-128.954 J37.508
G2 X80.216 Y41.459 I7.532 J-2.132
G1 X80.244 Y41.534
X80.264 Y41.61
X80.277 Y41.688
G2 X80.738 Y44.306 I23.383 J-2.772
X81.634 Y46.808 I11.489 J-2.701
G3 X81.688 Y47.674 I-1.013 J0.498
G2 X81.101 Y50.039 I12.942 J4.469
X80.833 Y52.461 I27.338 J4.252
G3 X80.704 Y53.215 I-3.726 J-0.247
G2 X80.535 Y53.96 I7.579 J2.108
X80.381 Y54.968 I22.226 J3.908
X80.259 Y55.98 I59.007 J7.648
G1 X80.245 Y56.034
X80.204 Y56.132
X80.166 Y56.222
G3 X79.795 Y56.149 I-0.179 J-0.073
G2 X79.781 Y52.1 I-599.012 J0.015
X79.48 Y48.061 I-29.969 J0.203
X78.76 Y44.395 I-35.564 J5.085
X78.146 Y42.167 I-48.833 J12.265
X77.04 Y41.267 I-1.217 J0.366
G3 X75.905 Y40.404 I0.117 J-1.333
G2 X75.73 Y39.947 I-33.941 J12.748
G3 X76.063 Y39.112 I0.612 J-0.24
G2 X77.977 Y38.133 I-13.182 J-28.124
X79.712 Y36.865 I-4.243 J-7.631
G3 X80.372 Y37.009 I0.28 J0.298
G2 X80.76 Y37.821 I7.177 J-2.931
G3 X80.878 Y38.147 I-0.969 J0.535
G2 X81.204 Y39.507 I14.986 J-2.88
X81.669 Y40.826 I11.817 J-3.417
G3 X81.852 Y41.521 I-2.433 J1.015
G2 X82.306 Y44.023 I21.787 J-2.661
X83.202 Y46.402 I10.101 J-2.444
G3 X83.28 Y47.937 I-1.628 J0.853
G2 X82.68 Y50.307 I8.622 J3.446
X82.494 Y52.746 I30.185 J3.52
G3 X82.411 Y53.248 I-1.973 J-0.07
G2 X82.051 Y54.706 I13.849 J4.191
X81.83 Y56.191 I17.506 J3.368
G3 X81.722 Y56.61 I-1.47 J-0.156
G2 X81.239 Y57.961 I11.754 J4.964
X80.888 Y59.352 I17.268 J5.098
G3 X80.768 Y59.669 I-1.083 J-0.228
G2 X80.096 Y61.049 I10.823 J6.123
X79.58 Y62.496 I14.569 J6.01
G1 X79.557 Y62.559
X79.528 Y62.619
X79.492 Y62.676
G2 X79.003 Y63.455 I6.287 J4.487
X78.567 Y64.265 I58.03 J31.752
G3 X78.211 Y64.177 I-0.167 J-0.088
X78.354 Y55.279 I277.077 J-0.007
G2 X77.609 Y46.412 I-38.481 J-1.235
X76.81 Y43.139 I-41.147 J8.322
X75.905 Y40.404 I-34.846 J10.014
X74.659 Y39.519 I-1.278 J0.48
G3 X73.385 Y38.675 I0.034 J-1.434
G1 X73.36 Y38.621
G3 X73.705 Y38.032 I0.381 J-0.173
G2 X74.499 Y37.913 I-0.528 J-6.232
X75.262 Y37.667 I-0.859 J-3.971
X76.19 Y37.136 I-1.97 J-4.523
G3 X77.129 Y36.626 I2.424 J3.34
G2 X78.914 Y35.373 I-1.625 J-4.213
X80.046 Y33.509 I-4.904 J-4.256
G3 X80.612 Y33.462 I0.294 J0.117
G2 X81.069 Y34.137 I6.84 J-4.139
G1 X81.113 Y34.204
X81.148 Y34.276
X81.173 Y34.353
G2 X81.633 Y35.722 I10.306 J-2.698
X82.259 Y37.025 I11.887 J-4.911
G3 X82.542 Y37.811 I-2.308 J1.273
G2 X82.838 Y39.049 I12.798 J-2.406
X83.267 Y40.247 I10.144 J-2.957
G3 X83.53 Y41.256 I-3.235 J1.384
G2 X83.91 Y43.558 I20.362 J-2.18
X84.748 Y45.735 I7.779 J-1.745
X84.913 Y46.007 I4.433 J-2.505
G3 X85.079 Y46.279 I-4.267 J2.776
X85.159 Y47.845 I-1.529 J0.864
X84.805 Y48.643 I-64.146 J-27.993
G2 X84.544 Y49.476 I3.326 J1.501
X84.304 Y51.14 I20.202 J3.762
X84.19 Y52.817 I24.111 J2.475
G3 X84.038 Y53.729 I-3.516 J-0.116
G2 X83.513 Y56.417 I12.687 J3.877
G3 X83.317 Y57.195 I-2.625 J-0.247
G2 X82.869 Y58.437 I11.349 J4.792
X82.545 Y59.716 I14.222 J4.281
G3 X82.253 Y60.491 I-2.582 J-0.533
G2 X81.649 Y61.726 I9.321 J5.321
X81.194 Y63.023 I11.992 J4.938
G3 X80.906 Y63.616 I-1.895 J-0.554
G2 X79.74 Y65.547 I11.986 J8.554
X79.163 Y67.728 I4.887 J2.461
X79.195 Y68.315 I2.776 J0.142
X79.3 Y68.894 I15.104 J-2.452
G3 X78.854 Y69.439 I-0.446 J0.09
G2 X75.449 Y70.78 I-0.007 J4.974
X73.046 Y73.54 I12.204 J13.051
G3 X72.697 Y73.824 I-0.676 J-0.477
G2 X71.155 Y74.742 I2.719 J6.323
X69.885 Y76.01 I4.761 J6.039
X69.491 Y76.574 I4.448 J3.518
X69.153 Y77.173 I8.62 J5.259
G3 X68.16 Y77.784 I-1.006 J-0.523
G2 X65.529 Y78.44 I0.063 J5.856
X63.145 Y79.73 I34.298 J66.21
G3 X62.191 Y80.098 I-1.731 J-3.063
G2 X60.534 Y80.555 I4.128 J18.23
X58.905 Y81.106 I22.72 J69.803
G3 X58.227 Y81.271 I-1.167 J-3.319
G2 X56.77 Y81.512 I4.248 J30.269
G1 X55.138 Y81.822
G3 X53.784 Y81.88 I-0.876 J-4.612
G2 X53.182 Y81.863 I-0.42 J4.103
X52.583 Y81.923 I0.236 J5.325
G3 X51.68 Y81.978 I-0.735 J-4.636
G2 X51.178 Y81.989 I-0.159 J4.461
X50.679 Y82.046 I0.524 J6.794
G3 X49.582 Y82.083 I-0.705 J-4.641
G1 X49.335 Y82.063
X49.211 Y82.055
X49.088 Y82.052
G3 X48.45 Y82.001 I0.055 J-4.694
G2 X46.844 Y81.822 I-3.162 J21.189
G3 X45.247 Y81.574 I0.721 J-9.907
G2 X42.949 Y81.068 I-14.65 J61.045
G3 X40.651 Y80.562 I13.409 J-66.352
X39.487 Y80.048 I0.816 J-3.422
G2 X37.556 Y79.241 I-2.935 J4.312
G3 X36.297 Y78.722 I0.688 J-3.45
G2 X34.921 Y77.927 I-6.981 J10.506
G3 X33.567 Y77.095 I3.897 J-7.858
G2 X32.731 Y76.506 I-11.142 J14.907
X31.828 Y76.025 I-2.896 J4.355
G3 X31.135 Y75.545 I0.753 J-1.826
G2 X30.003 Y74.548 I-5.526 J5.14
X28.759 Y73.697 I-20.406 J28.494
G3 X28.487 Y73.405 I0.452 J-0.693
G2 X26.317 Y71.009 I-6.194 J3.43
X23.32 Y69.798 I-4.204 J6.085
G3 X22.92 Y69.171 I0.082 J-0.493
G2 X23.114 Y67.405 I-5.332 J-1.479
X22.642 Y65.693 I-4.113 J0.214
X22.043 Y64.631 I-20.302 J10.742
X21.377 Y63.612 I-13.295 J7.964
G3 X21.096 Y63.04 I1.609 J-1.145
G2 X20.645 Y61.763 I-14.321 J4.344
X20.062 Y60.541 I-10.521 J4.264
G3 X19.777 Y59.744 I2.308 J-1.274
G2 X19.013 Y57.219 I-11.627 J2.142
G3 X18.812 Y56.425 I2.424 J-1.036
G2 X18.277 Y53.709 I-13.454 J1.24
G3 X18.129 Y52.812 I3.368 J-1.017
G2 X17.988 Y50.754 I-30.324 J1.036
X17.558 Y48.736 I-9.533 J0.977
X17.367 Y48.282 I-2.923 J0.962
G3 X17.158 Y47.838 I5.804 J-3.006
X17.246 Y46.284 I1.616 J-0.688
X17.701 Y45.513 I21.049 J11.923
G2 X18.068 Y44.695 I-2.917 J-1.798
G3 X18.35 Y43.795 I34.553 J10.319
G2 X18.576 Y42.879 I-6.09 J-1.994
X18.701 Y42.041 I-19.977 J-3.409
X18.803 Y41.199 I-58.517 J-7.483
G3 X19.045 Y40.258 I3.496 J0.396
G2 X19.785 Y37.76 I-11.875 J-4.881
G3 X20.019 Y37.135 I1.94 J0.367
G2 X20.681 Y35.81 I-10.217 J-5.939
X21.149 Y34.404 I-8.503 J-3.606
G3 X21.288 Y34.108 I0.804 J0.197
G2 X21.593 Y33.669 I-7.161 J-5.311
X21.865 Y33.208 I-4.942 J-3.225
G3 X22.471 Y33.204 I0.304 J0.161
G1 X23.192 Y34.523
G3 X23.307 Y34.841 I-0.971 J0.531
G2 X24.926 Y37.621 I4.824 J-0.946
X27.931 Y38.773 I3.109 J-3.615
G3 X28.298 Y39.33 I-0.009 J0.405
G2 X27.301 Y41.909 I86.781 J35.026
X26.486 Y44.552 I23.529 J8.697
X25.82 Y47.985 I32.623 J8.114
X25.441 Y51.461 I55.849 J7.853
G1 X25.362 Y67.322
G2 X26.345 Y70.211 I4.739 J0.
X28.845 Y71.962 I4.038 J-3.107
X29.538 Y72.12 I1.301 J-4.108
X30.247 Y72.17 I0.709 J-4.976
G1 X71.77 Y72.169
G2 X76.592 Y67.587 I0. J-4.828
G1 X76.534 Y51.657
G2 X75.594 Y44.981 I-30.657 J0.912
X73.385 Y38.675 I-37.256 J9.513
X72.077 Y37.865 I-1.256 J0.567
G3 X70.746 Y37.095 I-0.054 J-1.442
G2 X69.455 Y34.818 I-36.758 J19.328
X67.459 Y32.027 I-19.874 J12.106
G3 X66.523 Y30.888 I83.707 J-69.751
G2 X65.542 Y29.788 I-12.095 J9.805
X64.866 Y29.142 I-10.684 J10.482
G3 X64.191 Y28.495 I10.009 J-11.129
X64.382 Y28.198 I0.129 J-0.127
G1 X64.454 Y28.223
X64.488 Y28.238
X64.519 Y28.259
X64.544 Y28.287
G2 X66.351 Y30.018 I6.08 J-4.539
G3 X68.255 Y31.642 I-6.53 J9.582
G1 X68.308 Y31.696
X68.366 Y31.745
X68.473 Y31.833
X68.515 Y31.872
X68.551 Y31.916
G2 X69.085 Y32.555 I4.925 J-3.57
X69.673 Y33.143 I13.932 J-13.353
G1 X69.726 Y33.201
X69.771 Y33.265
X69.807 Y33.335
X70.071 Y33.942
G2 X70.406 Y34.466 I1.8 J-0.782
G3 X70.732 Y34.966 I-1.474 J1.315
G2 X71.078 Y35.451 I1.408 J-0.638
X72.648 Y36.271 I2.232 J-2.362
X74.41 Y36.089 I0.595 J-2.861
X74.954 Y35.77 I-1.06 J-2.434
G3 X75.466 Y35.401 I8.184 J10.792
X76.396 Y34.911 I2.55 J3.709
G2 X78.682 Y32.194 I-1.325 J-3.435
X77.752 Y28.768 I-3.912 J-0.778
G1 X77.685 Y28.681
X77.63 Y28.585
G2 X77.145 Y27.88 I-2.518 J1.213
X76.488 Y27.333 I-2.58 J2.433
G3 X75.968 Y26.733 I0.768 J-1.191
G2 X75.452 Y25.854 I-4.637 J2.129
X74.762 Y25.103 I-3.668 J2.677
X74.214 Y24.705 I-2.551 J2.937
X73.61 Y24.398 I-2.454 J4.084
G3 X73.066 Y23.88 I0.412 J-0.978
G2 X72.064 Y22.604 I-3.374 J1.62
X70.719 Y21.698 I-5.518 J6.735
G3 X70.499 Y21.521 I0.38 J-0.696
G2 X69.757 Y20.865 I-2.802 J2.424
X68.898 Y20.372 I-4.036 J6.035
G1 X68.815 Y20.325
X68.738 Y20.268
G2 X67.815 Y19.57 I-7.931 J9.523
X66.787 Y19.038 I-2.669 J3.892
G1 X66.715 Y19.006
X66.646 Y18.968
X66.581 Y18.923
G2 X65.375 Y18.148 I-5.31 J6.926
X64.007 Y17.72 I-1.813 J3.402
G3 X63.521 Y17.476 I0.092 J-0.788
G2 X61.707 Y16.469 I-2.483 J2.336
X59.666 Y16.839 I-0.553 J2.763
X59.066 Y17.332 I1.571 J2.527
G3 X58.518 Y17.88 I-8.782 J-8.23
X57.969 Y17.702 I-0.225 J-0.24
X57.649 Y15.922 I74.683 J-14.332
G2 X56.807 Y14.321 I-2.847 J0.477
G1 X56.735 Y14.255
X56.662 Y14.191
G3 X56.849 Y13.796 I0.154 J-0.168
X59.915 Y14.525 I-2.588 J17.714
G2 X62.981 Y15.253 I5.896 J-18.006
X63.381 Y15.27 I0.281 J-1.857
X63.779 Y15.238 I-0.713 J-11.248
G3 X64.738 Y15.664 I0.105 J1.056
G2 X65.604 Y16.565 I3.869 J-2.853
X66.644 Y17.257 I4.46 J-5.576
X67.209 Y17.503 I1.672 J-3.065
X67.795 Y17.696 I21.706 J-64.913
G3 X68.056 Y17.839 I-0.245 J0.755
G2 X68.65 Y18.247 I2.528 J-3.052
X69.319 Y18.515 I1.37 J-2.451
G3 X69.595 Y18.647 I-0.198 J0.768
X71.974 Y20.57 I-23.856 J31.944
G2 X74.462 Y22.348 I10.312 J-11.8
X76.966 Y22.558 I1.476 J-2.561
X78.799 Y20.838 I-1.128 J-3.038
X79.007 Y20.114 I-2.496 J-1.112
X79.053 Y19.362 I-4.533 J-0.65
G3 X79.138 Y19.091 I0.442 J-0.01
G1 X79.589 Y18.477
G3 X79.897 Y18.259 I0.478 J0.351
G1 X80.076 Y18.205
X80.165 Y18.175
X80.252 Y18.141
G3 X80.895 Y18.265 I0.227 J0.547
G1 X81.068 Y18.441
X81.237 Y18.62
G3 X81.088 Y19.209 I-0.265 J0.247
G2 X79.44 Y20.518 I0.999 J2.95
X79.057 Y22.587 I2.461 J1.526
X79.211 Y23.275 I11.086 J-2.118
G3 X79.365 Y23.963 I-10.932 J2.806
X79.226 Y24.891 I-1.393 J0.266
G2 X78.81 Y26.475 I3.194 J1.686
X79.263 Y28.049 I2.694 J0.076
X80.039 Y29.123 I15.341 J-10.255
X80.896 Y30.134 I12.47 J-9.7
G3 X81.135 Y30.559 I-0.78 J0.719
G2 X81.694 Y31.868 I5.621 J-1.625
X82.478 Y33.056 I10.593 J-6.14
G3 X82.895 Y33.915 I-2.025 J1.513
G2 X83.283 Y35.062 I9.048 J-2.422
X83.807 Y36.154 I9.903 J-4.082
G3 X84.288 Y37.488 I-3.941 J2.174
G2 X84.948 Y39.661 I10.473 J-1.992
G3 X85.292 Y41.029 I-4.139 J1.77
G2 X85.847 Y43.772 I12.67 J-1.136
X87.128 Y46.259 I8.09 J-2.59
G3 X87.22 Y47.587 I-0.986 J0.735
G2 X86.692 Y48.598 I22.829 J12.545
X86.301 Y49.669 I4.723 J2.332
X86.042 Y51.28 I9.662 J2.383
X85.964 Y52.91 I26.961 J2.098
G3 X85.747 Y54.215 I-4.501 J-0.078
G2 X85.45 Y55.384 I9.041 J2.918
X85.281 Y56.579 I13.324 J2.495
G3 X84.948 Y57.899 I-4.48 J-0.432
G2 X84.564 Y58.969 I9.481 J4.004
X84.286 Y60.071 I13.054 J3.882
G3 X83.793 Y61.375 I-4.406 J-0.919
G2 X82.892 Y63.545 I8.327 J4.73
G3 X82.389 Y64.594 I-3.248 J-0.911
G2 X81.22 Y66.699 I8.722 J6.225
X81.204 Y69.106 I2.935 J1.223
X81.37 Y69.413 I1.429 J-0.574
X81.571 Y69.698 I24.602 J-17.15
G3 X81.765 Y70.406 I-0.863 J0.617
G1 X81.687 Y71.315
G3 X81.117 Y71.711 I-0.449 J-0.039
G2 X80.531 Y71.608 I-0.82 J2.945
G3 X80.153 Y71.505 I0.085 J-1.058
G2 X76.757 Y71.994 I-1.337 J2.751
X74.492 Y74.571 I10.368 J11.393
G3 X73.413 Y75.449 I-2.073 J-1.447
G2 X70.264 Y79.025 I2.179 J5.094
G1 X70.233 Y79.146
X70.208 Y79.268
X70.159 Y79.513
G3 X69.523 Y79.826 I-0.443 J-0.099
G2 X66.573 Y79.876 I-1.424 J3.043
X63.985 Y81.296 I22.465 J44.015
G3 X62.621 Y81.822 I-2.282 J-3.88
G2 X61.028 Y82.249 I2.976 J14.292
X59.47 Y82.79 I16.409 J49.785
G3 X58.5 Y83.026 I-1.543 J-4.229
G2 X55.382 Y83.585 I4.068 J31.685
G3 X53.901 Y83.677 I-1.017 J-4.385
G2 X53.459 Y83.643 I-0.895 J8.637
X53.016 Y83.651 I-0.166 J3.183
G1 X52.899 Y83.668
X52.784 Y83.691
G3 X51.751 Y83.759 I-0.813 J-4.427
G2 X51.312 Y83.761 I-0.205 J4.19
X50.875 Y83.813 I0.194 J3.461
G3 X49.679 Y83.873 I-0.82 J-4.426
X49.351 Y83.843 I1.578 J-18.828
G2 X49.022 Y83.827 I-0.304 J3.001
G3 X48.232 Y83.764 I-0.037 J-4.501
G2 X46.591 Y83.604 I-1.951 J11.497
G3 X44.963 Y83.34 I0.164 J-6.178
G2 X42.505 Y82.689 I-10.503 J34.663
X40.002 Y82.246 I-5.761 J25.288
G3 X38.68 Y81.662 I0.318 J-2.508
G2 X37.831 Y81.152 I-1.962 J2.301
X36.865 Y80.933 I-1.186 J2.997
G3 X35.624 Y80.432 I0.147 J-2.151
G2 X34.317 Y79.579 I-4.127 J4.9
G3 X32.937 Y78.852 I11.844 J-24.155
X32.151 Y78.29 I2.212 J-3.92
G2 X31.121 Y77.655 I-2.292 J2.566
G3 X29.857 Y76.778 I1.24 J-3.137
G2 X28.871 Y75.911 I-4.256 J3.842
X27.78 Y75.179 I-23.189 J33.406
G3 X26.938 Y74.273 I1.374 J-2.122
G2 X25.027 Y72.179 I-5.27 J2.891
X22.279 Y71.485 I-2.338 J3.47
X21.71 Y71.584 I0.385 J3.913
X21.151 Y71.727 I10.525 J42.099
G3 X20.598 Y71.339 I-0.113 J-0.428
G1 X20.516 Y70.419
G3 X20.715 Y69.701 I1.057 J-0.094
G2 X21.345 Y68.164 I-2.84 J-2.063
X21.067 Y66.526 I-2.623 J-0.397
X20.512 Y65.539 I-19.628 J10.385
X19.893 Y64.59 I-12.061 J7.191
G3 X19.404 Y63.579 I2.749 J-1.956
G2 X19.016 Y62.467 I-10.983 J3.202
X18.51 Y61.403 I-9.444 J3.845
G3 X18.03 Y60.061 I3.945 J-2.167
G2 X17.385 Y57.93 I-10.027 J1.87
G3 X17.043 Y56.584 I4.139 J-1.769
G2 X16.858 Y55.344 I-11.442 J1.079
X16.548 Y54.129 I-13.344 J2.749
G3 X16.355 Y52.906 I4.307 J-1.309
G2 X16.261 Y51.077 I-28.862 J0.554
X15.897 Y49.282 I-7.776 J0.644
X15.539 Y48.42 I-5.85 J1.925
X15.104 Y47.594 I-28.507 J14.466
G3 X15.192 Y46.275 I1.084 J-0.591
G2 X16.475 Y43.744 I-7.055 J-5.164
X17.042 Y40.964 I-12.962 J-4.094
G3 X17.366 Y39.671 I4.48 J0.435
G2 X17.767 Y38.556 I-11.37 J-4.727
X18.045 Y37.405 I-9.267 J-2.844
G3 X18.463 Y36.276 I3.322 J0.589
G2 X19.03 Y35.161 I-8.385 J-4.961
X19.425 Y33.974 I-6.827 J-2.933
G3 X19.857 Y33.055 I2.457 J0.594
G2 X20.63 Y31.863 I-8.645 J-6.455
X21.197 Y30.56 I-6.251 J-3.493
G3 X21.424 Y30.169 I1.01 J0.324
G2 X22.86 Y28.405 I-14.794 J-13.509
X23.548 Y26.237 I-2.936 J-2.125
X23.416 Y25.532 I-2.083 J0.025
X23.12 Y24.879 I-5.02 J1.877
G3 X22.978 Y23.944 I1.25 J-0.669
X23.174 Y23.037 I18.407 J3.516
G2 X23.282 Y22.115 I-3.691 J-0.897
G3 X23.745 Y21.906 I0.278 J-0.002
G2 X27.157 Y22.402 I2.078 J-2.315
X28.594 Y21.457 I-2.779 J-5.792
X29.861 Y20.294 I-20.672 J-23.764
X30.226 Y19.923 I-7.982 J-8.223
G1 X30.552 Y19.576
G3 X30.898 Y19.361 I0.578 J0.544
G2 X32.511 Y18.605 I-1.842 J-6.03
G3 X34.018 Y17.654 I28.741 J43.867
X36.302 Y16.49 I8.909 J14.661
G2 X38.652 Y15.465 I-33.064 J-78.981
G3 X39.027 Y15.332 I0.944 J2.079
G2 X39.412 Y15.228 I-3.866 J-15.028
G3 X41.756 Y14.607 I17.869 J62.741
G2 X44.037 Y13.781 I-2.691 J-10.984
G3 X44.318 Y13.745 I0.194 J0.397
G1 X44.512 Y13.782
X44.609 Y13.798
X44.707 Y13.809
G3 X44.855 Y14.274 I-0.024 J0.263
G2 X44.181 Y15.13 I1.773 J2.089
X43.852 Y16.169 I3.045 J1.535
G3 X43.281 Y16.509 I-0.423 J-0.062
G2 X41.753 Y16.247 I-1.481 J4.046
X40.245 Y16.606 I0.038 J3.506
G1 X40.145 Y16.647
X40.04 Y16.674
G2 X39.495 Y16.833 I0.514 J2.768
X38.985 Y17.082 I1.584 J3.902
G1 X38.909 Y17.12
X38.829 Y17.15
G2 X37.815 Y17.564 I2.021 J6.399
X36.872 Y18.121 I3.904 J7.699
G1 X36.805 Y18.161
X36.735 Y18.195
X36.662 Y18.222
G2 X34.57 Y19.193 I2.608 J8.354
X32.763 Y20.628 I5.943 J9.335
G3 X32.555 Y20.776 I-0.556 J-0.566
G2 X30.928 Y21.812 I3.674 J7.561
X29.556 Y23.166 I6.322 J7.783
G1 X29.472 Y23.254
X29.379 Y23.333
G2 X28.337 Y24.179 I10.861 J14.444
X27.378 Y25.118 I7.935 J9.065
G3 X26.209 Y26.359 I-40.466 J-36.97
G2 X25.26 Y27.775 I3.387 J3.293
G3 X24.97 Y28.121 I-0.728 J-0.315
G2 X23.679 Y29.717 I1.887 J2.847
X23.672 Y31.77 I2.63 J1.036
X24.192 Y32.762 I4.577 J-1.765
G3 X24.777 Y33.718 I-9.612 J6.534
X25.039 Y34.445 I-2.218 J1.213
G2 X26.34 Y36.52 I3.358 J-0.659
X28.739 Y37.011 I1.716 J-2.279
X30.401 Y36.011 I-0.788 J-3.191
X31.499 Y34.413 I-5.681 J-5.081
G1 X31.54 Y34.348
X31.591 Y34.291
G2 X33.477 Y32.276 I-13.755 J-14.757
G3 X35.363 Y30.26 I14.698 J11.859
G2 X35.656 Y29.926 I-1.467 J-1.589
G3 X35.922 Y29.571 I7.911 J5.641
G1 X35.961 Y29.531
X36.008 Y29.501
G2 X36.277 Y29.366 I-4.194 J-8.668
X36.53 Y29.203 I-0.766 J-1.465
G1 X36.644 Y29.108
X36.758 Y29.013
G3 X37. Y29.283 I0.112 J0.143
G2 X30.405 Y38.701 I24.923 J24.468
X27.368 Y49.79 I29.279 J13.981
X27.207 Y51.896 I79.291 J7.095
X27.141 Y54.007 I33.599 J2.11
G1 X27.181 Y67.771
G2 X28.222 Y69.656 I2.947 J-0.397
X30.247 Y70.391 I2.025 J-2.425
G1 X71.77 Y70.389
G2 X74.814 Y67.496 I0. J-3.049
G1 X74.755 Y51.71
G2 X73.694 Y44.566 I-30.745 J0.915
X71.118 Y37.819 I-35.012 J9.505
X70.746 Y37.095 I-37.13 J18.604
G1 X70.717 Y37.053
X70.679 Y37.019
X70.634 Y36.995
X70.585 Y36.982
X70.534 Y36.981
X70.483 Y36.979
X70.434 Y36.966
X70.39 Y36.942
X70.352 Y36.908
X70.323 Y36.866
G2 X69.233 Y34.964 I-36.372 J19.575
X67.255 Y32.197 I-19.661 J11.969
X65.411 Y30.106 I-38.337 J31.945
X63.484 Y28.092 I-80.564 J75.139
X62.888 Y27.577 I-3.429 J3.364
G3 X62.273 Y27.083 I5.062 J-6.933
X62.508 Y26.775 I0.128 J-0.146
X63.481 Y27.437 I-21.265 J32.296
G2 X64.533 Y27.963 I2.275 J-3.236
G3 X64.764 Y28.128 I-0.145 J0.448
G2 X65.967 Y29.335 I4.887 J-3.666
X67.362 Y30.313 I14.279 J-18.885
G1 X67.423 Y30.358
X67.478 Y30.41
G3 X68.044 Y31.038 I-13.294 J12.542
G2 X68.651 Y31.628 I3.562 J-3.062
G1 X68.713 Y31.685
X68.766 Y31.75
G2 X69.287 Y32.375 I4.624 J-3.322
X69.863 Y32.949 I13.725 J-13.203
G3 X70.055 Y33.224 I-0.583 J0.611
X70.29 Y33.776 I-51.852 J22.439
G2 X70.611 Y34.284 I1.681 J-0.706
G3 X70.928 Y34.775 I-1.419 J1.266
G2 X71.267 Y35.252 I1.365 J-0.609
X72.696 Y36.001 I2.048 J-2.167
X74.301 Y35.839 I0.549 J-2.588
X74.821 Y35.533 I-1.001 J-2.298
G3 X75.31 Y35.179 I7.349 J9.625
X76.3 Y34.657 I2.714 J3.947
G2 X78.417 Y32.132 I-1.225 J-3.177
X77.553 Y28.952 I-3.657 J-0.713
G3 X77.383 Y28.698 I0.846 J-0.747
G2 X76.931 Y28.046 I-2.309 J1.12
X76.315 Y27.545 I-2.292 J2.188
G3 X75.733 Y26.874 I0.798 J-1.28
G2 X74.583 Y25.309 I-4.097 J1.806
X73.46 Y24.63 I-2.515 J2.895
G3 X72.855 Y24.068 I0.413 J-1.051
G2 X71.891 Y22.827 I-3.352 J1.609
X70.595 Y21.94 I-5.213 J6.221
G3 X70.289 Y21.693 I0.545 J-0.989
G2 X69.59 Y21.08 I-2.616 J2.281
X68.784 Y20.618 I-3.958 J5.973
G3 X68.56 Y20.474 I0.497 J-1.014
G2 X67.661 Y19.797 I-7.705 J9.299
X66.662 Y19.281 I-2.61 J3.825
G3 X66.442 Y19.159 I0.294 J-0.792
G2 X65.299 Y18.411 I-5.616 J7.324
X63.999 Y17.993 I-1.707 J3.08
G3 X63.313 Y17.651 I0.13 J-1.122
G2 X61.663 Y16.732 I-2.311 J2.208
X59.803 Y17.059 I-0.523 J2.477
X59.055 Y17.689 I1.809 J2.909
G3 X58.372 Y18.389 I-8.163 J-7.275
X57.788 Y18.2 I-0.24 J-0.256
X57.445 Y16.012 I32.025 J-6.146
G2 X56.277 Y14.13 I-2.616 J0.32
X55.034 Y13.66 I-1.674 J2.544
X53.706 Y13.74 I-0.468 J3.281
G1 X53.635 Y13.751
X53.563 Y13.748
X53.494 Y13.73
G2 X52.203 Y13.497 I-1.299 J3.5
X50.909 Y13.709 I-0.01 J3.993
G1 X50.848 Y13.722
X50.786 Y13.72
X50.726 Y13.703
G2 X49.649 Y13.484 I-1.097 J2.647
X48.562 Y13.65 I-0.025 J3.494
G1 X48.509 Y13.661
X48.455 Y13.66
G2 X46.003 Y13.886 I-0.671 J6.137
X44.232 Y15.597 I0.775 J2.575
X44.117 Y16.103 I2.388 J0.81
X44.1 Y16.621 I2.937 J0.357
G3 X43.593 Y16.945 I-0.345 J0.019
G2 X41.98 Y16.506 I-1.771 J3.329
X40.346 Y16.859 I-0.139 J3.312
G1 X40.27 Y16.893
X40.192 Y16.919
X40.111 Y16.937
G2 X39.588 Y17.089 I0.427 J2.448
X39.1 Y17.329 I1.603 J3.875
G1 X39.015 Y17.372
X38.926 Y17.404
G2 X37.944 Y17.801 I1.798 J5.864
X37.032 Y18.34 I3.821 J7.513
G3 X36.737 Y18.483 I-0.634 J-0.934
G2 X35.808 Y18.869 I1.715 J5.434
X34.971 Y19.431 I2.158 J4.118
G1 X34.88 Y19.5
X34.782 Y19.56
G2 X33.827 Y20.126 I6.9 J12.734
X32.958 Y20.818 I3.029 J4.692
G3 X32.664 Y21.024 I-0.788 J-0.809
G2 X31.084 Y22.031 I3.575 J7.358
X29.755 Y23.351 I5.897 J7.265
G3 X29.554 Y23.541 I-0.872 J-0.717
G2 X28.734 Y24.2 I7.914 J10.693
X28.018 Y24.969 I3.312 J3.805
G3 X27.802 Y25.2 I-1.205 J-0.908
G2 X26.51 Y26.41 I15.456 J17.804
X25.514 Y27.872 I3.453 J3.421
G3 X25.11 Y28.354 I-1.033 J-0.455
G2 X23.937 Y29.806 I1.763 J2.625
X23.926 Y31.672 I2.371 J0.948
X24.442 Y32.656 I4.501 J-1.736
G3 X25.023 Y33.603 I-9.338 J6.373
X25.303 Y34.378 I-2.36 J1.291
G2 X25.897 Y35.716 I3.224 J-0.63
X27.048 Y36.621 I2.259 J-1.69
X29.603 Y36.284 I0.993 J-2.325
X31.25 Y34.303 I-3.799 J-4.836
G3 X31.418 Y34.082 I0.748 J0.392
G2 X33.548 Y31.913 I-29.171 J-30.788
X35.546 Y29.623 I-48.247 J-44.114
G1 X35.632 Y29.509
X35.715 Y29.395
X35.763 Y29.342
X35.819 Y29.297
X35.881 Y29.261
G2 X37.702 Y28.077 I-3.769 J-7.788
G3 X39.444 Y26.778 I11.348 J13.405
X39.679 Y27.087 I0.106 J0.163
G2 X35.814 Y30.886 I30.411 J34.794
X32.586 Y35.239 I20.741 J18.757
X29.283 Y42.245 I33.083 J19.881
X27.633 Y49.814 I29.191 J10.328
X27.473 Y51.908 I79.151 J7.082
X27.407 Y54.007 I33.356 J2.098
G1 X27.445 Y67.735
G2 X28.397 Y69.456 I2.684 J-0.361
X30.247 Y70.125 I1.85 J-2.225
G1 X71.77 Y70.123
G2 X74.549 Y67.482 I0. J-2.782
G1 X74.489 Y51.718
G2 X73.436 Y44.631 I-30.481 J0.907
X70.88 Y37.938 I-34.756 J9.441
X70.323 Y36.866 I-36.929 J18.503
X69.295 Y36.326 I-0.915 J0.492
G3 X68.255 Y35.811 I-0.117 J-1.072
G1 X68.158 Y35.651
X68.132 Y35.61
X66.986 Y33.947
X66.982 Y33.941
X66.669 Y33.496
X66.654 Y33.475
X66.318 Y33.029
X66.294 Y32.998
X64.808 Y31.215
X64.801 Y31.207
X64.514 Y30.872
X64.478 Y30.833
X62.62 Y28.939
X62.579 Y28.9
X60.556 Y27.117
X60.514 Y27.083
X58.598 Y25.612
X58.56 Y25.585
X56.776 Y24.377
X56.742 Y24.355
X55.275 Y23.468
X55.248 Y23.452
X54.441 Y23.007
X54.43 Y23.001
X53.583 Y22.55
X53.557 Y22.537
X52.649 Y22.096
X52.628 Y22.086
X52.198 Y21.893
X52.176 Y21.883
X51.566 Y21.631
X51.474 Y21.599
X51.333 Y21.56
X51.254 Y21.543
X51.174 Y21.534
X50.998 Y21.522
X50.909 Y21.521
X50.821 Y21.53
X50.647 Y21.558
X50.57 Y21.574
X50.495 Y21.598
X50.259 Y21.685
X50.226 Y21.699
X49.78 Y21.887
X49.763 Y21.895
X49.317 Y22.096
X49.296 Y22.106
X48.399 Y22.542
X48.383 Y22.55
X47.942 Y22.777
X47.923 Y22.787
X46.715 Y23.452
X46.686 Y23.468
X45.214 Y24.36
X45.183 Y24.38
X43.85 Y25.275
X43.839 Y25.282
X43.393 Y25.592
X43.366 Y25.612
X42.021 Y26.635
X42.012 Y26.642
X41.443 Y27.088
X41.41 Y27.115
X39.757 Y28.56
X39.738 Y28.577
X39.292 Y28.993
X39.267 Y29.017
X37.484 Y30.834
X37.44 Y30.882
X35.483 Y33.233
X35.439 Y33.291
X33.685 Y35.842
X33.644 Y35.907
X32.225 Y38.47
X32.213 Y38.492
X31.984 Y38.937
X31.967 Y38.973
X31.363 Y40.31
X31.35 Y40.34
X30.99 Y41.231
X30.983 Y41.248
X30.619 Y42.214
X30.607 Y42.25
X30.055 Y43.958
X30.043 Y43.999
X29.688 Y45.336
X29.685 Y45.348
X29.574 Y45.793
X29.567 Y45.828
X29.206 Y47.61
X29.199 Y47.653
X28.939 Y49.436
X28.937 Y49.452
X28.881 Y49.898
X28.878 Y49.925
X28.788 Y50.937
X28.787 Y50.947
X28.727 Y51.717
X28.725 Y51.755
X28.658 Y53.983
Y54.007
Y67.322
X28.666 Y67.427
X28.685 Y67.568
X28.697 Y67.636
X28.715 Y67.703
X28.755 Y67.83
X28.779 Y67.895
X28.809 Y67.958
X28.875 Y68.086
X28.91 Y68.146
X28.95 Y68.202
X29.032 Y68.308
X29.083 Y68.368
X29.14 Y68.423
X29.277 Y68.541
X29.343 Y68.593
X29.415 Y68.637
X29.551 Y68.712
X29.621 Y68.746
X29.694 Y68.773
X29.84 Y68.819
X29.918 Y68.84
X29.998 Y68.852
X30.165 Y68.87
X30.247 Y68.874
X71.77 Y68.872
X71.838 Y68.869
X71.906 Y68.86
X72.073 Y68.831
X72.15 Y68.814
X72.226 Y68.789
X72.363 Y68.735
X72.434 Y68.703
X72.501 Y68.665
X72.639 Y68.577
X72.697 Y68.536
X72.752 Y68.489
X72.844 Y68.404
X72.897 Y68.349
X72.945 Y68.29
X73.051 Y68.144
X73.095 Y68.077
X73.132 Y68.005
X73.19 Y67.877
X73.219 Y67.803
X73.241 Y67.726
X73.28 Y67.555
X73.295 Y67.468
X73.3 Y67.379
X73.306 Y65.151
X73.305 Y54.007
Y53.984
X73.239 Y51.755
X73.236 Y51.711
X73.084 Y49.929
X73.081 Y49.897
X72.969 Y49.005
X72.967 Y48.992
X72.839 Y48.101
X72.835 Y48.074
X72.718 Y47.42
X72.715 Y47.401
X72.397 Y45.828
X72.387 Y45.784
X71.92 Y44.001
X71.91 Y43.965
X71.63 Y43.073
X71.626 Y43.061
X71.33 Y42.17
X71.316 Y42.131
X70.619 Y40.348
X70.603 Y40.309
X69.985 Y38.946
X69.971 Y38.918
X69.761 Y38.499
X69.749 Y38.475
X69.02 Y37.137
X69.014 Y37.127
X68.51 Y36.235
X68.499 Y36.216
X68.255 Y35.811
X68.208 Y35.725 Z-0.289
X68.171 Y35.635 Z-0.28
X68.143 Y35.545 Z-0.251
X68.124 Y35.454 Z-0.223
X68.114 Y35.368 Z-0.177
X68.111 Y35.282 Z-0.131
X68.115 Y35.206 Z-0.068
X68.124 Y35.131 Z-0.006
X68.152 Y35.01 Z0.145
X68.183 Y34.922 Z0.318
X68.205 Y34.87 Z0.506
X68.214 Y34.853 Z0.701
G0 Z5.
X66.34 Y29.985
Z0.
G1 X73.528 Y37.173 Z-0.08 F17.
G3 X72.821 Y37.881 I-0.354 J0.354
G1 X64.946 Y30.005 Z-0.168
G3 X65.653 Y29.298 I0.354 J-0.354
G1 X73.528 Y37.173 Z-0.255
G3 X72.821 Y37.881 I-0.354 J0.354
G1 X68.883 Y33.943 Z-0.299
G3 X70.654 Y32.1 I0.904 J-0.904
G1 X70.662 Y32.107
X70.731 Y32.166 F600.
X70.843 Y32.251
X70.91 Y32.297 F60.
X70.982 Y32.336
X71.013 Y32.351
X71.022 Y32.419 F600.
X71.037 Y32.486
X71.082 Y32.653
X71.101 Y32.714
X71.125 Y32.773
X71.308 Y33.18
X71.333 Y33.231
X71.361 Y33.28
X71.427 Y33.383
X71.464 Y33.436
X71.505 Y33.486
X71.597 Y33.589
X71.639 Y33.633 F60.
X71.71 Y33.701
X71.733 Y33.767 F600.
X71.761 Y33.831
X71.83 Y33.968
X71.861 Y34.022
X71.895 Y34.075
X72.016 Y34.242
X72.062 Y34.3
X72.114 Y34.354
X72.229 Y34.463
X72.293 Y34.517
X72.362 Y34.564
X72.512 Y34.656
X72.586 Y34.695
X72.664 Y34.727
X72.813 Y34.779
X72.888 Y34.801
X72.964 Y34.816
X73.114 Y34.837
X73.188 Y34.844
X73.261
X73.404 Y34.837
X73.474 Y34.831
X73.545 Y34.818
X73.683 Y34.786
X73.754 Y34.766
X73.823 Y34.74
X73.961 Y34.68
X74.029 Y34.646
X74.094 Y34.606
X75.062 Y33.941
X75.148 Y33.872
X75.253 Y33.776 F60.
X75.355 Y33.759 F600.
X75.434 Y33.742
X75.511 Y33.717
X75.942 Y33.55
X76.015 Y33.518
X76.084 Y33.479
X76.237 Y33.381
X76.309 Y33.329
X76.374 Y33.27
X76.71 Y32.93
X76.754 Y32.881
X76.794 Y32.829
X76.902 Y32.677
X76.951 Y32.597
X76.99 Y32.512
X77.16 Y32.085
X77.186 Y32.007
X77.221 Y31.882
X77.237 Y31.813
X77.247 Y31.743
X77.263 Y31.576
X77.265 Y31.463
X77.245 Y31.023
X77.239 Y30.956
X77.227 Y30.889
X77.191 Y30.726
X77.17 Y30.648
X77.14 Y30.573
X76.913 Y30.063
X76.877 Y29.992
X76.834 Y29.926
X76.734 Y29.785
X76.698 Y29.739
X76.66 Y29.696
X76.465 Y29.493 F60.
X76.445 Y29.435 F600.
X76.421 Y29.378
X76.342 Y29.211
X76.308 Y29.148
X76.269 Y29.088
X76.149 Y28.92
X76.103 Y28.862
X76.051 Y28.808
X75.94 Y28.702
X75.886 Y28.655
X75.827 Y28.613
X75.716 Y28.54
X75.648 Y28.5
X75.577 Y28.467
X75.41 Y28.4
X75.327 Y28.372
X75.241 Y28.353
X75.074 Y28.326
X74.99 Y28.317 F60.
X74.906
X74.889
X74.865 Y28.079 F600.
X74.858 Y28.026
X74.811 Y27.748
X74.794 Y27.671
X74.769 Y27.596
X74.686 Y27.378
X74.653 Y27.305
X74.614 Y27.235
X74.362 Y26.84
X74.327 Y26.79
X74.135 Y26.535
X74.082 Y26.471
X74.021 Y26.412
X73.795 Y26.216
X73.761 Y26.188
X73.426 Y25.929
X73.375 Y25.892
X73.322 Y25.86
X73.127 Y25.754
X73.052 Y25.717
X72.974 Y25.689
X72.726 Y25.615
X72.651 Y25.597
X72.257 Y25.519
X72.174 Y25.507
X72.091 Y25.504
X71.914 Y25.507 F60.
X71.934 Y25.394 F600.
X71.943 Y25.31
X71.944 Y25.226
X71.937 Y25.059
X71.928 Y24.974
X71.911 Y24.89
X71.866 Y24.723
X71.844 Y24.652
X71.815 Y24.583
X71.761 Y24.471
X71.73 Y24.413
X71.695 Y24.359
X71.618 Y24.248
X71.573 Y24.19
X71.523 Y24.136
X71.41 Y24.026
X71.355 Y23.977
X70.298 Y23.119
X70.248 Y23.081
X70.194 Y23.048
X70.048 Y22.964
X69.971 Y22.925
X69.89 Y22.894
X69.723 Y22.842
X69.665 Y22.826 F60.
X69.638 Y22.771 F600.
X69.598 Y22.698
X69.551 Y22.63
X69.443 Y22.491
X69.39 Y22.43
X69.332 Y22.374
X69.222 Y22.28
X69.139 Y22.218
X68.357 Y21.709
X68.297 Y21.673
X68.233 Y21.643
X68.109 Y21.59
X68.053 Y21.569 F60.
X67.997 Y21.552
X67.903 Y21.448 F600.
X67.86 Y21.404
X67.814 Y21.363
X67.741 Y21.304
X67.673 Y21.254
X66.462 Y20.465
X66.386 Y20.422
X66.305 Y20.386
X66.138 Y20.324
X66.055 Y20.299 F60.
X65.97 Y20.282
X65.956 Y20.28
X65.94 Y20.261
X65.881 Y20.198 F600.
X65.815 Y20.141
X65.68 Y20.038
X65.63 Y20.002
X65.577 Y19.971
X64.331 Y19.291
X64.268 Y19.26
X64.202 Y19.235
X64.051 Y19.184
X63.972 Y19.162
X63.891 Y19.149
X63.724 Y19.129
X63.64 Y19.124
X63.556 Y19.128
X63.389 Y19.144
X63.31 Y19.156
X63.232 Y19.175
X63.087 Y19.22
X63.012 Y19.247 F60.
X62.941 Y19.281
X62.867 Y19.321
X62.842 Y19.169 F600.
X62.823 Y19.085
X62.795 Y19.004
X62.73 Y18.842
X62.694 Y18.765
X62.65 Y18.692
X62.556 Y18.554
X62.51 Y18.494
X62.459 Y18.438
X62.363 Y18.343
X62.31 Y18.295
X62.254 Y18.252
X62.132 Y18.168
X62.068 Y18.129
X62.002 Y18.095
X61.807 Y18.01
X61.746 Y17.986
X61.682 Y17.967
X61.531 Y17.928
X61.456 Y17.913
X61.379 Y17.905
X61.225 Y17.897
X61.147
X61.069 Y17.904
X60.911 Y17.927
X60.83 Y17.943
X60.752 Y17.967
X60.594 Y18.025
X60.519 Y18.057
X60.448 Y18.097
X60.315 Y18.179
X60.251 Y18.224
X60.191 Y18.274
X58.537 Y19.826
X58.245 Y20.1 F60.
X58.224 Y20.104 F600.
X58.057 Y20.141
X57.972 Y20.164
X57.89 Y20.197
X57.726 Y20.273
X57.655 Y20.311
X57.588 Y20.356
X57.474 Y20.441
X57.416 Y20.489
X57.363 Y20.542
X57.256 Y20.659
X57.209 Y20.715
X57.168 Y20.775
X57.099 Y20.886
X57.066 Y20.944
X57.038 Y21.003
X56.948 Y21.222
X56.913 Y21.327
X56.9 Y21.378
X56.888 Y21.433
X56.88 Y21.489
X56.861 Y21.66
X56.856 Y21.747
X56.861 Y21.834
X56.88 Y22.007
X56.894 Y22.093
X56.918 Y22.177
X56.975 Y22.344
X57.003 Y22.415
X57.038 Y22.482
X57.102 Y22.593
X57.139 Y22.653
X57.182 Y22.708
X57.28 Y22.825
X57.336 Y22.886
X57.399 Y22.94
X57.541 Y23.051
X57.597 Y23.091
X57.657 Y23.126
X57.742 Y23.171
X57.798 Y23.198
X59.024 Y23.732
X59.091 Y23.758
X59.16 Y23.777
X59.327 Y23.816
X59.408 Y23.831 F60.
X59.49 Y23.837
X59.5 Y23.847
X59.556 Y23.899 F600.
X59.617 Y23.945
X59.736 Y24.027
X59.799 Y24.066
X59.866 Y24.099
X60.877 Y24.545
X60.947 Y24.572
X61.02 Y24.592
X61.049 Y24.599
X61.079 Y24.624
X61.215 Y24.737
X61.275 Y24.781
X61.338 Y24.82
X62.582 Y25.502
X62.638 Y25.529
X62.696 Y25.553
X62.858 Y25.611
X62.914 Y25.628
X62.966 Y25.671
X63.097 Y25.771
X63.14 Y25.801
X64.251 Y26.533
X64.321 Y26.574
X64.771 Y26.808
X64.833 Y26.837
X64.898 Y26.861
X65.066 Y26.914
X65.142 Y26.934
X65.22 Y26.946
X65.428 Y26.968 F60.
X65.455 Y27.035 F600.
X65.512 Y27.157
X65.547 Y27.223
X65.587 Y27.286
X65.684 Y27.42
X65.719 Y27.465
X65.757 Y27.507
X65.8 Y27.552
X65.87 Y27.615
X67.924 Y29.289
X67.972 Y29.325
X68.022 Y29.357
X68.133 Y29.423
X68.196 Y29.456 F60.
X68.239 Y29.516 F600.
X68.304 Y29.594
X69.303 Y30.653
X69.358 Y30.706
X69.417 Y30.753
X69.526 Y30.831 F60.
X69.589 Y30.872
X69.603 Y30.897 F600.
X69.667 Y31.008
X69.703 Y31.065
X69.744 Y31.118
X69.837 Y31.229
X69.868 Y31.265
X70.634 Y32.079
X70.662 Y32.107
X70.729 Y32.178 Z-0.289
X70.789 Y32.255 Z-0.28
X70.839 Y32.334 Z-0.251
X70.881 Y32.418 Z-0.223
X70.913 Y32.498 Z-0.177
X70.938 Y32.581 Z-0.131
X70.954 Y32.655 Z-0.068
X70.964 Y32.73 Z-0.006
X70.969 Y32.854 Z0.145
X70.962 Y32.946 Z0.318
X70.954 Y33.003 Z0.506
X70.95 Y33.021 Z0.701
G0 Z5.
X76.535 Y28.435
Z1.8
G1 Z0.701 F600.
X76.541 Y28.431 Z0.58
X76.56 Y28.42 Z0.462
X76.591 Y28.401 Z0.346
X76.633 Y28.375 Z0.236
X76.686 Y28.343 Z0.133
X76.75 Y28.304 Z0.038
X76.823 Y28.259 Z-0.048
X76.904 Y28.21 Z-0.122
X76.992 Y28.156 Z-0.185
X77.086 Y28.098 Z-0.234
X77.184 Y28.038 Z-0.27
X77.286 Y27.976 Z-0.292
X77.388 Y27.913 Z-0.299
X79.131 Y26.848
G3 X80.506 Y27.18 I0.522 J0.853
G1 X80.523 Y27.207
X81.417 Y28.544
X81.478 Y28.623
X81.914 Y29.125
X81.929 Y29.142
X82.164 Y29.397
X82.436 Y29.691 F60.
X82.439 Y29.798 F600.
X82.446 Y29.882
X82.462 Y29.966
X82.504 Y30.133
X82.529 Y30.214
X82.562 Y30.293
X82.672 Y30.515
X82.683 Y30.536
X83.335 Y31.762
X83.378 Y31.834
X83.604 Y32.168
X83.627 Y32.201
X84.007 Y32.706
X84.248 Y33.025 F60.
X84.242 Y33.076
X84.236 Y33.16 F600.
X84.239 Y33.244
X84.254 Y33.411
X84.267 Y33.495
X84.288 Y33.578
X84.34 Y33.745
X84.363 Y33.806
X84.958 Y35.265
X84.998 Y35.348
X85.177 Y35.672
X85.191 Y35.697
X85.491 Y36.197
X85.696 Y36.541 F60.
X85.677 Y36.628
X85.664 Y36.711 F600.
X85.66 Y36.796
X85.661 Y36.963
X85.664 Y37.033
X85.674 Y37.103
X85.694 Y37.214
X85.713 Y37.293
X86.166 Y38.853
X86.199 Y38.944
X86.367 Y39.337
X86.378 Y39.362
X86.611 Y39.858
X86.781 Y40.22 F60.
X86.758 Y40.29
X86.738 Y40.369 F600.
X86.725 Y40.449
X86.709 Y40.601
X86.704 Y40.675
X86.707 Y40.75
X86.718 Y40.895
X86.728 Y40.966
X86.965 Y42.333
X86.987 Y42.426
X87.408 Y43.819
X87.429 Y43.88
X87.455 Y43.94
X87.538 Y44.107
X87.559 Y44.147
X88.221 Y45.319
X88.281 Y45.41
X88.406 Y45.575
X88.451 Y45.628
X88.704 Y45.906
X88.974 Y46.202 F60.
X89.008 Y46.237
X88.97 Y46.473 F600.
X88.962 Y46.546
X88.96 Y46.619
X88.963 Y46.757
X88.968 Y46.822
X88.977 Y46.886
X89.004 Y47.024
X89.079 Y47.417 F60.
X89.04 Y47.467 F600.
X88.559 Y48.139
X88.523 Y48.195
X88.488 Y48.254
X88.443 Y48.342
X88.054 Y49.233
X88.049 Y49.245
X87.84 Y49.746
X87.819 Y49.803
X87.802 Y49.862
X87.761 Y50.029
X87.751 Y50.074
X87.502 Y51.411
X87.49 Y51.503
X87.398 Y52.896
X87.396 Y52.962
X87.4 Y53.028
X87.417 Y53.195
X87.43 Y53.28
X87.452 Y53.363
X87.502 Y53.514 F60.
X87.496 Y53.526
X87.474 Y53.585 F600.
X87.114 Y54.643
X87.102 Y54.683
X87.008 Y55.017
X86.99 Y55.095
X86.715 Y56.655
X86.706 Y56.73
X86.703 Y56.804
X86.706 Y56.972
X86.712 Y57.056
X86.727 Y57.14
X86.765 Y57.307 F60.
X86.774 Y57.34
X86.766 Y57.357 F600.
X86.377 Y58.197
X86.366 Y58.222
X86.182 Y58.656
X86.151 Y58.746
X85.702 Y60.306
X85.685 Y60.377
X85.675 Y60.449
X85.659 Y60.616
X85.655 Y60.7
X85.66 Y60.784
X85.68 Y60.952 F60.
X85.685 Y60.987
X85.668 Y61.013 F600.
X85.045 Y62.072
X85.019 Y62.119
X84.907 Y62.342
X84.88 Y62.402
X84.298 Y63.85
X84.273 Y63.925
X84.254 Y64.002
X84.224 Y64.17
X84.213 Y64.253
X84.211 Y64.338
X84.216 Y64.505 F60.
X84.217 Y64.528
X83.775 Y65.119 F600.
X83.764 Y65.133
X83.381 Y65.67
X83.326 Y65.76
X82.548 Y67.229
X82.512 Y67.308
X82.484 Y67.391
X82.439 Y67.558
X82.421 Y67.642
X82.412 Y67.727
X82.403 Y67.894
Y67.978
X82.412 Y68.062
X82.44 Y68.229
X82.458 Y68.314
X82.486 Y68.397
X82.554 Y68.564
X82.59 Y68.642
X82.634 Y68.716
X82.727 Y68.851
X82.775 Y68.915
X82.829 Y68.973
X82.94 Y69.08
X83.002 Y69.135
X83.069 Y69.182
X83.217 Y69.276
X83.295 Y69.319 F60.
X83.376 Y69.353
X83.457 Y69.382
X83.43 Y69.469 F600.
X83.221 Y70.305
X83.208 Y70.366
X83.201 Y70.429
X83.062 Y72.045
X83.059 Y72.105
X83.061 Y72.166
X83.072 Y72.333
X83.081 Y72.412
X83.099 Y72.49
X83.138 Y72.634
X83.162 Y72.708
X83.194 Y72.779
X83.266 Y72.923
X83.304 Y72.991
X83.348 Y73.054
X83.44 Y73.172
X83.49 Y73.231
X83.545 Y73.284
X83.663 Y73.387
X83.721 Y73.433
X83.783 Y73.473
X83.901 Y73.543
X83.959 Y73.574
X84.019 Y73.6
X84.137 Y73.645
X84.208 Y73.669
X84.28 Y73.685
X84.447 Y73.715
X84.531 Y73.726
X84.615 Y73.728
X84.783 Y73.722
X84.865 Y73.715
X84.946 Y73.7
X85.104 Y73.661
X85.178 Y73.639
X85.249 Y73.609
X85.388 Y73.545
X85.429 Y73.524
X86.136 Y73.144
X86.204 Y73.102
X86.908 Y72.627
X86.986 Y72.566
X87.508 Y72.108
X87.573 Y72.044
X87.685 Y71.921
X87.712 Y71.889
X87.835 Y71.738 F60.
X87.896 Y71.773 F600.
X87.96 Y71.802
X88.093 Y71.856
X88.164 Y71.881 F60.
X88.237 Y71.899
X88.304 Y71.912
X87.329 Y73.467 F600.
X85.803 Y75.59
X85.718 Y75.697
X85.47 Y76.011 F60.
X85.449 Y75.968 F600.
X85.371 Y75.825
X85.336 Y75.767
X85.296 Y75.711
X85.227 Y75.624
X85.188 Y75.578
X85.146 Y75.536
X83.867 Y74.345
X83.807 Y74.294
X83.743 Y74.25
X83.605 Y74.165
X83.532 Y74.125
X83.455 Y74.093
X83.296 Y74.036
X83.215 Y74.011
X83.132 Y73.996
X82.964 Y73.974
X82.881 Y73.967
X82.796 Y73.97
X82.629 Y73.983
X82.553 Y73.993
X82.478 Y74.011
X82.343 Y74.049
X82.268 Y74.074 F60.
X82.196 Y74.107
X82.123 Y74.145
X81.339 Y73.417 F600.
X81.291 Y73.376
X81.24 Y73.339
X81.129 Y73.265
X81.061 Y73.224
X80.99 Y73.19
X80.822 Y73.122
X80.74 Y73.093
X80.654 Y73.073
X80.487 Y73.044
X80.403 Y73.035
X80.319 Y73.034
X80.151 Y73.041
X80.067 Y73.049 F60.
X79.983 Y73.067
X79.942 Y73.077
X79.86 Y73.002 F600.
X79.791 Y72.946
X79.716 Y72.899
X79.571 Y72.816
X79.495 Y72.778
X79.416 Y72.749
X79.251 Y72.698
X79.169 Y72.677
X79.084 Y72.665
X78.917 Y72.65
X78.833 Y72.647
X78.749 Y72.654
X78.582 Y72.675
X78.5 Y72.689
X78.421 Y72.712
X78.267 Y72.765
X78.195 Y72.795
X78.125 Y72.831
X77.995 Y72.908
X77.927 Y72.953
X77.863 Y73.005
X77.732 Y73.124
X77.68 Y73.176
X75.732 Y75.31
X75.693 Y75.356
X75.658 Y75.404
X75.583 Y75.516
X75.543 Y75.583
X75.509 Y75.655
X75.441 Y75.822
X75.412 Y75.905
X75.392 Y75.99
X75.364 Y76.157
X75.355 Y76.235 F60.
X75.353 Y76.313
X75.334 Y76.317 F600.
X74.777 Y76.439
X74.705 Y76.458
X74.635 Y76.484
X73.966 Y76.77
X73.899 Y76.803
X73.836 Y76.841
X73.221 Y77.252
X73.166 Y77.293
X73.115 Y77.337
X72.604 Y77.825
X72.529 Y77.907
X72.434 Y78.027
X72.408 Y78.062
X72.055 Y78.563
X72.015 Y78.624
X71.982 Y78.689
X71.7 Y79.303
X71.676 Y79.36
X71.657 Y79.419
X71.619 Y79.554
X71.608 Y79.597
X71.477 Y80.185
X71.464 Y80.26
X71.458 Y80.337
X71.441 Y81.006
X71.442 Y81.07
X71.448 Y81.135
X71.471 Y81.302
X71.479 Y81.344
X71.59 Y81.917
X71.608 Y81.991
X71.633 Y82.062
X71.895 Y82.715
X71.926 Y82.782
X71.963 Y82.846
X72.318 Y83.403
X72.35 Y83.448
X72.442 Y83.573
X72.505 Y83.648
X72.977 Y84.143
X73.027 Y84.192
X73.082 Y84.235
X73.452 Y84.507
X73.476 Y84.523
X73.72 Y84.69
X73.782 Y84.728
X73.847 Y84.76
X74.483 Y85.039
X74.557 Y85.068
X74.634 Y85.088
X75.224 Y85.217
X75.286 Y85.228
X75.453 Y85.25
X75.511 Y85.256
X75.57 Y85.257
X75.687 Y85.256 F60.
X75.435 Y85.439 F600.
X73.718 Y86.53
X73.38 Y86.745 F60.
X73.371 Y86.68 F600.
X73.357 Y86.615
X73.312 Y86.448
X73.289 Y86.376
X73.26 Y86.306
X73.132 Y86.042
X73.093 Y85.971
X73.047 Y85.905
X72.95 Y85.779
X72.899 Y85.719
X72.843 Y85.664
X72.726 Y85.562
X72.662 Y85.512
X72.594 Y85.469
X72.447 Y85.386
X72.38 Y85.352
X72.312 Y85.325
X72.192 Y85.285
X72.121 Y85.264
X72.049 Y85.25
X71.881 Y85.227
X71.797 Y85.219 F60.
X71.713 Y85.221
X71.653 Y85.225
X71.038 Y84.824 F600.
X70.037 Y84.15
X69.706 Y83.927 F60.
X69.593 Y83.686
X69.662 Y83.597 F600.
X69.708 Y83.528
X69.748 Y83.455
X69.814 Y83.314
X69.845 Y83.238
X69.868 Y83.16
X69.908 Y82.992
X69.923 Y82.909
X69.929 Y82.824
X69.933 Y82.657
X69.93 Y82.573
X69.918 Y82.489
X69.885 Y82.322
X69.864 Y82.237
X69.833 Y82.155
X69.711 Y81.877
X69.681 Y81.817
X69.647 Y81.76
X69.574 Y81.648
X69.534 Y81.593
X69.49 Y81.541
X69.395 Y81.44
X69.345 Y81.392
X69.291 Y81.347
X69.18 Y81.264
X69.112 Y81.219
X69.041 Y81.181
X68.873 Y81.103
X68.791 Y81.07
X68.705 Y81.046
X68.538 Y81.01
X68.454 Y80.996
X68.37 Y80.992
X68.202
X68.118 Y80.996
X68.034 Y81.01
X67.867 Y81.046
X67.782 Y81.07
X67.701 Y81.102
X67.137 Y81.365
X67.128 Y81.369
X64.771 Y82.499
X64.697 Y82.539
X64.628 Y82.587
X64.494 Y82.691
X64.427 Y82.749
X64.367 Y82.813
X64.251 Y82.953
X64.2 Y83.024
X64.156 Y83.099
X64.08 Y83.248
X64.047 Y83.322 F60.
X64.022 Y83.398
X63.98 Y83.375
X63.902 Y83.334 F600.
X63.82 Y83.301
X63.659 Y83.248
X63.577 Y83.226
X63.494 Y83.212
X63.327 Y83.195
X63.243 Y83.19
X63.158 Y83.195
X62.991 Y83.212
X62.915 Y83.224
X62.84 Y83.243
X59.998 Y84.123
X59.938 Y84.144
X59.88 Y84.17
X59.769 Y84.226
X59.711 Y84.257
X59.657 Y84.293
X59.545 Y84.374
X59.486 Y84.42 F60.
X59.432 Y84.472
X59.379 Y84.529
X59.351 Y84.518
X59.268 Y84.49 F600.
X59.182 Y84.473
X59.015 Y84.447
X58.945 Y84.439
X58.875 Y84.438
X58.764 Y84.441
X58.703 Y84.445
X58.644 Y84.453
X55.745 Y84.972
X55.683 Y84.986
X55.621 Y85.005
X55.454 Y85.064
X55.383 Y85.093
X55.315 Y85.129
X55.203 Y85.195
X55.144 Y85.233
X55.088 Y85.277
X54.971 Y85.379 F60.
X54.95 Y85.397
X54.667 Y85.261 F600.
X54.599 Y85.233
X54.53 Y85.211
X54.418 Y85.181
X54.357 Y85.167
X54.295 Y85.158
X53.459 Y85.072
X53.384 Y85.067
X53.308 Y85.07
X53.141 Y85.085
X53.067 Y85.095
X52.459 Y85.207
X52.379 Y85.226
X52.301 Y85.253
X52.184 Y85.301 F60.
X52.079 Y85.265 F600.
X51.912 Y85.22
X51.829 Y85.202
X51.744 Y85.193
X51.577 Y85.185
X51.52 Y85.184
X51.463 Y85.188
X51.205 Y85.212
X51.126 Y85.224
X51.049 Y85.243
X50.902 Y85.288
X50.825 Y85.316 F60.
X50.751 Y85.351
X50.674 Y85.394
X49.107 Y85.262 F600.
X49.037 Y85.26
X48.968 Y85.263
X48.811 Y85.277
X48.738 Y85.288
X48.666 Y85.304
X48.533 Y85.342 F60.
X48.479 Y85.36
X48.408 Y85.319 F600.
X48.333 Y85.281
X48.253 Y85.251
X48.1 Y85.202
X48.019 Y85.181
X47.936 Y85.169
X47.49 Y85.125
X47.478 Y85.124
X44.97 Y84.919
X44.91 Y84.916 F60.
X44.849 Y84.918
X44.768 Y84.878 F600.
X44.708 Y84.851
X44.646 Y84.829
X44.523 Y84.792
X44.478 Y84.78
X39.907 Y83.683
X39.847 Y83.671
X39.785 Y83.664
X39.618 Y83.65
X39.534 Y83.648
X39.45 Y83.655
X39.283 Y83.677
X39.197 Y83.693
X39.114 Y83.719
X38.947 Y83.78
X38.876 Y83.81
X38.808 Y83.847
X38.697 Y83.915
X38.637 Y83.955
X38.581 Y84.
X38.464 Y84.105
X38.41 Y84.158 F60.
X38.361 Y84.216
X38.347 Y83.891 F600.
X38.342 Y83.828
X38.332 Y83.766
X38.299 Y83.599
X38.276 Y83.514
X38.245 Y83.431
X38.17 Y83.264
X38.133 Y83.192
X38.09 Y83.125
X38.01 Y83.014
X37.961 Y82.952
X37.906 Y82.896
X37.776 Y82.775
X37.712 Y82.722
X37.643 Y82.675
X37.51 Y82.596
X37.456 Y82.566
X37.399 Y82.541
X37.176 Y82.451
X37.106 Y82.427
X37.035 Y82.409
X36.868 Y82.376
X36.784 Y82.364
X36.7 Y82.36
X36.532 Y82.363
X36.448 Y82.369
X36.364 Y82.384
X36.197 Y82.423
X36.111 Y82.449
X36.028 Y82.483
X35.861 Y82.566
X35.789 Y82.606
X35.721 Y82.653
X35.609 Y82.741
X35.538 Y82.804
X35.194 Y83.146 F60.
X35.212 Y83.082
X35.231 Y82.999 F600.
X35.241 Y82.914
X35.252 Y82.747
X35.253 Y82.663
X35.245 Y82.579
X35.219 Y82.412
X35.202 Y82.327
X35.175 Y82.244
X35.11 Y82.076
X35.078 Y82.005
X35.04 Y81.938
X34.969 Y81.826
X34.927 Y81.766
X34.88 Y81.71
X34.771 Y81.593
X34.718 Y81.542
X34.661 Y81.495
X34.553 Y81.416
X34.472 Y81.364
X31.906 Y79.915
X31.837 Y79.88
X31.765 Y79.853
X31.611 Y79.802 F60.
X31.541 Y79.782
X31.533 Y79.766
X31.498 Y79.706 F600.
X31.457 Y79.649
X31.365 Y79.529
X31.325 Y79.482
X31.282 Y79.438
X31.214 Y79.373
X31.141 Y79.312
X30.942 Y79.165
X30.876 Y79.121
X30.806 Y79.084
X30.639 Y79.006
X30.556 Y78.973
X30.47 Y78.949
X30.303 Y78.913
X30.219 Y78.9
X30.135 Y78.895
X29.968 Y78.896
X29.887 Y78.9
X29.808 Y78.912
X29.641 Y78.947
X29.602 Y78.956
X29.225 Y79.053 F60.
X29.235 Y78.974 F600.
X29.238 Y78.893
X29.234 Y78.726
X29.228 Y78.642
X29.213 Y78.558
X29.173 Y78.391
X29.148 Y78.307
X29.114 Y78.225
X29.035 Y78.064
X28.99 Y77.984
X28.936 Y77.91
X28.819 Y77.767
X28.757 Y77.7
X28.688 Y77.64
X28.278 Y77.326
X28.268 Y77.318
X27.043 Y76.41
X26.98 Y76.368
X26.912 Y76.331
X26.799 Y76.278
X26.73 Y76.249
X26.659 Y76.226
X26.492 Y76.182
X26.408 Y76.165
X26.323 Y76.157
X26.158 Y76.15 F60.
X26.138 Y76.038 F600.
X26.12 Y75.962
X26.057 Y75.739
X26.036 Y75.677
X26.011 Y75.618
X25.838 Y75.25
X25.816 Y75.207
X25.682 Y74.963
X25.645 Y74.902
X25.603 Y74.844
X25.1 Y74.223
X25.049 Y74.166
X24.993 Y74.114
X24.737 Y73.899
X24.715 Y73.882
X24.171 Y73.457
X24.117 Y73.419
X24.061 Y73.385
X23.91 Y73.303
X23.839 Y73.269
X23.765 Y73.242
X23.123 Y73.045
X23.091 Y73.036
X22.868 Y72.978
X22.792 Y72.962
X22.714 Y72.954
X22.547 Y72.944
X22.485 Y72.943
X22.422 Y72.946
X22.199 Y72.968
X22.108 Y72.983
X21.551 Y73.104
X21.443 Y73.135
X21.223 Y73.217
X21.148 Y73.25
X21.076 Y73.29
X20.916 Y73.391
X20.869 Y73.423
X20.191 Y73.922
X20.146 Y73.957
X20.104 Y73.996
X18.809 Y75.27
X18.524 Y75.551 F60.
X18.401 Y75.523 F600.
X18.314 Y75.507
X18.226 Y75.502
X18.052 Y75.501
X17.964 Y75.505
X17.877 Y75.52
X17.704 Y75.558
X17.616 Y75.582
X17.532 Y75.617
X17.365 Y75.697
X17.293 Y75.735
X17.226 Y75.781
X17.114 Y75.866
X17.04 Y75.93
X16.985 Y75.985
X16.965 Y76.005
X16.834 Y76.143
X16.782 Y76.203 F60.
X16.736 Y76.269
X16.718 Y76.297
X16.523 Y76.058 F600.
X15.997 Y75.372
X14.582 Y73.395
X13.89 Y72.285
X13.679 Y71.945 F60.
X13.693 Y71.944 F600.
X13.86 Y71.933
X13.945 Y71.922
X14.029 Y71.902
X14.196 Y71.854
X14.268 Y71.829
X14.337 Y71.797
X14.451 Y71.738 F60.
X14.665 Y71.996 F600.
X14.708 Y72.044
X14.755 Y72.089
X15.346 Y72.604
X15.428 Y72.667
X16.116 Y73.123
X16.181 Y73.162
X16.943 Y73.569
X17.009 Y73.601
X17.078 Y73.626
X17.245 Y73.679
X17.329 Y73.7
X17.414 Y73.712
X17.581 Y73.727
X17.665 Y73.73
X17.749 Y73.724
X17.916 Y73.703
X18.001 Y73.688
X18.085 Y73.663
X18.252 Y73.604
X18.332 Y73.57
X18.408 Y73.528
X18.551 Y73.438
X18.615 Y73.394
X18.674 Y73.344
X18.776 Y73.247
X18.825 Y73.197
X18.869 Y73.143
X18.951 Y73.031
X18.996 Y72.964
X19.034 Y72.892
X19.111 Y72.725
X19.144 Y72.643
X19.168 Y72.557
X19.203 Y72.39
X19.217 Y72.307
X19.221 Y72.223
Y72.055
X19.217 Y71.987
X19.074 Y70.371
X19.066 Y70.308
X19.052 Y70.245
X18.952 Y69.853
X18.853 Y69.465 F60.
X18.829 Y69.387
X18.873 Y69.368 F600.
X19.04 Y69.292
X19.112 Y69.255
X19.179 Y69.21
X19.291 Y69.129
X19.344 Y69.086
X19.393 Y69.04
X19.485 Y68.944
X19.531 Y68.891
X19.573 Y68.835
X19.656 Y68.71
X19.699 Y68.639
X19.733 Y68.564
X19.801 Y68.397
X19.829 Y68.314
X19.847 Y68.229
X19.875 Y68.062
X19.884 Y67.978
Y67.894
X19.875 Y67.727
X19.866 Y67.642
X19.848 Y67.558
X19.803 Y67.391
X19.775 Y67.308
X19.739 Y67.229
X18.967 Y65.771
X18.913 Y65.682
X18.523 Y65.134
X18.509 Y65.115
X18.308 Y64.85
X18.066 Y64.532 F60.
X18.075 Y64.449
X18.079 Y64.365 F600.
X18.074 Y64.281
X18.055 Y64.114
X18.042 Y64.032
X18.02 Y63.951
X17.964 Y63.784
X17.946 Y63.737
X17.384 Y62.348
X17.351 Y62.278
X17.262 Y62.107
X17.242 Y62.071
X16.828 Y61.37
X16.624 Y61.026 F60.
X16.635 Y60.979
X16.65 Y60.902 F600.
X16.657 Y60.824
X16.663 Y60.667
X16.662 Y60.586
X16.653 Y60.505
X16.624 Y60.337
X16.604 Y60.249
X16.169 Y58.745
X16.137 Y58.653
X15.923 Y58.152
X15.913 Y58.13
X15.716 Y57.706
X15.548 Y57.343 F60.
X15.571 Y57.27 F600.
X15.587 Y57.195
X15.613 Y57.028
X15.621 Y56.958
X15.623 Y56.888
X15.62 Y56.776
X15.617 Y56.715
X15.608 Y56.654
X15.321 Y55.038
X15.299 Y54.947
X15.178 Y54.547
X15.169 Y54.518
X14.957 Y53.904
X14.827 Y53.525 F60.
X14.82 Y53.508
X14.868 Y53.357 F600.
X14.889 Y53.277
X14.902 Y53.195
X14.919 Y53.028
X14.923 Y52.962
X14.921 Y52.897
X14.829 Y51.504
X14.817 Y51.409
X14.544 Y49.96
X14.518 Y49.859
X14.481 Y49.748
X14.458 Y49.685
X14.078 Y48.794
X14.073 Y48.782
X13.875 Y48.337
X13.825 Y48.241
X13.756 Y48.13
X13.722 Y48.081
X13.485 Y47.755
X13.25 Y47.432 F60.
X13.279 Y47.333 F600.
X13.318 Y47.166
X13.335 Y47.062
X13.366 Y46.727
X13.369 Y46.655
X13.366 Y46.582
X13.336 Y46.248 F60.
X13.333 Y46.224
X13.349 Y46.207 F600.
X13.877 Y45.629
X13.914 Y45.585
X14.02 Y45.451
X14.055 Y45.402
X14.087 Y45.351
X14.8 Y44.092
X14.84 Y44.011
X14.911 Y43.843
X14.94 Y43.761
X15.34 Y42.424
X15.362 Y42.33
X15.609 Y40.882
X15.618 Y40.801
X15.62 Y40.72
X15.613 Y40.552
X15.606 Y40.468
X15.589 Y40.384
X15.546 Y40.217 F60.
X15.544 Y40.209
X16.032 Y39.147 F600.
X16.045 Y39.118
X16.128 Y38.914
X16.157 Y38.832
X16.616 Y37.235
X16.635 Y37.156
X16.645 Y37.075
X16.657 Y36.908
X16.659 Y36.824
X16.652 Y36.74
X16.629 Y36.573 F60.
X16.628 Y36.566
X17.242 Y35.528 F600.
X17.256 Y35.502
X17.346 Y35.337
X17.383 Y35.258
X17.997 Y33.75
X18.018 Y33.692
X18.034 Y33.634
X18.074 Y33.466
X18.089 Y33.383
X18.095 Y33.298
X18.098 Y33.131
X18.093 Y33.022 F60.
X18.108 Y33.001 F600.
X18.709 Y32.199
X18.731 Y32.168
X18.957 Y31.834
X19.001 Y31.761
X19.745 Y30.358
X19.775 Y30.295
X19.799 Y30.229
X19.849 Y30.072
X19.871 Y29.992
X19.883 Y29.909
X19.9 Y29.742 F60.
X19.903 Y29.71
X19.909 Y29.703 F600.
X20.425 Y29.139
X20.437 Y29.125
X20.873 Y28.624
X20.934 Y28.544
X21.829 Y27.207
X21.863 Y27.151
X21.893 Y27.093
X21.968 Y26.925
X22. Y26.843
X22.023 Y26.757
X22.057 Y26.59
X22.069 Y26.506
X22.073 Y26.422
X22.071 Y26.255
X22.065 Y26.17
X22.051 Y26.087
X22.013 Y25.919
X21.988 Y25.833
X21.953 Y25.751
X21.872 Y25.584
X21.83 Y25.507
X21.78 Y25.436
X21.678 Y25.309
X21.626 Y25.249
X21.568 Y25.195
X21.451 Y25.097
X21.395 Y25.054
X21.336 Y25.016
X21.224 Y24.952 F60.
X21.163 Y24.92
X21.166 Y24.914
X21.192 Y24.862 F600.
X21.214 Y24.808
X21.489 Y24.05
X21.508 Y23.99
X21.522 Y23.928
X21.835 Y22.291
X21.846 Y22.214
X21.849 Y22.136
X21.848 Y21.969
X21.843 Y21.885
X21.829 Y21.801
X21.792 Y21.634
X21.767 Y21.548
X21.734 Y21.466
X21.654 Y21.298
X21.615 Y21.227
X21.569 Y21.16
X21.484 Y21.048
X21.435 Y20.99
X21.38 Y20.936
X21.257 Y20.826
X21.196 Y20.777
X21.132 Y20.735
X21.008 Y20.662
X20.937 Y20.625
X20.863 Y20.595
X20.695 Y20.538
X20.612 Y20.514
X20.527 Y20.5
X20.36 Y20.481
X20.276 Y20.476
X20.192 Y20.48
X20.024 Y20.497
X19.954 Y20.507
X19.885 Y20.523
X19.774 Y20.555
X19.691 Y20.584
X18.911 Y20.904
X18.84 Y20.937
X18.121 Y21.318
X18.034 Y21.373
X17.414 Y21.813
X17.365 Y21.851
X17.319 Y21.893
X17.101 Y22.106 F60.
X17.047 Y22.072 F600.
X16.936 Y22.008
X16.868 Y21.972
X16.797 Y21.944
X16.629 Y21.886
X16.546 Y21.862
X16.461 Y21.847
X16.294 Y21.828
X16.21 Y21.822 F60.
X16.126 Y21.826
X16.084 Y21.83
X16.158 Y21.728 F600.
X16.67 Y21.079
X17.751 Y19.757
X18.322 Y19.1
X19.889 Y17.415
X20.762 Y16.578
X20.857 Y16.489
X21.147 Y16.214 F60.
X21.174 Y16.25 F600.
X21.332 Y16.453
X21.382 Y16.511
X21.437 Y16.563
X21.563 Y16.672
X21.631 Y16.725
X21.703 Y16.77
X21.857 Y16.854
X21.938 Y16.892
X22.022 Y16.921
X22.194 Y16.97
X22.273 Y16.988
X22.354 Y16.998
X22.5 Y17.008
X22.579 Y17.01 F60.
X22.658 Y17.004
X22.706 Y16.997
X23.937 Y18.62 F600.
X24.179 Y18.938 F60.
X24.159 Y18.992 F600.
X24.142 Y19.046
X24.099 Y19.214
X24.082 Y19.297
X24.075 Y19.382
X24.068 Y19.549
X24.069 Y19.633
X24.08 Y19.717
X24.109 Y19.884
X24.129 Y19.969
X24.158 Y20.051
X24.227 Y20.217
X24.267 Y20.3
X24.316 Y20.376
X24.478 Y20.601
X24.514 Y20.647
X24.553 Y20.69
X24.664 Y20.804
X24.718 Y20.854
X24.776 Y20.899
X24.887 Y20.977
X24.954 Y21.02
X25.025 Y21.055
X25.192 Y21.128
X25.274 Y21.159
X25.36 Y21.18
X25.527 Y21.213
X25.61 Y21.224
X25.695 Y21.227
X25.862 Y21.223
X25.947 Y21.217
X26.03 Y21.201
X26.197 Y21.161
X26.278 Y21.137
X26.355 Y21.105
X26.501 Y21.035
X26.574 Y20.995
X26.643 Y20.947
X28.774 Y19.302
X28.841 Y19.244
X29.483 Y18.621
X29.527 Y18.574
X29.568 Y18.524
X29.674 Y18.38
X29.73 Y18.293
X29.845 Y18.087 F60.
X29.91 Y18.09 F600.
X29.976 Y18.088
X30.143 Y18.074
X30.228 Y18.063
X30.311 Y18.043
X30.478 Y17.992
X30.56 Y17.962
X30.638 Y17.923
X30.861 Y17.797
X30.882 Y17.784
X33.23 Y16.358
X33.284 Y16.322
X33.335 Y16.281
X33.461 Y16.173
X33.498 Y16.139
X33.529 Y16.126
X38.1 Y14.05
X38.167 Y14.015
X38.23 Y13.975
X38.256 Y13.957
X38.292 Y13.952
X38.403 Y13.933
X38.491 Y13.913
X43.247 Y12.559
X43.314 Y12.536
X43.379 Y12.508
X43.529 Y12.435
X43.598 Y12.397
X43.662 Y12.352
X43.779 Y12.263
X43.833 Y12.218 F60.
X43.883 Y12.167
X44.032 Y12.219 F600.
X44.137 Y12.248
X44.75 Y12.37
X44.817 Y12.381
X44.884 Y12.385
X45.052 Y12.39
X45.122 Y12.389
X45.512 Y12.365
X45.589 Y12.356
X45.666 Y12.34
X46.325 Y12.165
X46.416 Y12.136 F60.
X46.502 Y12.095
X46.52 Y12.085
X46.566 Y12.099
X46.649 Y12.12 F600.
X46.734 Y12.132
X46.901 Y12.146
X46.983 Y12.149
X47.065 Y12.143
X47.344 Y12.108
X47.413 Y12.096
X47.481 Y12.079
X47.649 Y12.027
X47.726 Y11.998
X47.8 Y11.962
X47.933 Y11.888 F60.
X47.975 Y11.863
X47.995 Y11.865
X48.086 Y11.87 F600.
X50.985 Y11.855
X51.052 Y11.852
X51.776 Y11.787
X51.838 Y11.779
X51.9 Y11.766
X52.067 Y11.724
X52.109 Y11.712
X52.221 Y11.677
X52.602 Y11.558 F60.
X52.647 Y11.542
X52.657 Y11.549 F600.
X52.771 Y11.625
X52.839 Y11.665
X52.911 Y11.699
X53.079 Y11.767
X53.167 Y11.797
X53.258 Y11.816
X54.518 Y12.007
X56.217 Y12.256
X56.282 Y12.262
X56.347 Y12.264
X56.514 Y12.26
X56.579 Y12.256 F60.
X56.644 Y12.247
X56.697 Y12.271 F600.
X56.751 Y12.292
X56.919 Y12.347
X56.985 Y12.366
X57.052 Y12.379
X59.003 Y12.664
X59.044 Y12.668
X59.182 Y12.718
X59.213 Y12.729
X62. Y13.61
X62.109 Y13.636
X62.889 Y13.765
X62.901 Y13.767
X63.199 Y13.812
X63.292 Y13.821
X63.44 Y13.825
X63.544 Y13.822
X64.045 Y13.772
X64.11 Y13.763
X64.175 Y13.748
X64.342 Y13.703
X64.407 Y13.682
X64.797 Y13.54
X64.861 Y13.513
X64.922 Y13.481
X65.034 Y13.416 F60.
X65.061 Y13.4
X65.084 Y13.454 F600.
X65.392 Y14.112
X65.429 Y14.181
X65.472 Y14.246
X65.915 Y14.847
X65.963 Y14.905
X66.016 Y14.959
X66.55 Y15.452
X66.606 Y15.499
X66.667 Y15.541
X67.308 Y15.942
X67.366 Y15.975
X67.427 Y16.003
X68.18 Y16.313
X68.271 Y16.344
X68.382 Y16.374
X68.448 Y16.39
X68.71 Y16.438 F60.
X68.726 Y16.463
X68.765 Y16.519 F600.
X68.809 Y16.571
X68.888 Y16.659
X68.935 Y16.706
X68.985 Y16.749
X69.101 Y16.84
X69.165 Y16.886
X69.234 Y16.925
X69.517 Y17.068
X69.596 Y17.102
X69.678 Y17.128
X69.845 Y17.171
X69.927 Y17.187 F60.
X70.01 Y17.195
X70.056 Y17.197
X70.124 Y17.255 F600.
X75.029 Y20.917
X75.108 Y20.969
X75.219 Y21.033
X75.287 Y21.068
X75.358 Y21.097
X75.525 Y21.154
X75.609 Y21.177
X75.694 Y21.192
X75.861 Y21.211
X75.945 Y21.216
X76.029 Y21.212
X76.196 Y21.195
X76.281 Y21.182
X76.365 Y21.159
X76.532 Y21.104
X76.615 Y21.072
X76.693 Y21.03
X76.847 Y20.938
X76.92 Y20.888
X76.988 Y20.83
X77.115 Y20.709
X77.166 Y20.654
X77.212 Y20.595
X77.37 Y20.372
X77.412 Y20.306
X77.447 Y20.236
X77.522 Y20.069
X77.553 Y19.986
X77.575 Y19.901
X77.609 Y19.734
X77.621 Y19.65
X77.624 Y19.565
X77.621 Y19.398
X77.615 Y19.314
X77.6 Y19.23
X77.56 Y19.063
X77.536 Y18.98 F60.
X77.502 Y18.899
X78.708 Y17.256 F600.
X78.944 Y16.933 F60.
X78.989 Y16.938
X79.061 Y16.942 F600.
X79.133 Y16.94
X79.289 Y16.928
X79.372 Y16.917
X79.454 Y16.897
X79.625 Y16.846
X79.698 Y16.82
X79.769 Y16.787
X79.888 Y16.724
X79.943 Y16.692
X79.995 Y16.656
X80.09 Y16.584
X80.14 Y16.543
X80.186 Y16.499
X80.281 Y16.399
X80.319 Y16.356
X80.354 Y16.311
X80.507 Y16.096
X80.542 Y16.042 F60.
X80.573 Y15.985
X81.795 Y17.142 F600.
X82.069 Y17.411
X83.737 Y19.205
X84.258 Y19.815
X85.44 Y21.261
X85.641 Y21.52
X85.887 Y21.836 F60.
X85.892 Y21.844
X85.839 Y21.856 F600.
X85.672 Y21.899
X85.593 Y21.924
X85.516 Y21.957
X85.373 Y22.029
X85.312 Y22.063 F60.
X85.254 Y22.102
X85.243 Y22.11
X85.03 Y21.9 F600.
X84.983 Y21.857
X84.933 Y21.818
X84.318 Y21.38
X84.231 Y21.325
X83.513 Y20.943
X83.439 Y20.908
X82.603 Y20.568
X82.527 Y20.542
X82.45 Y20.523
X82.283 Y20.492
X82.199 Y20.481
X82.115 Y20.479
X81.948 Y20.483
X81.863 Y20.49
X81.779 Y20.506
X81.612 Y20.547
X81.529 Y20.573
X81.449 Y20.607
X81.292 Y20.685
X81.226 Y20.722
X81.163 Y20.765
X81.062 Y20.842
X81.01 Y20.885
X80.963 Y20.933
X80.866 Y21.036
X80.814 Y21.098
X80.769 Y21.165
X80.674 Y21.32
X80.634 Y21.397
X80.601 Y21.477
X80.549 Y21.633
X80.527 Y21.709
X80.513 Y21.787
X80.494 Y21.94
X80.488 Y22.008
Y22.077
X80.494 Y22.198
X80.507 Y22.31
X80.812 Y23.906
X80.826 Y23.966
X80.844 Y24.025
X81.108 Y24.762
X81.126 Y24.808
X81.169 Y24.907 F60.
X81.177 Y24.926
X81.126 Y24.953 F600.
X81.015 Y25.017
X80.957 Y25.054
X80.902 Y25.096
X80.791 Y25.189
X80.733 Y25.243
X80.681 Y25.302
X80.575 Y25.434
X80.524 Y25.506
X80.48 Y25.584
X80.399 Y25.751
X80.365 Y25.833
X80.34 Y25.919
X80.302 Y26.086
X80.287 Y26.17
X80.282 Y26.255
X80.28 Y26.422
X80.283 Y26.506
X80.296 Y26.59
X80.33 Y26.757
X80.352 Y26.843
X80.384 Y26.925
X80.46 Y27.092
X80.506 Y27.18
X80.552 Y27.265 Z-0.289
X80.591 Y27.355 Z-0.28
X80.619 Y27.444 Z-0.251
X80.639 Y27.536 Z-0.223
X80.649 Y27.622 Z-0.177
X80.652 Y27.708 Z-0.131
X80.649 Y27.784 Z-0.068
X80.64 Y27.859 Z-0.006
X80.613 Y27.98 Z0.145
X80.583 Y28.068 Z0.318
X80.561 Y28.12 Z0.506
X80.552 Y28.137 Z0.701
G0 Z5.
X54.954 Y13.424
Z0.
G1 X64.346 Y17.314 Z-0.08 F17.
G3 X64.616 Y17.968 I-0.191 J0.462
X63.963 Y18.238 I-0.462 J-0.191
G1 X53.674 Y13.976 Z-0.168
G3 X54.056 Y13.052 I0.191 J-0.462
G1 X64.346 Y17.314 Z-0.255
G3 X64.616 Y17.968 I-0.191 J0.462
X63.963 Y18.238 I-0.462 J-0.191
G1 X58.818 Y16.107 Z-0.299
G2 X58.3 Y16.116 I-0.249 J0.601
G1 X57.126 Y16.65
G3 X56.219 Y16.181 I-0.269 J-0.592
G1 X56.197 Y16.067 F600.
X56.178 Y15.989
X56.151 Y15.913
X56.092 Y15.772
X56.056 Y15.697
X56.013 Y15.626
X55.91 Y15.477
X55.862 Y15.414
X55.808 Y15.356
X55.709 Y15.261
X55.654 Y15.212
X55.594 Y15.169
X55.463 Y15.082
X55.397 Y15.043
X55.328 Y15.011
X55.19 Y14.955
X55.115 Y14.928
X55.037 Y14.909
X54.849 Y14.874
X54.795 Y14.865
X54.474 Y14.827
X54.399 Y14.822
X54.323 Y14.824
X54.155 Y14.836
X54.069 Y14.847
X53.985 Y14.868
X53.812 Y14.919
X53.731 Y14.949
X53.653 Y14.987
X53.537 Y15.052 F60.
X53.318 Y14.918 F600.
X53.252 Y14.882
X53.182 Y14.853
X53.04 Y14.8
X52.972 Y14.778
X52.902 Y14.762
X52.4 Y14.674
X52.32 Y14.664
X52.24 Y14.662
X52.072 Y14.667
X52.002 Y14.672
X51.612 Y14.719
X51.538 Y14.731
X51.466 Y14.75
X51.299 Y14.803
X51.242 Y14.823
X51.186 Y14.848
X50.783 Y15.047 F60.
X50.754 Y15.062
X50.742 Y15.052 F600.
X50.617 Y14.956
X50.55 Y14.909
X50.478 Y14.869
X50.325 Y14.795
X50.246 Y14.761
X50.164 Y14.737
X49.997 Y14.696
X49.916 Y14.681
X49.833 Y14.674
X49.666 Y14.67
X49.609
X49.274 Y14.684
X49.204 Y14.691
X49.134 Y14.703
X48.982 Y14.737
X48.912 Y14.756
X48.844 Y14.782
X48.722 Y14.834
X48.63 Y14.881 F60.
X48.548 Y14.855 F600.
X48.471 Y14.834
X48.392 Y14.821
X48.224 Y14.803
X48.135 Y14.798
X48.045 Y14.804
X46.651 Y14.969
X46.561 Y14.985
X46.393 Y15.025
X46.314 Y15.048
X46.237 Y15.08
X46.094 Y15.148
X46.02 Y15.188
X45.951 Y15.235
X45.812 Y15.342
X45.752 Y15.392
X45.698 Y15.449
X45.607 Y15.553
X45.557 Y15.616
X45.514 Y15.684
X45.423 Y15.843
X45.389 Y15.91
X45.362 Y15.98
X45.324 Y16.09
X45.304 Y16.159
X45.291 Y16.23
X45.266 Y16.399
X45.258 Y16.483
X45.259 Y16.568
X45.274 Y16.787
X45.283 Y16.863
X45.299 Y16.937
X45.344 Y17.106
X45.372 Y17.192
X45.41 Y17.275
X45.499 Y17.442
X45.541 Y17.512
X45.59 Y17.577
X45.677 Y17.682
X45.722 Y17.732
X45.772 Y17.778
X45.857 Y17.85 F60.
X45.903 Y18.234
X45.861 Y18.292 F600.
X45.779 Y18.416
X45.737 Y18.486
X45.702 Y18.561
X45.636 Y18.728
X45.608 Y18.811
X45.589 Y18.897
X45.563 Y19.064
X45.554 Y19.151
Y19.238
X45.568 Y19.461
X45.576 Y19.537
X45.592 Y19.612
X45.635 Y19.779
X45.662 Y19.863
X45.699 Y19.944
X45.781 Y20.104
X45.821 Y20.172
X45.868 Y20.237
X45.953 Y20.343
X46.002 Y20.398
X46.055 Y20.448
X46.172 Y20.548
X46.228 Y20.592
X46.287 Y20.631
X46.399 Y20.696
X46.461 Y20.729
X46.525 Y20.756
X47.528 Y21.127
X47.589 Y21.147
X47.65 Y21.162
X47.818 Y21.195
X47.901 Y21.206
X47.984 Y21.209
X48.152 Y21.207
X48.223 Y21.202
X48.294 Y21.191
X48.461 Y21.158
X48.547 Y21.135
X48.63 Y21.104
X48.778 Y21.038 F60.
X48.904 Y21.058 F600.
X48.981 Y21.066
X49.058 Y21.067
X50.953 Y21.
X51.029 Y20.993
X51.105 Y20.98
X51.245 Y20.947 F60.
X51.34 Y20.979 F600.
X51.4 Y20.996
X51.46 Y21.009
X51.906 Y21.085
X51.979 Y21.094
X52.052 Y21.096
X52.219 Y21.094
X52.298 Y21.089
X52.688 Y21.044
X52.77 Y21.03 F60.
X52.851 Y21.007
X52.902 Y20.99
X53.033 Y21.041 F600.
X53.101 Y21.064
X53.17 Y21.081
X53.282 Y21.102
X53.336 Y21.111
X55.12 Y21.331
X55.186 Y21.336
X55.253
X55.42 Y21.328
X55.505 Y21.32
X55.588 Y21.302
X55.755 Y21.258
X55.826 Y21.235
X55.894 Y21.206
X56.006 Y21.153
X56.063 Y21.122
X56.118 Y21.087
X56.229 Y21.009
X56.288 Y20.964
X56.342 Y20.913
X56.454 Y20.799
X56.502 Y20.745
X56.545 Y20.686
X56.618 Y20.578
X56.658 Y20.511
X56.691 Y20.44
X56.76 Y20.273
X56.79 Y20.188
X56.81 Y20.101
X56.848 Y19.878
X56.856 Y19.807
X56.859 Y19.735
X56.856 Y19.568
X56.852 Y19.498
X56.842 Y19.429
X56.219 Y16.181
X56.205 Y16.084 Z-0.289
X56.201 Y15.987 Z-0.28
X56.206 Y15.893 Z-0.251
X56.219 Y15.8 Z-0.223
X56.24 Y15.716 Z-0.177
X56.267 Y15.635 Z-0.131
X56.297 Y15.565 Z-0.068
X56.332 Y15.498 Z-0.006
X56.4 Y15.394 Z0.145
X56.458 Y15.322 Z0.318
X56.498 Y15.281 Z0.506
X56.511 Y15.268 Z0.701
G0 Z5.
X45.128 Y23.224
Z0.
G1 X43.15 Y13.28 Z-0.085 F17.
G3 X43.543 Y12.693 I0.49 J-0.098
X44.131 Y13.085 I0.098 J0.49
G1 X46.149 Y23.232 Z-0.172
G3 X45.756 Y23.82 I-0.49 J0.098
X45.169 Y23.427 I-0.098 J-0.49
G1 X43.15 Y13.28 Z-0.259
G3 X43.543 Y12.693 I0.49 J-0.098
X44.131 Y13.085 I0.098 J0.49
G1 X45.07 Y17.804 Z-0.299
X45.076 Y17.842
X45.097 Y17.984
G3 X43.806 Y18.58 I-0.733 J0.107
G1 X43.714 Y18.475 F600.
X43.661 Y18.42
X43.603 Y18.37
X43.217 Y18.072
X43.162 Y18.034
X43.105 Y18.
X42.971 Y17.929
X42.871 Y17.884
X42.782 Y17.851
X42.692 Y17.824
X42.246 Y17.719
X42.177 Y17.705
X42.106 Y17.698
X41.939 Y17.689
X41.861
X41.784 Y17.696
X41.282 Y17.768
X41.223 Y17.778
X41.165 Y17.793
X40.998 Y17.844
X40.924 Y17.87
X40.852 Y17.904
X40.581 Y18.05
X40.521 Y18.055
X40.353 Y18.074
X40.274 Y18.088
X40.197 Y18.109
X39.979 Y18.182
X39.904 Y18.21
X39.833 Y18.246
X39.68 Y18.335
X39.608 Y18.381
X39.541 Y18.435
X39.503 Y18.47 F60.
X39.383 Y18.488 F600.
X39.312 Y18.502
X39.243 Y18.522
X39.132 Y18.56
X39.032 Y18.601
X37.862 Y19.188
X37.772 Y19.241
X37.66 Y19.316
X37.603 Y19.359
X37.549 Y19.407
X37.45 Y19.505 F60.
X37.432 Y19.506
X37.35 Y19.517 F600.
X37.27 Y19.536
X37.103 Y19.585
X37.035 Y19.608
X36.97 Y19.637
X36.023 Y20.111
X35.969 Y20.14
X35.918 Y20.174
X35.77 Y20.279
X35.707 Y20.329
X35.65 Y20.384
X35.555 Y20.486
X35.545 Y20.497 F60.
X35.462 Y20.525 F600.
X35.398 Y20.549
X35.337 Y20.579
X35.231 Y20.637
X35.173 Y20.671
X34.007 Y21.437
X33.946 Y21.481
X33.889 Y21.531
X33.769 Y21.649
X33.71 Y21.712
X33.659 Y21.781
X33.562 Y21.928 F60.
X33.558 Y21.936
X33.394 Y21.978 F600.
X33.318 Y22.002
X33.244 Y22.033
X33.114 Y22.096
X33.045 Y22.134
X32.98 Y22.179
X32.665 Y22.419
X32.655 Y22.426
X31.826 Y23.077
X31.769 Y23.126
X31.741 Y23.153
X31.334 Y23.456
X31.271 Y23.508
X30.727 Y24.008
X30.651 Y24.089
X30.563 Y24.196
X30.515 Y24.26 F60.
X30.474 Y24.329
X30.461 Y24.353
X30.362 Y24.402 F600.
X30.288 Y24.445
X30.219 Y24.495
X30.071 Y24.614
X30.031 Y24.648
X29.04 Y25.562
X28.989 Y25.614
X28.943 Y25.67
X28.857 Y25.785
X28.815 Y25.847 F60.
X28.779 Y25.912
X28.724 Y25.951 F600.
X28.599 Y26.047
X28.546 Y26.092
X28.497 Y26.141
X26.803 Y27.995
X26.764 Y28.042
X26.728 Y28.091
X26.642 Y28.22
X26.599 Y28.292
X26.565 Y28.368
X26.499 Y28.535
X26.471 Y28.618
X26.453 Y28.704
X26.427 Y28.871
X26.418 Y28.954 F60.
Y29.037
X26.421 Y29.078
X26.374 Y29.083
X26.294 Y29.095 F600.
X26.217 Y29.115
X26.071 Y29.162
X26.006 Y29.186
X25.943 Y29.216
X25.831 Y29.274
X25.769 Y29.31
X25.711 Y29.352
X25.585 Y29.45
X25.537 Y29.491
X25.492 Y29.536
X25.429 Y29.604
X25.364 Y29.684
X25.234 Y29.867
X25.195 Y29.929
X25.161 Y29.994
X25.107 Y30.111
X25.079 Y30.18
X25.058 Y30.252
X25.017 Y30.42
X25.001 Y30.503
X24.994 Y30.588
X24.989 Y30.755
X24.991 Y30.839
X25.003 Y30.923
X25.034 Y31.09
X25.051 Y31.161
X25.074 Y31.229
X25.116 Y31.341
X25.161 Y31.436
X26.241 Y33.411
X26.433 Y33.762 F60.
X26.429 Y33.833 F600.
X26.428 Y33.996
X26.431 Y34.077
X26.443 Y34.157
X26.473 Y34.312
X26.493 Y34.391
X26.521 Y34.468
X26.587 Y34.624
X26.624 Y34.701
X26.67 Y34.774
X26.771 Y34.916
X26.821 Y34.98
X26.878 Y35.038
X26.99 Y35.142
X27.074 Y35.21
X27.233 Y35.322
X27.303 Y35.365
X27.377 Y35.402
X27.539 Y35.471
X27.62 Y35.5
X27.705 Y35.521
X27.872 Y35.552
X27.955 Y35.563
X28.04 Y35.566
X28.207 Y35.561
X28.292 Y35.554
X28.375 Y35.538
X28.543 Y35.497
X28.613 Y35.476
X28.682 Y35.448
X28.793 Y35.397
X28.85 Y35.368
X28.905 Y35.335
X29.017 Y35.26
X29.075 Y35.217
X29.129 Y35.169
X29.241 Y35.06
X29.281 Y35.018
X29.319 Y34.972
X30.151 Y33.875
X30.196 Y33.811
X30.233 Y33.743
X30.314 Y33.576
X30.342 Y33.511 F60.
X30.364 Y33.444
X30.39 Y33.429
X30.452 Y33.387 F600.
X30.51 Y33.339
X30.607 Y33.251
X30.658 Y33.2
X30.703 Y33.146
X31.309 Y32.356
X31.474 Y32.193
X31.503 Y32.162
X33.107 Y30.4
X33.158 Y30.338
X33.202 Y30.272
X33.224 Y30.235
X33.255 Y30.212
X33.323 Y30.156
X34.372 Y29.187
X34.435 Y29.121
X34.639 Y28.884
X34.662 Y28.857
X34.826 Y28.648
X34.882 Y28.566
X34.982 Y28.399 F60.
X35.019 Y28.33
X35.162 Y28.297 F600.
X35.248 Y28.272
X35.33 Y28.238
X35.498 Y28.157
X35.572 Y28.116
X35.641 Y28.068
X36.811 Y27.152
X36.866 Y27.105
X36.917 Y27.053
X36.937 Y27.03
X39.122 Y25.602
X39.209 Y25.537
X39.329 Y25.432
X39.387 Y25.376 F60.
X39.439 Y25.315
X39.495 Y25.24
X39.653 Y25.243 F600.
X39.738 Y25.24
X39.821 Y25.228
X39.988 Y25.195
X40.058 Y25.177
X40.126 Y25.154
X40.234 Y25.111
X40.314 Y25.074
X40.476 Y24.988
X40.536 Y24.953
X40.593 Y24.913
X40.701 Y24.828
X40.758 Y24.779
X40.811 Y24.725
X40.919 Y24.6
X40.973 Y24.531
X41.019 Y24.457
X41.106 Y24.295
X41.144 Y24.216
X41.172 Y24.133
X41.218 Y23.971 F60.
X41.427 Y24.037 F600.
X41.483 Y24.053
X41.541 Y24.065
X41.764 Y24.103
X41.833 Y24.112
X41.902 Y24.114
X42.236 Y24.111
X42.294 Y24.109
X42.352 Y24.102
X42.673 Y24.052
X42.734 Y24.041
X42.794 Y24.024
X42.927 Y23.981
X42.981 Y23.962
X43.033 Y23.939
X43.309 Y23.804
X43.374 Y23.8
X43.437 Y23.79
X43.549 Y23.769
X43.612 Y23.755
X43.675 Y23.735
X43.911 Y23.648
X43.993 Y23.612
X44.071 Y23.568
X44.212 Y23.475
X44.278 Y23.427
X44.339 Y23.373
X44.449 Y23.263
X44.505 Y23.202
X44.553 Y23.135
X44.647 Y22.992
X44.689 Y22.921
X44.723 Y22.847
X44.779 Y22.703
X44.804 Y22.628
X44.822 Y22.551
X44.85 Y22.391
X44.86 Y22.31
X44.862 Y22.227
X44.856 Y22.06
X44.849 Y21.977
X44.834 Y21.895
X44.792 Y21.728
X44.776 Y21.672
X44.43 Y20.614
X44.408 Y20.554
X44.381 Y20.496
X44.341 Y20.418 F60.
X44.355 Y20.268 F600.
X44.359 Y20.195
X44.356 Y20.122
X44.316 Y19.676
X44.306 Y19.603
X44.29 Y19.531
X44.247 Y19.379
X44.222 Y19.305
X44.191 Y19.235
X44.109 Y19.073
X44.087 Y19.034
X43.896 Y18.705
X43.854 Y18.64
X43.806 Y18.58
X43.76 Y18.527 Z-0.297
X43.714 Y18.475 Z-0.289
X43.661 Y18.42 Z-0.272
X43.603 Y18.37 Z-0.255
X43.514 Y18.301 Z-0.213
X43.43 Y18.237 Z-0.158
X43.351 Y18.176 Z-0.091
X43.28 Y18.121 Z-0.013
X43.217 Y18.072 Z0.076
X43.156 Y18.03 Z0.181
X43.105 Y18. Z0.296
X43.072 Y17.982 Z0.393
X43.048 Y17.97 Z0.494
X43.034 Y17.962 Z0.597
X43.029 Y17.959 Z0.701
G0 Z5.
X23.899 Y25.704
Z-0.16
G1 X27.369 Y20.511 Z-0.209 F17.
G3 X28.062 Y20.373 I0.416 J0.278
X28.2 Y21.067 I-0.278 J0.416
G1 X22.013 Y30.327 Z-0.297
G3 X21.181 Y29.771 I-0.416 J-0.278
G1 X27.369 Y20.511 Z-0.384
G3 X28.062 Y20.373 I0.416 J0.278
X28.2 Y21.067 I-0.278 J0.416
G1 X25.628 Y24.917 Z-0.421
X25.554 Y24.901
X25.534 Y24.906
X25.517 Y24.918
X25.454 Y24.988 F600.
G3 X24.852 Y24.862 I-0.264 J-0.241
G1 X24.785 Y24.681
G3 X25.15 Y24.215 I0.318 J-0.127
G2 X25.453 Y24.245 I0.527 J-3.782
G3 X25.662 Y24.76 I-0.018 J0.307
G1 X25.517 Y24.918
X25.454 Y24.988 Z-0.416
X25.411 Y25.027 Z-0.406
X25.363 Y25.06 Z-0.395
X25.309 Y25.084 Z-0.384
X25.256 Y25.098 Z-0.363
X25.2 Y25.104 Z-0.342
X25.145 Y25.101 Z-0.321
X25.095 Y25.091 Z-0.29
X25.047 Y25.074 Z-0.26
X25.002 Y25.05 Z-0.229
X24.948 Y25.01 Z-0.17
X24.904 Y24.96 Z-0.112
X24.874 Y24.913 Z-0.042
X24.852 Y24.862 Z0.028
X24.821 Y24.777 Z0.2
X24.802 Y24.724 Z0.386
X24.795 Y24.707 Z0.579
G0 Z5.
X23.232 Y41.27
Z-0.16
G1 X28.539 Z-0.202 F17.
G3 Y42.27 I0. J0.5
G1 X17.402 Z-0.289
G3 Y41.27 I0. J-0.5
G1 X28.539 Z-0.377
G3 Y42.27 I0. J0.5
G1 X22.971 Z-0.421
G3 X22.677 Y41.867 I0. J-0.309
G1 X22.719 Y41.736
X22.727 Y41.702
G3 X22.832 Y41.329 I2.503 J0.503 F600.
X23.216 Y41.206 I0.24 J0.087
G1 X23.255 Y41.232 F60.
G3 X23.354 Y41.522 I-0.143 J0.211 F600.
G2 X22.69 Y43.836 I34.778 J11.239
X22.157 Y46.184 I49.65 J12.502
X22.016 Y47.243 I7.833 J1.585
G3 X21.904 Y48.305 I-13.568 J-0.895
X21.479 Y48.323 I-0.214 J-0.031
G2 X21.36 Y47.869 I-7.928 J1.834
X21.218 Y47.423 I-9.771 J2.862
G3 X21.234 Y47.161 I0.325 J-0.112
G2 X21.973 Y45.394 I-15.322 J-7.444
X22.455 Y43.539 I-10.585 J-3.741
X22.556 Y42.811 I-11.599 J-1.977
G3 X22.657 Y42.083 I11.7 J1.249
X22.727 Y41.702 I13.017 J2.218
G2 X22.291 Y40.451 I-1.277 J-0.256
G3 X21.902 Y39.185 I0.791 J-0.936
X22.008 Y38.81 I53.292 J14.929
X22.594 Y38.679 I0.328 J0.095
G2 X24.663 Y40.324 I5.548 J-4.856
G3 X25.031 Y41.237 I-0.362 J0.677
G2 X24.248 Y43.838 I64.864 J20.961
X23.612 Y46.478 I35.814 J10.016
X22.984 Y53.323 I31.217 J6.317
G3 X23.041 Y60.197 I-415.451 J6.889
X22.607 Y60.281 I-0.225 J0.
G2 X22.408 Y59.837 I-6.067 J2.458
X22.182 Y59.404 I-10.606 J5.248
G1 X22.16 Y59.353
X22.145 Y59.3
G2 X21.261 Y56.337 I-14.275 J2.648
G1 X21.233 Y56.261
X21.213 Y56.183
X21.201 Y56.104
G2 X20.957 Y54.532 I-17.163 J1.855
X20.579 Y52.988 I-19.32 J3.912
G3 X20.536 Y52.716 I1.085 J-0.313
X20.517 Y51.532 I28.898 J-1.048
G2 X20.41 Y50.353 I-6.201 J-0.029
X20.134 Y49.066 I-26.294 J4.962
X19.754 Y47.805 I-11.327 J2.721
G3 X19.827 Y46.605 I1.418 J-0.516
G2 X20.733 Y44.12 I-9.795 J-4.978
X21.192 Y41.515 I-23.65 J-5.508
G3 X21.3 Y41.108 I1.498 J0.18
G2 X21.688 Y39.97 I-7.859 J-3.319
G3 X21.902 Y39.185 I53.505 J14.145
G2 X21.495 Y37.858 I-1.236 J-0.346
G3 X21.196 Y36.503 I0.738 J-0.873
G2 X21.366 Y36.125 I-17.151 J-7.968
X21.877 Y34.655 I-9.045 J-3.964
G3 X22.357 Y34.595 I0.252 J0.066
G1 X22.518 Y34.889
X22.54 Y34.938
X22.554 Y34.99
G2 X24.022 Y37.82 I5.572 J-1.093
X26.795 Y39.392 I3.997 J-3.821
G3 X27.169 Y40.087 I-0.116 J0.51
G2 X24.74 Y50.507 I37.97 J14.344
X24.652 Y51.929 I22.306 J2.093
G1 X24.594 Y53.862
X24.647 Y67.568
G2 X24.741 Y68.23 I3.766 J-0.193
X24.916 Y68.876 I9.044 J-2.107
G3 X24.488 Y69.305 I-0.327 J0.102
G1 X24.135 Y69.197
G3 X23.803 Y68.673 I0.134 J-0.451
G2 X23.427 Y65.727 I-5.26 J-0.824
X21.983 Y63.132 I-13.94 J6.057
G3 X21.831 Y62.817 I0.928 J-0.643
G2 X21.355 Y61.478 I-14.536 J4.41
X20.744 Y60.195 I-11.689 J4.78
G3 X20.531 Y59.597 I1.768 J-0.967
G2 X20.195 Y58.229 I-12.271 J2.283
X19.718 Y56.904 I-13.876 J4.245
G3 X19.574 Y56.327 I1.861 J-0.774
G2 X19.353 Y54.868 I-14.1 J1.384
X19. Y53.436 I-18.103 J3.707
G3 X18.896 Y52.782 I2.584 J-0.748
G2 X18.69 Y50.31 I-25.711 J0.898
X18.027 Y47.919 I-8.887 J1.174
G3 X18.113 Y46.315 I1.653 J-0.716
G2 X18.801 Y44.861 I-9.59 J-5.431
X19.28 Y43.326 I-11.254 J-4.355
X19.455 Y42.306 I-7.675 J-1.844
G3 X19.567 Y41.278 I157.512 J16.54
X19.766 Y40.519 I2.673 J0.298
G2 X20.216 Y39.252 I-9.806 J-4.192
X20.531 Y37.947 I-15.849 J-4.522
G3 X20.684 Y37.524 I1.48 J0.294
G2 X21.196 Y36.503 I-16.639 J-8.989
G1 X21.255 Y36.374 Z-0.411
X21.312 Y36.247 Z-0.38
X21.366 Y36.125 Z-0.331
X21.431 Y35.974 Z-0.236
X21.486 Y35.841 Z-0.111
X21.529 Y35.731 Z0.038
X21.56 Y35.65 Z0.207
X21.579 Y35.599 Z0.39
X21.585 Y35.582 Z0.579
G0 Z5.
X50.224 Y76.589
Z-0.16
G1 X55.532 Z-0.202 F17.
G3 Y77.589 I0. J0.5
G1 X44.395 Z-0.289
G3 Y76.589 I0. J-0.5
G1 X55.532 Z-0.377
G3 Y77.589 I0. J0.5
G1 X49.963 Z-0.421
X49.96 Y77.596
G3 X48.676 Y77.53 I0.085 J-14.201 F600.
G2 X47.467 Y77.474 I-1.161 J11.987
G3 X46.265 Y77.334 I-0.02 J-5.065
G2 X45.125 Y77.098 I-4.347 J18.112
G3 X43.986 Y76.862 I3.207 J-18.348
X44.034 Y76.457 I0.048 J-0.2
G1 X57.706
G3 X57.769 Y76.874 I0. J0.213
G1 X57.65 Y76.907
X57.529 Y76.932
X57.304 Y76.973
X54.342 Y77.519
X54.276 Y77.527
X54.209 Y77.525
G2 X51.442 Y77.527 I-1.369 J13.759
G3 X49.96 Y77.596 I-1.397 J-14.133
G2 X49.062 Y78.164 I-0.006 J0.985
G3 X48.137 Y78.687 I-0.83 J-0.389
X45.231 Y78.271 I3.925 J-37.763
X41.482 Y77.478 I12.622 J-69.007
X41.212 Y77.361 I0.197 J-0.821
G2 X38.185 Y76.112 I-4.689 J7.069
G1 X38.12 Y76.092
X38.06 Y76.06
G2 X37.791 Y75.891 I-3.563 J5.37
X37.517 Y75.732 I-7.124 J11.977
G3 X37.637 Y75.274 I0.12 J-0.213
G1 X64.007 Y75.273
G3 X64.108 Y75.718 I0. J0.234
X62.862 Y76.3 I-29.451 J-61.444
G2 X61.634 Y76.918 I7.292 J16.035
G1 X61.53 Y76.966
X61.42 Y77.
G2 X59.467 Y77.559 I5.025 J21.257
G3 X57.499 Y78.064 I-4.392 J-13.026
G2 X56.021 Y78.375 I4.45 J24.84
G3 X54.543 Y78.685 I-8.696 J-37.702
X54.112 Y78.704 I-0.281 J-1.482
G2 X51.571 Y78.724 I-1.178 J11.832
G3 X49.03 Y78.769 I-1.498 J-12.975
X48.137 Y78.687 I3.032 J-37.846
G2 X46.799 Y79.369 I-0.143 J1.374
G3 X45.437 Y80.003 I-1.134 J-0.656
G1 X45.417 Y79.999
G3 X41.124 Y79.105 I12.683 J-71.633
X40.274 Y78.737 I0.628 J-2.616
G2 X37.859 Y77.744 I-3.761 J5.719
G3 X37.139 Y77.447 I0.394 J-1.976
G2 X35.45 Y76.405 I-16.6 J25.018
G3 X33.789 Y75.32 I8.393 J-14.667
G2 X33.124 Y74.925 I-2.271 J3.067
X32.415 Y74.615 I-7.698 J16.601
G1 X32.355 Y74.585
X32.3 Y74.547
X32.251 Y74.501
G2 X31.832 Y74.097 I-4.046 J3.769
G3 X32.014 Y73.61 I0.182 J-0.209
G1 X69.433 Y73.608
G3 X69.635 Y74.112 I0. J0.292
G2 X69.049 Y74.689 I17.09 J17.938
X68.522 Y75.321 I3.622 J3.558
X68.35 Y75.582 I4.068 J2.868
G3 X68.177 Y75.844 I-4.549 J-2.811
X67.414 Y76.313 I-0.924 J-0.649
G2 X64.808 Y77.123 I1.235 J8.57
X62.396 Y78.399 I22.315 J45.087
G3 X61.852 Y78.609 I-0.99 J-1.755
G2 X59.828 Y79.179 I4.516 J19.904
G3 X57.793 Y79.703 I-4.527 J-13.383
G2 X56.299 Y80.009 I5.348 J29.855
G3 X54.808 Y80.33 I-10.923 J-47.176
X54.018 Y80.368 I-0.524 J-2.638
G2 X53.031 Y80.352 I-0.587 J5.9
G3 X52.046 Y80.415 I-9.192 J-136.019
X51.228 Y80.458 I-3.213 J-53.278
G2 X50.413 Y80.541 I0.326 J7.269
G3 X49.766 Y80.565 I-0.422 J-2.657
X45.437 Y80.003 I3.998 J-47.708
G1 X45.343 Y79.975 Z-0.411
X45.253 Y79.939 Z-0.402
X45.169 Y79.896 Z-0.373
X45.091 Y79.845 Z-0.345
X45.022 Y79.792 Z-0.298
X44.959 Y79.733 Z-0.252
X44.908 Y79.677 Z-0.19
X44.861 Y79.618 Z-0.128
X44.794 Y79.513 Z0.024
X44.754 Y79.43 Z0.196
X44.732 Y79.377 Z0.384
X44.726 Y79.359 Z0.579
G0 Z5.
X80.779 Y46.816
Z-0.16
G1 X86.086 Z-0.202 F17.
G3 Y47.816 I0. J0.5
G1 X74.949 Z-0.289
G3 Y46.816 I0. J-0.5
G1 X86.086 Z-0.377
G3 Y47.816 I0. J0.5
G1 X80.518 Z-0.421
X80.445 Y47.81
X80.145 Y47.755
G3 X79.811 Y47.4 I0.073 J-0.404
G2 X79.247 Y44.193 I-28.634 J3.386 F600.
X78.709 Y42.305 I-20.5 J4.815
G1 X78.158 Y40.663
G3 X78.337 Y40.125 I0.446 J-0.15
G1 X78.474 Y40.038
X78.546 Y40.
X78.62 Y39.966
G3 X79.352 Y40.318 I0.209 J0.504
X80.152 Y43.715 I-32.592 J9.473
G2 X81.226 Y47.037 I12.985 J-2.363
G3 X81.254 Y47.511 I-0.569 J0.272
G2 X80.785 Y49.285 I12.791 J4.334
X80.549 Y51.105 I14.489 J2.797
G3 X80.162 Y51.107 I-0.194 J-0.013
G2 X79.838 Y47.633 I-105.766 J8.128
G1 X79.811 Y47.4
G2 X79.028 Y46.519 I-1.023 J0.121
G3 X78.208 Y45.671 I0.255 J-1.066
G2 X77.179 Y41.65 I-40.878 J8.316
X76.952 Y41.012 I-7.561 J2.341
G3 X76.716 Y40.377 I10.142 J-4.12
X77.049 Y39.454 I0.749 J-0.251
X78.239 Y38.78 I9.263 J14.967
G2 X79.415 Y38.085 I-5.476 J-10.609
G3 X80.138 Y38.38 I0.262 J0.391
G2 X80.492 Y39.797 I17.347 J-3.582
X80.978 Y41.175 I13.243 J-3.896
G3 X81.083 Y41.577 I-1.394 J0.576
G2 X81.524 Y44.069 I21.038 J-2.445
X82.363 Y46.457 I12.04 J-2.886
G3 X82.451 Y47.952 I-1.823 J0.858
G2 X81.915 Y50.315 I11.704 J3.898
X81.723 Y52.73 I26.445 J3.316
G3 X81.673 Y53.026 I-1.128 J-0.038
G2 X81.297 Y54.539 I13.085 J4.059
X81.066 Y56.08 I20.009 J3.785
G1 X81.054 Y56.159
X81.034 Y56.236
X81.007 Y56.311
G2 X80.505 Y57.718 I13.22 J5.506
X80.14 Y59.167 I16.349 J4.884
G1 X80.121 Y59.236
X80.091 Y59.3
G2 X79.698 Y60.107 I7.431 J4.124
X79.353 Y60.935 I59.312 J25.155
G3 X78.982 Y60.862 I-0.178 J-0.073
G1 X78.986 Y51.276
G2 X78.352 Y46.412 I-46.203 J3.551
X78.208 Y45.671 I-41.022 J7.575
X77.162 Y44.637 I-1.294 J0.263
G3 X76.087 Y43.634 I0.259 J-1.355
G2 X75.654 Y42.122 I-35.732 J9.417
X75.134 Y40.732 I-12.222 J3.784
G3 X74.564 Y39.363 I30.787 J-13.611
X74.92 Y38.626 I0.52 J-0.203
G2 X75.689 Y38.355 I-2.859 J-9.323
X76.407 Y37.97 I-1.373 J-3.426
G3 X77.422 Y37.395 I3.816 J5.551
G2 X78.447 Y36.836 I-3.464 J-7.577
X79.309 Y36.111 I-2.334 J-3.649
X80.025 Y35.242 I-7.982 J-7.304
G3 X80.625 Y35.318 I0.279 J0.206
X81.049 Y36.378 I-114.531 J46.396
G2 X81.531 Y37.413 I8.808 J-3.474
G3 X81.737 Y37.99 I-1.772 J0.96
G2 X82.523 Y40.607 I13.398 J-2.596
G3 X82.712 Y41.347 I-2.486 J1.028
G2 X83.175 Y43.901 I17.848 J-1.921
X84.147 Y46.307 I9.565 J-2.462
G3 X84.239 Y47.895 I-1.566 J0.887
G2 X83.577 Y50.304 I8.775 J3.706
X83.367 Y52.793 I23.743 J3.263
G3 X83.247 Y53.503 I-2.689 J-0.087
G2 X82.911 Y54.86 I11.532 J3.577
X82.703 Y56.242 I19.46 J3.64
G3 X82.514 Y56.97 I-2.672 J-0.307
G2 X82.07 Y58.221 I11.44 J4.765
X81.749 Y59.508 I14.631 J4.326
G3 X81.536 Y60.085 I-1.975 J-0.401
G2 X80.426 Y62.723 I11.577 J6.426
G3 X80.219 Y63.155 I-1.447 J-0.428
G2 X78.877 Y65.523 I12.25 J8.505
X78.377 Y68.197 I5.231 J2.362
G3 X77.976 Y68.688 I-0.47 J0.026
G2 X77.654 Y68.747 I0.705 J4.774
G3 X77.236 Y68.335 I-0.075 J-0.342
G2 X77.412 Y66.747 I-8.723 J-1.766
X77.428 Y65.149 I-79.787 J-1.596
G1 X77.347 Y51.402
G2 X76.76 Y46.715 I-49.278 J3.787
X76.087 Y43.634 I-36.405 J6.336
X75.312 Y42.963 I-0.878 J0.231
G3 X74.513 Y42.319 I0.108 J-0.952
G2 X73.888 Y40.652 I-27.525 J9.365
X72.863 Y38.278 I-64.492 J26.45
G3 X73.21 Y37.741 I0.346 J-0.157
G2 X74.194 Y37.667 I0.024 J-6.237
X75.142 Y37.391 I-0.594 J-3.816
X76.074 Y36.853 I-1.906 J-4.377
G3 X77.017 Y36.335 I2.392 J3.236
G2 X78.946 Y34.87 I-1.571 J-4.069
X80.005 Y32.691 I-5.221 J-3.885
G3 X80.518 Y32.634 I0.268 J0.073
X80.736 Y33.069 I-8.849 J4.703
G2 X80.977 Y33.49 I2.72 J-1.28
X81.165 Y33.746 I4.191 J-2.879
G3 X81.353 Y34.003 I-4.003 J3.135
X81.472 Y34.264 I-0.682 J0.468
G2 X81.938 Y35.637 I9.494 J-2.457
X82.568 Y36.943 I14.049 J-5.961
G3 X82.843 Y37.725 I-2.318 J1.255
G2 X83.15 Y38.99 I11.044 J-2.016
X83.589 Y40.214 I13.032 J-3.981
G3 X83.838 Y41.203 I-3.251 J1.344
G2 X84.185 Y43.428 I20.94 J-2.126
X84.982 Y45.534 I7.197 J-1.521
X85.209 Y45.906 I6.071 J-3.44
G3 X85.436 Y46.278 I-5.845 J3.812
X85.513 Y47.809 I-1.487 J0.842
X85.13 Y48.652 I-35.884 J-15.788
G2 X84.847 Y49.533 I3.309 J1.55
X84.501 Y52.851 I20.455 J3.809
G3 X84.344 Y53.799 I-3.517 J-0.094
G2 X84.024 Y55.084 I11.22 J3.48
X83.829 Y56.394 I16.335 J3.107
G3 X83.579 Y57.366 I-3.498 J-0.38
G2 X82.853 Y59.779 I11.362 J4.732
G3 X82.568 Y60.565 I-2.59 J-0.493
G2 X81.974 Y61.776 I11.789 J6.544
X81.515 Y63.045 I10.383 J4.471
G3 X81.152 Y63.802 I-2.528 J-0.747
G2 X80.031 Y65.654 I14.179 J9.844
X79.462 Y67.743 I4.496 J2.348
X79.522 Y68.529 I3.088 J0.158
X79.729 Y69.289 I6.261 J-1.298
G3 X79.343 Y69.78 I-0.353 J0.12
G2 X77.248 Y70.019 I-0.466 J5.22
X75.476 Y71.164 I1.289 J3.94
X74.347 Y72.408 I181.547 J165.759
X73.3 Y73.721 I10.42 J9.384
G3 X72.843 Y74.096 I-0.905 J-0.637
G2 X70.782 Y75.475 I2.897 J6.559
X69.344 Y77.494 I4.578 J4.784
G3 X68.397 Y78.095 I-0.939 J-0.432
G2 X65.71 Y78.714 I-0.044 J5.95
X63.278 Y80.013 I20.285 J40.913
G3 X62.283 Y80.397 I-1.75 J-3.052
G2 X60.65 Y80.847 I3.458 J15.739
X59.044 Y81.388 I84.256 J253.
G3 X58.233 Y81.585 I-1.511 J-4.444
G2 X56.702 Y81.842 I7.065 J46.835
X55.177 Y82.132 I26.546 J143.846
G3 X53.811 Y82.196 I-0.901 J-4.607
G2 X52.619 Y82.233 I-0.454 J4.564
G3 X51.683 Y82.29 I-0.752 J-4.634
G2 X51.195 Y82.3 I-0.164 J4.171
X50.71 Y82.356 I0.49 J6.292
G3 X49.592 Y82.396 I-0.725 J-4.638
G1 X49.349 Y82.376
G2 X49.074 Y82.363 I-0.308 J3.677
G3 X48.413 Y82.31 I0.043 J-4.694
G2 X46.789 Y82.128 I-3.139 J20.676
G3 X45.174 Y81.878 I0.727 J-10.008
G2 X42.862 Y81.368 I-14.805 J61.689
G3 X40.55 Y80.859 I26.1 J-123.956
X39.336 Y80.323 I0.789 J-3.429
G2 X38.426 Y79.831 I-2.661 J3.843
X37.434 Y79.535 I-2.075 J5.138
G3 X36.15 Y78.999 I0.688 J-3.45
G1 X36.027 Y78.913
X35.901 Y78.833
G2 X35.257 Y78.483 I-11.968 J21.204
G3 X34.639 Y78.09 I2.088 J-3.974
G2 X33.214 Y77.094 I-14.196 J18.787
X31.668 Y76.297 I-4.863 J7.533
G3 X30.937 Y75.79 I0.731 J-1.835
G2 X29.819 Y74.797 I-5.165 J4.689
X28.583 Y73.955 I-20.626 J28.96
G3 X28.222 Y73.57 I0.603 J-0.927
G2 X25.946 Y71.097 I-6.373 J3.583
X22.752 Y70.052 I-3.427 J5.065
G3 X22.447 Y69.581 I0.013 J-0.343
G2 X22.808 Y68.113 I-5. J-2.008
X22.682 Y66.606 I-4.127 J-0.416
X22.001 Y65.093 I-5.129 J1.398
X21.074 Y63.716 I-53.629 J35.11
G3 X20.805 Y63.153 I1.624 J-1.124
G2 X19.761 Y60.648 I-12.247 J3.63
G3 X19.477 Y59.836 I2.313 J-1.265
G2 X19.179 Y58.585 I-10.382 J1.81
X18.746 Y57.375 I-12.384 J3.758
G3 X18.496 Y56.4 I3.249 J-1.351
G2 X17.959 Y53.721 I-14.903 J1.596
G3 X17.817 Y52.836 I3.375 J-0.993
G2 X17.686 Y50.843 I-28.521 J0.873
X17.287 Y48.886 I-9.865 J0.996
X17.061 Y48.346 I-3.009 J0.938
G3 X16.807 Y47.818 I6.515 J-3.462
X16.888 Y46.286 I1.579 J-0.684
X17.378 Y45.472 I16.169 J9.155
G2 X17.772 Y44.607 I-2.914 J-1.853
G3 X18.048 Y43.724 I36.089 J10.786
G2 X18.27 Y42.826 I-6.024 J-1.963
X18.396 Y41.984 I-21.166 J-3.607
X18.496 Y41.139 I-36.513 J-4.743
G3 X18.759 Y40.129 I3.498 J0.372
G2 X19.177 Y38.953 I-9.194 J-3.93
X19.472 Y37.74 I-14.71 J-4.216
G3 X19.737 Y37.004 I2.585 J0.517
G2 X20.377 Y35.702 I-16.479 J-8.903
X20.846 Y34.328 I-7.472 J-3.317
G3 X21.03 Y33.934 I1.075 J0.263
G2 X21.493 Y33.22 I-5.67 J-4.179
X21.901 Y32.474 I-27.602 J-15.596
G3 X22.461 Y32.498 I0.274 J0.145
G2 X22.951 Y33.469 I7.61 J-3.233
G3 X23.489 Y34.415 I-28.512 J16.838
X23.604 Y34.733 I-0.971 J0.531
G2 X24.82 Y37.117 I4.785 J-0.939
X27.164 Y38.407 I3.132 J-2.916
X27.803 Y38.469 I0.665 J-3.551
X28.444 Y38.449 I0.06 J-8.276
G3 X28.797 Y38.954 I0.025 J0.358
G2 X26.497 Y46.27 I29.238 J13.211
X25.675 Y53.894 I48.722 J9.108
G1 X25.679 Y67.515
G2 X26.889 Y70.409 I4.635 J-0.237
X29.69 Y71.821 I3.257 J-2.978
G1 X53.377 Y71.858
X71.77 Y71.857
G2 X76.28 Y67.571 I0. J-4.516
G1 X76.222 Y51.666
G2 X75.782 Y47.326 I-30.648 J0.912
X74.762 Y43.085 I-33.573 J5.837
X74.513 Y42.319 I-27.774 J8.599
G1 X74.489 Y42.225 Z-0.411
X74.474 Y42.128 Z-0.402
X74.468 Y42.035 Z-0.373
X74.472 Y41.941 Z-0.345
X74.482 Y41.855 Z-0.298
X74.501 Y41.771 Z-0.252
X74.522 Y41.698 Z-0.19
X74.55 Y41.628 Z-0.128
X74.606 Y41.517 Z0.024
X74.656 Y41.439 Z0.196
X74.691 Y41.394 Z0.384
X74.703 Y41.379 Z0.579
G0 Z5.
X78.763 Y28.026
Z-0.16
G1 X74.69 Y21.931 Z-0.218 F17.
G3 X74.828 Y21.238 I0.416 J-0.278
X75.522 Y21.376 I0.278 J0.416
G1 X81.709 Y30.636 Z-0.305
G3 X80.878 Y31.191 I-0.416 J0.278
G1 X74.69 Y21.931 Z-0.393
G3 X74.828 Y21.238 I0.416 J-0.278
X75.522 Y21.376 I0.278 J0.416
G1 X77.492 Y24.324 Z-0.421
G3 X76.753 Y24.932 I-0.4 J0.267
G1 X76.7 Y24.87
X76.613 Y24.75 F600.
G3 X76.835 Y24.18 I0.289 J-0.215
G2 X77.252 Y24.076 I-0.718 J-3.775
G3 X77.62 Y24.496 I0.09 J0.292
G2 X77.424 Y25.024 I3.493 J1.601
G3 X76.873 Y25.116 I-0.298 J-0.087
G1 X76.744 Y24.932
X76.7 Y24.87
G2 X74.716 Y24.433 I-1.233 J0.878
G3 X72.76 Y23.884 I-0.707 J-1.238
G2 X71.892 Y22.829 I-3.266 J1.802
X70.595 Y21.939 I-5.202 J6.197
G3 X70.289 Y21.693 I0.545 J-0.989
G2 X69.59 Y21.08 I-2.616 J2.281
X68.784 Y20.618 I-3.958 J5.973
G3 X68.56 Y20.474 I0.497 J-1.014
G2 X67.661 Y19.797 I-7.706 J9.3
X66.662 Y19.28 I-2.61 J3.825
G3 X66.442 Y19.159 I0.294 J-0.792
G2 X65.299 Y18.41 I-5.616 J7.325
X63.999 Y17.993 I-1.707 J3.08
G3 X63.313 Y17.651 I0.13 J-1.122
G2 X61.775 Y16.796 I-2.145 J2.049
X60.027 Y17.006 I-0.563 J2.698
G3 X59.528 Y16.728 I-0.151 J-0.316
X59.44 Y15.614 I18.244 J-2.013
G2 X59.268 Y14.51 I-5.322 J0.261
G3 X59.698 Y14.1 I0.328 J-0.087
X60.827 Y14.515 I-3.86 J12.217
G2 X61.981 Y14.851 I2.007 J-4.748
X62.921 Y14.966 I1.771 J-10.567
X63.867 Y14.956 I0.417 J-5.353
G3 X64.888 Y15.41 I0.111 J1.124
G2 X65.743 Y16.317 I4.171 J-3.076
X66.775 Y17.018 I4.103 J-4.929
X67.33 Y17.261 I1.667 J-3.056
X67.906 Y17.447 I7.277 J-21.588
G3 X68.206 Y17.612 I-0.248 J0.807
G2 X68.757 Y17.997 I2.282 J-2.673
X69.379 Y18.25 I1.283 J-2.264
G3 X69.768 Y18.437 I-0.287 J1.092
X72.127 Y20.349 I-22.928 J30.701
G2 X74.595 Y22.117 I10.137 J-11.541
X77.478 Y21.983 I1.337 J-2.32
X78.782 Y19.409 I-1.784 J-2.522
G3 X78.945 Y18.895 I0.844 J-0.014
G1 X79.374 Y18.311
G3 X79.814 Y18.001 I0.681 J0.499
G1 X79.987 Y17.949
X80.072 Y17.92
X80.156 Y17.887
G3 X81.075 Y18.063 I0.328 J0.778
X81.391 Y18.387 I-6.927 J7.058
G1 X81.77 Y18.795
G3 X81.588 Y19.36 I-0.249 J0.231
G2 X79.917 Y20.318 I0.59 J2.964
X79.276 Y22.134 I1.912 J1.696
X79.413 Y22.974 I3.686 J-0.173
G3 X79.61 Y23.803 I-9.169 J2.618
X79.44 Y25.069 I-1.979 J0.378
G2 X79.126 Y26.009 I3.34 J1.64
X79.132 Y27.001 I2.514 J0.481
X79.901 Y28.602 I3.564 J-0.726
X81.072 Y29.937 I26.374 J-21.962
G3 X81.406 Y30.517 I-1.108 J1.024
G2 X81.994 Y31.811 I5.336 J-1.646
X82.771 Y33.002 I25.474 J-15.773
G3 X83.155 Y33.838 I-2.217 J1.523
G2 X83.542 Y34.976 I8.278 J-2.185
X84.062 Y36.059 I11.339 J-4.775
G3 X84.555 Y37.439 I-4.212 J2.281
G2 X84.832 Y38.544 I9.892 J-1.894
X85.22 Y39.615 I12.133 J-3.784
G3 X85.563 Y41.009 I-4.427 J1.83
G2 X86.103 Y43.68 I12.561 J-1.15
X87.351 Y46.104 I7.796 J-2.478
G3 X87.461 Y47.712 I-1.187 J0.889
G2 X86.956 Y48.68 I18.575 J10.29
X86.576 Y49.703 I5.001 J2.444
X86.309 Y51.299 I8.48 J2.239
X86.236 Y52.915 I28.774 J2.115
G3 X86.021 Y54.251 I-4.789 J-0.083
G2 X85.552 Y56.6 I11.066 J3.432
G3 X85.207 Y57.97 I-4.767 J-0.471
G2 X84.562 Y60.084 I10.384 J4.324
G3 X84.054 Y61.465 I-4.696 J-0.944
G2 X83.547 Y62.495 I10.218 J5.671
X83.168 Y63.578 I7.357 J3.184
G3 X82.652 Y64.685 I-3.465 J-0.941
G2 X81.509 Y66.694 I10.594 J7.355
X81.457 Y69.005 I2.672 J1.217
X81.619 Y69.303 I1.35 J-0.542
X81.82 Y69.578 I9.799 J-6.938
G3 X82.042 Y70.353 I-0.903 J0.678
G1 X81.925 Y71.71
G3 X81.328 Y72.074 I-0.432 J-0.037
G2 X80.485 Y71.877 I-1.032 J2.506
G3 X80.056 Y71.76 I0.077 J-1.126
G2 X76.826 Y72.247 I-1.269 J2.531
X74.709 Y74.735 I11.214 J11.69
G3 X73.56 Y75.677 I-2.214 J-1.528
G2 X71.795 Y76.966 I1.946 J4.516
X70.61 Y78.803 I5.81 J5.051
X70.431 Y79.397 I2.041 J0.938
G3 X70.328 Y80.009 I-24.071 J-3.724
X69.762 Y80.256 I-0.366 J-0.066
G2 X66.763 Y80.095 I-1.641 J2.551
X64.124 Y81.529 I20.125 J40.177
G3 X62.676 Y82.088 I-2.427 J-4.13
G2 X61.102 Y82.511 I2.945 J14.111
X59.563 Y83.045 I16.619 J50.348
G3 X58.534 Y83.296 I-1.641 J-4.5
G2 X55.445 Y83.849 I4.065 J31.588
G3 X53.893 Y83.948 I-1.078 J-4.667
G2 X53.467 Y83.915 I-0.964 J9.684
X53.04 Y83.922 I-0.166 J3.002
G1 X52.937 Y83.937
X52.835 Y83.957
G3 X51.736 Y84.03 I-0.865 J-4.711
G2 X51.329 Y84.032 I-0.19 J3.89
X50.925 Y84.08 I0.179 J3.203
G3 X49.654 Y84.143 I-0.87 J-4.71
X49.34 Y84.114 I1.329 J-15.862
G2 X49.025 Y84.099 I-0.293 J2.819
G3 X48.186 Y84.031 I-0.038 J-4.79
G2 X46.915 Y83.893 I-1.807 J10.661
G3 X45.639 Y83.809 I1.967 J-39.646
X44.796 Y83.663 I0.391 J-4.774
X42.337 Y82.97 I23.437 J-87.871
G2 X39.826 Y82.502 I-3.484 J11.73
G3 X38.615 Y81.97 I0.16 J-2.009
G2 X37.717 Y81.397 I-2.019 J2.173
X36.669 Y81.2 I-1.004 J2.46
G3 X35.575 Y80.756 I-0.024 J-1.509
G2 X34.248 Y79.828 I-3.243 J3.227
G3 X32.806 Y79.09 I8.286 J-17.974
X31.97 Y78.492 I2.354 J-4.171
G2 X31.484 Y78.132 I-2.197 J2.461
X30.936 Y77.876 I-1.459 J2.406
G3 X29.715 Y77.029 I0.88 J-2.572
G2 X28.733 Y76.133 I-3.602 J2.959
X27.623 Y75.401 I-26.675 J39.254
G3 X26.728 Y74.453 I1.449 J-2.266
G2 X24.951 Y72.512 I-5.057 J2.843
X22.436 Y71.738 I-2.496 J3.641
X21.684 Y71.844 I0.013 J2.82
X20.962 Y72.077 I2.718 J9.653
G3 X20.357 Y71.693 I-0.155 J-0.424
G1 X20.239 Y70.366
G3 X20.467 Y69.58 I1.125 J-0.1
G2 X21.076 Y68.169 I-2.518 J-1.925
X20.828 Y66.652 I-2.377 J-0.39
X19.636 Y64.688 I-17.299 J9.153
G3 X19.142 Y63.653 I2.952 J-2.044
G2 X18.272 Y61.541 I-10.321 J3.02
G3 X17.764 Y60.114 I4.202 J-2.299
G2 X17.497 Y59.029 I-9.41 J1.742
X17.117 Y57.979 I-11.335 J3.504
G3 X16.772 Y56.603 I4.423 J-1.839
G2 X16.289 Y54.194 I-12.11 J1.178
G3 X16.083 Y52.906 I4.583 J-1.393
G2 X15.99 Y51.136 I-28.723 J0.625
X15.65 Y49.397 I-8.085 J0.676
X15.299 Y48.541 I-5.104 J1.592
X14.865 Y47.723 I-34.5 J17.772
G3 X14.974 Y46.107 I1.324 J-0.723
G2 X16.223 Y43.643 I-6.798 J-4.994
X16.772 Y40.936 I-12.653 J-3.977
G3 X17.136 Y39.511 I4.768 J0.459
G2 X17.778 Y37.36 I-9.072 J-3.878
G3 X18.177 Y36.241 I3.534 J0.631
G2 X18.751 Y35.106 I-13.588 J-7.583
X19.163 Y33.903 I-5.986 J-2.725
G3 X19.615 Y32.929 I2.617 J0.622
G2 X20.381 Y31.746 I-9.364 J-6.901
X20.946 Y30.454 I-6.057 J-3.419
G3 X21.187 Y30.038 I1.075 J0.345
G2 X22.591 Y28.337 I-16.405 J-14.976
X23.273 Y26.24 I-2.758 J-2.056
X23.148 Y25.583 I-1.906 J0.023
X22.864 Y24.976 I-4.325 J1.653
G3 X22.699 Y23.957 I1.317 J-0.736
G2 X22.996 Y22.365 I-195.526 J-37.354
X22.783 Y20.76 I-2.587 J-0.472
X21.748 Y19.684 I-2.136 J1.019
X20.301 Y19.315 I-1.496 J2.848
G3 X20.114 Y18.878 I0.004 J-0.26
G2 X20.475 Y18.486 I-42.16 J-39.202
G3 X20.847 Y18.105 I5.888 J5.374
X21.516 Y17.974 I0.436 J0.455
G1 X21.614 Y18.01
X21.713 Y18.041
X21.914 Y18.097
G3 X22.256 Y18.325 I-0.16 J0.61
G1 X22.818 Y19.066
G3 X22.913 Y19.368 I-0.375 J0.284
G2 X23.533 Y21.344 I3.087 J0.118
X25.29 Y22.441 I2.303 J-1.735
X26.716 Y22.267 I0.444 J-2.301
X27.945 Y21.522 I-2.687 J-5.817
X29.187 Y20.506 I-17.351 J-22.474
X30.347 Y19.398 I-10.86 J-12.534
G3 X30.829 Y19.098 I0.818 J0.778
G2 X32.405 Y18.356 I-1.885 J-6.045
G3 X33.88 Y17.427 I29.462 J45.129
X36.178 Y16.255 I8.998 J14.807
G2 X38.542 Y15.223 I-33.94 J-80.948
G3 X38.936 Y15.083 I1.019 J2.243
G2 X39.339 Y14.972 I-5.07 J-19.326
X40.809 Y14.507 I-7.235 J-25.404
G3 X42.279 Y14.042 I8.705 J24.939
X42.714 Y14.473 I0.096 J0.338
G1 X42.589 Y14.929
G2 X42.52 Y15.37 I1.92 J0.528
X42.516 Y15.647 I4.43 J0.194
G3 X42.513 Y15.924 I-4.433 J0.083
X41.886 Y16.527 I-0.629 J-0.028
G2 X41.097 Y16.603 I0.021 J4.316
X40.346 Y16.859 I0.536 J2.804
G1 X40.27 Y16.893
X40.191 Y16.919
X40.111 Y16.937
G2 X39.588 Y17.089 I0.428 J2.449
X39.1 Y17.329 I1.603 J3.875
G1 X39.015 Y17.372
X38.926 Y17.404
G2 X37.944 Y17.801 I1.799 J5.864
X37.032 Y18.34 I3.821 J7.513
G3 X36.737 Y18.482 I-0.634 J-0.934
G2 X35.807 Y18.869 I1.715 J5.434
X34.971 Y19.431 I2.158 J4.118
G1 X34.88 Y19.5
X34.782 Y19.559
G2 X33.827 Y20.126 I6.9 J12.733
X32.958 Y20.818 I3.029 J4.692
G3 X32.664 Y21.024 I-0.788 J-0.809
G2 X31.084 Y22.031 I3.575 J7.358
X29.754 Y23.351 I5.897 J7.265
G3 X29.554 Y23.541 I-0.872 J-0.717
G2 X28.734 Y24.2 I7.914 J10.694
X28.017 Y24.969 I3.312 J3.805
G3 X27.802 Y25.2 I-1.205 J-0.908
G2 X26.51 Y26.409 I15.456 J17.804
X25.514 Y27.872 I3.453 J3.421
G3 X25.11 Y28.354 I-1.033 J-0.455
G2 X23.937 Y29.806 I1.763 J2.625
X23.926 Y31.672 I2.371 J0.948
X24.442 Y32.656 I4.501 J-1.736
G3 X25.023 Y33.603 I-9.338 J6.373
X25.303 Y34.378 I-2.36 J1.291
G2 X25.897 Y35.717 I3.224 J-0.63
X27.048 Y36.621 I2.259 J-1.69
X29.603 Y36.284 I0.993 J-2.325
X31.251 Y34.303 I-3.799 J-4.836
G3 X31.418 Y34.082 I0.748 J0.392
G2 X32.783 Y32.567 I-8.921 J-9.415
G3 X34.159 Y31.061 I9.513 J7.306
G2 X34.974 Y30.264 I-13.46 J-14.577
X35.715 Y29.398 I-6.934 J-6.693
G1 X35.765 Y29.343
X35.822 Y29.297
X35.885 Y29.259
G2 X37.699 Y28.079 I-3.744 J-7.737
G3 X39.433 Y26.786 I11.255 J13.28
X39.667 Y27.095 I0.106 J0.162
G2 X35.807 Y30.889 I29.575 J33.941
X32.586 Y35.239 I20.9 J18.845
X29.291 Y42.244 I32.754 J19.683
X27.633 Y49.805 I29.927 J10.525
X27.471 Y51.904 I64.009 J6.006
X27.407 Y54.007 I34.528 J2.102
G1 X27.445 Y67.735
G2 X28.397 Y69.456 I2.684 J-0.361
X30.247 Y70.125 I1.85 J-2.225
G1 X71.77 Y70.123
G2 X74.549 Y67.482 I0. J-2.783
G1 X74.489 Y51.718
G2 X73.467 Y44.905 I-28.963 J0.862
X71.123 Y38.428 I-42.021 J11.541
X69.401 Y35.179 I-27.4 J12.443
X67.255 Y32.193 I-21.046 J12.862
X65.409 Y30.105 I-40.859 J34.262
X63.484 Y28.092 I-78.077 J72.745
X62.888 Y27.577 I-3.433 J3.37
G3 X62.274 Y27.083 I5.063 J-6.934
X62.509 Y26.776 I0.128 J-0.146
X63.481 Y27.437 I-21.285 J32.326
G2 X64.533 Y27.963 I2.275 J-3.236
G3 X64.764 Y28.128 I-0.145 J0.448
G2 X65.967 Y29.335 I4.887 J-3.666
X67.362 Y30.313 I14.28 J-18.885
G1 X67.423 Y30.358
X67.478 Y30.41
G3 X68.044 Y31.038 I-13.295 J12.543
