(1001)
(T1  D=0.8 CR=0. - ZMIN=-2.928 - FLAT END MILL)
G0 G90 G94 G17
G21
G53 G0 Z0.

(0.8MM  FLATEND  CONTOUR RIBBON)
M5
M9
T1
S16000 M3
G4 P4.
G55
G0 X26.184 Y30.388
Z15.
Z0.979
G1 Z-0.115 F50.
X26.211 Y30.4
X26.232 Y30.422
X26.243 Y30.45
Y30.48
X26.231 Y30.508
X26.22 Y30.528
X26.211 Y30.548
X26.202 Y30.567
X26.195 Y30.587
X26.187 Y30.615
X26.181 Y30.642
X26.177 Y30.669
X26.174 Y30.697
Y30.724
X26.176 Y30.751
X26.179 Y30.779
X26.185 Y30.806
X26.193 Y30.835
X26.203 Y30.864
X26.216 Y30.893
X26.231 Y30.922
X27.546 Y33.317
X27.608 Y33.435
X27.703 Y33.64 F13.
X27.701 Y33.654
X27.648 Y33.763 F50.
X27.637 Y33.791
X27.628 Y33.818
X27.621 Y33.845
X27.616 Y33.873
X27.613 Y33.9
X27.612 Y33.927
X27.613 Y33.955
X27.615 Y33.982
X27.62 Y34.01
X27.626 Y34.037
X27.635 Y34.064
X27.646 Y34.092
X27.655 Y34.111
X27.665 Y34.13
X27.677 Y34.149
X27.691 Y34.168
X27.706 Y34.187
X27.723 Y34.206
X27.744 Y34.226
X27.765 Y34.244
X27.854 Y34.311
X27.87 Y34.321
X27.886 Y34.331
X27.902 Y34.339
X27.919 Y34.347
X27.951 Y34.359
X27.984 Y34.369
X28.011 Y34.375
X28.038 Y34.379
X28.066 Y34.38
X28.093
X28.12 Y34.379
X28.148 Y34.375
X28.175 Y34.369
X28.203 Y34.361
X28.228 Y34.352
X28.254 Y34.341
X28.28 Y34.327
X28.306 Y34.311
X28.323 Y34.298
X28.34 Y34.284
X28.357 Y34.269
X28.374 Y34.251
X28.387 Y34.236
X28.399 Y34.222
X29.165 Y33.216
X29.184 Y33.188
X29.201 Y33.161
X29.215 Y33.133
X29.226 Y33.106
X29.235 Y33.079
X29.242 Y33.051
X29.247 Y33.024
X29.25 Y32.997
X29.251 Y32.969
X29.25 Y32.942
X29.247 Y32.914
X29.243 Y32.887
X29.236 Y32.86
X29.228 Y32.832
X29.217 Y32.805
X29.203 Y32.778
X29.193 Y32.76
X29.182 Y32.743
X29.169 Y32.725
X29.155 Y32.708
X29.137 Y32.688
X29.117 Y32.668
X29.079 Y32.638
X29.022 Y32.594
X28.993 Y32.574
X28.965 Y32.558
X28.939 Y32.546
X28.912 Y32.536
X28.886 Y32.528
X28.86 Y32.522
X28.832 Y32.518
X28.805 Y32.515
X28.777
X28.75 Y32.516
X28.723 Y32.519
X28.695 Y32.524
X28.668 Y32.532
X28.641 Y32.541 F13.
X28.621 Y32.549
X28.601 Y32.558
X28.574 Y32.574
X28.56 Y32.579
X28.546 Y32.558
X28.422 Y32.346 F50.
X28.152 Y31.857
X28.056 Y31.682 F13.
X28.077 Y31.665
X28.86 Y31.882 F50.
X28.928 Y31.901
X29.028 Y31.938 F13.
X29.043 Y31.956
X29.036 Y31.983
X29.031 Y32.011
X29.027 Y32.038
X29.026 Y32.066 F50.
X29.027 Y32.093
X29.03 Y32.12
X29.032 Y32.139
X29.036 Y32.157
X29.041 Y32.175
X29.046 Y32.194
X29.053 Y32.212
X29.06 Y32.23
X29.069 Y32.248
X29.079 Y32.267
X29.09 Y32.285
X29.102 Y32.303
X29.116 Y32.321
X29.132 Y32.339
X29.152 Y32.36
X29.173 Y32.379
X29.215 Y32.411
X29.256 Y32.444
X29.277 Y32.458
X29.298 Y32.471
X29.325 Y32.485
X29.352 Y32.496
X29.38 Y32.505
X29.407 Y32.512
X29.435 Y32.517
X29.462 Y32.52
X29.489 Y32.522
X29.517 Y32.521
X29.544 Y32.518
X29.571 Y32.514
X29.599 Y32.507
X29.626 Y32.499
X29.654 Y32.488
X29.681 Y32.475
X29.708 Y32.459
X29.736 Y32.439
X29.749 Y32.429
X29.763 Y32.417
X29.777 Y32.403
X29.79 Y32.389
X29.83 Y32.339
X30.393 Y31.599
X30.405 Y31.582
X30.416 Y31.565
X30.425 Y31.548
X30.434 Y31.531
X30.457 Y31.506
X30.48 Y31.494
X30.503 Y31.48
X30.525 Y31.463
X30.547 Y31.445
X30.569 Y31.424
X30.612 Y31.377
X32.145 Y29.698
X32.191 Y29.646
X32.212 Y29.62
X32.229 Y29.595
X32.243 Y29.569
X32.255 Y29.543
X32.265 Y29.518
X32.273 Y29.492
X32.28 Y29.461
X32.285 Y29.43 F13.
X32.287 Y29.404
X32.306 Y29.381
X32.324 Y29.378
X32.344 Y29.374
X32.364 Y29.369 F50.
X32.384 Y29.362
X32.405 Y29.354
X32.426 Y29.345
X32.446 Y29.334
X32.467 Y29.322
X32.488 Y29.308
X32.508 Y29.291
X32.529 Y29.273
X33.511 Y28.371
X33.526 Y28.356
X33.54 Y28.342
X33.587 Y28.287
X33.897 Y27.897
X33.912 Y27.878
X33.924 Y27.858
X33.947 Y27.818
X33.957 Y27.799
X33.965 Y27.779
X33.98 Y27.74
X34.037 Y27.521
X34.066 Y27.411
X34.08 Y27.356
X34.084 Y27.329
X34.088 Y27.302
X34.091 Y27.274
Y27.247
X34.09 Y27.219
X34.087 Y27.192
X34.083 Y27.165
X34.077 Y27.137
X34.066 Y27.083
X34.02 Y26.863
X34.012 Y26.836
X34.003 Y26.809
X33.991 Y26.781
X33.977 Y26.754
X33.908 Y26.644
X33.832 Y26.527
X33.814 Y26.501
X33.793 Y26.476
X33.78 Y26.462
X33.766 Y26.448
X33.752 Y26.436
X33.738 Y26.425
X33.678 Y26.381
X33.459 Y26.223
X33.43 Y26.206
X33.406 Y26.195
X33.382 Y26.186
X33.359 Y26.178
X33.335 Y26.172
X33.24 Y26.153
X33.021 Y26.109
X32.993 Y26.107
X32.966 Y26.106
X32.939 Y26.107
X32.911 Y26.11
X32.884 Y26.115
X32.857 Y26.122
X32.755 Y26.153 F13.
X32.742 Y26.139
X32.699 Y25.768 F50.
X32.679 Y25.549
X32.674 Y25.407
X32.667 Y25.207 F13.
X32.672 Y25.193
X32.764 Y25.01 F50.
X32.854 Y24.831 F13.
X32.868 Y24.802
X32.874 Y24.787
X32.888 Y24.772
X32.922 Y24.77
X32.947 Y24.767 F50.
X32.972 Y24.762
X32.996 Y24.756
X33.021 Y24.748
X33.048 Y24.736
X33.076 Y24.723 F13.
X33.13 Y24.689
X33.144 Y24.68
X33.158 Y24.69
X33.24 Y24.771 F50.
X33.263 Y24.802
X34.374 Y26.247
X34.382 Y26.261
X34.445 Y26.371 F13.
X34.432 Y26.385
X34.417 Y26.399
X34.39 Y26.425
X34.373 Y26.443 F50.
X34.359 Y26.46
X34.346 Y26.477
X34.335 Y26.494
X34.324 Y26.513
X34.314 Y26.532
X34.306 Y26.551
X34.298 Y26.569
X34.292 Y26.588
X34.286 Y26.607
X34.282 Y26.626
X34.279 Y26.644
X34.275 Y26.672
X34.274 Y26.699
Y26.727
X34.277 Y26.754
X34.281 Y26.781
X34.287 Y26.809
X34.295 Y26.836
X34.306 Y26.863
X34.319 Y26.892
X34.335 Y26.92
X34.349 Y26.94
X34.364 Y26.96
X34.395 Y27.001
X34.428 Y27.042
X34.45 Y27.064
X34.471 Y27.083
X34.492 Y27.098
X34.512 Y27.112
X34.533 Y27.125
X34.554 Y27.135
X34.581 Y27.147
X34.609 Y27.156
X34.636 Y27.164
X34.663 Y27.169
X34.691 Y27.172
X34.718 Y27.173
X34.746
X34.773 Y27.171
X34.799 Y27.167
X34.825 Y27.161
X34.85 Y27.153
X34.876 Y27.144
X34.902 Y27.132
X34.928 Y27.118
X34.953 Y27.102
X34.979 Y27.083
X35.975 Y26.304
X36.029 Y26.262
X36.043 Y26.249
X36.058 Y26.234
X36.071 Y26.22
X36.082 Y26.206
X36.087 Y26.2
X36.099 Y26.183
X36.11 Y26.167
X36.119 Y26.15
X36.128 Y26.134
X36.141 Y26.104 F13.
X36.146 Y26.088
X36.162 Y26.073
X36.179 Y26.071
X36.197 Y26.067
X36.224 Y26.06 F50.
X36.251 Y26.051
X36.279 Y26.04
X36.306 Y26.026
X36.366 Y25.987
X38.435 Y24.633
X38.466 Y24.612
X38.481 Y24.601
X38.496 Y24.588
X38.514 Y24.571
X38.529 Y24.554
X38.543 Y24.538
X38.556 Y24.521
X38.567 Y24.504
X38.577 Y24.487
X38.586 Y24.471
X38.594 Y24.454
X38.605 Y24.427
X38.614 Y24.399
X38.62 Y24.372
X38.625 Y24.345
X38.628 Y24.317
X38.629 Y24.29
X38.628 Y24.262
X38.625 Y24.235
X38.62 Y24.208
X38.613 Y24.18
X38.604 Y24.153
X38.593 Y24.126
X38.579 Y24.098
X38.564 Y24.071
X38.213 Y23.468
X38.197 Y23.441
X38.177 Y23.414
X38.166 Y23.4
X38.154 Y23.386
X38.14 Y23.372
X38.126 Y23.359
X38.109 Y23.345
X38.092 Y23.332
X38.075 Y23.321
X38.058 Y23.311
X38.031 Y23.296
X38.003 Y23.285
X37.976 Y23.276
X37.949 Y23.268
X37.921 Y23.263
X37.894 Y23.26
X37.867 Y23.259
X37.839
X37.812 Y23.262
X37.784 Y23.266
X37.757 Y23.272
X37.73 Y23.281
X37.702 Y23.291
X37.675 Y23.304
X37.648 Y23.32
X37.588 Y23.359
X37.558 Y23.379
X37.543 Y23.39
X37.528 Y23.403
X37.511 Y23.418
X37.494 Y23.436
X37.48 Y23.452
X37.468 Y23.468
X37.449 Y23.496
X37.434 Y23.523
X37.421 Y23.551
X37.411 Y23.578
X37.406 Y23.595
X37.401 Y23.613
X37.396 Y23.636
X37.393 Y23.659
X37.391 Y23.682
X37.39 Y23.705
X37.391 Y23.728
X37.393 Y23.751
X37.396 Y23.774
X37.401 Y23.797
X37.461 Y24.039 F13.
X37.451 Y24.062
X37.387 Y24.122
X37.372 Y24.131
X37.358 Y24.129
X36.352 Y22.565 F50.
X36.343 Y22.551
X36.292 Y22.44 F13.
X36.287 Y22.424
X36.306 Y22.409
X36.346 Y22.376
X36.366 Y22.358 F50.
X36.387 Y22.336
X36.401 Y22.318
X36.415 Y22.3
X36.426 Y22.282
X36.437 Y22.264
X36.45 Y22.236
X36.461 Y22.209
X36.47 Y22.182
X36.477 Y22.154
X36.481 Y22.127
X36.484 Y22.099
X36.485 Y22.072
X36.484 Y22.045
X36.481 Y22.018
X36.476 Y21.991
X36.47 Y21.964
X36.461 Y21.937
X36.454 Y21.92
X36.447 Y21.903
X36.429 Y21.869
X36.415 Y21.847
X36.373 Y21.782
X36.357 Y21.76
X36.339 Y21.738
X36.324 Y21.721
X36.306 Y21.704
X36.28 Y21.683
X36.255 Y21.665
X36.229 Y21.65
X36.203 Y21.637
X36.178 Y21.627
X36.152 Y21.618
X36.126 Y21.611
X36.101 Y21.607
X36.087 Y21.605
X36.06 Y21.602
X36.032
X36.005 Y21.603
X35.977 Y21.607
X35.95 Y21.612
X35.923 Y21.619
X35.895 Y21.628
X35.868 Y21.64
X35.841 Y21.654
X35.813 Y21.671
X34.773 Y22.351
X34.694 Y22.404
X34.674 Y22.42
X34.654 Y22.438
X34.633 Y22.46
X34.614 Y22.483
X34.595 Y22.511
X34.578 Y22.54
X34.565 Y22.568
X34.554 Y22.597
X34.546 Y22.623
X34.54 Y22.649
X34.536 Y22.676
X34.534 Y22.702
X34.533 Y22.721
Y22.739
X34.534 Y22.758
X34.537 Y22.777
X34.539 Y22.796
X34.543 Y22.815
X34.548 Y22.833
X34.554 Y22.852
X34.56 Y22.869
X34.567 Y22.886
X34.575 Y22.904
X34.585 Y22.921
X34.619 Y22.975
X34.655 Y23.03
X34.667 Y23.046
X34.681 Y23.063
X34.697 Y23.08
X34.714 Y23.095
X34.729 Y23.108
X34.743 Y23.119
X34.758 Y23.13
X34.774 Y23.14
X34.802 Y23.155
X34.829 Y23.167
X34.856 Y23.177
X34.883 Y23.185
X34.91 Y23.19
X34.938 Y23.194
X34.965 Y23.196
X34.992
X35.016 Y23.195
X35.04 Y23.192
X35.064 Y23.187
X35.089 Y23.181
X35.113 Y23.173
X35.137 Y23.164 F13.
X35.185 Y23.14
X35.211 Y23.126
X35.229 Y23.14
X35.299 Y23.222 F50.
X35.309 Y23.236
X36.211 Y24.64
X36.32 Y24.808 F13.
X36.306 Y24.829
X36.293 Y24.837
X36.218 Y24.869
X36.203 Y24.875
X36.009 Y24.722 F50.
X35.989 Y24.707
X35.97 Y24.694
X35.95 Y24.683
X35.93 Y24.673
X35.899 Y24.66
X35.868 Y24.65
X35.841 Y24.643
X35.813 Y24.638
X35.786 Y24.636
X35.759 Y24.635
X35.731 Y24.636
X35.704 Y24.639
X35.676 Y24.643
X35.649 Y24.65
X35.619 Y24.66
X35.589 Y24.673
X35.569 Y24.683
X35.549 Y24.695
X35.509 Y24.721
X35.47 Y24.748
X35.45 Y24.762
X35.43 Y24.777
X35.415 Y24.791
X35.4 Y24.806
X35.387 Y24.82
X35.375 Y24.835
X35.364 Y24.849
X35.354 Y24.863
X35.337 Y24.892
X35.324 Y24.92
X35.313 Y24.947
X35.304 Y24.974
X35.297 Y25.002
X35.293 Y25.029
X35.29 Y25.056
X35.289 Y25.084
X35.29 Y25.111
X35.293 Y25.139
X35.298 Y25.166
X35.305 Y25.193
X35.314 Y25.221
X35.325 Y25.247
X35.338 Y25.274
X35.348 Y25.291
X35.359 Y25.308
X35.517 Y25.532 F13.
X35.51 Y25.549
X35.47 Y25.575
X35.45 Y25.583
X35.367 Y25.5 F50.
X35.346 Y25.476
X34.223 Y24.016
X34.215 Y24.002
X34.153 Y23.893 F13.
X34.166 Y23.879
X34.195 Y23.852
X34.222 Y23.824
X34.234 Y23.811 F50.
X34.244 Y23.797
X34.263 Y23.77
X34.279 Y23.742
X34.292 Y23.715
X34.302 Y23.687
X34.311 Y23.66
X34.317 Y23.633
X34.321 Y23.605
X34.324 Y23.578
Y23.551
X34.323 Y23.523
X34.319 Y23.496
X34.314 Y23.468
X34.307 Y23.441
X34.297 Y23.414
X34.286 Y23.386
X34.271 Y23.359
X34.257 Y23.336
X34.24 Y23.312
X34.204 Y23.266
X34.167 Y23.219
X34.154 Y23.206
X34.141 Y23.194
X34.116 Y23.173
X34.091 Y23.155
X34.066 Y23.14
X34.045 Y23.129
X34.024 Y23.119
X34.003 Y23.111
X33.981 Y23.105
X33.96 Y23.099
X33.939 Y23.095
X33.918 Y23.092
X33.897 Y23.09
X33.87 Y23.089
X33.842 Y23.091
X33.815 Y23.094
X33.787 Y23.098
X33.76 Y23.105
X33.733 Y23.114
X33.705 Y23.126
X33.677 Y23.14
X33.65 Y23.156
X33.623 Y23.176
X32.583 Y23.992
X32.569 Y24.003
X32.555 Y24.016
X32.538 Y24.034
X32.522 Y24.051
X32.509 Y24.069
X32.496 Y24.087
X32.485 Y24.105
X32.476 Y24.122
X32.467 Y24.14 F13.
X32.46 Y24.158
X32.454 Y24.173
X32.436 Y24.188
X32.412 Y24.189
X32.388 Y24.191 F50.
X32.364 Y24.195
X32.336 Y24.202
X32.309 Y24.211
X32.281 Y24.222
X32.254 Y24.235
X32.227 Y24.251
X32.199 Y24.27
X32.145 Y24.318
X31.569 Y24.845
X31.545 Y24.869
X31.524 Y24.892
X31.504 Y24.917
X31.488 Y24.942
X31.476 Y24.964
X31.466 Y24.985
X31.457 Y25.006
X31.45 Y25.027
X31.443 Y25.048
X31.439 Y25.069
X31.435 Y25.09
X31.432 Y25.111
X31.431 Y25.139
Y25.166
X31.436 Y25.221
X31.467 Y25.505 F13.
X31.449 Y25.523
X31.433 Y25.505
X31.419 Y25.492
X31.406 Y25.48
X31.382 Y25.461
X31.358 Y25.444 F50.
X31.336 Y25.431
X31.314 Y25.42
X31.291 Y25.41
X31.269 Y25.402
X31.241 Y25.394
X31.214 Y25.388
X31.187 Y25.384
X31.159 Y25.382
X31.132
X31.105 Y25.384
X31.077 Y25.387
X31.05 Y25.393
X31.022 Y25.401
X30.995 Y25.41
X30.968 Y25.423
X30.94 Y25.437
X30.913 Y25.455
X30.885 Y25.476
X30.831 Y25.526
X29.906 Y26.374
X29.879 Y26.4
X29.857 Y26.425
X29.837 Y26.453
X29.82 Y26.48
X29.806 Y26.508
X29.794 Y26.535
X29.785 Y26.562
X29.778 Y26.59
X29.773 Y26.617
X29.77 Y26.644
X29.769 Y26.672
Y26.699
X29.772 Y26.727
X29.776 Y26.754
X29.783 Y26.781
X29.791 Y26.809 F13.
X29.802 Y26.836
X29.815 Y26.863
X29.823 Y26.877
X29.809 Y26.897
X29.795 Y26.891
X29.775 Y26.883
X29.756 Y26.875
X29.736 Y26.869
X29.713 Y26.863 F50.
X29.692 Y26.859
X29.67 Y26.856
X29.649 Y26.855
X29.627 Y26.854
X29.606 Y26.855
X29.584 Y26.856
X29.563 Y26.859
X29.541 Y26.863
X29.517 Y26.87
X29.489 Y26.879
X29.462 Y26.89
X29.435 Y26.904
X29.407 Y26.92
X29.38 Y26.94
X29.366 Y26.951
X29.352 Y26.963
X29.298 Y27.022
X27.765 Y28.701
X27.704 Y28.768
X27.69 Y28.785
X27.677 Y28.801
X27.666 Y28.818
X27.656 Y28.835
X27.642 Y28.862
X27.63 Y28.89
X27.621 Y28.917
X27.614 Y28.944
X27.608 Y28.972
X27.605 Y28.999
X27.604 Y29.026
Y29.054
X27.607 Y29.081
X27.611 Y29.109
X27.617 Y29.136
X27.626 Y29.163
X27.636 Y29.191
X27.649 Y29.218
X27.665 Y29.246
X27.684 Y29.273
X27.701 Y29.294
X27.72 Y29.315
X27.765 Y29.357
X27.792 Y29.382
X27.806 Y29.395
X27.819 Y29.406
X27.847 Y29.425
X27.874 Y29.442
X27.901 Y29.455
X27.929 Y29.466
X27.956 Y29.475
X27.984 Y29.482
X28.011 Y29.487
X28.038 Y29.489
X28.066 Y29.49
X28.093 Y29.489
X28.12 Y29.486
X28.148 Y29.482
X28.175 Y29.475
X28.203 Y29.466
X28.23 Y29.455
X28.257 Y29.441
X28.285 Y29.425
X28.312 Y29.405 F13.
X28.367 Y29.357
X28.381 Y29.351
X28.473 Y29.415 F50.
X28.49 Y29.429
X29.837 Y30.682
X29.852 Y30.697
X29.93 Y30.793 F13.
X29.931 Y30.806
X29.893 Y30.857
X29.876 Y30.882 F50.
X29.862 Y30.907
X29.852 Y30.927
X29.83 Y30.947
X29.814 Y30.955
X29.799 Y30.964
X29.736 Y31.008 F13.
X29.694 Y31.038
X29.676 Y31.044
X29.407 Y30.997 F50.
X29.393 Y30.994
X26.724 Y30.261
X26.697 Y30.255
X26.669 Y30.251
X26.642 Y30.248
X26.615
X26.587 Y30.25
X26.56 Y30.253
X26.533 Y30.259
X26.505 Y30.266
X26.478 Y30.276
X26.45 Y30.288
X26.422 Y30.302
X26.394 Y30.32
X26.38 Y30.331
X26.366 Y30.342
X26.352 Y30.354
X26.338 Y30.368
X26.322 Y30.386
X26.308 Y30.403
X26.255 Y30.473
X26.243 Y30.491
X26.231 Y30.508
X26.21 Y30.531
X26.181 Y30.543
X26.15 Y30.544
X26.121 Y30.532
X26.091 Y30.521
X26.059 Y30.522
X26.03 Y30.536
X26.008 Y30.56
X25.998 Y30.591
X25.488 Y35.103
Z-0.699
X25.493 Y35.112 Z-0.738 F17.
X25.504 Y35.138 Z-0.767
X25.516 Y35.175 Z-0.779
G3 X24.783 Y35.377 Z-0.82 I-0.366 J0.101
X24.825 Y35.079 Z-0.831 I0.366 J-0.101
G1 X24.826 Y35.077
X24.873 Y35. F50.
G3 X25.465 Y34.859 I0.366 J0.225
G1 X25.793 Y35.061
X25.986 Y35.187
X27.327 Y36.088
X27.546 Y36.237
X27.61 Y36.282
X27.984 Y36.547
X28.203 Y36.702
X28.227 Y36.72
X28.422 Y36.862
X28.527 Y36.939
X28.641 Y37.021
X28.969 Y37.241
X29.024 Y37.277
X29.051 Y37.293
X29.079 Y37.306
X29.106 Y37.316
X29.133 Y37.325
X29.161 Y37.331
X29.188 Y37.335
X29.216 Y37.337
X29.243 Y37.338
X29.27 Y37.336
X29.298 Y37.333
X29.325 Y37.328
X29.352 Y37.32
X29.38 Y37.311
X29.407 Y37.299
X29.435 Y37.285
X29.462 Y37.267
X29.489 Y37.247
X29.503 Y37.235
X29.517 Y37.222
X29.532 Y37.206
X29.546 Y37.19
X29.558 Y37.174
X29.569 Y37.158
X29.586 Y37.131
X29.599 Y37.104
X29.621 Y37.049
X29.821 Y36.501
X29.903 Y36.282
X29.955 Y36.148
X29.99 Y36.063
X30.085 Y35.844
X30.174 Y35.656
X30.294 Y35.406
X30.393 Y35.218
X30.566 Y34.892
X30.587 Y34.855
X31.967 Y32.778
X32.115 Y32.558
X32.447 Y32.12
X32.583 Y31.952
X33.459 Y30.978
X33.678 Y30.734
X33.828 Y30.587
X34.992 Y29.49
X35.211 Y29.297
X36.624 Y28.178
X36.744 Y28.083
X36.923 Y27.959
X38.589 Y26.863
X38.715 Y26.781
X38.934 Y26.662
X40.686 Y25.718
X40.905 Y25.605
X42.876 Y24.748
X43.048 Y24.673
X43.096 Y24.653
X44.667 Y24.108
X44.698 Y24.103
X44.728 Y24.111
X44.753 Y24.13
X44.769 Y24.157
G0 Z5.
X44.19 Y24.458
Z0.254
G1 Z-1.908 F50.
X44.186 Y24.461 Z-1.935 F17.
X44.175 Y24.469 Z-1.959
X44.157 Y24.481 Z-1.977
X44.136 Y24.496 Z-1.986
X44.127 Y24.502 Z-1.987
X44.122 Y24.505 Z-1.988
X44.136 Y24.496
X44.191 Y24.458 Z-1.991
X44.41 Y24.31 Z-2.
X44.525 Y24.235 Z-2.005
X44.538 Y24.227
X44.525 Y24.235 Z-2.006
X44.41 Y24.31 Z-2.01
X44.191 Y24.458 Z-2.02
X44.136 Y24.496 Z-2.022
X44.122 Y24.505 Z-2.023
X44.136 Y24.496
X44.191 Y24.458 Z-2.026
X44.41 Y24.31 Z-2.035
X44.525 Y24.235 Z-2.04
X44.536 Y24.228
X44.538 Y24.227
X44.525 Y24.235 F50.
X44.41 Y24.31
X44.191 Y24.458
X44.136 Y24.496
X44.122 Y24.505
X44.108 Y24.511
X44.092 Y24.508
X44.08 Y24.498
G0 Z5.
X44.239 Y24.425
Z0.257
G1 Z-1.958 F50.
X44.244 Y24.422 Z-1.987 F17.
X44.258 Y24.413 Z-2.013
X44.279 Y24.399 Z-2.031
X44.303 Y24.382 Z-2.037
X44.41 Y24.31 Z-2.042
X44.525 Y24.235 Z-2.047
X44.551 Y24.218 Z-2.048
X44.564 Y24.21
X44.551 Y24.218 Z-2.049
X44.525 Y24.235 Z-2.05
X44.41 Y24.31 Z-2.055
X44.191 Y24.458 Z-2.064
X44.081 Y24.533 Z-2.069
X44.067 Y24.543
X44.081 Y24.533 Z-2.07
X44.191 Y24.458 Z-2.074
X44.41 Y24.31 Z-2.084
X44.525 Y24.235 Z-2.088
X44.551 Y24.218 Z-2.09
X44.562 Y24.212
X44.564 Y24.21
X44.551 Y24.218 F50.
X44.525 Y24.235
X44.41 Y24.31
X44.191 Y24.458
X44.081 Y24.533
X44.067 Y24.543
X44.048 Y24.55
X44.027 Y24.546
X44.012 Y24.533
G0 Z5.
X44.343 Y24.355
Z0.261
G1 Z-2.008 F50.
X44.348 Y24.352 Z-2.037 F17.
X44.362 Y24.343 Z-2.063
X44.382 Y24.329 Z-2.081
X44.407 Y24.312 Z-2.087
X44.41 Y24.31 Z-2.088
X44.525 Y24.235 Z-2.092
X44.577 Y24.202 Z-2.095
X44.59 Y24.193
X44.577 Y24.202 Z-2.096
X44.525 Y24.235 Z-2.098
X44.41 Y24.31 Z-2.103
X44.191 Y24.458 Z-2.112
X44.081 Y24.533 Z-2.116
X44.054 Y24.552 Z-2.118
X44.081 Y24.533 Z-2.119
X44.191 Y24.458 Z-2.123
X44.41 Y24.31 Z-2.133
X44.525 Y24.235 Z-2.137
X44.577 Y24.202 Z-2.14
X44.587 Y24.195
X44.59 Y24.193
X44.577 Y24.202 F50.
X44.525 Y24.235
X44.41 Y24.31
X44.191 Y24.458
X44.081 Y24.533
X44.054 Y24.552
X44.034 Y24.559
X44.014 Y24.555
X43.998 Y24.542
G0 Z5.
X44.447 Y24.286
Z0.264
G1 Z-2.058 F50.
X44.452 Y24.282 Z-2.087 F17.
X44.466 Y24.273 Z-2.113
X44.487 Y24.26 Z-2.131
X44.512 Y24.243 Z-2.137
X44.577 Y24.201 Z-2.14
X44.603 Y24.185 Z-2.141
X44.616 Y24.177 Z-2.142
X44.603 Y24.185
X44.577 Y24.201 Z-2.143
X44.41 Y24.31 Z-2.15
X44.191 Y24.458 Z-2.16
X44.04 Y24.561 Z-2.166
X44.191 Y24.458 Z-2.172
X44.41 Y24.31 Z-2.182
X44.577 Y24.201 Z-2.188
X44.603 Y24.185 Z-2.19
X44.613 Y24.178
X44.616 Y24.177
X44.603 Y24.185 F50.
X44.577 Y24.201
X44.41 Y24.31
X44.191 Y24.458
X44.04 Y24.561
X44.02 Y24.568
X44. Y24.564
X43.984 Y24.55
G0 Z5.
X44.641 Y24.16
Z0.268
G1 Z-2.108 F50.
X44.638 Y24.162 Z-2.132 F17.
X44.629 Y24.168 Z-2.154
X44.614 Y24.177 Z-2.171
X44.596 Y24.189 Z-2.183
X44.576 Y24.202 Z-2.187
X44.525 Y24.235 Z-2.19
X44.41 Y24.31 Z-2.194
X44.191 Y24.458 Z-2.204
X43.999 Y24.589 Z-2.212
X43.985 Y24.599
X43.999 Y24.589 Z-2.213
X44.191 Y24.458 Z-2.221
X44.41 Y24.31 Z-2.23
X44.525 Y24.235 Z-2.235
X44.629 Y24.168 Z-2.239
X44.645 Y24.158 Z-2.24
X44.647 Y24.156
X44.629 Y24.168 F50.
X44.525 Y24.235
X44.41 Y24.31
X44.191 Y24.458
X43.999 Y24.589
X43.985 Y24.599
X43.961 Y24.607
X43.935 Y24.603
X43.915 Y24.586
G0 Z5.
X44.546 Y24.221
Z0.267
G1 Z-2.158 F50.
X44.542 Y24.224 Z-2.187 F17.
X44.528 Y24.233 Z-2.213
X44.507 Y24.247 Z-2.231
X44.482 Y24.263 Z-2.237
X44.41 Y24.31 Z-2.24
X44.191 Y24.458 Z-2.25
X43.972 Y24.608 Z-2.259
X43.948 Y24.624 Z-2.26
X43.972 Y24.608 Z-2.261
X44.191 Y24.458 Z-2.27
X44.41 Y24.31 Z-2.279
X44.629 Y24.168 Z-2.289
X44.663 Y24.146 Z-2.29
X44.665 Y24.144
X44.629 Y24.168 F50.
X44.41 Y24.31
X44.191 Y24.458
X43.972 Y24.608
X43.948 Y24.624
X43.926 Y24.634
X43.903
X43.881 Y24.625
X43.864 Y24.609
G0 Z5.
X42.894 Y25.268
Z0.151
G1 Z-2.04 F50.
X42.908 Y25.296
X42.909 Y25.328
X42.898 Y25.357
X42.876 Y25.38
X42.641 Y25.549
X42.489 Y25.665
X42.464 Y25.684
X42.436 Y25.698
X42.404 Y25.699
X42.375 Y25.689
X42.351 Y25.668
G0 Z5.
X42.911 Y25.255
Z0.153
G1 Z-2.09 F50.
X42.925 Y25.284
X42.926 Y25.315
X42.915 Y25.344
X42.894 Y25.367
X42.641 Y25.549
X42.438 Y25.703
X42.41 Y25.717
X42.379 Y25.718
X42.349 Y25.708
X42.326 Y25.687
G0 Z5.
X42.963 Y25.218
Z0.16
G1 Z-2.14 F50.
X42.976 Y25.246
X42.978 Y25.278
X42.967 Y25.307
X42.945 Y25.33
X42.876 Y25.38
X42.641 Y25.549
X42.417 Y25.719
X42.389 Y25.733
X42.357 Y25.735
X42.328 Y25.724
X42.305 Y25.703
G0 Z5.
X43.001 Y25.191
Z0.165
G1 Z-2.19 F50.
X43.014 Y25.22
X43.015 Y25.251
X43.004 Y25.28
X42.983 Y25.303
X42.945 Y25.33
X42.641 Y25.549
X42.395 Y25.736
X42.367 Y25.749
X42.336 Y25.751
X42.306 Y25.741
X42.283 Y25.72
G0 Z5.
X43.038 Y25.164
Z0.169
G1 Z-2.24 F50.
X43.051 Y25.192
X43.053 Y25.224
X43.042 Y25.253
X43.02 Y25.276
X42.945 Y25.33
X42.641 Y25.549
X42.374 Y25.752
X42.346 Y25.766
X42.314 Y25.767
X42.285 Y25.757
X42.262 Y25.736
G0 Z5.
X43.076 Y25.137
Z0.174
G1 Z-2.29 F50.
X43.089 Y25.165
X43.09 Y25.197
X43.079 Y25.226
X43.058 Y25.249
X43.02 Y25.276
X42.641 Y25.549
X42.352 Y25.768
X42.319 Y25.794
X42.291 Y25.808
X42.26 Y25.81
X42.23 Y25.799
X42.207 Y25.779
G0 Z5.
X43.113 Y25.11
Z0.178
G1 Z-2.34 F50.
X43.127 Y25.138
X43.128 Y25.17
X43.117 Y25.199
X43.096 Y25.222
X42.945 Y25.33
X42.641 Y25.549
X42.319 Y25.794
X42.303 Y25.806
X42.274 Y25.82
X42.243 Y25.822
X42.213 Y25.811
X42.19 Y25.79
G0 Z5.
X43.152 Y25.082
Z0.183
G1 Z-2.39 F50.
X43.165 Y25.111
X43.167 Y25.142
X43.156 Y25.171
X43.134 Y25.194
X43.096 Y25.222
X42.641 Y25.549
X42.286 Y25.819
X42.269 Y25.832
X42.241 Y25.845
X42.21 Y25.847
X42.18 Y25.837
X42.157 Y25.817
G0 Z5.
X43.191 Y25.054
Z0.187
G1 Z-2.44 F50.
X43.204 Y25.083
X43.205 Y25.114
X43.194 Y25.144
X43.173 Y25.166
X43.096 Y25.222
X42.641 Y25.549
X42.253 Y25.844
X42.224 Y25.858
X42.193 Y25.859
X42.164 Y25.849
X42.14 Y25.828
G0 Z5.
X41.181 Y26.59
Z0.027
G1 Z-2.04 F50.
X41.196 Y26.618
X41.198 Y26.65
X41.189 Y26.679
X41.168 Y26.703
X41.154 Y26.715
X40.968 Y26.863
X40.905 Y26.914
X40.805 Y26.997
X40.755 Y27.039
X40.73 Y27.061
X40.699 Y27.077
X40.665 Y27.079
X40.633 Y27.066
X40.609 Y27.04
X40.598 Y27.007
X40.532 Y26.277
G3 X41.289 Y26.209 I0.378 J-0.034
X40.814 Y26.61 I-0.378 J0.034
G1 X40.811 Y26.609 F17.
G3 X41.011 Y25.876 Z-2.082 I0.1 J-0.367
X41.205 Y26.003 Z-2.09 I-0.1 J0.367
G1 X41.207 Y26.005
X41.264 Y26.075 F50.
G3 X41.198 Y26.679 I-0.335 J0.269
G1 X40.905 Y26.914
X40.705 Y27.083
X40.678 Y27.097
X40.648 Y27.101
X40.618 Y27.093
X40.594 Y27.075
X40.578 Y27.049
X40.573 Y27.018
X40.604 Y26.171
G3 X41.364 Y26.199 I0.38 J0.014
X40.883 Y26.551 I-0.38 J-0.014
G1 X40.881 F17.
G3 X41.088 Y25.819 Z-2.132 I0.103 J-0.366
X41.281 Y25.948 Z-2.14 I-0.103 J0.366
G1 X41.283 Y25.95
X41.338 Y26.02 F50.
G3 X41.267 Y26.624 I-0.338 J0.266
G1 X41.241 Y26.644
X40.905 Y26.914
X40.704 Y27.083
X40.686 Y27.098
X40.659 Y27.114
X40.627 Y27.118
X40.597 Y27.109
X40.572 Y27.089
X40.557 Y27.061
X40.554 Y27.029
X40.658 Y26.101
G3 X41.413 Y26.186 I0.378 J0.042
X40.935 Y26.51 I-0.378 J-0.042
G1 X40.932 Y26.509 F17.
G3 X41.139 Y25.778 Z-2.182 I0.104 J-0.366
X41.332 Y25.907 Z-2.19 I-0.104 J0.366
G1 X41.334 Y25.909
X41.39 Y25.979 F50.
G3 X41.318 Y26.583 I-0.338 J0.266
G1 X41.292 Y26.603
X40.905 Y26.914
X40.704 Y27.083
X40.686 Y27.098
X40.673 Y27.11
X40.645 Y27.125
X40.613 Y27.129
X40.582 Y27.119
X40.557 Y27.099
X40.543 Y27.07
X40.541 Y27.038
X40.681 Y26.071
G3 X41.433 Y26.18 I0.376 J0.054
X40.959 Y26.493 I-0.376 J-0.054
G1 X40.957 Y26.492 F17.
G3 X41.157 Y25.759 Z-2.232 I0.1 J-0.367
X41.351 Y25.886 Z-2.24 I-0.1 J0.367
G1 X41.353 Y25.888
X41.41 Y25.958 F50.
G3 X41.343 Y26.562 I-0.335 J0.269
G1 X41.124 Y26.738
X40.905 Y26.914
X40.704 Y27.083
X40.659 Y27.121
X40.63 Y27.137
X40.597 Y27.139
X40.566 Y27.129
X40.542 Y27.106
X40.529 Y27.076
Y27.043
X40.754 Y25.992
G3 X41.497 Y26.151 I0.372 J0.079
X41.024 Y26.438 I-0.372 J-0.079
G1 X41.022 Y26.437 F17.
G3 X41.229 Y25.706 Z-2.282 I0.104 J-0.366
X41.422 Y25.835 Z-2.29 I-0.104 J0.366
G1 X41.424 Y25.837
X41.479 Y25.907 F50.
G3 X41.407 Y26.511 I-0.338 J0.266
G1 X41.386 Y26.528
X40.905 Y26.914
X40.704 Y27.083
X40.686 Y27.098
X40.632 Y27.145
X40.602 Y27.16
X40.569 Y27.163
X40.538 Y27.152
X40.514 Y27.129
X40.501 Y27.098
X40.502 Y27.065
X40.773 Y25.966
G3 X41.511 Y26.148 I0.369 J0.091
X41.045 Y26.424 I-0.369 J-0.091
G1 X41.042 F17.
G3 X41.242 Y25.69 Z-2.332 I0.1 J-0.367
X41.437 Y25.817 Z-2.34 I-0.1 J0.367
G1 X41.438 Y25.819
X41.495 Y25.889 F50.
G3 X41.429 Y26.494 I-0.335 J0.269
G1 X40.905 Y26.914
X40.704 Y27.083
X40.632 Y27.144
X40.618 Y27.156
X40.588 Y27.172
X40.554 Y27.174
X40.523 Y27.163
X40.499 Y27.139
X40.487 Y27.107
X40.489 Y27.073
X40.819 Y25.918
G3 X41.55 Y26.127 I0.365 J0.105
X41.087 Y26.39 I-0.365 J-0.105
G1 X41.085 Y26.389 F17.
G3 X41.285 Y25.656 Z-2.382 I0.1 J-0.367
X41.479 Y25.783 Z-2.39 I-0.1 J0.367
G1 X41.481 Y25.785
X41.537 Y25.855 F50.
G3 X41.471 Y26.459 I-0.335 J0.269
G1 X40.905 Y26.914
X40.704 Y27.083
X40.604 Y27.167
X40.574 Y27.183
X40.539 Y27.185
X40.508 Y27.173
X40.484 Y27.148
X40.473 Y27.115
X40.477 Y27.081
X40.894 Y25.846
G3 X41.614 Y26.089 I0.36 J0.122
X41.155 Y26.334 I-0.36 J-0.122
G1 X41.152 F17.
G3 X41.356 Y25.602 Z-2.432 I0.102 J-0.366
X41.55 Y25.729 Z-2.44 I-0.102 J0.366
G1 X41.552 Y25.732
X41.608 Y25.802 F50.
G3 X41.538 Y26.406 I-0.337 J0.267
G1 X41.514 Y26.425
X40.905 Y26.914
X40.704 Y27.083
X40.591 Y27.179
X40.56 Y27.195
X40.525 Y27.197
X40.493 Y27.184
X40.47 Y27.158
X40.459 Y27.125
X40.463 Y27.091
X40.918 Y25.822
G3 X41.633 Y26.078 I0.358 J0.128
X41.178 Y26.317 I-0.358 J-0.128
G1 X41.176 Y26.316 F17.
G3 X41.376 Y25.583 Z-2.482 I0.1 J-0.367
X41.57 Y25.709 Z-2.49 I-0.1 J0.367
G1 X41.572 Y25.712
X41.628 Y25.782 F50.
G3 X41.562 Y26.386 I-0.335 J0.269
G1 X40.905 Y26.914
X40.704 Y27.083
X40.577 Y27.191
X40.563 Y27.202
X40.536 Y27.218
X40.505 Y27.221
X40.474 Y27.213
X40.45 Y27.193
G0 Z5.
X39.403 Y28.131
Z0.027
G1 Z-2.04 F50.
X39.419 Y28.158
X39.424 Y28.189
X39.416 Y28.219
X39.397 Y28.245
X39.153 Y28.465
X38.99 Y28.616
X38.976 Y28.629
X38.95 Y28.646
X38.921 Y28.652
X38.891 Y28.647
X38.865 Y28.631
X38.847 Y28.606
X38.84 Y28.576
X38.799 Y27.761
G3 X39.558 Y27.723 I0.38 J-0.019
X39.1 Y28.114 I-0.38 J0.019
G1 X39.097 F17.
G3 X39.26 Y27.371 Z-2.082 I0.082 J-0.371
X39.461 Y27.488 Z-2.09 I-0.082 J0.371
G1 X39.463 Y27.49
X39.523 Y27.557 F50.
G3 X39.487 Y28.164 I-0.322 J0.286
G1 X39.472 Y28.178
X39.372 Y28.267
X39.153 Y28.465
X38.99 Y28.616
X38.962 Y28.643
X38.936 Y28.66
X38.905 Y28.665
X38.875 Y28.659
X38.849 Y28.642
X38.832 Y28.616
X38.826 Y28.586
X38.825 Y27.718
G3 X39.585 Y27.717 I0.38 J0.
X39.129 Y28.09 I-0.38 J0.
G1 X39.126 Y28.089 F17.
G3 X39.284 Y27.346 Z-2.132 I0.079 J-0.372
X39.486 Y27.461 Z-2.14 I-0.079 J0.372
G1 X39.488 Y27.463
X39.548 Y27.53 F50.
G3 X39.516 Y28.137 I-0.319 J0.288
G1 X39.153 Y28.465
X38.99 Y28.616
X38.962 Y28.642
X38.935 Y28.659
X38.903 Y28.664
X38.872 Y28.656
X38.846 Y28.637
X38.83 Y28.609
X38.827 Y28.577
X38.921 Y27.598
G3 X39.677 Y27.67 I0.378 J0.036
X39.22 Y28.006 I-0.378 J-0.036
G1 X39.217 Y28.005 F17.
G3 X39.381 Y27.263 Z-2.182 I0.082 J-0.371
X39.581 Y27.38 Z-2.19 I-0.082 J0.371
G1 X39.583 Y27.382
X39.643 Y27.449 F50.
G3 X39.607 Y28.056 I-0.322 J0.286
G1 X39.591 Y28.07
X39.471 Y28.178
X39.153 Y28.465
X38.99 Y28.616
X38.962 Y28.642
X38.948 Y28.656
X38.92 Y28.673
X38.888 Y28.678
X38.856 Y28.669
X38.83 Y28.648
X38.815 Y28.619
X38.813 Y28.586
X38.967 Y27.538
G3 X39.719 Y27.649 I0.376 J0.055
X39.266 Y27.966 I-0.376 J-0.055
G1 X39.263 Y27.965 F17.
G3 X39.423 Y27.222 Z-2.232 I0.08 J-0.371
X39.624 Y27.338 Z-2.24 I-0.08 J0.371
G1 X39.626 Y27.34
X39.686 Y27.407 F50.
G3 X39.653 Y28.014 I-0.32 J0.287
G1 X39.591 Y28.07
X39.153 Y28.465
X38.99 Y28.616
X38.948 Y28.655
X38.92 Y28.673
X38.887 Y28.677
X38.855 Y28.668
X38.829 Y28.646
X38.815 Y28.616
X38.814 Y28.583
X39.018 Y27.482
G3 X39.765 Y27.62 I0.374 J0.069
X39.312 Y27.922 I-0.374 J-0.069
G1 X39.31 F17.
G3 X39.473 Y27.179 Z-2.282 I0.082 J-0.371
X39.674 Y27.296 Z-2.29 I-0.082 J0.371
G1 X39.675 Y27.298
X39.735 Y27.366 F50.
G3 X39.699 Y27.973 I-0.322 J0.286
G1 X39.684 Y27.986
X39.153 Y28.465
X38.99 Y28.616
X38.934 Y28.669
X38.905 Y28.686
X38.872 Y28.69
X38.84 Y28.68
X38.814 Y28.658
X38.801 Y28.627
Y28.594
X39.056 Y27.436
G3 X39.798 Y27.599 I0.371 J0.082
X39.351 Y27.89 I-0.371 J-0.082
G1 X39.348 Y27.889 F17.
G3 X39.506 Y27.146 Z-2.332 I0.079 J-0.372
X39.708 Y27.261 Z-2.34 I-0.079 J0.372
G1 X39.709 Y27.263
X39.77 Y27.33 F50.
G3 X39.738 Y27.937 I-0.319 J0.288
G1 X39.153 Y28.465
X38.99 Y28.616
X38.934 Y28.669
X38.913 Y28.689
X38.883 Y28.707
X38.849 Y28.711
X38.816 Y28.7
X38.791 Y28.677
X38.778 Y28.645
X38.78 Y28.61
X39.134 Y27.35
G3 X39.866 Y27.555 I0.366 J0.103
X39.423 Y27.824 I-0.366 J-0.103
G1 X39.42 F17.
G3 X39.579 Y27.081 Z-2.382 I0.079 J-0.372
X39.78 Y27.196 Z-2.39 I-0.079 J0.372
G1 X39.782 Y27.198
X39.843 Y27.265 F50.
G3 X39.81 Y27.872 I-0.32 J0.288
G1 X39.714 Y27.959
X39.153 Y28.465
X38.99 Y28.616
X38.913 Y28.689
X38.883 Y28.707
X38.848 Y28.711
X38.815 Y28.699
X38.791 Y28.675
X38.778 Y28.642
X38.781 Y28.607
X39.195 Y27.287
G3 X39.92 Y27.514 I0.363 J0.114
X39.479 Y27.772 I-0.363 J-0.114
G1 X39.476 F17.
G3 X39.639 Y27.029 Z-2.432 I0.081 J-0.371
X39.84 Y27.146 Z-2.44 I-0.081 J0.371
G1 X39.841 Y27.148
X39.901 Y27.215 F50.
G3 X39.866 Y27.822 I-0.321 J0.286
G1 X39.847 Y27.839
X39.153 Y28.465
X38.99 Y28.616
X38.913 Y28.689
X38.883 Y28.707
X38.847 Y28.71
X38.814 Y28.698
X38.789 Y28.673
X38.778 Y28.639
X38.782 Y28.604
X39.29 Y27.191
G3 X40.006 Y27.448 I0.358 J0.129
X39.571 Y27.691 I-0.358 J-0.129
G1 X39.568 F17.
G3 X39.728 Y26.948 Z-2.482 I0.08 J-0.372
X39.929 Y27.063 Z-2.49 I-0.08 J0.372
G1 X39.931 Y27.065
X39.991 Y27.132 F50.
G3 X39.958 Y27.74 I-0.32 J0.287
G1 X39.81 Y27.872
X39.153 Y28.465
X38.99 Y28.616
X38.892 Y28.709
X38.866 Y28.726
X38.836 Y28.731
X38.806 Y28.725
X38.78 Y28.708
X38.763 Y28.683
X38.756 Y28.653
X38.762 Y28.623
X39.331 Y27.149
G3 X40.04 Y27.423 I0.355 J0.137
X39.606 Y27.658 I-0.355 J-0.137
G1 X39.604 Y27.657 F17.
G3 X39.767 Y26.915 Z-2.532 I0.081 J-0.371
X39.967 Y27.031 Z-2.54 I-0.081 J0.371
G1 X39.969 Y27.033
X40.029 Y27.101 F50.
G3 X39.993 Y27.708 I-0.321 J0.286
G1 X39.957 Y27.74
X39.153 Y28.465
X38.99 Y28.616
X38.892 Y28.709
X38.87 Y28.73
X38.844 Y28.747
X38.813 Y28.752
X38.782 Y28.745
X38.757 Y28.727
G0 Z5.
X37.637 Y29.87
Z0.027
G1 Z-1.99 F50.
X37.654 Y29.896
X37.661 Y29.927
X37.655 Y29.957
X37.638 Y29.984
X37.62 Y30.001
X37.475 Y30.149
X37.401 Y30.225
X37.262 Y30.368
X37.233 Y30.387
X37.2 Y30.392
X37.167 Y30.383
X37.141 Y30.361
X37.126 Y30.33
X36.967 Y29.632
G3 X37.708 Y29.463 I0.37 J-0.085
X37.283 Y29.923 I-0.37 J0.085
G1 X37.28 F17.
G3 X37.394 Y29.172 Z-2.032 I0.057 J-0.376
X37.602 Y29.275 Z-2.04 I-0.057 J0.376
G1 X37.604 Y29.277
X37.668 Y29.34 F50.
G3 X37.673 Y29.948 I-0.302 J0.306
G1 X37.655 Y29.966
X37.401 Y30.225
X37.262 Y30.368
X37.237 Y30.385
X37.207 Y30.392
X37.177 Y30.388
X37.151 Y30.372
X37.133 Y30.348
X37.125 Y30.319
X37.051 Y29.487
G3 X37.808 Y29.42 I0.379 J-0.034
X37.375 Y29.83 I-0.379 J0.034
G1 X37.373 Y29.829 F17.
G3 X37.486 Y29.078 Z-2.082 I0.057 J-0.376
X37.694 Y29.181 Z-2.09 I-0.057 J0.376
G1 X37.696 Y29.183
X37.76 Y29.246 F50.
G3 X37.765 Y29.854 I-0.302 J0.306
G1 X37.69 Y29.93
X37.401 Y30.225
X37.262 Y30.368
X37.241 Y30.39
X37.216 Y30.409
X37.185 Y30.416
X37.153 Y30.41
X37.127 Y30.393
X37.109 Y30.367
X37.103 Y30.336
X37.106 Y29.394
G3 X37.866 Y29.397 I0.38 J0.001
X37.431 Y29.772 I-0.38 J-0.001
G1 X37.428 Y29.771 F17.
G3 X37.543 Y29.02 Z-2.132 I0.057 J-0.376
X37.751 Y29.123 Z-2.14 I-0.057 J0.376
G1 X37.753 Y29.125
X37.817 Y29.189 F50.
G3 X37.821 Y29.797 I-0.302 J0.306
G1 X37.802 Y29.816
X37.764 Y29.854
X37.401 Y30.225
X37.262 Y30.368
X37.241 Y30.39
X37.215 Y30.409
X37.184 Y30.416
X37.152 Y30.41
X37.125 Y30.392
X37.108 Y30.365
X37.103 Y30.333
X37.139 Y29.347
G3 X37.899 Y29.375 I0.38 J0.014
X37.466 Y29.738 I-0.38 J-0.014
G1 X37.463 Y29.737 F17.
G3 X37.575 Y28.985 Z-2.182 I0.056 J-0.376
X37.783 Y29.088 Z-2.19 I-0.056 J0.376
G1 X37.785 Y29.09
X37.849 Y29.153 F50.
G3 X37.856 Y29.761 I-0.301 J0.307
G1 X37.401 Y30.225
X37.262 Y30.368
X37.241 Y30.39
X37.214 Y30.409
X37.181 Y30.416
X37.149 Y30.408
X37.122 Y30.388
X37.106 Y30.359
X37.103 Y30.325
X37.251 Y29.202
G3 X38.004 Y29.301 I0.377 J0.049
X37.573 Y29.627 I-0.377 J-0.049
G1 X37.57 F17.
G3 X37.685 Y28.876 Z-2.232 I0.057 J-0.376
X37.892 Y28.979 Z-2.24 I-0.057 J0.376
G1 X37.894 Y28.981
X37.958 Y29.044 F50.
G3 X37.962 Y29.652 I-0.302 J0.306
G1 X37.904 Y29.711
X37.401 Y30.225
X37.262 Y30.368
X37.241 Y30.39
X37.214 Y30.409
X37.181 Y30.416
X37.149 Y30.408
X37.122 Y30.388
X37.106 Y30.359
X37.103 Y30.326
X37.248 Y29.204
G3 X38.002 Y29.301 I0.377 J0.049
X37.572 Y29.629 I-0.377 J-0.049
G1 X37.57 F17.
G3 X37.681 Y28.877 Z-2.282 I0.056 J-0.376
X37.889 Y28.979 Z-2.29 I-0.056 J0.376
G1 X37.891 Y28.981
X37.955 Y29.044 F50.
G3 X37.962 Y29.652 I-0.301 J0.307
G1 X37.401 Y30.225
X37.262 Y30.368
X37.222 Y30.412
X37.194 Y30.432
X37.16 Y30.438
X37.126 Y30.429
X37.1 Y30.407
X37.085 Y30.376
X37.084 Y30.342
X37.35 Y29.076
G3 X38.094 Y29.232 I0.372 J0.078
X37.669 Y29.531 I-0.372 J-0.078
G1 X37.666 Y29.53 F17.
G3 X37.778 Y28.778 Z-2.332 I0.056 J-0.376
X37.986 Y28.881 Z-2.34 I-0.056 J0.376
G1 X37.988 Y28.883
X38.052 Y28.946 F50.
G3 X38.058 Y29.554 I-0.301 J0.307
G1 X37.839 Y29.778
X37.401 Y30.225
X37.262 Y30.368
X37.222 Y30.412
X37.193 Y30.432
X37.158 Y30.438
X37.124 Y30.428
X37.097 Y30.404
X37.084 Y30.372
X37.085 Y30.336
X37.478 Y28.928
G3 X38.21 Y29.132 I0.366 J0.102
X37.789 Y29.406 I-0.366 J-0.102
G1 X37.787 F17.
G3 X37.901 Y28.655 Z-2.382 I0.057 J-0.376
X38.109 Y28.758 Z-2.39 I-0.057 J0.376
G1 X38.111 Y28.76
X38.175 Y28.823 F50.
G3 X38.179 Y29.431 I-0.302 J0.306
G1 X38.119 Y29.492
X38.058 Y29.554
X37.401 Y30.225
X37.262 Y30.368
X37.221 Y30.412
X37.192 Y30.432
X37.157 Y30.438
X37.123 Y30.427
X37.097 Y30.404
X37.084 Y30.371
X37.086 Y30.336
X37.497 Y28.906
G3 X38.227 Y29.116 I0.365 J0.105
X37.809 Y29.387 I-0.365 J-0.105
G1 X37.806 F17.
G3 X37.919 Y28.635 Z-2.432 I0.056 J-0.376
X38.127 Y28.738 Z-2.44 I-0.056 J0.376
G1 X38.129 Y28.74
X38.193 Y28.803 F50.
G3 X38.198 Y29.411 I-0.301 J0.307
G1 X38.119 Y29.492
X37.401 Y30.225
X37.262 Y30.368
X37.221 Y30.412
X37.197 Y30.43
X37.167 Y30.438
X37.136 Y30.433
X37.11 Y30.418
X37.091 Y30.393
X37.083 Y30.364
X37.086 Y30.333
X37.58 Y28.813
G3 X38.303 Y29.048 I0.361 J0.117
X37.888 Y29.307 I-0.361 J-0.117
G1 X37.885 Y29.306 F17.
G3 X37.997 Y28.555 Z-2.482 I0.056 J-0.376
X38.205 Y28.657 Z-2.49 I-0.056 J0.376
G1 X38.207 Y28.659
X38.272 Y28.722 F50.
G3 X38.277 Y29.331 I-0.301 J0.307
G1 X38.119 Y29.492
X37.401 Y30.225
X37.262 Y30.368
X37.221 Y30.412
X37.196 Y30.43
X37.166 Y30.438
X37.135 Y30.433
X37.109 Y30.417
X37.09 Y30.392
X37.083 Y30.362
X37.087 Y30.331
X37.661 Y28.724
G3 X38.377 Y28.979 I0.358 J0.128
X37.965 Y29.228 I-0.358 J-0.128
G1 X37.962 Y29.227 F17.
G3 X38.076 Y28.476 Z-2.532 I0.057 J-0.376
X38.284 Y28.579 Z-2.54 I-0.057 J0.376
G1 X38.286 Y28.581
X38.35 Y28.644 F50.
G3 X38.354 Y29.252 I-0.302 J0.306
G1 X38.277 Y29.33
X37.401 Y30.225
X37.262 Y30.368
X37.221 Y30.412
X37.202 Y30.434
X37.177 Y30.453
X37.146 Y30.46
X37.115 Y30.456
X37.088 Y30.439
X37.069 Y30.414
X37.062 Y30.383
X37.067 Y30.352
X37.725 Y28.652
G3 X38.434 Y28.927 I0.354 J0.137
X38.026 Y29.166 I-0.354 J-0.137
G1 X38.023 Y29.165 F17.
G3 X38.137 Y28.414 Z-2.582 I0.057 J-0.376
X38.344 Y28.517 Z-2.59 I-0.057 J0.376
G1 X38.346 Y28.519
X38.41 Y28.582 F50.
G3 X38.415 Y29.19 I-0.302 J0.306
G1 X38.333 Y29.273
X37.401 Y30.225
X37.262 Y30.368
X37.221 Y30.412
X37.202 Y30.434
X37.177 Y30.452
X37.146 Y30.46
X37.115 Y30.456
X37.088 Y30.439
G0 Z5.
X35.553 Y32.227
Z0.027
G1 Z-1.94 F50.
X35.574 Y32.25
X35.585 Y32.28
X35.583 Y32.311
X35.57 Y32.339
X35.407 Y32.558
X35.245 Y32.778
X35.219 Y32.8
X35.186 Y32.81
X35.152 Y32.805
X35.124 Y32.786
X35.105 Y32.757
X34.859 Y32.079
G3 X35.573 Y31.82 I0.357 J-0.13
X35.199 Y32.329 I-0.357 J0.13
G1 X35.197 F17.
G3 X35.236 Y31.57 Z-1.982 I0.02 J-0.379
X35.453 Y31.652 Z-1.99 I-0.02 J0.379
G1 X35.455 Y31.654
X35.525 Y31.71 F50.
G3 X35.589 Y32.315 I-0.27 J0.335
G1 X35.57 Y32.339
X35.407 Y32.558
X35.245 Y32.778
X35.163 Y32.888
X35.141 Y32.909
X35.112 Y32.919
X35.082
X35.054 Y32.907
X35.032 Y32.885
X35.02 Y32.857
X34.843 Y32.03
G3 X35.587 Y31.871 I0.372 J-0.08
X35.199 Y32.33 I-0.372 J0.08
G1 X35.197 F17.
G3 X35.233 Y31.571 Z-2.032 I0.018 J-0.38
X35.451 Y31.653 Z-2.04 I-0.018 J0.38
G1 X35.453 Y31.654
X35.523 Y31.711 F50.
G3 X35.589 Y32.315 I-0.269 J0.335
G1 X35.57 Y32.339
X35.407 Y32.558
X35.211 Y32.823
X35.099 Y32.975
X35.075 Y32.996
X35.046 Y33.006
X35.014 Y33.005
X34.986 Y32.991
X34.965 Y32.967
X34.955 Y32.937
X34.837 Y31.999
G3 X35.591 Y31.904 I0.377 J-0.047
X35.199 Y32.331 I-0.377 J0.047
G1 X35.197 F17.
G3 X35.232 Y31.572 Z-2.082 I0.018 J-0.38
X35.449 Y31.653 Z-2.09 I-0.018 J0.38
G1 X35.452 Y31.655
X35.522 Y31.711 F50.
G3 X35.589 Y32.315 I-0.269 J0.336
G1 X35.57 Y32.339
X35.407 Y32.558
X35.211 Y32.823
X35.071 Y33.012
X35.047 Y33.033
X35.017 Y33.044
X34.985 Y33.041
X34.957 Y33.027
X34.936 Y33.002
X34.927 Y32.972
X34.836 Y31.987
G3 X35.592 Y31.916 I0.378 J-0.035
X35.199 Y32.331 I-0.378 J0.035
G1 X35.197 F17.
G3 X35.232 Y31.572 Z-2.132 I0.017 J-0.38
X35.449 Y31.653 Z-2.14 I-0.017 J0.38
G1 X35.451 Y31.655
X35.521 Y31.711 F50.
G3 X35.589 Y32.315 I-0.268 J0.336
G1 X35.57 Y32.339
X35.407 Y32.558
X35.082 Y32.997
X35.003 Y33.103
X34.979 Y33.125
X34.947 Y33.135
X34.915 Y33.132
X34.886 Y33.116
X34.866 Y33.089
X34.859 Y33.057
X34.834 Y31.96
G3 X35.594 Y31.943 I0.38 J-0.009
X35.199 Y32.331 I-0.38 J0.009
G1 X35.197 F17.
G3 X35.232 Y31.572 Z-2.182 I0.017 J-0.38
X35.449 Y31.653 Z-2.19 I-0.017 J0.38
G1 X35.451 Y31.655
X35.521 Y31.711 F50.
G3 X35.589 Y32.315 I-0.268 J0.336
G1 X35.57 Y32.339
X35.407 Y32.558
X35.082 Y32.997
X34.992 Y33.118
X34.967 Y33.14
X34.936 Y33.15
X34.903 Y33.147
X34.874 Y33.13
X34.855 Y33.104
X34.848 Y33.071
X34.834 Y31.956
G3 X35.594 Y31.947 I0.38 J-0.005
X35.199 Y32.331 I-0.38 J0.005
G1 X35.197 F17.
G3 X35.232 Y31.572 Z-2.232 I0.017 J-0.38
X35.449 Y31.653 Z-2.24 I-0.017 J0.38
G1 X35.451 Y31.655
X35.521 Y31.711 F50.
G3 X35.589 Y32.315 I-0.268 J0.336
G1 X35.57 Y32.339
X35.407 Y32.558
X34.992 Y33.118
X34.92 Y33.216
X34.894 Y33.238
X34.862 Y33.248
X34.829 Y33.243
X34.8 Y33.226
X34.781 Y33.198
X34.775 Y33.164
X34.834 Y31.933
G3 X35.594 Y31.97 I0.38 J0.018
X35.199 Y32.331 I-0.38 J-0.018
G1 X35.197 F17.
G3 X35.232 Y31.572 Z-2.282 I0.017 J-0.38
X35.449 Y31.653 Z-2.29 I-0.017 J0.38
G1 X35.451 Y31.655
X35.521 Y31.711 F50.
G3 X35.589 Y32.315 I-0.268 J0.336
G1 X35.57 Y32.339
X35.407 Y32.558
X34.919 Y33.216
X34.846 Y33.314
X34.82 Y33.337
X34.787 Y33.347
X34.753 Y33.341
X34.724 Y33.322
X34.706 Y33.292
X34.703 Y33.258
X34.858 Y31.883
G3 X35.613 Y31.968 I0.378 J0.043
X35.219 Y32.305 I-0.378 J-0.043
G1 X35.216 F17.
G3 X35.255 Y31.546 Z-2.332 I0.019 J-0.38
X35.472 Y31.628 Z-2.34 I-0.019 J0.38
G1 X35.474 Y31.63
X35.544 Y31.686 F50.
G3 X35.609 Y32.291 I-0.27 J0.335
G1 X35.57 Y32.339
X35.407 Y32.558
X34.846 Y33.314
X34.81 Y33.364
X34.783 Y33.387
X34.75 Y33.396
X34.715 Y33.391
X34.686 Y33.371
X34.669 Y33.341
X34.666 Y33.306
X34.858 Y31.876
G3 X35.611 Y31.977 I0.377 J0.051
X35.219 Y32.306 I-0.377 J-0.051
G1 X35.216 F17.
G3 X35.253 Y31.547 Z-2.382 I0.018 J-0.38
X35.47 Y31.628 Z-2.39 I-0.018 J0.38
G1 X35.472 Y31.63
X35.543 Y31.686 F50.
G3 X35.609 Y32.291 I-0.269 J0.335
G1 X35.57 Y32.339
X35.407 Y32.558
X34.773 Y33.413
X34.727 Y33.476
X34.7 Y33.499
X34.666 Y33.508
X34.631 Y33.502
X34.602 Y33.481
X34.585 Y33.45
X34.584 Y33.414
X34.86 Y31.86
G3 X35.608 Y31.993 I0.374 J0.066
X35.219 Y32.307 I-0.374 J-0.066
G1 X35.216 F17.
G3 X35.252 Y31.547 Z-2.432 I0.018 J-0.38
X35.469 Y31.629 Z-2.44 I-0.018 J0.38
G1 X35.471 Y31.63
X35.542 Y31.687 F50.
G3 X35.609 Y32.291 I-0.269 J0.336
G1 X35.57 Y32.339
X35.407 Y32.558
X34.757 Y33.435
X34.666 Y33.558
X34.643 Y33.579
X34.614 Y33.589
X34.584 Y33.588
X34.555 Y33.576
X34.534 Y33.553
X34.523 Y33.525
Y33.494
X34.861 Y31.851
G3 X35.606 Y32.004 I0.372 J0.077
X35.219 Y32.307 I-0.372 J-0.077
G1 X35.216 F17.
G3 X35.251 Y31.548 Z-2.482 I0.018 J-0.38
X35.469 Y31.629 Z-2.49 I-0.018 J0.38
G1 X35.471 Y31.63
X35.541 Y31.687 F50.
G3 X35.609 Y32.291 I-0.268 J0.336
G1 X35.57 Y32.339
X35.407 Y32.558
X34.757 Y33.435
X34.595 Y33.654
X34.572 Y33.675
X34.542 Y33.685
X34.511 Y33.684
X34.482 Y33.67
G0 Z5.
X34.022 Y34.295
Z0.027
G1 Z-1.89 F50.
X34.044 Y34.317
X34.056 Y34.346
Y34.378
X34.044 Y34.407
X34.034 Y34.42
X33.965 Y34.53
X33.897 Y34.637
X33.827 Y34.749
X33.767 Y34.845
X33.745 Y34.867
X33.716 Y34.88
X33.685 Y34.881
X33.656 Y34.87
G0 Z5.
X34.022 Y34.295
Z0.027
G1 Z-1.94 F50.
X34.044 Y34.317
X34.056 Y34.346
Y34.378
X34.044 Y34.407
X34.034 Y34.42
X33.965 Y34.53
X33.826 Y34.749
X33.67 Y34.998
X33.649 Y35.021
X33.62 Y35.034
X33.589 Y35.035
X33.559 Y35.023
G0 Z5.
X34.032 Y34.281
Z0.027
G1 Z-1.99 F50.
X34.054 Y34.304
X34.066 Y34.333
X34.065 Y34.364
X34.053 Y34.393
X34.034 Y34.42
X33.965 Y34.53
X33.826 Y34.749
X33.678 Y34.985
X33.662 Y35.011
X33.641 Y35.033
X33.612 Y35.046
X33.581 Y35.047
X33.551 Y35.036
G0 Z5.
X34.032 Y34.281
Z0.027
G1 Z-2.04 F50.
X34.054 Y34.304
X34.066 Y34.333
X34.065 Y34.364
X34.053 Y34.393
X34.034 Y34.42
X33.965 Y34.53
X33.678 Y34.985
X33.654 Y35.023
X33.633 Y35.046
X33.604 Y35.058
X33.573 Y35.059
X33.543 Y35.048
G0 Z5.
X34.041 Y34.268
Z0.027
G1 Z-2.09 F50.
X34.063 Y34.29
X34.075 Y34.319
Y34.35
X34.062 Y34.379
X34.034 Y34.42
X33.965 Y34.53
X33.63 Y35.061
X33.622 Y35.073
X33.601 Y35.096
X33.572 Y35.109
X33.541 Y35.11
X33.512 Y35.098
G0 Z5.
X34.041 Y34.268
Z0.027
G1 Z-2.14 F50.
X34.063 Y34.29
X34.075 Y34.319
Y34.35
X34.062 Y34.379
X34.034 Y34.42
X33.965 Y34.53
X33.678 Y34.985
X33.551 Y35.187
X33.47 Y35.315
X33.449 Y35.338
X33.42 Y35.351
X33.389
X33.36 Y35.34
G0 Z5.
X34.051 Y34.254
Z0.027
G1 Z-2.19 F50.
X34.073 Y34.276
X34.084 Y34.305
Y34.337
X34.072 Y34.366
X34.034 Y34.42
X33.965 Y34.53
X33.55 Y35.187
X33.459 Y35.333
X33.437 Y35.356
X33.409 Y35.369
X33.377
X33.348 Y35.358
G0 Z5.
X34.05 Y34.254
Z0.027
G1 Z-2.24 F50.
X34.073 Y34.276
X34.084 Y34.305
Y34.337
X34.072 Y34.366
X34.034 Y34.42
X33.965 Y34.53
X33.55 Y35.187
X33.447 Y35.351
X33.426 Y35.374
X33.397 Y35.386
X33.366 Y35.387
X33.337 Y35.376
G0 Z5.
X34.06 Y34.24
Z0.027
G1 Z-2.29 F50.
X34.082 Y34.263
X34.094 Y34.292
Y34.323
X34.081 Y34.352
X34.072 Y34.366
X34.034 Y34.42
X33.965 Y34.53
X33.459 Y35.332
X33.413 Y35.406
X33.391 Y35.429
X33.362 Y35.441
X33.331 Y35.442
X33.302 Y35.431
G0 Z5.
X34.06 Y34.24
Z0.027
G1 Z-2.34 F50.
X34.082 Y34.263
X34.094 Y34.292
X34.093 Y34.323
X34.081 Y34.352
X34.034 Y34.42
X33.965 Y34.53
X33.412 Y35.406
X33.258 Y35.653
X33.236 Y35.675
X33.208 Y35.688
X33.176 Y35.689
X33.147 Y35.678
G0 Z5.
X34.07 Y34.227
Z0.027
G1 Z-2.39 F50.
X34.092 Y34.249
X34.103 Y34.278
Y34.309
X34.091 Y34.338
X34.072 Y34.366
X34.034 Y34.42
X33.965 Y34.53
X33.412 Y35.406
X33.275 Y35.625
X33.249 Y35.666
X33.227 Y35.689
X33.199 Y35.702
X33.167 Y35.703
X33.138 Y35.691
G0 Z5.
X34.069 Y34.227
Z0.027
G1 Z-2.44 F50.
X34.091 Y34.249
X34.103 Y34.278
Y34.309
X34.09 Y34.338
X34.034 Y34.42
X33.965 Y34.53
X33.274 Y35.625
X33.189 Y35.762
X33.167 Y35.785
X33.138 Y35.798
X33.107
X33.078 Y35.787
G0 Z5.
X34.08 Y34.213
Z0.027
G1 Z-2.49 F50.
X34.102 Y34.235
X34.113 Y34.264
Y34.296
X34.1 Y34.324
X34.09 Y34.338
X34.034 Y34.42
X33.965 Y34.53
X33.24 Y35.68
X33.175 Y35.782
X33.154 Y35.805
X33.125 Y35.818
X33.094 Y35.819
X33.065 Y35.807
G0 Z5.
X34.079 Y34.213
Z0.027
G1 Z-2.54 F50.
X34.101 Y34.235
X34.112 Y34.264
Y34.296
X34.1 Y34.324
X34.034 Y34.42
X33.965 Y34.53
X33.162 Y35.803
X33.14 Y35.826
X33.111 Y35.839
X33.08
X33.05 Y35.827
X33.028 Y35.805
X33.016 Y35.775
Y35.744
X33.029 Y35.715
X35.48 Y32.195
X35.503 Y32.173
X35.533 Y32.162
X35.565 Y32.163
X35.594 Y32.177
X35.615 Y32.201
X35.625 Y32.231
X35.623 Y32.263
X35.609 Y32.291
X35.57 Y32.339
X35.407 Y32.558
X34.594 Y33.654
X34.524 Y33.75
X34.501 Y33.771
X34.471 Y33.781
X34.44 Y33.78
X34.411 Y33.766
X34.39 Y33.743
X34.38 Y33.713
X34.382 Y33.682
X34.866 Y31.831
G3 X35.601 Y32.023 I0.368 J0.096
X35.219 Y32.307 I-0.368 J-0.096
G1 X35.216 F17.
G3 X35.251 Y31.548 Z-2.582 I0.017 J-0.38
X35.468 Y31.629 Z-2.59 I-0.017 J0.38
G1 X35.471 Y31.63
X35.541 Y31.687 F50.
G3 X35.609 Y32.291 I-0.268 J0.336
G1 X35.57 Y32.339
X35.407 Y32.558
X34.554 Y33.708
X34.508 Y33.77
X34.485 Y33.791
X34.456 Y33.802
X34.424 Y33.8
X34.396 Y33.786
G0 Z5.
X32.622 Y36.515
Z0.027
G1 Z-1.07 F50.
X32.646 Y36.535
X32.66 Y36.563
X32.663 Y36.595
X32.653 Y36.624
X32.645 Y36.638
X32.305 Y37.289
X32.285 Y37.314
X32.257 Y37.329
X32.226 Y37.332
X32.196 Y37.323
G0 Z5.
X32.622 Y36.515
Z0.027
G1 Z-1.115 F50.
X32.646 Y36.535
X32.66 Y36.563
X32.663 Y36.595
X32.653 Y36.624
X32.645 Y36.638
X32.305 Y37.289
X32.285 Y37.314
X32.257 Y37.329
X32.226 Y37.332
X32.196 Y37.323
G0 Z5.
X32.622 Y36.515
Z0.027
G1 Z-1.165 F50.
X32.646 Y36.535
X32.66 Y36.563
X32.663 Y36.595
X32.653 Y36.624
X32.645 Y36.638
X32.305 Y37.289
X32.285 Y37.314
X32.257 Y37.329
X32.226 Y37.332
X32.196 Y37.323
G0 Z5.
X32.622 Y36.515
Z0.027
G1 Z-1.215 F50.
X32.646 Y36.535
X32.66 Y36.563
X32.663 Y36.595
X32.653 Y36.624
X32.645 Y36.638
X32.305 Y37.289
X32.285 Y37.314
X32.257 Y37.329
X32.226 Y37.332
X32.196 Y37.323
G0 Z5.
X32.622 Y36.515
Z0.027
G1 Z-1.258 F50.
X32.646 Y36.535
X32.66 Y36.563
X32.663 Y36.595
X32.653 Y36.624
X32.645 Y36.638
X32.305 Y37.289
X32.285 Y37.314
X32.257 Y37.329
X32.226 Y37.332
X32.196 Y37.323
G0 Z5.
X32.622 Y36.515
Z0.027
G1 Z-1.308 F50.
X32.646 Y36.535
X32.66 Y36.563
X32.663 Y36.595
X32.653 Y36.624
X32.645 Y36.638
X32.305 Y37.289
X32.285 Y37.314
X32.257 Y37.329
X32.226 Y37.332
X32.196 Y37.323
G0 Z5.
X32.622 Y36.515
Z0.027
G1 Z-1.354 F50.
X32.646 Y36.535
X32.66 Y36.563
X32.663 Y36.595
X32.653 Y36.624
X32.645 Y36.638
X32.305 Y37.289
X32.285 Y37.314
X32.257 Y37.329
X32.226 Y37.332
X32.196 Y37.323
G0 Z5.
X32.622 Y36.515
Z0.027
G1 Z-1.404 F50.
X32.646 Y36.535
X32.66 Y36.563
X32.663 Y36.595
X32.653 Y36.624
X32.645 Y36.638
X32.305 Y37.289
X32.285 Y37.314
X32.257 Y37.329
X32.226 Y37.332
X32.196 Y37.323
G0 Z5.
X32.622 Y36.515
Z0.027
G1 Z-1.454 F50.
X32.646 Y36.535
X32.66 Y36.563
X32.663 Y36.595
X32.653 Y36.624
X32.645 Y36.638
X32.305 Y37.289
X32.285 Y37.314
X32.257 Y37.329
X32.226 Y37.332
X32.196 Y37.323
G0 Z5.
X32.622 Y36.515
Z0.027
G1 Z-1.497 F50.
X32.646 Y36.535
X32.66 Y36.563
X32.663 Y36.595
X32.653 Y36.624
X32.645 Y36.638
X32.305 Y37.289
X32.285 Y37.314
X32.257 Y37.329
X32.226 Y37.332
X32.196 Y37.323
G0 Z5.
X32.622 Y36.515
Z0.027
G1 Z-1.547 F50.
X32.646 Y36.535
X32.66 Y36.563
X32.663 Y36.595
X32.653 Y36.624
X32.645 Y36.638
X32.305 Y37.289
X32.285 Y37.314
X32.257 Y37.329
X32.226 Y37.332
X32.196 Y37.323
G0 Z5.
X32.622 Y36.515
Z0.027
G1 Z-1.597 F50.
X32.646 Y36.535
X32.66 Y36.563
X32.663 Y36.595
X32.653 Y36.624
X32.645 Y36.638
X32.305 Y37.289
X32.285 Y37.314
X32.257 Y37.329
X32.226 Y37.332
X32.196 Y37.323
G0 Z5.
X32.622 Y36.515
Z0.027
G1 Z-1.64 F50.
X32.646 Y36.535
X32.66 Y36.563
X32.663 Y36.595
X32.653 Y36.624
X32.645 Y36.638
X32.305 Y37.289
X32.285 Y37.314
X32.257 Y37.329
X32.226 Y37.332
X32.196 Y37.323
G0 Z5.
X32.622 Y36.515
Z0.027
G1 Z-1.69 F50.
X32.646 Y36.535
X32.66 Y36.563
X32.663 Y36.595
X32.653 Y36.624
X32.645 Y36.638
X32.305 Y37.289
X32.285 Y37.314
X32.257 Y37.329
X32.226 Y37.332
X32.196 Y37.323
G0 Z5.
X32.622 Y36.515
Z0.027
G1 Z-1.74 F50.
X32.646 Y36.535
X32.66 Y36.563
X32.663 Y36.595
X32.653 Y36.624
X32.645 Y36.638
X32.305 Y37.289
X32.285 Y37.314
X32.257 Y37.329
X32.226 Y37.332
X32.196 Y37.323
G0 Z5.
X32.622 Y36.515
Z0.027
G1 Z-1.79 F50.
X32.646 Y36.535
X32.66 Y36.563
X32.663 Y36.595
X32.653 Y36.624
X32.645 Y36.638
X32.583 Y36.757
X32.305 Y37.289
X32.285 Y37.314
X32.257 Y37.329
X32.226 Y37.332
X32.196 Y37.323
G0 Z5.
X32.628 Y36.502
Z0.027
G1 Z-1.84 F50.
X32.652 Y36.522
X32.667 Y36.549
X32.67 Y36.581
X32.661 Y36.611
X32.602 Y36.72
X32.488 Y36.939
X32.305 Y37.289
X32.285 Y37.314
X32.257 Y37.328
X32.226 Y37.332
X32.196 Y37.323
G0 Z5.
X32.641 Y36.487
Z0.027
G1 Z-1.89 F50.
X32.664 Y36.508
X32.678 Y36.536
X32.679 Y36.567
X32.669 Y36.597
X32.661 Y36.611
X32.602 Y36.72
X32.487 Y36.939
X32.305 Y37.289
X32.285 Y37.313
X32.257 Y37.328
X32.226 Y37.332
X32.196 Y37.323
G0 Z5.
X32.639 Y36.487
Z0.027
G1 Z-1.94 F50.
X32.663 Y36.508
X32.677 Y36.536
X32.679 Y36.567
X32.669 Y36.597
X32.661 Y36.611
X32.602 Y36.72
X32.487 Y36.939
X32.278 Y37.339
X32.258 Y37.364
X32.231 Y37.379
X32.2 Y37.382
X32.17 Y37.373
G0 Z5.
X32.648 Y36.474
Z0.027
G1 Z-1.99 F50.
X32.672 Y36.494
X32.685 Y36.522
X32.687 Y36.554
X32.677 Y36.583
X32.661 Y36.611
X32.602 Y36.72
X32.364 Y37.175
X32.271 Y37.352
X32.252 Y37.376
X32.224 Y37.391
X32.193 Y37.395
X32.163 Y37.386
G0 Z5.
X32.647 Y36.474
Z0.027
G1 Z-2.04 F50.
X32.671 Y36.494
X32.685 Y36.522
X32.687 Y36.554
X32.677 Y36.583
X32.661 Y36.611
X32.602 Y36.72
X32.364 Y37.175
X32.265 Y37.365
X32.245 Y37.389
X32.217 Y37.404
X32.186 Y37.407
X32.156 Y37.398
G0 Z5.
X32.657 Y36.459
Z0.027
G1 Z-2.09 F50.
X32.681 Y36.48
X32.694 Y36.509
X32.696 Y36.54
X32.685 Y36.57
X32.677 Y36.583
X32.661 Y36.611
X32.602 Y36.72
X32.364 Y37.175
X32.258 Y37.377
X32.238 Y37.402
X32.211 Y37.417
X32.179 Y37.42
X32.149 Y37.411
G0 Z5.
X32.655 Y36.46
Z0.027
G1 Z-2.14 F50.
X32.679 Y36.481
X32.693 Y36.509
X32.695 Y36.54
X32.685 Y36.57
X32.677 Y36.583
X32.661 Y36.611
X32.602 Y36.72
X32.251 Y37.391
X32.231 Y37.415
X32.204 Y37.43
X32.172 Y37.433
X32.142 Y37.424
G0 Z5.
X32.655 Y36.46
Z0.027
G1 Z-2.19 F50.
X32.678 Y36.481
X32.692 Y36.509
X32.695 Y36.54
X32.685 Y36.57
X32.661 Y36.611
X32.602 Y36.72
X32.258 Y37.377
X32.136 Y37.61
X32.116 Y37.634
X32.089 Y37.649
X32.058 Y37.653
X32.028 Y37.644
G0 Z5.
X32.663 Y36.446
Z0.027
G1 Z-2.24 F50.
X32.687 Y36.467
X32.701 Y36.495
X32.703 Y36.526
X32.693 Y36.556
X32.661 Y36.611
X32.602 Y36.72
X32.143 Y37.596
X31.965 Y37.936
X31.946 Y37.961
X31.918 Y37.976
X31.887 Y37.979
X31.857 Y37.97
G0 Z5.
X32.663 Y36.446
Z0.027
G1 Z-2.29 F50.
X32.686 Y36.467
X32.7 Y36.495
X32.702 Y36.526
X32.692 Y36.556
X32.661 Y36.611
X32.602 Y36.72
X32.143 Y37.596
X31.965 Y37.936
X31.945 Y37.961
X31.918 Y37.976
X31.887 Y37.979
X31.857 Y37.97
G0 Z5.
X32.672 Y36.432
Z0.027
G1 Z-2.34 F50.
X32.695 Y36.453
X32.709 Y36.481
X32.711 Y36.513
X32.701 Y36.542
X32.692 Y36.556
X32.661 Y36.611
X32.602 Y36.72
X32.028 Y37.815
X31.965 Y37.936
X31.945 Y37.961
X31.918 Y37.976
X31.887 Y37.979
X31.857 Y37.97
G0 Z5.
X32.681 Y36.419
Z0.027
G1 Z-2.39 F50.
X32.704 Y36.439
X32.718 Y36.468
X32.719 Y36.499
X32.709 Y36.529
X32.692 Y36.556
X32.661 Y36.611
X32.602 Y36.72
X31.978 Y37.912
X31.965 Y37.936
X31.945 Y37.961
X31.918 Y37.976
X31.887 Y37.979
X31.856 Y37.97
G0 Z5.
X32.679 Y36.419
Z0.027
G1 Z-2.44 F50.
X32.703 Y36.439
X32.717 Y36.468
X32.719 Y36.499
X32.708 Y36.529
X32.692 Y36.556
X32.661 Y36.611
X32.602 Y36.72
X31.952 Y37.961
X31.932 Y37.985
X31.905 Y38.
X31.874 Y38.003
X31.844 Y37.994
G0 Z5.
X32.678 Y36.419
Z0.027
G1 Z-2.49 F50.
X32.702 Y36.44
X32.716 Y36.468
X32.718 Y36.499
X32.708 Y36.529
X32.661 Y36.611
X32.602 Y36.72
X31.952 Y37.961
X31.932 Y37.985
X31.905 Y38.
X31.874 Y38.003
X31.844 Y37.994
G0 Z5.
X32.689 Y36.405
Z0.027
G1 Z-2.54 F50.
X32.712 Y36.426
X32.725 Y36.454
X32.727 Y36.485
X32.716 Y36.515
X32.708 Y36.529
X32.661 Y36.611
X32.602 Y36.72
X31.952 Y37.961
X31.932 Y37.985
X31.905 Y38.
X31.874 Y38.003
X31.844 Y37.994
G0 Z5.
X32.687 Y36.405
Z0.027
G1 Z-2.59 F50.
X32.711 Y36.426
X32.724 Y36.454
X32.726 Y36.485
X32.716 Y36.515
X32.708 Y36.529
X32.661 Y36.611
X32.602 Y36.72
X31.952 Y37.961
X31.932 Y37.985
X31.904 Y38.
X31.873 Y38.003
X31.842 Y37.993
X31.818 Y37.973
X31.804 Y37.944
X31.802 Y37.913
X31.812 Y37.883
X33.974 Y34.226
X33.995 Y34.202
X34.024 Y34.189
X34.055 Y34.188
X34.085 Y34.199
X34.108 Y34.221
X34.121 Y34.25
Y34.281
X34.109 Y34.311
X33.965 Y34.53
X33.136 Y35.844
X33.064 Y35.959
X33.043 Y35.982
X33.014 Y35.994
X32.983 Y35.995
X32.954 Y35.984
G0 Z5.
X32.686 Y36.405
Z0.027
G1 Z-2.64 F50.
X32.71 Y36.426
X32.724 Y36.454
X32.726 Y36.485
X32.716 Y36.515
X32.661 Y36.611
X32.602 Y36.72
X31.952 Y37.961
X31.932 Y37.985
X31.904 Y38.
X31.873 Y38.003
X31.842 Y37.993
X31.818 Y37.973
X31.804 Y37.944
X31.802 Y37.913
X31.812 Y37.883
X33.974 Y34.226
X33.995 Y34.202
X34.024 Y34.189
X34.055 Y34.188
X34.085 Y34.199
X34.108 Y34.221
X34.121 Y34.25
Y34.281
X34.109 Y34.311
X33.965 Y34.53
X33.05 Y35.982
X33.028 Y36.005
X32.999 Y36.017
X32.967 Y36.018
X32.938 Y36.006
X32.915 Y35.984
X32.903 Y35.954
X32.904 Y35.923
X32.916 Y35.894
X35.48 Y32.195
X35.503 Y32.173
X35.533 Y32.162
X35.565 Y32.163
X35.594 Y32.177
X35.615 Y32.201
X35.625 Y32.231
X35.623 Y32.263
X35.609 Y32.291
X35.57 Y32.339
X35.407 Y32.558
X34.554 Y33.708
X34.432 Y33.873
X34.388 Y33.923 Z-2.665
X34.343 Y33.974 Z-2.69
X34.116 Y34.301
X34.109 Y34.311
X33.965 Y34.53
X32.998 Y36.063
X32.947 Y36.145
X32.925 Y36.168
X32.896 Y36.181
X32.865
X32.835 Y36.17
X32.813 Y36.147
X32.801 Y36.118
Y36.086
X32.813 Y36.057
X35.48 Y32.196
X35.503 Y32.173
X35.533 Y32.162
X35.565 Y32.163
X35.594 Y32.177
X35.615 Y32.201
X35.625 Y32.231
X35.623 Y32.263
X35.609 Y32.291
X35.57 Y32.339
X35.407 Y32.558
X34.432 Y33.873
X34.359 Y33.971
X34.336 Y33.992
X34.306 Y34.003
X34.274 Y34.001
X34.245 Y33.986
X34.225 Y33.962
X34.215 Y33.931
X34.219 Y33.9
X34.871 Y31.814
G3 X35.596 Y32.041 I0.363 J0.113
X35.219 Y32.307 I-0.363 J-0.113
G1 X35.216 F17.
G3 X35.251 Y31.548 Z-2.732 I0.017 J-0.38
X35.468 Y31.629 Z-2.74 I-0.017 J0.38
G1 X35.471 Y31.63
X35.541 Y31.687 F50.
G3 X35.609 Y32.291 I-0.268 J0.336
G1 X35.57 Y32.339
X35.407 Y32.558
X34.432 Y33.873
X34.335 Y34.004
X34.312 Y34.025
X34.282 Y34.035
X34.251 Y34.034
X34.223 Y34.02
G0 Z5.
X31.82 Y28.615
Z0.981
G1 Z-0.115 F50.
X31.794 Y28.633
X31.764 Y28.639
X31.733 Y28.633
X31.707 Y28.616
X31.693 Y28.602
X31.679 Y28.59
X31.666 Y28.578
X31.652 Y28.568
X31.625 Y28.55
X31.597 Y28.535
X31.57 Y28.522
X31.542 Y28.512
X31.515 Y28.504
X31.488 Y28.498
X31.46 Y28.494
X31.433 Y28.492
X31.406
X31.378 Y28.494
X31.351 Y28.497
X31.324 Y28.503
X31.296 Y28.51
X31.269 Y28.52 F13.
X31.241 Y28.532
X31.214 Y28.547
X31.2 Y28.541
X30.74 Y28.113 F50.
X30.594 Y27.977 F13.
X30.576 Y27.959
X30.594 Y27.942
X30.612 Y27.924
X30.654 Y27.878 F50.
X30.675 Y27.855
X30.694 Y27.832
X30.71 Y27.809
X30.724 Y27.786
X30.736 Y27.763
X30.746 Y27.74
X30.756 Y27.712
X30.764 Y27.685
X30.77 Y27.658
X30.773 Y27.63
X30.775 Y27.603
Y27.575
X30.773 Y27.548
X30.769 Y27.521
X30.764 Y27.493
X30.756 Y27.466
X30.746 Y27.438
X30.733 Y27.411
X30.721 Y27.389
X30.708 Y27.367
X30.683 Y27.334
X30.669 Y27.318
X30.653 Y27.302
X30.632 Y27.283
X30.612 Y27.267
X30.594 Y27.255
X30.576 Y27.244
X30.558 Y27.234
X30.54 Y27.225
X30.33 Y27.131 F13.
X30.346 Y27.121
X30.362 Y27.116
X30.393 Y27.103
X30.412 Y27.094
X30.432 Y27.083 F50.
X30.451 Y27.071 F13.
X30.469 Y27.057
X30.506 Y27.029
X30.525 Y27.035
X30.612 Y27.109 F50.
X30.634 Y27.133
X31.861 Y28.492
X31.877 Y28.516
X31.936 Y28.601 F13.
X31.934 Y28.616
X31.897 Y28.658
X31.883 Y28.674
X31.871 Y28.69
X31.856 Y28.712
X31.844 Y28.734
X31.83 Y28.746
X31.707 Y28.616 F50.
X31.69 Y28.589
X31.685 Y28.558
X31.692 Y28.528
X31.71 Y28.502
G0 Z5.
X29.814 Y28.605
Z0.982
G1 Z-0.115 F50.
X29.835 Y28.629
X29.846 Y28.659
X29.844 Y28.691
X29.829 Y28.72
X29.819 Y28.733
X29.713 Y28.849 F13.
X29.7 Y28.859
X29.444 Y28.622 F50.
X29.298 Y28.486 F13.
X29.285 Y28.472
X29.6 Y28.128 F50.
X29.623 Y28.109
X29.713 Y28.034 F13.
X29.736 Y28.019
X29.782 Y28.003
X29.798 Y28.001
X29.829 Y28.004
X29.854 Y28.018
X29.845 Y28.031
X29.828 Y28.058
X29.818 Y28.078
X29.809 Y28.098
X29.801 Y28.118 F50.
X29.795 Y28.138
X29.789 Y28.158
X29.785 Y28.178
X29.781 Y28.205
X29.779 Y28.232
X29.778 Y28.26
X29.78 Y28.287
X29.783 Y28.315
X29.788 Y28.342
X29.796 Y28.369
X29.805 Y28.397
X29.817 Y28.424
X29.831 Y28.452
X29.848 Y28.479
X29.868 Y28.506 F13.
X29.918 Y28.575
X29.911 Y28.588
X29.829 Y28.72 F50.
X29.798 Y28.756
X29.766 Y28.791 Z-0.116
X29.734 Y28.826
X29.699 Y28.859 Z-0.117
X29.63 Y28.794 Z-0.118
X29.56 Y28.729 Z-0.12
X29.42 Y28.599 Z-0.125
X29.318 Y28.505 Z-0.13
X29.289 Y28.469 Z-0.131
X29.418 Y28.328 Z-0.138
X29.578 Y28.152 Z-0.146
X29.612 Y28.119 Z-0.148
X29.72 Y28.028 Z-0.152
X29.762 Y28.01 Z-0.154
X29.809 Y28.002 Z-0.155
X29.853 Y28.019 Z-0.156
X29.828 Y28.059 Z-0.157
X29.807 Y28.102 Z-0.158
X29.792 Y28.147 Z-0.159
X29.782 Y28.194
X29.778 Y28.241 Z-0.16
X29.78 Y28.289
X29.787 Y28.336 Z-0.161
X29.8 Y28.382
X29.819 Y28.428
X29.831 Y28.452
X29.848 Y28.479
X29.868 Y28.506 F13.
X29.918 Y28.575
X29.911 Y28.588
X29.829 Y28.72 F50.
X29.819 Y28.733
X29.713 Y28.849 F13.
X29.7 Y28.859
X29.444 Y28.622 F50.
X29.298 Y28.486 F13.
X29.285 Y28.472
X29.6 Y28.128 F50.
X29.623 Y28.109
X29.713 Y28.034 F13.
X29.736 Y28.019
X29.782 Y28.003
X29.798 Y28.001
X29.829 Y28.004
X29.854 Y28.018
X29.845 Y28.031
X29.828 Y28.058
X29.818 Y28.078
X29.809 Y28.098
X29.801 Y28.118 F50.
X29.795 Y28.138
X29.789 Y28.158
X29.785 Y28.178
X29.781 Y28.205
X29.779 Y28.232
X29.778 Y28.26
X29.78 Y28.287
X29.783 Y28.315
X29.788 Y28.342
X29.796 Y28.369
X29.805 Y28.397
X29.817 Y28.424
X29.819 Y28.428
X29.828 Y28.458
X29.824 Y28.49
X29.809 Y28.517
X29.784 Y28.537
G0 Z5.
X30.616 Y28.037
Z0.985
G1 Z-0.035 F50.
X30.605 Y28.024 Z-0.098
X30.595 Y28.004 Z-0.121
X30.591 Y27.981 Z-0.144
X30.595 Y27.95 Z-0.152
X30.612 Y27.924 Z-0.161
X30.654 Y27.878
X30.675 Y27.855
X30.694 Y27.832
X30.71 Y27.809
X30.724 Y27.786
X30.736 Y27.763
X30.746 Y27.74
X30.756 Y27.712
X30.764 Y27.685
X30.77 Y27.658
X30.773 Y27.63
X30.775 Y27.603
Y27.575
X30.773 Y27.548
X30.769 Y27.521
X30.764 Y27.493
X30.756 Y27.466
X30.746 Y27.438
X30.733 Y27.411
X30.721 Y27.389
X30.708 Y27.367
X30.683 Y27.334
X30.669 Y27.318
X30.653 Y27.302
X30.632 Y27.283
X30.612 Y27.267
X30.594 Y27.255
X30.576 Y27.244
X30.558 Y27.234
X30.54 Y27.225
X30.33 Y27.131 F13.
X30.346 Y27.121
X30.362 Y27.116
X30.393 Y27.103
X30.412 Y27.094
X30.432 Y27.083 F50.
X30.451 Y27.071 F13.
X30.469 Y27.057
X30.506 Y27.029
X30.525 Y27.035
X30.612 Y27.109 F50.
X30.634 Y27.133
X31.861 Y28.492
X31.877 Y28.516
X31.936 Y28.601 F13.
X31.934 Y28.616
X31.897 Y28.658
X31.883 Y28.674
X31.871 Y28.69
X31.856 Y28.712
X31.844 Y28.734
X31.83 Y28.746
X31.707 Y28.616 F50.
X31.693 Y28.602
X31.679 Y28.59
X31.666 Y28.578
X31.652 Y28.568
X31.625 Y28.55
X31.597 Y28.535
X31.57 Y28.522
X31.542 Y28.512
X31.515 Y28.504
X31.488 Y28.498
X31.46 Y28.494
X31.433 Y28.492
X31.406
X31.378 Y28.494
X31.351 Y28.497
X31.324 Y28.503
X31.296 Y28.51
X31.269 Y28.52 F13.
X31.241 Y28.532
X31.214 Y28.547
X31.2 Y28.541
X30.74 Y28.113 F50.
X30.594 Y27.977 F13.
X30.576 Y27.959
X30.594 Y27.942
X30.612 Y27.924 F50.
X30.638 Y27.906
X30.669 Y27.899
X30.7 Y27.906
X30.727 Y27.923
G0 Z5.
X29.862 Y28.667
Z0.985
G1 Z-0.078 F50.
X29.86 Y28.67 Z-0.105 F17.
X29.853 Y28.682 Z-0.128
X29.842 Y28.699 Z-0.146
X29.829 Y28.72 Z-0.156
X29.82 Y28.731 Z-0.158
X29.819 Y28.733
X29.713 Y28.849 Z-0.164
X29.7 Y28.859
X29.298 Y28.486 Z-0.183
X29.285 Y28.472 Z-0.184
X29.6 Y28.128 Z-0.2
X29.623 Y28.109 Z-0.201
X29.713 Y28.034 Z-0.206
X29.736 Y28.019 Z-0.207
X29.782 Y28.003 Z-0.208
X29.798 Y28.001 Z-0.209
X29.829 Y28.004 Z-0.21
X29.852 Y28.016 Z-0.211
X29.854 Y28.018
X29.845 Y28.031 F50.
X29.828 Y28.058
X29.818 Y28.078
X29.809 Y28.098
X29.801 Y28.118
X29.795 Y28.138
X29.789 Y28.158
X29.785 Y28.178
X29.781 Y28.205
X29.779 Y28.232
X29.778 Y28.26
X29.78 Y28.287
X29.783 Y28.315
X29.788 Y28.342
X29.796 Y28.369
X29.805 Y28.397
X29.817 Y28.424
X29.831 Y28.452
X29.848 Y28.479
X29.868 Y28.506 F13.
X29.918 Y28.575
X29.911 Y28.588
X29.829 Y28.72 F50.
X29.819 Y28.733
X29.713 Y28.849 F13.
X29.7 Y28.859
X29.444 Y28.622 F50.
X29.298 Y28.486 F13.
X29.285 Y28.472
X29.6 Y28.128 F50.
X29.623 Y28.109
X29.713 Y28.034 F13.
X29.736 Y28.019
X29.782 Y28.003
X29.798 Y28.001
X29.829 Y28.004
X29.854 Y28.018 F50.
X29.861 Y28.021 Z-0.192
X29.863 Y28.022 Z-0.172
G0 Z5.
X25.281 Y35.006
Z0.245
G1 Z-0.801 F50.
X25.284 Y35.001 Z-0.832
X25.293 Y34.986 Z-0.858
X25.307 Y34.964 Z-0.875
X25.323 Y34.938 Z-0.881
X25.355 Y34.885
X25.376 Y34.863
X25.404 Y34.85
X25.436 Y34.848
X25.465 Y34.859
X25.793 Y35.061
X25.986 Y35.187
X27.327 Y36.088
X27.546 Y36.237
X27.609 Y36.282
X27.765 Y36.392
X27.984 Y36.547
X28.203 Y36.703
X28.227 Y36.72
X28.422 Y36.862
X28.527 Y36.939
X28.641 Y37.021
X28.969 Y37.241
X29.024 Y37.277
X29.051 Y37.293
X29.079 Y37.306
X29.106 Y37.316
X29.133 Y37.325
X29.161 Y37.331
X29.188 Y37.335
X29.216 Y37.337
X29.243 Y37.338
X29.27 Y37.336
X29.298 Y37.333
X29.325 Y37.328
X29.352 Y37.32
X29.38 Y37.311
X29.407 Y37.299
X29.435 Y37.285
X29.462 Y37.267
X29.489 Y37.247
X29.503 Y37.235
X29.517 Y37.222
X29.532 Y37.206
X29.546 Y37.19
X29.558 Y37.174
X29.569 Y37.158
X29.586 Y37.131
X29.599 Y37.104
X29.621 Y37.049
X29.821 Y36.501
X29.903 Y36.282
X29.955 Y36.148
X29.99 Y36.063
X30.085 Y35.844
X30.174 Y35.656
X30.295 Y35.406
X30.393 Y35.218
X30.526 Y34.968
X30.587 Y34.855
X30.599 Y34.836
X31.967 Y32.778
X32.115 Y32.558
X32.447 Y32.12
X32.583 Y31.952
X33.24 Y31.221
X33.678 Y30.735
X33.828 Y30.587
X34.773 Y29.696
X34.992 Y29.49
X35.211 Y29.297
X36.624 Y28.178
X36.744 Y28.084
X36.923 Y27.959
X38.496 Y26.924
X38.589 Y26.863
X38.715 Y26.782
X38.934 Y26.662
X40.686 Y25.718
X40.905 Y25.605
X42.876 Y24.748
X43.049 Y24.673
X43.096 Y24.653
X43.315 Y24.577
X44.667 Y24.108
X44.698 Y24.103
X44.728 Y24.111
X44.753 Y24.13
X44.769 Y24.157
G0 Z5.
X43.499 Y22.653
Z0.979
G1 Z-0.115 F50.
X43.48 Y22.63
X43.47 Y22.601
X43.472 Y22.571
X43.484 Y22.544
X43.506 Y22.523
X43.534 Y22.502
X43.555 Y22.483
X43.569 Y22.469
X43.581 Y22.455
X43.602 Y22.428
X43.62 Y22.401
X43.635 Y22.373
X43.647 Y22.346
X43.657 Y22.318
X43.665 Y22.291
X43.671 Y22.264
X43.675 Y22.236
X43.677 Y22.209
Y22.182
X43.675 Y22.154
X43.671 Y22.127
X43.665 Y22.099
X43.649 Y22.045
X43.364 Y21.169
X43.315 Y21.018
X43.307 Y21.001
X43.299 Y20.984
X43.289 Y20.967
X43.279 Y20.949
X43.261 Y20.925
X43.241 Y20.9
X43.228 Y20.886
X43.214 Y20.873
X43.201 Y20.861
X43.187 Y20.85
X43.164 Y20.834
X43.141 Y20.82
X43.118 Y20.808
X43.096 Y20.798
X43.07 Y20.788 F13.
X43.045 Y20.781
X43.019 Y20.775
X42.998 Y20.771
X42.977 Y20.753
X42.994 Y20.73
X43.011 Y20.703
X43.026 Y20.676
X43.038 Y20.648 F50.
X43.048 Y20.621
X43.129 Y20.389
X43.146 Y20.341
X43.154 Y20.316
X43.16 Y20.292
X43.166 Y20.265
X43.169 Y20.238
X43.171 Y20.21
X43.17 Y20.183
X43.161 Y20.073
X43.143 Y19.854
X43.138 Y19.814
X43.134 Y19.794
X43.128 Y19.774
X43.122 Y19.754
X43.115 Y19.733
X43.106 Y19.713
X43.096 Y19.693
X42.941 Y19.416
X42.913 Y19.366
X42.896 Y19.341
X42.876 Y19.316
X42.86 Y19.298
X42.842 Y19.28
X42.824 Y19.264
X42.807 Y19.251
X42.657 Y19.137
X42.548 Y19.053
X42.521 Y19.033
X42.493 Y19.016
X42.466 Y19.002
X42.438 Y18.99
X42.421 Y18.984
X42.404 Y18.978
X42.219 Y18.932
X42.11 Y18.904
X42.055 Y18.891
X42. Y18.88
X41.973 Y18.877
X41.946 Y18.875
X41.918 Y18.876
X41.891 Y18.878
X41.781 Y18.894
X41.562 Y18.926
X41.459 Y18.942
X41.433 Y18.948
X41.407 Y18.956
X41.381 Y18.966
X41.356 Y18.978
X41.343 Y18.985
X40.905 Y19.223
X40.851 Y19.257 F13.
X40.823 Y19.275
X40.81 Y19.283
X40.796 Y19.276
X40.768 Y19.264
X40.741 Y19.254 F50.
X40.714 Y19.247
X40.686 Y19.241
X40.659 Y19.238
X40.632 Y19.237
X40.604
X40.577 Y19.239
X40.549 Y19.243
X40.522 Y19.249
X40.467 Y19.267
X40.413 Y19.285
X40.385 Y19.296
X40.358 Y19.309
X40.33 Y19.325
X40.303 Y19.344
X40.289 Y19.355
X40.276 Y19.366
X40.262 Y19.379
X40.248 Y19.394
X40.229 Y19.416
X40.21 Y19.444
X40.193 Y19.471
X40.179 Y19.498
X40.168 Y19.526
X40.159 Y19.553
X40.152 Y19.58
X40.148 Y19.608
X40.145 Y19.635
X40.144 Y19.663
X40.145 Y19.69
X40.147 Y19.717
X40.152 Y19.745
X40.158 Y19.767
X40.164 Y19.79
X40.486 Y20.785
X40.495 Y20.813
X40.506 Y20.84
X40.519 Y20.867
X40.535 Y20.895
X40.554 Y20.922
X40.565 Y20.936
X40.577 Y20.949
X40.59 Y20.963
X40.604 Y20.977
X40.618 Y20.989
X40.632 Y21.
X40.659 Y21.019
X40.686 Y21.035
X40.714 Y21.048
X40.741 Y21.058
X40.768 Y21.067
X40.796 Y21.073
X40.823 Y21.078
X40.851 Y21.08
X40.878 Y21.081
X40.905 Y21.079
X40.928 Y21.077
X40.95 Y21.073
X40.969 Y21.069 F13.
X40.987 Y21.064
X41.014 Y21.055
X41.047 Y21.044
X41.061 Y21.061
X40.963 Y21.22 F50.
X40.949 Y21.246
X40.936 Y21.272
X40.926 Y21.298
X40.918 Y21.324
X40.905 Y21.375
X40.841 Y21.661
X40.835 Y21.689
X40.831 Y21.716
X40.829 Y21.743
Y21.771
X40.831 Y21.798
X40.835 Y21.826
X40.84 Y21.853
X40.862 Y21.935
X40.926 Y22.183
X40.937 Y22.224
X40.943 Y22.244
X40.951 Y22.264
X40.963 Y22.291
X40.978 Y22.318
X40.996 Y22.346
X41.018 Y22.373
X41.176 Y22.566
X41.201 Y22.597
X41.215 Y22.613
X41.231 Y22.628
X41.244 Y22.64
X41.258 Y22.651
X41.284 Y22.67
X41.338 Y22.702
X41.562 Y22.83
X41.59 Y22.844
X41.617 Y22.855
X41.672 Y22.873
X41.727 Y22.889
X41.754 Y22.897
X41.781 Y22.903
X41.876 Y22.921
X41.907 Y22.926
X41.938 Y22.929
X42.
X42.11
X42.165 Y22.928
X42.219 Y22.922
X42.23 Y22.921
X42.438 Y22.89
X42.466 Y22.883
X42.493 Y22.875
X42.521 Y22.866
X42.548 Y22.856
X42.657 Y22.802
X42.856 Y22.702
X42.876 Y22.689
X42.931 Y22.649
X42.986 Y22.607 F13.
X43.013 Y22.584
X43.027
X43.041 Y22.59
X43.068 Y22.601
X43.096 Y22.609 F50.
X43.123 Y22.615
X43.15 Y22.619
X43.178 Y22.622
X43.205
X43.232 Y22.621
X43.26 Y22.617
X43.287 Y22.612
X43.315 Y22.605
X43.424 Y22.567
X43.451 Y22.555
X43.479 Y22.541
X43.506 Y22.523
X43.534 Y22.512
X43.564
X43.592 Y22.523
X43.614 Y22.543
X43.627 Y22.571
G0 Z5.
X40.102 Y22.828
Z0.981
G1 Z-0.115 F50.
X40.071 Y22.825
X40.043 Y22.809
X40.024 Y22.784
X40.015 Y22.754
X39.896 Y20.949
X39.89 Y20.73
X39.891 Y20.525 F13.
X39.896 Y20.511
X39.913 Y20.494
X39.996 Y20.422 F50.
X40.013 Y20.407
X40.029 Y20.39
X40.05 Y20.366
X40.068 Y20.341
X40.083 Y20.317
X40.096 Y20.292
X40.108 Y20.265
X40.118 Y20.238
X40.125 Y20.21
X40.131 Y20.183
X40.134 Y20.155
X40.136 Y20.128
Y20.101
X40.133 Y20.073
X40.128 Y20.041
X40.123 Y20.019
X40.115 Y19.991
X40.105 Y19.964
X40.079 Y19.909
X40.052 Y19.854
X40.042 Y19.835
X40.029 Y19.816
X40.018 Y19.8
X40.005 Y19.784
X39.991 Y19.768
X39.975 Y19.752
X39.961 Y19.739
X39.947 Y19.728
X39.92 Y19.708
X39.892 Y19.691
X39.865 Y19.678
X39.838 Y19.666
X39.81 Y19.657
X39.783 Y19.65
X39.756 Y19.645
X39.728 Y19.642
X39.701 Y19.641
X39.673 Y19.642
X39.646 Y19.645
X39.619 Y19.649
X39.591 Y19.656
X39.564 Y19.665
X39.537 Y19.676
X39.482 Y19.703
X38.496 Y20.197
X38.417 Y20.237
X38.398 Y20.248
X38.378 Y20.261
X38.358 Y20.276
X38.338 Y20.292
X38.32 Y20.31
X38.304 Y20.327
X38.29 Y20.344
X38.277 Y20.362
X38.265 Y20.38
X38.254 Y20.399
X38.245 Y20.418
X38.236 Y20.437
X38.229 Y20.455
X38.223 Y20.474
X38.218 Y20.493
X38.214 Y20.511
X38.209 Y20.539
X38.206 Y20.566
Y20.594
X38.207 Y20.621
X38.21 Y20.648
X38.215 Y20.676
X38.222 Y20.703
X38.231 Y20.73
X38.241 Y20.754
X38.253 Y20.778
X38.277 Y20.826
X38.293 Y20.857
X38.302 Y20.872
X38.312 Y20.888
X38.323 Y20.903
X38.335 Y20.919
X38.348 Y20.934
X38.363 Y20.949
X38.379 Y20.965
X38.396 Y20.979
X38.413 Y20.992
X38.429 Y21.003
X38.446 Y21.013
X38.463 Y21.022
X38.48 Y21.03
X38.496 Y21.037
X38.52 Y21.046
X38.543 Y21.052
X38.567 Y21.058
X38.59 Y21.062
X38.613 Y21.064 F13.
X38.636 Y21.065
X38.656
X38.675 Y21.078
X38.681 Y21.115
X38.683 Y21.128
X38.689 Y21.267
X38.665 Y21.281
X38.278 Y21.476 F50.
X38.099 Y21.566 F13.
X38.086 Y21.568
X37.944 Y21.447
X37.962 Y21.427
X37.979 Y21.407
X37.994 Y21.388
X38.006 Y21.37
X38.017 Y21.353 F50.
X38.026 Y21.335
X38.035 Y21.318
X38.042 Y21.3
X38.048 Y21.283
X38.054 Y21.265
X38.058 Y21.248
X38.062 Y21.228
X38.066 Y21.208
X38.068 Y21.188
X38.069 Y21.169
Y21.142
X38.067 Y21.115
X38.064 Y21.089
X38.058 Y21.062
X38.05 Y21.034
X38.04 Y21.006
X38.028 Y20.978
X37.987 Y20.897
X37.972 Y20.87
X37.954 Y20.844
X37.942 Y20.828
X37.928 Y20.812
X37.912 Y20.795
X37.897 Y20.78
X37.882 Y20.768
X37.868 Y20.757
X37.839 Y20.738
X37.826 Y20.73
X37.801 Y20.717
X37.775 Y20.706
X37.749 Y20.697
X37.723 Y20.69
X37.698 Y20.685
X37.672 Y20.681
X37.646 Y20.68
X37.62 Y20.679
X37.597 Y20.681
X37.574 Y20.683
X37.55 Y20.687
X37.527 Y20.693
X37.504 Y20.7
X37.481 Y20.709
X37.434 Y20.73
X36.744 Y21.077
X36.563 Y21.169
X36.544 Y21.18
X36.525 Y21.193
X36.511 Y21.203
X36.497 Y21.215
X36.484 Y21.228
X36.47 Y21.242
X36.449 Y21.266
X36.431 Y21.29
X36.415 Y21.315
X36.402 Y21.339
X36.391 Y21.363
X36.382 Y21.388
X36.374 Y21.415
X36.368 Y21.442
X36.363 Y21.47
X36.361 Y21.497
Y21.524
X36.362 Y21.552
X36.366 Y21.579
X36.371 Y21.607
X36.38 Y21.639
X36.392 Y21.672
X36.416 Y21.721
X36.435 Y21.76
X36.446 Y21.782
X36.458 Y21.804
X36.473 Y21.826
X36.49 Y21.847
X36.509 Y21.869
X36.525 Y21.884
X36.539 Y21.897
X36.552 Y21.908
X36.58 Y21.927
X36.607 Y21.943
X36.635 Y21.957
X36.662 Y21.968
X36.689 Y21.977
X36.717 Y21.983
X36.744 Y21.988
X36.771 Y21.991
X36.799 Y21.992
X36.826 Y21.991
X36.854 Y21.988
X36.881 Y21.983 F13.
X36.949 Y21.967
X36.963 Y21.965
X37.182 Y22.111 F50.
X37.205 Y22.127
X39.318 Y23.946
X39.345 Y23.97
X39.372 Y23.99
X39.394 Y24.004
X39.417 Y24.016
X39.438 Y24.026
X39.46 Y24.035
X39.482 Y24.042
X39.504 Y24.048
X39.526 Y24.052
X39.548 Y24.056
X39.569 Y24.058
X39.591 Y24.059
X39.614 Y24.058
X39.637 Y24.056
X39.661 Y24.053
X39.684 Y24.049
X39.707 Y24.043
X39.73 Y24.036
X39.753 Y24.027
X39.776 Y24.016
X39.81 Y23.999
X39.865 Y23.972
X39.892 Y23.955
X39.92 Y23.935
X39.939 Y23.92
X39.957 Y23.902
X39.973 Y23.885
X39.987 Y23.868
X39.999 Y23.851
X40.01 Y23.835
X40.02 Y23.818
X40.029 Y23.801
X40.031 Y23.797
X40.043 Y23.77
X40.053 Y23.742
X40.061 Y23.715
X40.066 Y23.687
X40.07 Y23.66
X40.072 Y23.633
Y23.605
X40.07 Y23.578
X40.015 Y22.754
X40.012 Y22.706
X40.009 Y22.659 Z-0.116
X40.003 Y22.564 Z-0.117
X39.99 Y22.374 Z-0.12
X39.978 Y22.184 Z-0.125
X39.965 Y21.993 Z-0.131
X39.94 Y21.613 Z-0.145
X39.927 Y21.423 Z-0.151
X39.915 Y21.233 Z-0.156
X39.902 Y21.043 Z-0.159
X39.89 Y20.853 Z-0.161
Y20.803
X39.892
X39.89 Y20.73
X39.891 Y20.525 F13.
X39.896 Y20.511
X39.913 Y20.494
X39.996 Y20.422 F50.
X40.013 Y20.407
X40.029 Y20.39
X40.05 Y20.366
X40.068 Y20.341
X40.083 Y20.317
X40.096 Y20.292
X40.108 Y20.265
X40.118 Y20.238
X40.125 Y20.21
X40.131 Y20.183
X40.134 Y20.155
X40.136 Y20.128
Y20.101
X40.133 Y20.073
X40.128 Y20.041
X40.123 Y20.019
X40.115 Y19.991
X40.105 Y19.964
X40.079 Y19.909
X40.052 Y19.854
X40.042 Y19.835
X40.029 Y19.816
X40.018 Y19.8
X40.005 Y19.784
X39.991 Y19.768
X39.975 Y19.752
X39.961 Y19.739
X39.947 Y19.728
X39.92 Y19.708
X39.892 Y19.691
X39.865 Y19.678
X39.838 Y19.666
X39.81 Y19.657
X39.783 Y19.65
X39.756 Y19.645
X39.728 Y19.642
X39.701 Y19.641
X39.673 Y19.642
X39.646 Y19.645
X39.619 Y19.649
X39.591 Y19.656
X39.564 Y19.665
X39.537 Y19.676
X39.482 Y19.703
X38.496 Y20.197
X38.417 Y20.237
X38.398 Y20.248
X38.378 Y20.261
X38.358 Y20.276
X38.338 Y20.292
X38.32 Y20.31
X38.304 Y20.327
X38.29 Y20.344
X38.277 Y20.362
X38.265 Y20.38
X38.254 Y20.399
X38.245 Y20.418
X38.236 Y20.437
X38.229 Y20.455
X38.223 Y20.474
X38.218 Y20.493
X38.214 Y20.511
X38.209 Y20.539
X38.206 Y20.566
Y20.594
X38.207 Y20.621
X38.21 Y20.648
X38.215 Y20.676
X38.222 Y20.703
X38.231 Y20.73
X38.241 Y20.754
X38.253 Y20.778
X38.277 Y20.826
X38.293 Y20.857
X38.302 Y20.872
X38.312 Y20.888
X38.323 Y20.903
X38.335 Y20.919
X38.348 Y20.934
X38.363 Y20.949
X38.379 Y20.965
X38.396 Y20.979
X38.413 Y20.992
X38.429 Y21.003
X38.446 Y21.013
X38.463 Y21.022
X38.48 Y21.03
X38.496 Y21.037
X38.52 Y21.046
X38.543 Y21.052
X38.567 Y21.058
X38.59 Y21.062
X38.613 Y21.064 F13.
X38.636 Y21.065
X38.656
X38.675 Y21.078
X38.681 Y21.115
X38.683 Y21.128
X38.689 Y21.267
X38.665 Y21.281
X38.278 Y21.476 F50.
X38.099 Y21.566 F13.
X38.086 Y21.568
X37.944 Y21.447
X37.962 Y21.427
X37.979 Y21.407
X37.994 Y21.388
X38.006 Y21.37
X38.017 Y21.353 F50.
X38.026 Y21.335
X38.035 Y21.318
X38.042 Y21.3
X38.048 Y21.283
X38.054 Y21.265
X38.058 Y21.248
X38.062 Y21.228
X38.066 Y21.208
X38.068 Y21.188
X38.069 Y21.169
Y21.142
X38.067 Y21.115
X38.064 Y21.089
X38.058 Y21.062
X38.05 Y21.034
X38.04 Y21.006
X38.028 Y20.978
X37.987 Y20.897
X37.972 Y20.87
X37.954 Y20.844
X37.942 Y20.828
X37.928 Y20.812
X37.912 Y20.795
X37.897 Y20.78
X37.882 Y20.768
X37.868 Y20.757
X37.839 Y20.738
X37.826 Y20.73
X37.801 Y20.717
X37.775 Y20.706
X37.749 Y20.697
X37.723 Y20.69
X37.698 Y20.685
X37.672 Y20.681
X37.646 Y20.68
X37.62 Y20.679
X37.597 Y20.681
X37.574 Y20.683
X37.55 Y20.687
X37.527 Y20.693
X37.504 Y20.7
X37.481 Y20.709
X37.434 Y20.73
X36.744 Y21.077
X36.563 Y21.169
X36.544 Y21.18
X36.525 Y21.193
X36.511 Y21.203
X36.497 Y21.215
X36.484 Y21.228
X36.47 Y21.242
X36.449 Y21.266
X36.431 Y21.29
X36.415 Y21.315
X36.402 Y21.339
X36.391 Y21.363
X36.382 Y21.388
X36.374 Y21.415
X36.368 Y21.442
X36.363 Y21.47
X36.361 Y21.497
Y21.524
X36.362 Y21.552
X36.366 Y21.579
X36.371 Y21.607
X36.38 Y21.639
X36.392 Y21.672
X36.416 Y21.721
X36.435 Y21.76
X36.446 Y21.782
X36.458 Y21.804
X36.473 Y21.826
X36.49 Y21.847
X36.509 Y21.869
X36.525 Y21.884
X36.539 Y21.897
X36.552 Y21.908
X36.58 Y21.927
X36.607 Y21.943
X36.635 Y21.957
X36.662 Y21.968
X36.689 Y21.977
X36.717 Y21.983
X36.744 Y21.988
X36.771 Y21.991
X36.799 Y21.992
X36.826 Y21.991
X36.854 Y21.988
X36.881 Y21.983 F13.
X36.949 Y21.967
X36.963 Y21.965
X37.182 Y22.111 F50.
X37.205 Y22.127
X39.318 Y23.946
X39.345 Y23.97
X39.372 Y23.99
X39.394 Y24.004
X39.417 Y24.016
X39.438 Y24.026
X39.46 Y24.035
X39.482 Y24.042
X39.504 Y24.048
X39.526 Y24.052
X39.548 Y24.056
X39.569 Y24.058
X39.591 Y24.059
X39.614 Y24.058
X39.637 Y24.056
X39.661 Y24.053
X39.684 Y24.049
X39.707 Y24.043
X39.73 Y24.036
X39.753 Y24.027
X39.776 Y24.016
X39.81 Y23.999
X39.865 Y23.972
X39.892 Y23.955
X39.92 Y23.935
X39.939 Y23.92
X39.957 Y23.902
X39.973 Y23.885
X39.987 Y23.868
X39.999 Y23.851
X40.01 Y23.835
X40.02 Y23.818
X40.029 Y23.801
X40.031 Y23.797
X40.043 Y23.77
X40.053 Y23.742
X40.061 Y23.715
X40.066 Y23.687
X40.07 Y23.66
X40.072 Y23.633
Y23.605
X40.07 Y23.578
X39.896 Y20.949
X39.892 Y20.803
X39.898 Y20.772
X39.915 Y20.745
X39.941 Y20.727
X39.972 Y20.721
G0 Z5.
X38.205 Y23.315
Z0.981
G1 Z-0.161 F50.
X38.181 Y23.336
X38.152 Y23.347
X38.12 Y23.346
X38.092 Y23.332
X38.075 Y23.321
X38.058 Y23.311
X38.031 Y23.296
X38.003 Y23.285
X37.976 Y23.276
X37.949 Y23.268
X37.921 Y23.263
X37.894 Y23.26
X37.867 Y23.259
X37.839
X37.812 Y23.262
X37.784 Y23.266
X37.757 Y23.272
X37.73 Y23.281
X37.702 Y23.291
X37.675 Y23.304
X37.648 Y23.32
X37.588 Y23.359
X37.558 Y23.379
X37.543 Y23.39
X37.528 Y23.403
X37.511 Y23.418
X37.494 Y23.436
X37.48 Y23.452
X37.468 Y23.468
X37.449 Y23.496
X37.434 Y23.523
X37.421 Y23.551
X37.411 Y23.578
X37.406 Y23.595
X37.401 Y23.613
X37.396 Y23.636
X37.393 Y23.659
X37.391 Y23.682
X37.39 Y23.705
X37.391 Y23.728
X37.393 Y23.751
X37.396 Y23.774
X37.401 Y23.797
X37.461 Y24.039 F13.
X37.451 Y24.062
X37.387 Y24.122
X37.372 Y24.131
X37.358 Y24.129
X36.352 Y22.565 F50.
X36.343 Y22.551
X36.292 Y22.44 F13.
X36.287 Y22.424
X36.306 Y22.409
X36.346 Y22.376
X36.366 Y22.358 F50.
X36.387 Y22.336
X36.401 Y22.318
X36.415 Y22.3
X36.426 Y22.282
X36.437 Y22.264
X36.45 Y22.236
X36.461 Y22.209
X36.47 Y22.182
X36.477 Y22.154
X36.481 Y22.127
X36.484 Y22.099
X36.485 Y22.072
X36.484 Y22.045
X36.481 Y22.018
X36.476 Y21.991
X36.47 Y21.964
X36.461 Y21.937
X36.454 Y21.92
X36.447 Y21.903
X36.429 Y21.869
X36.415 Y21.847
X36.373 Y21.782
X36.357 Y21.76
X36.339 Y21.738
X36.324 Y21.721
X36.306 Y21.704
X36.28 Y21.683
X36.255 Y21.665
X36.229 Y21.65
X36.203 Y21.637
X36.178 Y21.627
X36.152 Y21.618
X36.126 Y21.611
X36.101 Y21.607
X36.087 Y21.605
X36.06 Y21.602
X36.032
X36.005 Y21.603
X35.977 Y21.607
X35.95 Y21.612
X35.923 Y21.619
X35.895 Y21.628
X35.868 Y21.64
X35.841 Y21.654
X35.813 Y21.671
X34.773 Y22.351
X34.694 Y22.404
X34.674 Y22.42
X34.654 Y22.438
X34.633 Y22.46
X34.614 Y22.483
X34.595 Y22.511
X34.578 Y22.54
X34.565 Y22.568
X34.554 Y22.597
X34.546 Y22.623
X34.54 Y22.649
X34.536 Y22.676
X34.534 Y22.702
X34.533 Y22.721
Y22.739
X34.534 Y22.758
X34.537 Y22.777
X34.539 Y22.796
X34.543 Y22.815
X34.548 Y22.833
X34.554 Y22.852
X34.56 Y22.869
X34.567 Y22.886
X34.575 Y22.904
X34.585 Y22.921
X34.619 Y22.975
X34.655 Y23.03
X34.667 Y23.046
X34.681 Y23.063
X34.697 Y23.08
X34.714 Y23.095
X34.729 Y23.108
X34.743 Y23.119
X34.758 Y23.13
X34.774 Y23.14
X34.802 Y23.155
X34.829 Y23.167
X34.856 Y23.177
X34.883 Y23.185
X34.91 Y23.19
X34.938 Y23.194
X34.965 Y23.196
X34.992
X35.016 Y23.195
X35.04 Y23.192
X35.064 Y23.187
X35.089 Y23.181
X35.113 Y23.173
X35.137 Y23.164 F13.
X35.185 Y23.14
X35.211 Y23.126
X35.229 Y23.14
X35.299 Y23.222 F50.
X35.309 Y23.236
X36.211 Y24.64
X36.32 Y24.808 F13.
X36.306 Y24.829
X36.293 Y24.837
X36.218 Y24.869
X36.203 Y24.875
X36.009 Y24.722 F50.
X35.989 Y24.707
X35.97 Y24.694
X35.95 Y24.683
X35.93 Y24.673
X35.899 Y24.66
X35.868 Y24.65
X35.841 Y24.643
X35.813 Y24.638
X35.786 Y24.636
X35.759 Y24.635
X35.731 Y24.636
X35.704 Y24.639
X35.676 Y24.643
X35.649 Y24.65
X35.619 Y24.66
X35.589 Y24.673
X35.569 Y24.683
X35.549 Y24.695
X35.509 Y24.721
X35.47 Y24.748
X35.45 Y24.762
X35.43 Y24.777
X35.415 Y24.791
X35.4 Y24.806
X35.387 Y24.82
X35.375 Y24.835
X35.364 Y24.849
X35.354 Y24.863
X35.337 Y24.892
X35.324 Y24.92
X35.313 Y24.947
X35.304 Y24.974
X35.297 Y25.002
X35.293 Y25.029
X35.29 Y25.056
X35.289 Y25.084
X35.29 Y25.111
X35.293 Y25.139
X35.298 Y25.166
X35.305 Y25.193
X35.314 Y25.221
X35.325 Y25.247
X35.338 Y25.274
X35.348 Y25.291
X35.359 Y25.308
X35.517 Y25.532 F13.
X35.51 Y25.549
X35.47 Y25.575
X35.45 Y25.583
X35.367 Y25.5 F50.
X35.346 Y25.476
X34.223 Y24.016
X34.215 Y24.002
X34.153 Y23.893 F13.
X34.166 Y23.879
X34.195 Y23.852
X34.222 Y23.824
X34.234 Y23.811 F50.
X34.244 Y23.797
X34.263 Y23.77
X34.279 Y23.742
X34.292 Y23.715
X34.302 Y23.687
X34.311 Y23.66
X34.317 Y23.633
X34.321 Y23.605
X34.324 Y23.578
Y23.551
X34.323 Y23.523
X34.319 Y23.496
X34.314 Y23.468
X34.307 Y23.441
X34.297 Y23.414
X34.286 Y23.386
X34.271 Y23.359
X34.257 Y23.336
X34.24 Y23.312
X34.204 Y23.266
X34.167 Y23.219
X34.154 Y23.206
X34.141 Y23.194
X34.116 Y23.173
X34.091 Y23.155
X34.066 Y23.14
X34.045 Y23.129
X34.024 Y23.119
X34.003 Y23.111
X33.981 Y23.105
X33.96 Y23.099
X33.939 Y23.095
X33.918 Y23.092
X33.897 Y23.09
X33.87 Y23.089
X33.842 Y23.091
X33.815 Y23.094
X33.787 Y23.098
X33.76 Y23.105
X33.733 Y23.114
X33.705 Y23.126
X33.677 Y23.14
X33.65 Y23.156
X33.623 Y23.176
X32.583 Y23.992
X32.569 Y24.003
X32.555 Y24.016
X32.538 Y24.034
X32.522 Y24.051
X32.509 Y24.069
X32.496 Y24.087
X32.485 Y24.105
X32.476 Y24.122
X32.467 Y24.14 F13.
X32.46 Y24.158
X32.454 Y24.173
X32.436 Y24.188
X32.412 Y24.189
X32.388 Y24.191 F50.
X32.364 Y24.195
X32.336 Y24.202
X32.309 Y24.211
X32.281 Y24.222
X32.254 Y24.235
X32.227 Y24.251
X32.199 Y24.27
X32.145 Y24.318
X31.569 Y24.845
X31.545 Y24.869
X31.524 Y24.892
X31.504 Y24.917
X31.488 Y24.942
X31.476 Y24.964
X31.466 Y24.985
X31.457 Y25.006
X31.45 Y25.027
X31.443 Y25.048
X31.439 Y25.069
X31.435 Y25.09
X31.432 Y25.111
X31.431 Y25.139
Y25.166
X31.436 Y25.221
X31.467 Y25.505 F13.
X31.449 Y25.523
X31.433 Y25.505
X31.419 Y25.492
X31.406 Y25.48
X31.382 Y25.461
X31.358 Y25.444 F50.
X31.336 Y25.431
X31.314 Y25.42
X31.291 Y25.41
X31.269 Y25.402
X31.241 Y25.394
X31.214 Y25.388
X31.187 Y25.384
X31.159 Y25.382
X31.132
X31.105 Y25.384
X31.077 Y25.387
X31.05 Y25.393
X31.022 Y25.401
X30.995 Y25.41
X30.968 Y25.423
X30.94 Y25.437
X30.913 Y25.455
X30.885 Y25.476
X30.831 Y25.526
X29.906 Y26.374
X29.879 Y26.4
X29.857 Y26.425
X29.837 Y26.453
X29.82 Y26.48
X29.806 Y26.508
X29.794 Y26.535
X29.785 Y26.562
X29.778 Y26.59
X29.773 Y26.617
X29.77 Y26.644
X29.769 Y26.672
Y26.699
X29.772 Y26.727
X29.776 Y26.754
X29.783 Y26.781
X29.791 Y26.809 F13.
X29.802 Y26.836
X29.815 Y26.863
X29.823 Y26.877
X29.809 Y26.897
X29.795 Y26.891
X29.775 Y26.883
X29.756 Y26.875
X29.736 Y26.869
X29.713 Y26.863 F50.
X29.692 Y26.859
X29.67 Y26.856
X29.649 Y26.855
X29.627 Y26.854
X29.606 Y26.855
X29.584 Y26.856
X29.563 Y26.859
X29.541 Y26.863
X29.517 Y26.87
X29.489 Y26.879
X29.462 Y26.89
X29.435 Y26.904
X29.407 Y26.92
X29.38 Y26.94
X29.366 Y26.951
X29.352 Y26.963
X29.298 Y27.022
X27.765 Y28.701
X27.704 Y28.768
X27.69 Y28.785
X27.677 Y28.801
X27.666 Y28.818
X27.656 Y28.835
X27.642 Y28.862
X27.63 Y28.89
X27.621 Y28.917
X27.614 Y28.944
X27.608 Y28.972
X27.605 Y28.999
X27.604 Y29.026
Y29.054
X27.607 Y29.081
X27.611 Y29.109
X27.617 Y29.136
X27.626 Y29.163
X27.636 Y29.191
X27.649 Y29.218
X27.665 Y29.246
X27.684 Y29.273
X27.701 Y29.294
X27.72 Y29.315
X27.765 Y29.357
X27.792 Y29.382
X27.806 Y29.395
X27.819 Y29.406
X27.847 Y29.425
X27.874 Y29.442
X27.901 Y29.455
X27.929 Y29.466
X27.956 Y29.475
X27.984 Y29.482
X28.011 Y29.487
X28.038 Y29.489
X28.066 Y29.49
X28.093 Y29.489
X28.12 Y29.486
X28.148 Y29.482
X28.175 Y29.475
X28.203 Y29.466
X28.23 Y29.455
X28.257 Y29.441
X28.285 Y29.425
X28.312 Y29.405 F13.
X28.367 Y29.357
X28.381 Y29.351
X28.473 Y29.415 F50.
X28.49 Y29.429
X29.837 Y30.682
X29.852 Y30.697
X29.93 Y30.793 F13.
X29.931 Y30.806
X29.893 Y30.857
X29.876 Y30.882 F50.
X29.862 Y30.907
X29.852 Y30.927
X29.83 Y30.947
X29.814 Y30.955
X29.799 Y30.964
X29.736 Y31.008 F13.
X29.694 Y31.038
X29.676 Y31.044
X29.407 Y30.997 F50.
X29.393 Y30.994
X26.724 Y30.261
X26.697 Y30.255
X26.669 Y30.251
X26.642 Y30.248
X26.615
X26.587 Y30.25
X26.56 Y30.253
X26.533 Y30.259
X26.505 Y30.266
X26.478 Y30.276
X26.45 Y30.288
X26.422 Y30.302
X26.394 Y30.32
X26.38 Y30.331
X26.366 Y30.342
X26.352 Y30.354
X26.338 Y30.368
X26.322 Y30.386
X26.308 Y30.403
X26.255 Y30.473
X26.243 Y30.491
X26.231 Y30.508
X26.22 Y30.528
X26.211 Y30.548
X26.202 Y30.567
X26.195 Y30.587
X26.187 Y30.615
X26.181 Y30.642
X26.177 Y30.669
X26.174 Y30.697
Y30.724
X26.176 Y30.751
X26.179 Y30.779
X26.185 Y30.806
X26.193 Y30.835
X26.203 Y30.864
X26.216 Y30.893
X26.231 Y30.922
X27.546 Y33.317
X27.608 Y33.435
X27.703 Y33.64 F13.
X27.701 Y33.654
X27.648 Y33.763 F50.
X27.637 Y33.791
X27.628 Y33.818
X27.621 Y33.845
X27.616 Y33.873
X27.613 Y33.9
X27.612 Y33.927
X27.613 Y33.955
X27.615 Y33.982
X27.62 Y34.01
X27.626 Y34.037
X27.635 Y34.064
X27.646 Y34.092
X27.655 Y34.111
X27.665 Y34.13
X27.677 Y34.149
X27.691 Y34.168
X27.706 Y34.187
X27.723 Y34.206
X27.744 Y34.226
X27.765 Y34.244
X27.854 Y34.311
X27.87 Y34.321
X27.886 Y34.331
X27.902 Y34.339
X27.919 Y34.347
X27.951 Y34.359
X27.984 Y34.369
X28.011 Y34.375
X28.038 Y34.379
X28.066 Y34.38
X28.093
X28.12 Y34.379
X28.148 Y34.375
X28.175 Y34.369
X28.203 Y34.361
X28.228 Y34.352
X28.254 Y34.341
X28.28 Y34.327
X28.306 Y34.311
X28.323 Y34.298
X28.34 Y34.284
X28.357 Y34.269
X28.374 Y34.251
X28.387 Y34.236
X28.399 Y34.222
X29.165 Y33.216
X29.184 Y33.188
X29.201 Y33.161
X29.215 Y33.133
X29.226 Y33.106
X29.235 Y33.079
X29.242 Y33.051
X29.247 Y33.024
X29.25 Y32.997
X29.251 Y32.969
X29.25 Y32.942
X29.247 Y32.914
X29.243 Y32.887
X29.236 Y32.86
X29.228 Y32.832
X29.217 Y32.805
X29.203 Y32.778
X29.193 Y32.76
X29.182 Y32.743
X29.169 Y32.725
X29.155 Y32.708
X29.137 Y32.688
X29.117 Y32.668
X29.079 Y32.638
X29.022 Y32.594
X28.993 Y32.574
X28.965 Y32.558
X28.939 Y32.546
X28.912 Y32.536
X28.886 Y32.528
X28.86 Y32.522
X28.832 Y32.518
X28.805 Y32.515
X28.777
X28.75 Y32.516
X28.723 Y32.519
X28.695 Y32.524
X28.668 Y32.532
X28.641 Y32.541 F13.
X28.621 Y32.549
X28.601 Y32.558
X28.574 Y32.574
X28.56 Y32.579
X28.546 Y32.558
X28.422 Y32.346 F50.
X28.152 Y31.857
X28.056 Y31.682 F13.
X28.077 Y31.665
X28.86 Y31.882 F50.
X28.928 Y31.901
X29.028 Y31.938 F13.
X29.043 Y31.956
X29.036 Y31.983
X29.031 Y32.011
X29.027 Y32.038
X29.026 Y32.066 F50.
X29.027 Y32.093
X29.03 Y32.12
X29.032 Y32.139
X29.036 Y32.157
X29.041 Y32.175
X29.046 Y32.194
X29.053 Y32.212
X29.06 Y32.23
X29.069 Y32.248
X29.079 Y32.267
X29.09 Y32.285
X29.102 Y32.303
X29.116 Y32.321
X29.132 Y32.339
X29.152 Y32.36
X29.173 Y32.379
X29.215 Y32.411
X29.256 Y32.444
X29.277 Y32.458
X29.298 Y32.471
X29.325 Y32.485
X29.352 Y32.496
X29.38 Y32.505
X29.407 Y32.512
X29.435 Y32.517
X29.462 Y32.52
X29.489 Y32.522
X29.517 Y32.521
X29.544 Y32.518
X29.571 Y32.514
X29.599 Y32.507
X29.626 Y32.499
X29.654 Y32.488
X29.681 Y32.475
X29.708 Y32.459
X29.736 Y32.439
X29.749 Y32.429
X29.763 Y32.417
X29.777 Y32.403
X29.79 Y32.389
X29.83 Y32.339
X30.393 Y31.599
X30.405 Y31.582
X30.416 Y31.565
X30.425 Y31.548
X30.434 Y31.531
X30.457 Y31.506
X30.48 Y31.494
X30.503 Y31.48
X30.525 Y31.463
X30.547 Y31.445
X30.569 Y31.424
X30.612 Y31.377
X32.145 Y29.698
X32.191 Y29.646
X32.212 Y29.62
X32.229 Y29.595
X32.243 Y29.569
X32.255 Y29.543
X32.265 Y29.518
X32.273 Y29.492
X32.28 Y29.461
X32.285 Y29.43 F13.
X32.287 Y29.404
X32.306 Y29.381
X32.324 Y29.378
X32.344 Y29.374
X32.364 Y29.369 F50.
X32.384 Y29.362
X32.405 Y29.354
X32.426 Y29.345
X32.446 Y29.334
X32.467 Y29.322
X32.488 Y29.308
X32.508 Y29.291
X32.529 Y29.273
X33.511 Y28.371
X33.526 Y28.356
X33.54 Y28.342
X33.589 Y28.287
X33.678 Y28.176
X33.851 Y27.959
X33.897 Y27.9
X33.911 Y27.88
X33.923 Y27.86
X33.947 Y27.82
X33.956 Y27.8
X33.965 Y27.78
X33.98 Y27.74
X33.99 Y27.712
X33.997 Y27.685
X34.075 Y27.384
X34.08 Y27.356
X34.088 Y27.302
X34.091 Y27.274
Y27.247
X34.09 Y27.219
X34.087 Y27.192
X34.084 Y27.165
X34.079 Y27.137
X34.068 Y27.083
X34.021 Y26.863
X34.003 Y26.809
X33.991 Y26.781
X33.977 Y26.754
X33.908 Y26.644
X33.832 Y26.527
X33.814 Y26.501
X33.793 Y26.476
X33.78 Y26.462
X33.766 Y26.448
X33.752 Y26.436
X33.738 Y26.425
X33.678 Y26.381
X33.459 Y26.222
X33.43 Y26.206
X33.406 Y26.195
X33.382 Y26.186
X33.359 Y26.178
X33.335 Y26.172
X33.24 Y26.153
X33.021 Y26.109
X32.993 Y26.107
X32.966 Y26.106
X32.939 Y26.107
X32.911 Y26.11
X32.884 Y26.115
X32.857 Y26.122
X32.755 Y26.153 F13.
X32.742 Y26.139
X32.699 Y25.768 F50.
X32.679 Y25.549
X32.674 Y25.407
X32.667 Y25.207 F13.
X32.672 Y25.193
X32.764 Y25.01 F50.
X32.854 Y24.831 F13.
X32.868 Y24.802
X32.874 Y24.787
X32.888 Y24.772
X32.922 Y24.77
X32.947 Y24.767 F50.
X32.972 Y24.762
X32.996 Y24.756
X33.021 Y24.748
X33.048 Y24.736
X33.076 Y24.723 F13.
X33.13 Y24.689
X33.144 Y24.68
X33.158 Y24.69
X33.24 Y24.771 F50.
X33.263 Y24.802
X34.374 Y26.247
X34.382 Y26.261
X34.445 Y26.371 F13.
X34.432 Y26.385
X34.417 Y26.399
X34.39 Y26.425
X34.373 Y26.443 F50.
X34.359 Y26.46
X34.346 Y26.477
X34.335 Y26.494
X34.324 Y26.513
X34.314 Y26.532
X34.306 Y26.551
X34.298 Y26.569
X34.292 Y26.588
X34.286 Y26.607
X34.282 Y26.626
X34.279 Y26.644
X34.275 Y26.672
X34.274 Y26.699
Y26.727
X34.277 Y26.754
X34.281 Y26.781
X34.287 Y26.809
X34.295 Y26.836
X34.306 Y26.863
X34.319 Y26.892
X34.335 Y26.92
X34.349 Y26.94
X34.364 Y26.96
X34.395 Y27.001
X34.428 Y27.042
X34.45 Y27.064
X34.471 Y27.083
X34.492 Y27.098
X34.512 Y27.112
X34.533 Y27.125
X34.554 Y27.135
X34.581 Y27.147
X34.609 Y27.156
X34.636 Y27.164
X34.663 Y27.169
X34.691 Y27.172
X34.718 Y27.173
X34.746
X34.773 Y27.171
X34.799 Y27.167
X34.825 Y27.161
X34.85 Y27.153
X34.876 Y27.144
X34.902 Y27.132
X34.928 Y27.118
X34.953 Y27.102
X34.979 Y27.083
X35.975 Y26.304
X36.029 Y26.262
X36.043 Y26.249
X36.058 Y26.234
X36.071 Y26.22
X36.082 Y26.206
X36.087 Y26.2
X36.099 Y26.183
X36.11 Y26.167
X36.119 Y26.15
X36.128 Y26.134
X36.141 Y26.104 F13.
X36.146 Y26.088
X36.162 Y26.073
X36.179 Y26.071
X36.197 Y26.067
X36.224 Y26.06 F50.
X36.251 Y26.051
X36.279 Y26.04
X36.306 Y26.026
X36.366 Y25.987
X38.435 Y24.633
X38.466 Y24.612
X38.481 Y24.601
X38.496 Y24.588
X38.514 Y24.571
X38.529 Y24.554
X38.543 Y24.538
X38.556 Y24.521
X38.567 Y24.504
X38.577 Y24.487
X38.586 Y24.471
X38.594 Y24.454
X38.605 Y24.427
X38.614 Y24.399
X38.62 Y24.372
X38.625 Y24.345
X38.628 Y24.317
X38.629 Y24.29
X38.628 Y24.262
X38.625 Y24.235
X38.62 Y24.208
X38.613 Y24.18
X38.604 Y24.153
X38.593 Y24.126
X38.579 Y24.098
X38.564 Y24.071
X38.359 Y23.718
X38.213 Y23.468
X38.197 Y23.441
X38.177 Y23.414
X38.166 Y23.4
X38.154 Y23.386
X38.14 Y23.372
X38.126 Y23.359
X38.109 Y23.345
X38.092 Y23.332
X38.07 Y23.318
X38.047 Y23.305
X38.024 Y23.293
X38. Y23.283
X37.975 Y23.275
X37.949 Y23.268 Z-0.162
X37.924 Y23.264
X37.898 Y23.26
X37.871 Y23.259 Z-0.163
X37.845
X37.819 Y23.261
X37.793 Y23.264 Z-0.164
X37.767 Y23.27
X37.742 Y23.277 Z-0.165
X37.717 Y23.285
X37.693 Y23.295 Z-0.166
X37.67 Y23.307 Z-0.167
X37.647 Y23.32
X37.603 Y23.349 Z-0.169
X37.56 Y23.378 Z-0.17
X37.539 Y23.394 Z-0.171
X37.519 Y23.411 Z-0.172
X37.5 Y23.429
X37.483 Y23.449 Z-0.173
X37.467 Y23.47 Z-0.174
X37.452 Y23.491 Z-0.175
X37.439 Y23.514 Z-0.176
X37.427 Y23.537 Z-0.177
X37.417 Y23.561 Z-0.178
X37.408 Y23.586
X37.401 Y23.612 Z-0.179
X37.396 Y23.637 Z-0.18
X37.393 Y23.663 Z-0.181
X37.391 Y23.689 Z-0.182
Y23.715 Z-0.183
X37.392 Y23.742 Z-0.184
X37.395 Y23.768 Z-0.185
X37.4 Y23.793 Z-0.186
X37.451 Y23.997 Z-0.193
X37.463 Y24.045 Z-0.194
X37.429 Y24.082 Z-0.196
X37.394 Y24.115 Z-0.197
X37.346 Y24.111 Z-0.198
X37.289 Y24.023 Z-0.201
X37.233 Y23.935 Z-0.204
X37.119 Y23.759 Z-0.209
X37.006 Y23.582 Z-0.211
X36.977 Y23.537
X36.352 Y22.565
X36.343 Y22.551
X36.292 Y22.44 F13.
X36.287 Y22.424
X36.306 Y22.409
X36.346 Y22.376
X36.366 Y22.358 F50.
X36.387 Y22.336
X36.401 Y22.318
X36.415 Y22.3
X36.426 Y22.282
X36.437 Y22.264
X36.45 Y22.236
X36.461 Y22.209
X36.47 Y22.182
X36.477 Y22.154
X36.481 Y22.127
X36.484 Y22.099
X36.485 Y22.072
X36.484 Y22.045
X36.481 Y22.018
X36.476 Y21.991
X36.47 Y21.964
X36.461 Y21.937
X36.454 Y21.92
X36.447 Y21.903
X36.429 Y21.869
X36.415 Y21.847
X36.373 Y21.782
X36.357 Y21.76
X36.339 Y21.738
X36.324 Y21.721
X36.306 Y21.704
X36.28 Y21.683
X36.255 Y21.665
X36.229 Y21.65
X36.203 Y21.637
X36.178 Y21.627
X36.152 Y21.618
X36.126 Y21.611
X36.101 Y21.607
X36.087 Y21.605
X36.06 Y21.602
X36.032
X36.005 Y21.603
X35.977 Y21.607
X35.95 Y21.612
X35.923 Y21.619
X35.895 Y21.628
X35.868 Y21.64
X35.841 Y21.654
X35.813 Y21.671
X34.773 Y22.351
X34.694 Y22.404
X34.674 Y22.42
X34.654 Y22.438
X34.633 Y22.46
X34.614 Y22.483
X34.595 Y22.511
X34.578 Y22.54
X34.565 Y22.568
X34.554 Y22.597
X34.546 Y22.623
X34.54 Y22.649
X34.536 Y22.676
X34.534 Y22.702
X34.533 Y22.721
Y22.739
X34.534 Y22.758
X34.537 Y22.777
X34.539 Y22.796
X34.543 Y22.815
X34.548 Y22.833
X34.554 Y22.852
X34.56 Y22.869
X34.567 Y22.886
X34.575 Y22.904
X34.585 Y22.921
X34.619 Y22.975
X34.655 Y23.03
X34.667 Y23.046
X34.681 Y23.063
X34.697 Y23.08
X34.714 Y23.095
X34.729 Y23.108
X34.743 Y23.119
X34.758 Y23.13
X34.774 Y23.14
X34.802 Y23.155
X34.829 Y23.167
X34.856 Y23.177
X34.883 Y23.185
X34.91 Y23.19
X34.938 Y23.194
X34.965 Y23.196
X34.992
X35.016 Y23.195
X35.04 Y23.192
X35.064 Y23.187
X35.089 Y23.181
X35.113 Y23.173
X35.137 Y23.164 F13.
X35.185 Y23.14
X35.211 Y23.126
X35.229 Y23.14
X35.299 Y23.222 F50.
X35.309 Y23.236
X36.211 Y24.64
X36.32 Y24.808 F13.
X36.306 Y24.829
X36.293 Y24.837
X36.218 Y24.869
X36.203 Y24.875
X36.009 Y24.722 F50.
X35.989 Y24.707
X35.97 Y24.694
X35.95 Y24.683
X35.93 Y24.673
X35.899 Y24.66
X35.868 Y24.65
X35.841 Y24.643
X35.813 Y24.638
X35.786 Y24.636
X35.759 Y24.635
X35.731 Y24.636
X35.704 Y24.639
X35.676 Y24.643
X35.649 Y24.65
X35.619 Y24.66
X35.589 Y24.673
X35.569 Y24.683
X35.549 Y24.695
X35.509 Y24.721
X35.47 Y24.748
X35.45 Y24.762
X35.43 Y24.777
X35.415 Y24.791
X35.4 Y24.806
X35.387 Y24.82
X35.375 Y24.835
X35.364 Y24.849
X35.354 Y24.863
X35.337 Y24.892
X35.324 Y24.92
X35.313 Y24.947
X35.304 Y24.974
X35.297 Y25.002
X35.293 Y25.029
X35.29 Y25.056
X35.289 Y25.084
X35.29 Y25.111
X35.293 Y25.139
X35.298 Y25.166
X35.305 Y25.193
X35.314 Y25.221
X35.325 Y25.247
X35.338 Y25.274
X35.348 Y25.291
X35.359 Y25.308
X35.517 Y25.532 F13.
X35.51 Y25.549
X35.47 Y25.575
X35.45 Y25.583
X35.367 Y25.5 F50.
X35.346 Y25.476
X34.223 Y24.016
X34.215 Y24.002
X34.153 Y23.893 F13.
X34.166 Y23.879
X34.195 Y23.852
X34.222 Y23.824
X34.234 Y23.811 F50.
X34.244 Y23.797
X34.263 Y23.77
X34.279 Y23.742
X34.292 Y23.715
X34.302 Y23.687
X34.311 Y23.66
X34.317 Y23.633
X34.321 Y23.605
X34.324 Y23.578
Y23.551
X34.323 Y23.523
X34.319 Y23.496
X34.314 Y23.468
X34.307 Y23.441
X34.297 Y23.414
X34.286 Y23.386
X34.271 Y23.359
X34.257 Y23.336
X34.24 Y23.312
X34.204 Y23.266
X34.167 Y23.219
X34.154 Y23.206
X34.141 Y23.194
X34.116 Y23.173
X34.091 Y23.155
X34.066 Y23.14
X34.045 Y23.129
X34.024 Y23.119
X34.003 Y23.111
X33.981 Y23.105
X33.96 Y23.099
X33.939 Y23.095
X33.918 Y23.092
X33.897 Y23.09
X33.87 Y23.089
X33.842 Y23.091
X33.815 Y23.094
X33.787 Y23.098
X33.76 Y23.105
X33.733 Y23.114
X33.705 Y23.126
X33.677 Y23.14
X33.65 Y23.156
X33.623 Y23.176
X32.583 Y23.992
X32.569 Y24.003
X32.555 Y24.016
X32.538 Y24.034
X32.522 Y24.051
X32.509 Y24.069
X32.496 Y24.087
X32.485 Y24.105
X32.476 Y24.122
X32.467 Y24.14 F13.
X32.46 Y24.158
X32.454 Y24.173
X32.436 Y24.188
X32.412 Y24.189
X32.388 Y24.191 F50.
X32.364 Y24.195
X32.336 Y24.202
X32.309 Y24.211
X32.281 Y24.222
X32.254 Y24.235
X32.227 Y24.251
X32.199 Y24.27
X32.145 Y24.318
X31.569 Y24.845
X31.545 Y24.869
X31.524 Y24.892
X31.504 Y24.917
X31.488 Y24.942
X31.476 Y24.964
X31.466 Y24.985
X31.457 Y25.006
X31.45 Y25.027
X31.443 Y25.048
X31.439 Y25.069
X31.435 Y25.09
X31.432 Y25.111
X31.431 Y25.139
Y25.166
X31.436 Y25.221
X31.467 Y25.505 F13.
X31.449 Y25.523
X31.433 Y25.505
X31.419 Y25.492
X31.406 Y25.48
X31.382 Y25.461
X31.358 Y25.444 F50.
X31.336 Y25.431
X31.314 Y25.42
X31.291 Y25.41
X31.269 Y25.402
X31.241 Y25.394
X31.214 Y25.388
X31.187 Y25.384
X31.159 Y25.382
X31.132
X31.105 Y25.384
X31.077 Y25.387
X31.05 Y25.393
X31.022 Y25.401
X30.995 Y25.41
X30.968 Y25.423
X30.94 Y25.437
X30.913 Y25.455
X30.885 Y25.476
X30.831 Y25.526
X29.906 Y26.374
X29.879 Y26.4
X29.857 Y26.425
X29.837 Y26.453
X29.82 Y26.48
X29.806 Y26.508
X29.794 Y26.535
X29.785 Y26.562
X29.778 Y26.59
X29.773 Y26.617
X29.77 Y26.644
X29.769 Y26.672
Y26.699
X29.772 Y26.727
X29.776 Y26.754
X29.783 Y26.781
X29.791 Y26.809 F13.
X29.802 Y26.836
X29.815 Y26.863
X29.823 Y26.877
X29.809 Y26.897
X29.795 Y26.891
X29.775 Y26.883
X29.756 Y26.875
X29.736 Y26.869
X29.713 Y26.863 F50.
X29.692 Y26.859
X29.67 Y26.856
X29.649 Y26.855
X29.627 Y26.854
X29.606 Y26.855
X29.584 Y26.856
X29.563 Y26.859
X29.541 Y26.863
X29.517 Y26.87
X29.489 Y26.879
X29.462 Y26.89
X29.435 Y26.904
X29.407 Y26.92
X29.38 Y26.94
X29.366 Y26.951
X29.352 Y26.963
X29.298 Y27.022
X27.765 Y28.701
X27.704 Y28.768
X27.69 Y28.785
X27.677 Y28.801
X27.666 Y28.818
X27.656 Y28.835
X27.642 Y28.862
X27.63 Y28.89
X27.621 Y28.917
X27.614 Y28.944
X27.608 Y28.972
X27.605 Y28.999
X27.604 Y29.026
Y29.054
X27.607 Y29.081
X27.611 Y29.109
X27.617 Y29.136
X27.626 Y29.163
X27.636 Y29.191
X27.649 Y29.218
X27.665 Y29.246
X27.684 Y29.273
X27.701 Y29.294
X27.72 Y29.315
X27.765 Y29.357
X27.792 Y29.382
X27.806 Y29.395
X27.819 Y29.406
X27.847 Y29.425
X27.874 Y29.442
X27.901 Y29.455
X27.929 Y29.466
X27.956 Y29.475
X27.984 Y29.482
X28.011 Y29.487
X28.038 Y29.489
X28.066 Y29.49
X28.093 Y29.489
X28.12 Y29.486
X28.148 Y29.482
X28.175 Y29.475
X28.203 Y29.466
X28.23 Y29.455
X28.257 Y29.441
X28.285 Y29.425
X28.312 Y29.405 F13.
X28.367 Y29.357
X28.381 Y29.351
X28.473 Y29.415 F50.
X28.49 Y29.429
X29.837 Y30.682
X29.852 Y30.697
X29.93 Y30.793 F13.
X29.931 Y30.806
X29.893 Y30.857
X29.876 Y30.882 F50.
X29.862 Y30.907
X29.852 Y30.927
X29.83 Y30.947
X29.814 Y30.955
X29.799 Y30.964
X29.736 Y31.008
X29.694 Y31.038 F13.
X29.676 Y31.044
X29.639 Y31.038
X29.407 Y30.997 F50.
X29.393 Y30.994
X26.724 Y30.261
X26.697 Y30.255
X26.669 Y30.251
X26.642 Y30.248
X26.615
X26.587 Y30.25
X26.56 Y30.253
X26.533 Y30.259
X26.505 Y30.266
X26.478 Y30.276
X26.45 Y30.288
X26.422 Y30.302
X26.394 Y30.32
X26.38 Y30.331
X26.366 Y30.342
X26.352 Y30.354
X26.338 Y30.368
X26.322 Y30.386
X26.308 Y30.403
X26.255 Y30.473
X26.243 Y30.491
X26.231 Y30.508
X26.22 Y30.528
X26.211 Y30.548
X26.202 Y30.567
X26.195 Y30.587
X26.187 Y30.615
X26.181 Y30.642
X26.177 Y30.669
X26.174 Y30.697
Y30.724
X26.176 Y30.751
X26.179 Y30.779
X26.185 Y30.806
X26.193 Y30.835
X26.203 Y30.864
X26.216 Y30.893
X26.231 Y30.922
X27.546 Y33.317
X27.608 Y33.435
X27.703 Y33.64 F13.
X27.701 Y33.654
X27.648 Y33.763 F50.
X27.637 Y33.791
X27.628 Y33.818
X27.621 Y33.845
X27.616 Y33.873
X27.613 Y33.9
X27.612 Y33.927
X27.613 Y33.955
X27.615 Y33.982
X27.62 Y34.01
X27.626 Y34.037
X27.635 Y34.064
X27.646 Y34.092
X27.655 Y34.111
X27.665 Y34.13
X27.677 Y34.149
X27.691 Y34.168
X27.706 Y34.187
X27.723 Y34.206
X27.744 Y34.226
X27.765 Y34.244
X27.854 Y34.311
X27.87 Y34.321
X27.886 Y34.331
X27.902 Y34.339
X27.919 Y34.347
X27.951 Y34.359
X27.984 Y34.369
X28.011 Y34.375
X28.038 Y34.379
X28.066 Y34.38
X28.093
X28.12 Y34.379
X28.148 Y34.375
X28.175 Y34.369
X28.203 Y34.361
X28.228 Y34.352
X28.254 Y34.341
X28.28 Y34.327
X28.306 Y34.311
X28.323 Y34.298
X28.34 Y34.284
X28.357 Y34.269
X28.374 Y34.251
X28.387 Y34.236
X28.399 Y34.222
X29.165 Y33.216
X29.184 Y33.188
X29.201 Y33.161
X29.215 Y33.133
X29.226 Y33.106
X29.235 Y33.079
X29.242 Y33.051
X29.247 Y33.024
X29.25 Y32.997
X29.251 Y32.969
X29.25 Y32.942
X29.247 Y32.914
X29.243 Y32.887
X29.236 Y32.86
X29.228 Y32.832
X29.217 Y32.805
X29.203 Y32.778
X29.193 Y32.76
X29.182 Y32.743
X29.169 Y32.725
X29.155 Y32.708
X29.137 Y32.688
