(1001)
(T1  D=2. CR=0. - ZMIN=-1.497 - FLAT END MILL)
G0 G90 G94 G17
G21
G53 G0 Z0.

(2MM  FLATEND  HORIZONTAL CASTLE)
M5
M9
T1
S12000 M3
G4 P4.
G55
G0 X58.123 Y72.016
Z15.
Z0.03
G1 Y69.691 Z-0.051 F17.
X58.13 Y69.666
X58.148 Y69.647
X58.173 Y69.641
X58.198 Y69.647
X58.216 Y69.666
X58.223 Y69.691
Y79.491 Z-0.393
X58.216 Y79.516
X58.198 Y79.534
X58.173 Y79.541
X58.148 Y79.534
X58.13 Y79.516
X58.123 Y79.491
Y69.691 Z-0.735
X58.13 Y69.666
X58.148 Y69.647
X58.173 Y69.641
X58.198 Y69.647
X58.216 Y69.666
X58.223 Y69.691
Y77.833 Z-1.02
X58.219 Y77.85
X58.206 Y77.862
X58.173 Y77.876
X58.12 F200.
X58.11 Y77.872
X58.106 Y77.863
X58.108 Y77.854
X58.164 Y77.771
X58.177 Y77.764
X58.19 Y77.772
X58.232 Y77.853
Y77.868
X58.219 Y77.876
X58.173
X58.145 Y77.881
X58.12 Y77.897
X58.104 Y77.922
X58.088 Y77.946
X58.064 Y77.962
X58.035 Y77.967
X57.96
X57.946 Y77.962
X57.939 Y77.949
X57.943 Y77.935
X58.175 Y77.59
X58.187 Y77.581
X58.201 Y77.583
X58.211 Y77.594
G2 X58.391 Y77.935 I1.585 J-0.616
G1 X58.394 Y77.949
X58.387 Y77.962
X58.374 Y77.967
X58.035
X58.008 Y77.973
X57.985 Y77.988
X57.969 Y78.011
X57.954 Y78.035
X57.93 Y78.05
X57.903 Y78.056
X57.782
X57.769 Y78.048
X57.77 Y78.034
X58.208 Y77.383
X58.221 Y77.377
X58.232 Y77.386
X58.249 Y77.443
X58.267 Y77.5
G2 X58.502 Y77.946 I1.528 J-0.522
G1 X58.538 Y77.99
X58.573 Y78.034
X58.574 Y78.048
X58.562 Y78.056
X57.903
X57.875 Y78.061
X57.85 Y78.077
X57.834 Y78.102
X57.818 Y78.126
X57.794 Y78.142
X57.765 Y78.147
X57.622
X57.608 Y78.142
X57.601 Y78.129
X57.605 Y78.115
X58.164 Y77.291
X58.196 Y77.237
X58.226 Y77.182
X58.237 Y77.173
X58.251 Y77.174
X58.26 Y77.185
X58.306 Y77.328
X58.352 Y77.471
G2 X58.574 Y77.892 I1.444 J-0.493
G1 X58.661 Y78.004
X58.748 Y78.115
X58.752 Y78.129
X58.746 Y78.142
X58.732 Y78.147
X57.765
X57.738 Y78.153
X57.715 Y78.168
X57.699 Y78.191
X57.684 Y78.215
X57.66 Y78.23
X57.633 Y78.236
X57.442
X57.43 Y78.228
X57.431 Y78.214
G2 X57.764 Y77.73 I-14.089 J-10.051
G3 X58.09 Y77.241 I73.881 J49.012
G2 X58.218 Y77.007 I-1.175 J-0.791
G1 X58.237 Y76.958
X58.256 Y76.91
X58.276 Y76.912
G2 X58.347 Y77.18 I1.822 J-0.341
G3 X58.437 Y77.442 I-48.489 J16.862
G2 X58.622 Y77.799 I1.292 J-0.442
X58.859 Y78.122 I17.973 J-12.949
G1 X58.898 Y78.169
X58.94 Y78.215
X58.93 Y78.236
X57.633
X57.605 Y78.241
X57.58 Y78.257
X57.564 Y78.282
X57.548 Y78.306
X57.524 Y78.322
X57.495 Y78.327
X57.258
X57.246 Y78.322
X57.24 Y78.31
X57.245 Y78.297
X57.317 Y78.218
X57.381 Y78.134
X58.016 Y77.191
G2 X58.163 Y76.912 I-1.231 J-0.828
G3 X58.284 Y76.621 I10.952 J4.365
G1 X58.301 Y76.575
X58.316 Y76.529
X58.325 Y76.521
X58.336 Y76.523
X58.342 Y76.533
X58.34 Y76.599
X58.339 Y76.665
G2 X58.401 Y77.046 I1.301 J-0.015
X58.522 Y77.413 I19.113 J-6.123
X58.701 Y77.757 I1.226 J-0.419
X58.931 Y78.068 I23.913 J-17.412
G1 X58.981 Y78.13
X59.036 Y78.187
X59.149 Y78.297
X59.154 Y78.31
X59.149 Y78.322
X59.136 Y78.327
X57.495
X57.462 Y78.322
X57.432 Y78.305
X57.41 Y78.279
X57.397 Y78.247
X57.396 Y78.213
X58.351 Y71.504
X58.349 Y71.475
X58.353 Y71.456
X58.366 Y71.443
X58.384 Y71.437
X58.447
X58.465 Y71.443
X58.478 Y71.456
X58.482 Y71.475
X58.457 Y71.806
X58.451 Y71.818
X58.438 Y71.823
X58.425 Y71.817
X58.378 Y71.766
X58.371 Y71.755
X58.368 Y71.743
X58.351 Y71.504
X58.344 Y71.477
X58.326 Y71.455
X58.302 Y71.441
X58.278 Y71.427
X58.261 Y71.405
X58.254 Y71.378
X58.253 Y71.374
X58.26 Y71.357
X58.277 Y71.349
X58.554
X58.571 Y71.357
X58.578 Y71.374
X58.531 Y71.996
X58.525 Y72.01
X58.513 Y72.025
X58.498 Y72.031
X58.484 Y72.024
G2 X58.31 Y71.823 I-1.851 J1.419
G1 X58.289 Y71.792
X58.28 Y71.756
X58.254 Y71.378
X58.248 Y71.356
X58.234 Y71.337
X58.214 Y71.324
X58.199 Y71.312
X58.192 Y71.295
X58.196 Y71.276
X58.208 Y71.263
X58.227 Y71.257
X58.64
X58.659 Y71.263
X58.672 Y71.276
X58.675 Y71.295
X58.623 Y72.001
X58.614 Y72.039
X58.594 Y72.071
X58.517 Y72.165
X58.503 Y72.175
X58.486 Y72.174
X58.472 Y72.164
G2 X58.235 Y71.877 I-1.84 J1.279
G1 X58.212 Y71.847
X58.197 Y71.813
X58.19 Y71.776
X58.156 Y71.295
X58.159 Y71.276
X58.172 Y71.263
X58.191 Y71.257
X58.227
X58.254 Y71.252
X58.277 Y71.236
X58.293 Y71.213
X58.308 Y71.19
X58.331 Y71.175
X58.359 Y71.169
X58.748
X58.765 Y71.177
X58.771 Y71.194
X58.709 Y72.03
X58.699 Y72.074
X58.674 Y72.113
X58.599 Y72.203
X58.528 Y72.297
X58.516 Y72.315
X58.504 Y72.334
X58.49 Y72.341
X58.476 Y72.333
G2 X58.149 Y71.915 I-1.858 J1.118
G1 X58.143 Y71.909
X58.137 Y71.904
X58.115 Y71.872
X58.105 Y71.835
X58.06 Y71.194
X58.066 Y71.177
X58.084 Y71.169
X58.359
X58.387 Y71.164
X58.411 Y71.147
X58.428 Y71.123
X58.444 Y71.099
X58.468 Y71.083
X58.497 Y71.077
X58.834
X58.853 Y71.083
X58.866 Y71.096
X58.869 Y71.115
X58.8 Y72.046
X58.792 Y72.09
X58.775 Y72.131
X58.749 Y72.168
X58.672 Y72.255
X58.6 Y72.347
X58.55 Y72.422
X58.501 Y72.497
X58.488 Y72.506
X58.473 Y72.505
X58.462 Y72.495
G2 X58.084 Y71.979 I-1.847 J0.957
G1 X58.073 Y71.969
X58.062 Y71.959
X58.038 Y71.929
X58.022 Y71.893
X58.015 Y71.856
X57.962 Y71.115
X57.966 Y71.096
X57.979 Y71.083
X57.998 Y71.077
X58.497
X58.524 Y71.072
X58.547 Y71.056
X58.563 Y71.033
X58.578 Y71.01
X58.601 Y70.995
X58.629 Y70.989
X58.942
X58.959 Y70.997
X58.965 Y71.014
X58.884 Y72.109
X58.873 Y72.152
X58.849 Y72.188
G2 X58.654 Y72.43 I1.551 J1.45
G3 X58.477 Y72.685 I-44.61 J-30.864
G1 X58.464 Y72.691
X58.452 Y72.682
G2 X58.269 Y72.34 I-1.885 J0.787
X58.023 Y72.041 I-1.591 J1.056
G1 X57.993 Y72.012
X57.962 Y71.984
X57.94 Y71.952
X57.931 Y71.915
X57.867 Y71.014
X57.873 Y70.997
X57.89 Y70.989
X58.629
X58.657 Y70.984
X58.681 Y70.967
X58.698 Y70.943
X58.714 Y70.919
X58.738 Y70.903
X58.767 Y70.897
X59.028
X59.047 Y70.903
X59.059 Y70.916
X59.063 Y70.935
X58.975 Y72.127
X58.967 Y72.17
X58.949 Y72.209
X58.923 Y72.243
G2 X58.672 Y72.55 I2.042 J1.93
X58.459 Y72.885 I3.324 J2.352
G1 X58.45 Y72.892
X58.439 Y72.891
X58.431 Y72.882
X58.413 Y72.829
X58.395 Y72.776
G2 X57.959 Y72.106 I-1.758 J0.665
G1 X57.923 Y72.072
X57.887 Y72.039
X57.863 Y72.009
X57.847 Y71.974
X57.84 Y71.936
X57.769 Y70.935
X57.773 Y70.916
X57.786 Y70.903
X57.804 Y70.897
X58.767
X58.794 Y70.892
X58.817 Y70.876
X58.833 Y70.853
X58.848 Y70.83
X58.871 Y70.815
X58.899 Y70.809
X59.136
X59.153 Y70.817
X59.159 Y70.834
X59.058 Y72.19
X59.048 Y72.231
X59.023 Y72.267
G2 X58.812 Y72.517 I1.509 J1.486
X58.623 Y72.784 I25.575 J18.374
G1 X58.571 Y72.863
X58.525 Y72.944
X58.482 Y73.028
X58.443 Y73.114
X58.424
X58.368 Y72.961
X58.312 Y72.808
G2 X57.897 Y72.168 I-1.68 J0.635
G1 X57.842 Y72.116
X57.787 Y72.064
X57.765 Y72.032
X57.756 Y71.995
X57.674 Y70.834
X57.68 Y70.817
X57.697 Y70.809
X58.899
X58.927 Y70.804
X58.951 Y70.787
X58.968 Y70.763
X58.984 Y70.739
X59.008 Y70.723
X59.037 Y70.717
X59.222
X59.24 Y70.723
X59.253 Y70.736
X59.257 Y70.755
X59.149 Y72.207
X59.141 Y72.25
X59.123 Y72.289
X59.096 Y72.324
X58.991 Y72.435
X58.941 Y72.493
X58.894 Y72.554
X58.697 Y72.836
G2 X58.563 Y73.065 I1.29 J0.906
X58.466 Y73.312 I1.675 J0.797
G1 X58.458 Y73.343
X58.449 Y73.374
X58.441 Y73.384
X58.428
X58.42 Y73.374
G2 X58.198 Y72.766 I-5.218 J1.556
X57.834 Y72.232 I-1.569 J0.679
G1 X57.773 Y72.176
X57.713 Y72.119
X57.689 Y72.089
X57.673 Y72.054
X57.665 Y72.016
X57.576 Y70.755
X57.58 Y70.736
X57.593 Y70.723
X57.611 Y70.717
X59.037
X59.064 Y70.712
X59.087 Y70.696
X59.103 Y70.673
X59.118 Y70.65
X59.141 Y70.635
X59.169 Y70.629
X59.33
X59.347 Y70.637
X59.353 Y70.654
X59.233 Y72.269
X59.222 Y72.311
X59.198 Y72.346
X59.169 Y72.374
X59.139 Y72.402
G2 X58.945 Y72.637 I1.266 J1.246
G3 X58.77 Y72.887 I-35.835 J-24.812
G2 X58.549 Y73.338 I1.322 J0.929
G1 X58.479 Y73.564
X58.422 Y73.772
X58.407 Y73.771
X58.397 Y73.695
X58.388 Y73.62
G2 X58.286 Y73.239 I-1.726 J0.259
G3 X58.144 Y72.871 I26.319 J-10.373
G2 X57.77 Y72.296 I-1.512 J0.572
G1 X57.692 Y72.22
X57.613 Y72.144
X57.591 Y72.113
X57.581 Y72.075
X57.481 Y70.654
X57.487 Y70.637
X57.504 Y70.629
X59.169
X59.197 Y70.624
X59.221 Y70.607
X59.238 Y70.583
X59.254 Y70.559
X59.278 Y70.543
X59.307 Y70.537
X59.416
X59.434 Y70.543
X59.447 Y70.556
X59.451 Y70.575
X59.324 Y72.286
X59.316 Y72.329
X59.298 Y72.369
X59.271 Y72.403
X59.151 Y72.526
X59.094 Y72.589
X59.042 Y72.658
G2 X58.811 Y72.995 I13.458 J9.458
X58.635 Y73.365 I1.19 J0.793
G3 X58.546 Y73.643 I-20.603 J-6.386
G2 X58.48 Y73.928 I1.612 J0.524
G1 X58.453 Y74.138
X58.426 Y74.348
X58.419 Y74.357
X58.408
X58.401 Y74.348
G3 X58.35 Y73.991 I23.873 J-3.587
G2 X58.299 Y73.633 I-23.924 J3.23
X58.199 Y73.262 I-1.663 J0.25
G3 X58.06 Y72.903 I21.133 J-8.401
G2 X57.707 Y72.36 I-1.427 J0.54
G1 X57.622 Y72.279
X57.538 Y72.199
X57.514 Y72.169
X57.498 Y72.134
X57.49 Y72.096
X57.383 Y70.575
X57.387 Y70.556
X57.4 Y70.543
X57.418 Y70.537
X59.307
X59.334 Y70.532
X59.357 Y70.516
X59.373 Y70.493
X59.388 Y70.47
X59.411 Y70.455
X59.439 Y70.449
X59.524
X59.541 Y70.457
X59.547 Y70.474
X59.408 Y72.348
X59.397 Y72.39
X59.372 Y72.426
X59.239 Y72.561
X59.174 Y72.633
X59.115 Y72.709
G2 X58.891 Y73.035 I15.987 J11.235
X58.721 Y73.391 I1.127 J0.759
G3 X58.634 Y73.663 I-17.144 J-5.314
G2 X58.57 Y73.941 I1.551 J0.508
G1 X58.424 Y74.986
X58.407
X58.21 Y73.646
G2 X58.133 Y73.352 I-1.42 J0.213
G1 X57.975 Y72.935
G2 X57.644 Y72.423 I-1.343 J0.508
G1 X57.541 Y72.324
X57.438 Y72.224
X57.416 Y72.193
X57.406 Y72.155
X57.287 Y70.474
X57.294 Y70.457
X57.311 Y70.449
X59.439
X59.467 Y70.444
X59.491 Y70.427
X59.508 Y70.403
X59.524 Y70.379
X59.548 Y70.363
X59.577 Y70.357
X59.61
X59.628 Y70.363
X59.641 Y70.376
X59.645 Y70.395
X59.498 Y72.366
X59.49 Y72.408
X59.472 Y72.448
X59.446 Y72.482
X59.312 Y72.616
X59.247 Y72.686
X59.189 Y72.761
G2 X58.972 Y73.075 I20.476 J14.391
X58.807 Y73.418 I1.066 J0.725
G3 X58.722 Y73.683 I-14.476 J-4.487
G2 X58.659 Y73.953 I1.49 J0.492
G1 X58.426 Y75.623
X58.403 Y75.622
X58.4 Y75.55
X58.393 Y75.479
X58.121 Y73.66
G2 X58.024 Y73.307 I-1.538 J0.231
G3 X57.891 Y72.967 I14.518 J-5.88
G2 X57.58 Y72.487 I-1.259 J0.476
G1 X57.472 Y72.383
X57.363 Y72.279
X57.339 Y72.249
X57.323 Y72.214
X57.316 Y72.176
X57.19 Y70.395
X57.194 Y70.376
X57.207 Y70.363
X57.225 Y70.357
X59.577
X59.604 Y70.352
X59.627 Y70.336
X59.643 Y70.313
X59.658 Y70.29
X59.681 Y70.275
X59.709 Y70.269
X59.717
X59.735 Y70.277
X59.741 Y70.294
X59.582 Y72.427
X59.572 Y72.469
X59.547 Y72.505
X59.398 Y72.653
X59.327 Y72.73
X59.263 Y72.813
G2 X59.053 Y73.114 I30.479 J21.42
X58.893 Y73.445 I1.005 J0.691
G3 X58.81 Y73.702 I-12.361 J-3.832
G2 X58.748 Y73.966 I1.429 J0.476
G1 X58.436 Y76.151
G2 X58.422 Y76.407 I1.474 J0.21
G3 X58.428 Y76.663 I-13.387 J0.416
G2 X58.489 Y77.031 I1.218 J-0.014
X58.608 Y77.384 I33.634 J-11.1
X58.781 Y77.715 I1.161 J-0.397
X59.003 Y78.014 I39.08 J-28.78
X59.181 Y78.212 I1.169 J-0.875
G3 X59.373 Y78.395 I-4.974 J5.379
G1 X59.364 Y78.416
X57.033
X57.024 Y78.395
X57.173 Y78.246
X57.244 Y78.168
X57.307 Y78.083
X57.941 Y77.141
G2 X58.085 Y76.87 I-1.224 J-0.824
G3 X58.203 Y76.586 I12.773 J5.156
G2 X58.301 Y76.158 I-1.121 J-0.482
X58.318 Y75.72 I-38.026 J-1.697
G1 X58.317 Y75.606
X58.305 Y75.492
X58.032 Y73.673
G2 X57.965 Y73.416 I-1.242 J0.187
G1 X57.807 Y72.999
G2 X57.517 Y72.551 I-1.175 J0.444
G1 X57.39 Y72.428
X57.263 Y72.304
X57.241 Y72.273
X57.231 Y72.236
X57.094 Y70.294
X57.1 Y70.277
X57.118 Y70.269
X59.709
X59.743 Y70.262
X59.772 Y70.242
X59.791 Y70.231
X59.813 Y70.233
X59.83 Y70.247
X59.835 Y70.269
X59.673 Y72.445
X59.665 Y72.488
X59.647 Y72.527
X59.62 Y72.561
X59.472 Y72.707
X59.4 Y72.783
X59.336 Y72.865
X59.138 Y73.146
G2 X58.979 Y73.471 I0.954 J0.67
G3 X58.898 Y73.722 I-10.648 J-3.301
G2 X58.837 Y73.979 I1.37 J0.46
G1 X58.526 Y76.164
X58.513 Y76.288
X58.512 Y76.413
X58.518 Y76.662
G2 X58.58 Y77.026 I1.166 J-0.014
G1 X58.693 Y77.355
G2 X58.863 Y77.676 I1.103 J-0.377
G1 X59.075 Y77.961
X59.129 Y78.027
X59.187 Y78.089
G2 X59.386 Y78.283 I10.091 J-10.149
G3 X59.585 Y78.477 I-9.892 J10.343
G1 X59.59 Y78.49
X59.585 Y78.502
X59.572 Y78.507
X56.827
X56.815 Y78.502
X56.809 Y78.49
X56.815 Y78.477
G3 X57.034 Y78.265 I4.886 J4.832
G2 X57.232 Y78.033 I-0.895 J-0.967
G1 X57.866 Y77.091
G2 X58.006 Y76.826 I-1.172 J-0.789
G3 X58.121 Y76.55 I10.865 J4.345
G2 X58.215 Y76.128 I-1.071 J-0.46
G1 X58.228 Y75.717
X58.227 Y75.611
X58.216 Y75.505
X57.943 Y73.687
G2 X57.85 Y73.353 I-1.415 J0.213
G3 X57.723 Y73.03 I10.509 J-4.344
G2 X57.454 Y72.615 I-1.091 J0.412
G1 X57.321 Y72.487
X57.188 Y72.359
X57.164 Y72.329
X57.148 Y72.294
X57.141 Y72.256
X56.997 Y70.215
X57. Y70.196
X57.013 Y70.183
X57.032 Y70.177
X59.804
X59.822 Y70.183
X59.835 Y70.196
X59.839 Y70.215
X59.835 Y70.269
X59.838 Y70.297
X59.852 Y70.321
X59.874 Y70.338
X59.896 Y70.355
X59.909 Y70.38
X59.913 Y70.407
X59.757 Y72.506
X59.746 Y72.548
X59.722 Y72.584
X59.559 Y72.744
X59.48 Y72.826
X59.41 Y72.916
X59.212 Y73.198
G2 X59.065 Y73.498 I0.88 J0.619
G3 X58.985 Y73.742 I-9.236 J-2.863
G2 X58.926 Y73.991 I1.311 J0.445
G1 X58.615 Y76.176
X58.603 Y76.297
X58.602 Y76.419
X58.608 Y76.661
G2 X58.666 Y76.996 I1.076 J-0.013
G1 X58.778 Y77.326
G2 X58.935 Y77.622 I1.018 J-0.348
G1 X59.147 Y77.907
X59.197 Y77.968
X59.25 Y78.025
G2 X59.466 Y78.237 I17.879 J-17.982
G3 X59.681 Y78.448 I-17.664 J18.194
G1 X59.699 Y78.475
X59.705 Y78.506
Y78.57
X59.698 Y78.588
X59.68 Y78.596
X56.725
X56.707 Y78.588
X56.7 Y78.57
Y78.501
X56.706 Y78.47
X56.723 Y78.444
X56.876 Y78.291
X57.03 Y78.139
X57.097 Y78.064
X57.157 Y77.983
X57.792 Y77.04
X57.844 Y76.955
X57.888 Y76.865
X58.038 Y76.515
G2 X58.125 Y76.125 I-0.989 J-0.425
G1 X58.139 Y75.714
X58.137 Y75.616
X58.127 Y75.519
X57.854 Y73.7
X57.831 Y73.588
X57.796 Y73.479
X57.639 Y73.062
G2 X57.39 Y72.679 I-1.006 J0.381
G1 X57.239 Y72.532
X57.088 Y72.384
X57.066 Y72.353
X57.057 Y72.316
X56.901 Y70.114
X56.907 Y70.097
X56.924 Y70.089
X59.911
X59.928 Y70.097
X59.935 Y70.114
X59.913 Y70.407
X59.916 Y70.436
X59.931 Y70.461
X59.954 Y70.479
X59.976 Y70.497
X59.991 Y70.523
X59.994 Y70.551
X59.848 Y72.524
X59.839 Y72.567
X59.821 Y72.606
X59.795 Y72.641
X59.632 Y72.798
X59.553 Y72.879
X59.484 Y72.968
G3 X59.295 Y73.233 I-29.438 J-20.689
G2 X59.151 Y73.525 I0.827 J0.592
G1 X59.073 Y73.762
X59.038 Y73.882
X59.015 Y74.004
X58.704 Y76.189
X58.692 Y76.306
Y76.425
X58.698 Y76.66
G2 X58.755 Y76.985 I1.015 J-0.012
G3 X58.863 Y77.296 I-35.721 J12.555
G2 X59.02 Y77.589 I0.971 J-0.332
G3 X59.22 Y77.853 I-23.341 J17.882
G1 X59.265 Y77.909
X59.314 Y77.961
G2 X59.533 Y78.176 I12.322 J-12.393
G3 X59.753 Y78.39 I-12.103 J12.608
G1 X59.777 Y78.421
X59.792 Y78.457
X59.797 Y78.495
Y78.649
X59.792 Y78.668
X59.778 Y78.682
X59.759 Y78.687
X56.646
X56.627 Y78.682
X56.613 Y78.668
X56.608 Y78.65
Y78.492
X56.613 Y78.453
X56.628 Y78.417
X56.652 Y78.386
G3 X56.878 Y78.169 I3.992 J3.948
G2 X57.083 Y77.933 I-0.865 J-0.957
G1 X57.717 Y76.99
G2 X57.848 Y76.74 I-1.071 J-0.721
G3 X57.955 Y76.479 I8.06 J3.158
G2 X58.038 Y76.1 I-0.935 J-0.402
G3 X58.049 Y75.711 I35.07 J0.772
G1 X58.047 Y75.621
X58.038 Y75.532
X57.765 Y73.713
X57.744 Y73.611
X57.712 Y73.511
G3 X57.561 Y73.106 I59.536 J-22.51
G2 X57.327 Y72.743 I-0.94 J0.348
G1 X57.17 Y72.591
X57.013 Y72.44
X56.989 Y72.409
X56.973 Y72.374
X56.966 Y72.336
X56.803 Y70.035
X56.807 Y70.016
X56.82 Y70.003
X56.839 Y69.997
X59.998
X60.016 Y70.003
X60.029 Y70.016
X60.033 Y70.035
X59.994 Y70.551
X59.998 Y70.579
X60.011 Y70.603
X60.033 Y70.621
X60.055 Y70.638
X60.069 Y70.662
X60.072 Y70.69
X59.931 Y72.586
X59.921 Y72.628
X59.896 Y72.663
X59.719 Y72.835
X59.633 Y72.923
X59.557 Y73.02
G3 X59.376 Y73.273 I-15.462 J-10.867
G2 X59.237 Y73.551 I0.77 J0.56
G1 X59.135 Y73.878
X59.117 Y73.947
X59.104 Y74.017
X58.793 Y76.202
X58.786 Y76.27
X58.784 Y76.339
G3 X58.786 Y76.641 I-30.703 J0.365
G2 X58.836 Y76.938 I0.927 J-0.002
G3 X58.935 Y77.236 I-17.379 J5.939
G2 X59.079 Y77.514 I0.908 J-0.293
G1 X59.292 Y77.799
X59.333 Y77.85
X59.377 Y77.897
G2 X59.617 Y78.133 I22.085 J-22.211
G3 X59.856 Y78.368 I-21.846 J22.447
G1 X59.878 Y78.4
X59.885 Y78.438
Y78.75
X59.878 Y78.768
X59.86 Y78.776
X56.545
X56.527 Y78.768
X56.52 Y78.75
Y78.435
X56.527 Y78.397
X56.549 Y78.364
X56.725 Y78.188
X56.902 Y78.012
X56.958 Y77.95
X57.008 Y77.882
X57.642 Y76.94
X57.686 Y76.869
X57.722 Y76.794
X57.873 Y76.444
G2 X57.95 Y76.08 I-0.875 J-0.376
G3 X57.959 Y75.708 I18.629 J0.244
G1 X57.958 Y75.627
X57.949 Y75.545
X57.676 Y73.727
X57.657 Y73.634
X57.628 Y73.543
G3 X57.485 Y73.155 I22.69 J-8.579
G2 X57.263 Y72.807 I-0.882 J0.316
G1 X57.088 Y72.636
X56.913 Y72.465
X56.891 Y72.433
X56.882 Y72.396
X56.708 Y69.934
X56.714 Y69.917
X56.731 Y69.909
X60.105
X60.122 Y69.917
X60.129 Y69.934
X60.072 Y70.69
X60.076 Y70.719
X60.09 Y70.744
X60.113 Y70.762
X60.136 Y70.78
X60.15 Y70.805
X60.154 Y70.834
X60.022 Y72.603
X60.014 Y72.646
X59.996 Y72.686
X59.969 Y72.72
X59.793 Y72.889
X59.707 Y72.976
X59.631 Y73.072
G3 X59.457 Y73.313 I-9.888 J-6.949
G2 X59.323 Y73.578 I0.713 J0.528
G1 X59.249 Y73.801
X59.215 Y73.914
X59.193 Y74.03
X58.882 Y76.214
X58.871 Y76.325
Y76.436
X58.878 Y76.658
G2 X58.933 Y76.954 I0.885 J-0.011
G3 X59.033 Y77.238 I-11.514 J4.253
G2 X59.179 Y77.504 I0.848 J-0.29
G3 X59.364 Y77.745 I-8.864 J7.012
G1 X59.401 Y77.791
X59.441 Y77.833
G2 X59.687 Y78.075 I15.508 J-15.597
G3 X59.933 Y78.316 I-15.262 J15.838
G1 X59.957 Y78.346
X59.972 Y78.382
X59.977 Y78.421
Y78.829
X59.972 Y78.848
X59.958 Y78.862
X59.939 Y78.867
X56.466
X56.447 Y78.862
X56.433 Y78.848
X56.428 Y78.83
Y78.418
X56.433 Y78.379
X56.448 Y78.343
X56.472 Y78.312
G3 X56.655 Y78.13 I8.741 J8.645
G2 X56.838 Y77.949 I-8.558 J-8.826
G1 X56.888 Y77.893
X56.933 Y77.832
X57.568 Y76.89
X57.607 Y76.825
X57.64 Y76.758
G3 X57.777 Y76.447 I13.853 J5.955
G2 X57.855 Y76.117 I-0.787 J-0.359
G1 X57.869 Y75.705
X57.868 Y75.632
X57.86 Y75.559
X57.587 Y73.74
X57.57 Y73.656
X57.544 Y73.575
G3 X57.41 Y73.204 I13.041 J-4.931
G2 X57.2 Y72.871 I-0.824 J0.285
X57.019 Y72.695 I-8.273 J8.336
G3 X56.839 Y72.52 I8.092 J-8.512
G1 X56.815 Y72.489
X56.799 Y72.454
X56.791 Y72.417
X56.61 Y69.855
X56.614 Y69.836
X56.627 Y69.823
X56.645 Y69.817
X60.191
X60.21 Y69.823
X60.223 Y69.836
X60.226 Y69.855
X60.154 Y70.834
X60.157 Y70.862
X60.171 Y70.886
X60.193 Y70.903
X60.215 Y70.921
X60.228 Y70.945
X60.232 Y70.973
X60.106 Y72.665
X60.095 Y72.707
X60.071 Y72.742
X59.925 Y72.888
X59.78 Y73.033
X59.74 Y73.076
X59.704 Y73.123
X59.507 Y73.405
X59.467 Y73.468
X59.434 Y73.535
X59.409 Y73.605
X59.307 Y73.931
X59.293 Y73.986
X59.282 Y74.042
X58.971 Y76.227
X58.965 Y76.282
X58.964 Y76.337
X58.968 Y76.657
X58.973 Y76.733
X58.986 Y76.807
X59.006 Y76.88
X59.119 Y77.209
X59.146 Y77.278
X59.181 Y77.345
X59.223 Y77.407
X59.436 Y77.691
X59.504 Y77.77
X60.036 Y78.293
X60.058 Y78.326
X60.065 Y78.363
Y78.93
X60.058 Y78.948
X60.04 Y78.956
X56.365
X56.347 Y78.948
X56.34 Y78.93
Y78.361
X56.347 Y78.323
X56.369 Y78.29
G3 X56.571 Y78.088 I16.17 J15.992
G2 X56.774 Y77.886 I-15.968 J-16.194
G1 X56.819 Y77.836
X56.859 Y77.782
X57.493 Y76.839
X57.528 Y76.782
X57.557 Y76.722
X57.707 Y76.373
G2 X57.765 Y76.114 I-0.658 J-0.283
G1 X57.779 Y75.702
X57.778 Y75.637
X57.771 Y75.572
X57.498 Y73.753
X57.483 Y73.679
X57.46 Y73.607
X57.302 Y73.19
G2 X57.137 Y72.935 I-0.67 J0.253
X56.938 Y72.74 I-15.176 J15.292
G3 X56.739 Y72.545 I14.977 J-15.487
G1 X56.717 Y72.513
X56.707 Y72.476
X56.515 Y69.754
X56.521 Y69.737
X56.538 Y69.729
X60.299
X60.316 Y69.737
X60.322 Y69.754
X60.232 Y70.973
X60.235 Y71.001
X60.25 Y71.027
X60.273 Y71.045
X60.295 Y71.063
X60.31 Y71.088
X60.313 Y71.117
X60.197 Y72.683
X60.189 Y72.725
X60.171 Y72.765
X60.144 Y72.799
X59.994 Y72.947
X59.844 Y73.096
X59.809 Y73.134
X59.778 Y73.175
X59.58 Y73.457
X59.531 Y73.541
X59.494 Y73.631
X59.425 Y73.841
X59.393 Y73.946
X59.371 Y74.055
X59.06 Y76.24
X59.051 Y76.344
Y76.448
X59.058 Y76.656
X59.067 Y76.755
X59.091 Y76.851
X59.204 Y77.18
X59.243 Y77.27
X59.295 Y77.353
X59.425 Y77.534
X59.492 Y77.623
X59.568 Y77.706
G2 X59.84 Y77.973 I19.059 J-19.168
G3 X60.113 Y78.241 I-18.786 J19.436
G1 X60.137 Y78.271
X60.152 Y78.307
X60.157 Y78.346
Y79.009
X60.152 Y79.028
X60.138 Y79.042
X60.119 Y79.047
X56.286
X56.267 Y79.042
X56.253 Y79.028
X56.248 Y79.01
Y78.344
X56.253 Y78.305
X56.268 Y78.269
X56.292 Y78.238
G3 X56.501 Y78.03 I11.431 J11.305
G2 X56.71 Y77.822 I-11.222 J-11.512
G1 X56.749 Y77.779
X56.784 Y77.732
X57.418 Y76.789
X57.449 Y76.739
X57.474 Y76.687
X57.625 Y76.337
X57.651 Y76.264
X57.668 Y76.188
X57.675 Y76.111
X57.689 Y75.699
X57.688 Y75.642
X57.682 Y75.586
X57.409 Y73.767
X57.396 Y73.702
X57.375 Y73.638
X57.218 Y73.221
G2 X57.073 Y72.998 I-0.586 J0.221
X56.868 Y72.799 I-10.643 J10.725
G3 X56.664 Y72.6 I10.438 J-10.924
G1 X56.64 Y72.57
X56.624 Y72.535
X56.617 Y72.497
X56.417 Y69.675
X56.421 Y69.656
X56.434 Y69.643
X56.452 Y69.637
X60.385
X60.404 Y69.643
X60.417 Y69.656
X60.42 Y69.675
X60.313 Y71.117
X60.317 Y71.144
X60.33 Y71.169
X60.352 Y71.186
X60.374 Y71.203
X60.388 Y71.227
X60.391 Y71.255
X60.281 Y72.744
X60.27 Y72.786
X60.245 Y72.822
X60.077 Y72.99
X59.908 Y73.159
X59.852 Y73.227
X59.654 Y73.508
X59.611 Y73.58
X59.58 Y73.658
X59.479 Y73.984
X59.461 Y74.068
X59.149 Y76.252
X59.144 Y76.334
X59.148 Y76.655
X59.156 Y76.74
X59.177 Y76.822
X59.289 Y77.151
X59.322 Y77.228
X59.367 Y77.299
X59.58 Y77.583
X59.631 Y77.642
X60.216 Y78.219
X60.238 Y78.251
X60.245 Y78.289
Y79.11
X60.238 Y79.128
X60.22 Y79.136
X56.185
X56.167 Y79.128
X56.16 Y79.11
Y78.287
X56.167 Y78.249
X56.189 Y78.216
G3 X56.417 Y77.988 I20.621 J20.394
G2 X56.646 Y77.759 I-20.392 J-20.622
G1 X56.68 Y77.722
X56.709 Y77.682
X57.344 Y76.739
X57.37 Y76.696
X57.392 Y76.651
X57.542 Y76.302
X57.564 Y76.239
X57.579 Y76.174
X57.585 Y76.108
X57.599 Y75.696
X57.598 Y75.647
X57.593 Y75.599
X57.32 Y73.78
X57.308 Y73.724
X57.291 Y73.67
X57.134 Y73.253
X57.102 Y73.184
X57.06 Y73.12
X57.01 Y73.062
G2 X56.787 Y72.844 I-19.084 J19.23
G3 X56.564 Y72.625 I18.861 J-19.449
G1 X56.542 Y72.593
X56.532 Y72.556
X56.322 Y69.574
X56.328 Y69.557
X56.345 Y69.549
X60.493
X60.51 Y69.557
X60.516 Y69.574
X60.391 Y71.255
X60.395 Y71.284
X60.409 Y71.309
X60.432 Y71.327
X60.455 Y71.345
X60.469 Y71.37
X60.473 Y71.399
X60.371 Y72.762
X60.363 Y72.804
X60.345 Y72.844
X60.319 Y72.878
X60.145 Y73.05
X59.972 Y73.222
X59.925 Y73.279
X59.728 Y73.56
X59.692 Y73.62
X59.666 Y73.684
X59.565 Y74.011
X59.55 Y74.08
X59.238 Y76.265
X59.234 Y76.333
X59.238 Y76.654
X59.244 Y76.724
X59.262 Y76.793
X59.374 Y77.122
X59.402 Y77.186
X59.439 Y77.245
X59.652 Y77.529
X59.694 Y77.578
G2 X59.994 Y77.872 I22.977 J-23.108
G3 X60.293 Y78.166 I-22.677 J23.402
G1 X60.317 Y78.197
X60.332 Y78.232
X60.337 Y78.271
Y79.189
X60.332 Y79.208
X60.318 Y79.222
X60.299 Y79.227
X56.106
X56.087 Y79.222
X56.073 Y79.208
X56.068 Y79.19
Y78.27
X56.073 Y78.231
X56.088 Y78.195
X56.112 Y78.164
G3 X56.347 Y77.93 I14.481 J14.321
G2 X56.582 Y77.696 I-14.246 J-14.555
G1 X56.635 Y77.631
X57.269 Y76.689
X57.309 Y76.616
X57.459 Y76.266
X57.485 Y76.187
X57.495 Y76.105
X57.509 Y75.693
X57.504 Y75.612
X57.231 Y73.794
X57.221 Y73.747
X57.207 Y73.702
X57.049 Y73.285
X57.023 Y73.227
X56.988 Y73.174
X56.946 Y73.126
G2 X56.718 Y72.903 I-13.311 J13.413
G3 X56.489 Y72.68 I13.083 J-13.636
G1 X56.465 Y72.65
X56.449 Y72.615
X56.442 Y72.577
X56.224 Y69.495
X56.228 Y69.476
X56.241 Y69.463
X56.259 Y69.457
X60.579
X60.597 Y69.463
X60.61 Y69.476
X60.614 Y69.495
X60.473 Y71.399
X60.476 Y71.427
X60.49 Y71.451
X60.512 Y71.468
X60.534 Y71.486
X60.547 Y71.51
X60.551 Y71.538
X60.455 Y72.823
X60.445 Y72.865
X60.42 Y72.901
G3 X60.228 Y73.093 I-14.593 J-14.367
G2 X60.037 Y73.285 I14.401 J14.559
G1 X59.999 Y73.33
X59.801 Y73.612
X59.773 Y73.66
X59.752 Y73.711
X59.651 Y74.038
X59.639 Y74.093
X59.327 Y76.278
X59.324 Y76.332
X59.328 Y76.653
X59.333 Y76.709
X59.347 Y76.764
X59.459 Y77.093
X59.481 Y77.144
X59.511 Y77.191
X59.724 Y77.475
X59.758 Y77.514
X60.396 Y78.144
X60.418 Y78.176
X60.425 Y78.214
Y79.29
X60.418 Y79.308
X60.4 Y79.316
X56.005
X55.987 Y79.308
X55.98 Y79.29
Y78.213
X55.987 Y78.175
X56.009 Y78.142
X56.518 Y77.633
X56.56 Y77.581
X57.194 Y76.638
X57.226 Y76.58
X57.377 Y76.23
X57.397 Y76.167
X57.405 Y76.102
X57.419 Y75.69
X57.415 Y75.626
X57.142 Y73.807
X57.134 Y73.77
X57.123 Y73.734
X56.965 Y73.317
X56.944 Y73.271
X56.916 Y73.228
X56.883 Y73.19
G2 X56.636 Y72.948 I-23.439 J23.619
G3 X56.389 Y72.705 I23.192 J-23.861
G1 X56.367 Y72.673
X56.358 Y72.636
X56.128 Y69.394
X56.135 Y69.377
X56.152 Y69.369
X60.687
X60.704 Y69.377
X60.71 Y69.394
X60.551 Y71.538
X60.554 Y71.567
X60.569 Y71.592
X60.591 Y71.61
X60.614 Y71.628
X60.629 Y71.653
X60.632 Y71.682
X60.546 Y72.841
X60.538 Y72.884
X60.52 Y72.923
X60.493 Y72.957
G3 X60.297 Y73.153 I-10.127 J-9.969
G2 X60.101 Y73.348 I9.93 J10.165
G1 X60.073 Y73.382
X59.875 Y73.664
X59.854 Y73.699
X59.838 Y73.738
X59.737 Y74.064
X59.728 Y74.106
X59.417 Y76.291
X59.414 Y76.331
X59.418 Y76.652
X59.422 Y76.694
X59.432 Y76.735
X59.544 Y77.064
X59.561 Y77.102
X59.583 Y77.137
X59.796 Y77.421
X59.821 Y77.451
G2 X60.147 Y77.771 I27.26 J-27.416
G3 X60.473 Y78.091 I-26.934 J27.736
G1 X60.497 Y78.122
X60.512 Y78.158
X60.517 Y78.196
Y79.369
X60.512 Y79.388
X60.498 Y79.402
X60.479 Y79.407
X55.926
X55.907 Y79.402
X55.893 Y79.388
X55.888 Y79.37
Y78.196
X55.893 Y78.157
X55.908 Y78.121
X55.932 Y78.09
G3 X56.193 Y77.829 I17.891 J17.694
G2 X56.454 Y77.569 I-17.63 J-17.954
G1 X56.485 Y77.531
X57.12 Y76.588
X57.144 Y76.545
X57.294 Y76.195
X57.309 Y76.148
X57.315 Y76.099
X57.329 Y75.687
X57.326 Y75.639
X57.053 Y73.82
X57.039 Y73.766
X56.881 Y73.349
X56.855 Y73.298
X56.82 Y73.254
G2 X56.567 Y73.007 I-16.278 J16.402
G3 X56.314 Y72.76 I16.025 J-16.649
G1 X56.29 Y72.73
X56.274 Y72.695
X56.267 Y72.657
X56.031 Y69.315
X56.035 Y69.296
X56.048 Y69.283
X56.066 Y69.277
X60.773
X60.791 Y69.283
X60.804 Y69.296
X60.808 Y69.315
X60.632 Y71.682
X60.636 Y71.71
X60.649 Y71.734
X60.671 Y71.751
X60.693 Y71.768
X60.707 Y71.793
X60.71 Y71.82
X60.63 Y72.902
X60.619 Y72.944
X60.595 Y72.98
G3 X60.38 Y73.196 I-18.359 J-18.074
G2 X60.165 Y73.412 I18.144 J18.29
G1 X60.146 Y73.434
X59.948 Y73.715
X59.934 Y73.739
X59.924 Y73.764
X59.823 Y74.091
X59.817 Y74.118
X59.506 Y76.303
X59.504 Y76.33
X59.508 Y76.651
X59.51 Y76.678
X59.517 Y76.705
X59.63 Y77.035
X59.641 Y77.06
X59.655 Y77.083
X59.868 Y77.367
X59.885 Y77.387
X60.576 Y78.069
X60.598 Y78.101
X60.605 Y78.139
Y79.47
X60.598 Y79.488
X60.58 Y79.496
X55.826
X55.808 Y79.489
X55.8 Y79.472
Y79.463
Y79.422
Y79.38
Y78.139
X55.807 Y78.101
X55.829 Y78.068
X56.39 Y77.506
X56.411 Y77.481
X57.045 Y76.538
X57.061 Y76.509
X57.211 Y76.159
X57.221 Y76.128
X57.225 Y76.096
X57.239 Y75.684
X57.237 Y75.652
X56.964 Y73.834
X56.954 Y73.798
X56.797 Y73.381
X56.78 Y73.347
X56.756 Y73.318
X56.214 Y72.785
X56.192 Y72.754
X56.183 Y72.716
X55.935 Y69.214
X55.941 Y69.197
X55.959 Y69.189
X60.881
X60.898 Y69.197
X60.904 Y69.214
X60.71 Y71.82
X60.714 Y71.849
X60.728 Y71.874
X60.751 Y71.892
X60.774 Y71.91
X60.788 Y71.936
X60.792 Y71.964
X60.721 Y72.92
X60.712 Y72.963
X60.694 Y73.002
X60.668 Y73.037
G3 X60.448 Y73.256 I-12.685 J-12.488
G2 X60.229 Y73.475 I12.466 J12.707
G1 X60.22 Y73.486
X60.022 Y73.767
X60.01 Y73.791
X59.909 Y74.118
X59.906 Y74.131
X59.595 Y76.316
X59.594 Y76.329
X59.598 Y76.65
X59.602 Y76.676
X59.715 Y77.005
X59.727 Y77.029
X59.94 Y77.313
X59.948 Y77.323
G2 X60.299 Y77.668 I31.639 J-31.82
G3 X60.65 Y78.013 I-31.288 J32.165
G1 X60.676 Y78.046
X60.691 Y78.084
X60.697 Y78.125
Y79.549
X60.692 Y79.568
X60.678 Y79.582
X60.659 Y79.587
X55.752
X55.734 Y79.583
X55.72 Y79.57
X55.714 Y79.552
X55.712 Y79.509
X55.711 Y79.466
X55.709 Y79.298
X55.71 Y79.13
X55.708 Y78.122
X55.713 Y78.083
X55.728 Y78.047
X55.752 Y78.016
G3 X56.039 Y77.729 I21.661 J21.423
G2 X56.326 Y77.443 I-21.374 J-21.709
G1 X56.336 Y77.43
X56.97 Y76.488
X56.978 Y76.474
X57.129 Y76.124
X57.135 Y76.093
X57.149 Y75.681
X57.148 Y75.666
X56.875 Y73.847
X56.87 Y73.829
X56.713 Y73.412
X56.693 Y73.382
G2 X56.416 Y73.111 I-19.542 J19.692
G3 X56.139 Y72.84 I19.266 J-19.963
G1 X56.116 Y72.81
X56.099 Y72.775
X56.092 Y72.737
X55.838 Y69.135
X55.841 Y69.116
X55.854 Y69.103
X55.873 Y69.097
X60.967
X60.985 Y69.103
X60.998 Y69.116
X61.002 Y69.135
X60.792 Y71.964
X60.795 Y71.99
X60.807 Y72.012
X60.827 Y72.028
X60.847 Y72.043
X60.86 Y72.066
X60.863 Y72.091
X60.794 Y73.024
X60.29 Y73.535
X60.092 Y73.817
X59.991 Y74.143
X59.68 Y76.328
X59.684 Y76.649
X59.796 Y76.978
X60.009 Y77.262
X60.768 Y78.017
X60.778 Y78.06
Y79.651
X60.762 Y79.668
X55.664
X55.64 Y79.651
X55.627 Y79.469
Y78.038
X55.637 Y78.017
X56.265 Y77.382
X56.899 Y76.44
X57.05 Y76.09
X57.063 Y75.679
X56.79 Y73.86
X56.632 Y73.443
X56.018 Y72.833
X55.75 Y69.038
X55.765 Y69.017
X61.065
X61.09 Y69.038
X60.863 Y72.091
G3 X60.649 Y72.276 I-0.199 J-0.015
G1 X60.597 Y72.272 Z-1.013
X60.549 Y72.268 Z-0.993
X60.508 Y72.265 Z-0.961
X60.476 Y72.263 Z-0.92
X60.456 Y72.261 Z-0.871
X60.449 Z-0.82
G0 Z5.
X43.492 Y77.379
Z0.03
G1 Y69.208 Z-0.255 F17.
X43.499 Y69.183
X43.517 Y69.164
X43.542 Y69.158
X43.567 Y69.164
X43.585 Y69.183
X43.592 Y69.208
Y79.008 Z-0.597
X43.585 Y79.033
X43.567 Y79.051
X43.542 Y79.058
X43.517 Y79.051
X43.499 Y79.033
X43.492 Y79.008
Y69.208 Z-0.94
X43.499 Y69.183
X43.517 Y69.164
X43.542 Y69.158
X43.567 Y69.164
X43.585 Y69.183
X43.592 Y69.208
Y71.504 Z-1.02
Y71.51
X43.582 Y71.537
X43.561 Y71.556
X43.533 Y71.563
X43.505 Y71.556
X43.484 Y71.536
X43.475 Y71.509
X43.473 Y71.475 F200.
X43.477 Y71.456
X43.49 Y71.443
X43.508 Y71.437
X43.576
X43.594 Y71.443
X43.607 Y71.456
X43.611 Y71.475
X43.59 Y71.772
X43.581 Y71.794
X43.527 Y71.858
X43.516 Y71.863
X43.505 Y71.86
X43.499 Y71.849
X43.475 Y71.509
X43.468 Y71.482
X43.451 Y71.46
X43.426 Y71.446
X43.402 Y71.432
X43.385 Y71.41
X43.378 Y71.383
X43.377 Y71.374
X43.383 Y71.357
X43.401 Y71.349
X43.683
X43.7 Y71.357
X43.706 Y71.374
X43.677 Y71.784
X43.669 Y71.818
X43.651 Y71.848
G2 X43.488 Y72.055 I1.751 J1.541
G1 X43.474 Y72.063
X43.459 Y72.056
X43.431 Y72.023
X43.424 Y72.011
X43.421 Y71.997
X43.378 Y71.383
X43.371 Y71.359
X43.356 Y71.34
X43.334 Y71.327
X43.318 Y71.316
X43.31 Y71.298
X43.313 Y71.278
X43.327 Y71.263
X43.346 Y71.257
X43.769
X43.787 Y71.263
X43.8 Y71.276
X43.804 Y71.295
X43.769 Y71.788
X43.761 Y71.832
X43.744 Y71.873
X43.718 Y71.91
X43.603 Y72.053
X43.499 Y72.205
X43.487 Y72.215
X43.471
X43.457 Y72.206
X43.358 Y72.077
X43.338 Y72.045
X43.33 Y72.009
X43.28 Y71.295
X43.283 Y71.276
X43.296 Y71.263
X43.315 Y71.257
X43.346
X43.373 Y71.252
X43.396 Y71.236
X43.412 Y71.213
X43.427 Y71.19
X43.451 Y71.175
X43.478 Y71.169
X43.876
X43.893 Y71.177
X43.9 Y71.194
X43.853 Y71.851
X43.843 Y71.893
X43.819 Y71.93
X43.693 Y72.077
X43.634 Y72.155
X43.58 Y72.235
X43.539 Y72.304
X43.498 Y72.372
X43.484 Y72.38
X43.47 Y72.373
X43.381 Y72.251
X43.277 Y72.119
X43.254 Y72.08
X43.243 Y72.036
X43.184 Y71.194
X43.19 Y71.177
X43.207 Y71.169
X43.478
X43.506 Y71.164
X43.531 Y71.147
X43.547 Y71.123
X43.563 Y71.099
X43.587 Y71.083
X43.616 Y71.077
X43.962
X43.98 Y71.083
X43.993 Y71.096
X43.997 Y71.115
X43.944 Y71.868
X43.936 Y71.911
X43.919 Y71.95
X43.893 Y71.985
X43.768 Y72.129
X43.71 Y72.204
X43.656 Y72.283
X43.583 Y72.404
X43.509 Y72.526
X43.497 Y72.536
X43.481
X43.467 Y72.527
X43.339 Y72.348
X43.273 Y72.259
X43.204 Y72.174
X43.178 Y72.136
X43.16 Y72.094
X43.152 Y72.049
X43.086 Y71.115
X43.09 Y71.096
X43.103 Y71.083
X43.122 Y71.077
X43.616
X43.643 Y71.072
X43.666 Y71.056
X43.682 Y71.033
X43.697 Y71.01
X43.721 Y70.995
X43.748 Y70.989
X44.069
X44.087 Y70.997
X44.093 Y71.014
X44.028 Y71.93
X44.017 Y71.972
X43.993 Y72.008
G2 X43.731 Y72.34 I1.466 J1.425
G1 X43.506 Y72.695
X43.493 Y72.703
X43.479 Y72.696
G2 X43.297 Y72.434 I-8.293 J5.567
X43.097 Y72.186 I-2.251 J1.617
G1 X43.077 Y72.156
X43.069 Y72.121
X42.991 Y71.014
X42.997 Y70.997
X43.014 Y70.989
X43.748
X43.776 Y70.984
X43.801 Y70.967
X43.817 Y70.943
X43.833 Y70.919
X43.857 Y70.903
X43.886 Y70.897
X44.155
X44.174 Y70.903
X44.187 Y70.916
X44.19 Y70.935
X44.119 Y71.947
X44.111 Y71.99
X44.093 Y72.03
X44.066 Y72.064
G2 X43.762 Y72.445 I1.805 J1.756
X43.514 Y72.865 I4.723 J3.077
G1 X43.502 Y72.875
X43.488
X43.476 Y72.865
G2 X43.021 Y72.239 I-3.015 J1.714
G1 X42.999 Y72.21
X42.985 Y72.177
X42.978 Y72.141
X42.893 Y70.935
X42.897 Y70.916
X42.91 Y70.903
X42.928 Y70.897
X43.886
X43.913 Y70.892
X43.936 Y70.876
X43.952 Y70.853
X43.967 Y70.83
X43.991 Y70.815
X44.018 Y70.809
X44.263
X44.28 Y70.817
X44.286 Y70.834
X44.203 Y72.008
X44.192 Y72.05
X44.168 Y72.086
X44.142 Y72.112
X44.115 Y72.137
G2 X43.878 Y72.438 I1.331 J1.294
G1 X43.655 Y72.791
X43.613 Y72.861
X43.575 Y72.934
X43.509 Y73.084
X43.487
G2 X43.307 Y72.761 I-1.678 J0.725
X43.093 Y72.46 I-18.676 J13.062
G1 X43.012 Y72.36
X42.924 Y72.265
X42.903 Y72.234
X42.894 Y72.198
X42.798 Y70.834
X42.804 Y70.817
X42.821 Y70.809
X44.018
X44.046 Y70.804
X44.071 Y70.787
X44.087 Y70.763
X44.103 Y70.739
X44.127 Y70.723
X44.156 Y70.717
X44.348
X44.367 Y70.723
X44.38 Y70.736
X44.384 Y70.755
X44.294 Y72.025
X44.286 Y72.068
X44.268 Y72.108
X44.241 Y72.143
X44.211 Y72.172
X44.181 Y72.201
G2 X43.946 Y72.498 I1.314 J1.278
G1 X43.731 Y72.839
G2 X43.602 Y73.09 I1.292 J0.818
X43.517 Y73.359 I1.786 J0.713
G1 X43.51 Y73.369
X43.497
X43.489 Y73.36
X43.475 Y73.313
X43.461 Y73.266
G2 X43.36 Y73.021 I-1.717 J0.561
X43.223 Y72.795 I-1.445 J0.72
X43.045 Y72.55 I-30.782 J22.281
X42.849 Y72.32 I-1.734 J1.276
G1 X42.826 Y72.29
X42.81 Y72.255
X42.803 Y72.218
X42.7 Y70.755
X42.704 Y70.736
X42.717 Y70.723
X42.735 Y70.717
X44.156
X44.183 Y70.712
X44.206 Y70.696
X44.222 Y70.673
X44.237 Y70.65
X44.261 Y70.635
X44.288 Y70.629
X44.456
X44.473 Y70.637
X44.479 Y70.654
X44.378 Y72.087
X44.367 Y72.129
X44.343 Y72.165
X44.293 Y72.213
X44.243 Y72.262
G2 X44.009 Y72.563 I1.247 J1.212
G3 X43.807 Y72.887 I-25.046 J-15.406
G2 X43.578 Y73.486 I1.365 J0.864
G1 X43.557 Y73.623
X43.536 Y73.76
X43.518
X43.491 Y73.648
X43.457 Y73.538
X43.378 Y73.293
G2 X43.151 Y72.847 I-1.536 J0.502
G3 X42.979 Y72.609 I34.727 J-25.137
G2 X42.791 Y72.384 I-1.539 J1.098
G1 X42.772 Y72.366
X42.754 Y72.348
X42.729 Y72.313
X42.719 Y72.271
X42.605 Y70.654
X42.611 Y70.637
X42.628 Y70.629
X44.288
X44.316 Y70.624
X44.341 Y70.607
X44.357 Y70.583
X44.373 Y70.559
X44.397 Y70.543
X44.426 Y70.537
X44.542
X44.56 Y70.543
X44.573 Y70.556
X44.577 Y70.575
X44.469 Y72.104
X44.461 Y72.147
X44.443 Y72.186
X44.416 Y72.221
X44.362 Y72.273
X44.308 Y72.325
G2 X44.08 Y72.619 I1.211 J1.177
G3 X43.883 Y72.935 I-22.688 J-13.923
G2 X43.675 Y73.454 I1.291 J0.817
X43.584 Y74.005 I8.518 J1.698
G1 X43.563 Y74.18
X43.542 Y74.355
X43.536 Y74.365
X43.524
X43.517 Y74.355
G3 X43.471 Y73.993 I9.143 J-1.344
G2 X43.395 Y73.636 I-1.737 J0.185
X43.265 Y73.256 I-13.993 J4.573
X43.078 Y72.9 I-1.34 J0.479
G1 X42.901 Y72.656
G2 X42.725 Y72.448 I-1.487 J1.076
G1 X42.703 Y72.426
X42.68 Y72.405
X42.654 Y72.37
X42.636 Y72.331
X42.628 Y72.288
X42.507 Y70.575
X42.511 Y70.556
X42.524 Y70.543
X42.542 Y70.537
X44.426
X44.453 Y70.532
X44.476 Y70.516
X44.492 Y70.493
X44.507 Y70.47
X44.531 Y70.455
X44.558 Y70.449
X44.649
X44.666 Y70.457
X44.672 Y70.474
X44.553 Y72.165
X44.542 Y72.207
X44.518 Y72.243
X44.351 Y72.415
G2 X44.189 Y72.62 I0.909 J0.884
G1 X43.959 Y72.983
G2 X43.755 Y73.516 I1.213 J0.768
G3 X43.712 Y73.766 I-18.904 J-3.146
G2 X43.673 Y74.017 I5.468 J0.985
G1 X43.543 Y75.021
X43.526
X43.365 Y73.901
G2 X43.298 Y73.622 I-1.558 J0.229
G3 X43.206 Y73.349 I21.02 J-7.171
G2 X43.03 Y72.994 I-1.295 J0.423
X42.801 Y72.671 I-17.065 J11.863
G1 X42.75 Y72.606
X42.695 Y72.546
X42.579 Y72.427
X42.554 Y72.391
X42.544 Y72.349
X42.411 Y70.474
X42.418 Y70.457
X42.435 Y70.449
X44.558
X44.586 Y70.444
X44.611 Y70.427
X44.627 Y70.403
X44.643 Y70.379
X44.667 Y70.363
X44.696 Y70.357
X44.735
X44.753 Y70.363
X44.766 Y70.376
X44.77 Y70.395
X44.644 Y72.182
X44.635 Y72.225
X44.618 Y72.265
X44.591 Y72.299
X44.418 Y72.475
X44.336 Y72.568
X44.265 Y72.668
G2 X44.011 Y73.078 I18.747 J11.869
X43.844 Y73.531 I1.099 J0.663
X43.701 Y74.485 I29.361 J4.887
G1 X43.577 Y75.414
X43.563 Y75.561
X43.558 Y75.709
X43.535 Y75.71
X43.276 Y73.914
G2 X43.21 Y73.642 I-1.494 J0.22
G3 X43.121 Y73.377 I16.944 J-5.831
G2 X42.95 Y73.035 I-1.229 J0.401
X42.728 Y72.724 I-22.213 J15.607
G1 X42.677 Y72.66
X42.621 Y72.6
X42.505 Y72.483
X42.479 Y72.449
X42.461 Y72.41
X42.453 Y72.367
X42.314 Y70.395
X42.318 Y70.376
X42.331 Y70.363
X42.349 Y70.357
X44.696
X44.729 Y70.363
X44.759 Y70.38
X44.781 Y70.405
X44.794 Y70.437
X44.795 Y70.471
X43.801 Y77.743
X43.803 Y77.778
X43.817 Y77.811
X43.845 Y77.854
X43.846 Y77.868
X43.834 Y77.876
X43.725
X43.712 Y77.868
Y77.854
X43.76 Y77.765
X43.772 Y77.757
X43.786 Y77.764
X43.817 Y77.811
X43.838 Y77.832
X43.864 Y77.843
X43.894
X43.923
X43.949 Y77.855
X43.97 Y77.875
X44.01 Y77.935
X44.013 Y77.949
X44.006 Y77.962
X43.992 Y77.967
X43.568
X43.554 Y77.962
X43.548 Y77.949
X43.551 Y77.935
G2 X43.74 Y77.587 I-1.391 J-0.978
G1 X43.749 Y77.576
X43.764 Y77.575
X43.776 Y77.583
X43.97 Y77.875
X43.99 Y77.895
X44.015 Y77.906
X44.043
X44.071
X44.097 Y77.917
X44.117 Y77.937
X44.181 Y78.034
X44.182 Y78.048
X44.17 Y78.056
X43.384
X43.375 Y78.052
X43.37 Y78.043
X43.373 Y78.034
X43.424 Y77.964
X43.476 Y77.895
G2 X43.692 Y77.469 I-1.304 J-0.93
G1 X43.706 Y77.424
X43.72 Y77.378
X43.73 Y77.369
X43.743 Y77.375
X44.117 Y77.937
X44.137 Y77.957
X44.164 Y77.968
X44.192
X44.221
X44.248 Y77.979
X44.268 Y77.999
X44.345 Y78.115
X44.349 Y78.129
X44.342 Y78.142
X44.328 Y78.147
X43.218
X43.205 Y78.142
X43.198 Y78.129
X43.202 Y78.115
X43.302 Y77.979
X43.402 Y77.843
G2 X43.607 Y77.441 I-1.242 J-0.886
G1 X43.65 Y77.304
X43.693 Y77.168
X43.702 Y77.157
X43.716 Y77.156
X43.726 Y77.165
X43.769 Y77.249
X43.81 Y77.319
G2 X44.077 Y77.717 I35.501 J-23.608
G3 X44.268 Y77.999 I-35.233 J24.007
G1 X44.287 Y78.018
X44.312 Y78.028
X44.338
X44.365
X44.389 Y78.038
X44.408 Y78.056
X44.518 Y78.214
X44.519 Y78.228
X44.507 Y78.236
X43.013
X43.005 Y78.215
G2 X43.166 Y78.02 I-1.298 J-1.236
G1 X43.329 Y77.791
G2 X43.503 Y77.459 I-1.105 J-0.788
X43.625 Y77.105 I-17.797 J-6.347
G1 X43.655 Y76.995
X43.676 Y76.884
X43.695 Y76.882
X43.783 Y77.083
X43.83 Y77.178
X43.884 Y77.269
G3 X44.198 Y77.744 I-83.913 J55.802
G2 X44.408 Y78.056 I15.222 J-9.999
G1 X44.429 Y78.076
X44.455 Y78.087
X44.483
X44.511
X44.537 Y78.098
X44.557 Y78.118
X44.569 Y78.136
X44.632 Y78.219
X44.702 Y78.297
X44.707 Y78.31
X44.701 Y78.322
X44.688 Y78.327
X42.806
X42.794 Y78.322
X42.788 Y78.31
X42.794 Y78.297
X42.934 Y78.159
X43.002 Y78.087
X43.063 Y78.009
G2 X43.273 Y77.71 I-22.122 J-15.776
X43.437 Y77.384 I-1.062 J-0.736
X43.552 Y77.024 I-15.551 J-5.201
X43.609 Y76.649 I-1.212 J-0.374
G1 X43.606 Y76.563
X43.604 Y76.477
X43.609 Y76.467
X43.62 Y76.465
X43.628 Y76.473
G2 X43.729 Y76.745 I2.163 J-0.646
G3 X43.846 Y77.011 I-32.694 J14.55
G1 X43.898 Y77.118
X43.959 Y77.219
X44.557 Y78.118
X44.578 Y78.138
X44.604 Y78.15
X44.634 Y78.149
X44.662
X44.69 Y78.158
X44.712 Y78.177
X44.775 Y78.247
X44.922 Y78.395
X44.914 Y78.416
X42.579
X42.571 Y78.395
G3 X42.789 Y78.185 I5.641 J5.634
G2 X42.99 Y77.957 I-1.017 J-1.096
X43.193 Y77.669 I-34.424 J-24.549
X43.351 Y77.355 I-1.002 J-0.702
X43.464 Y77.009 I-19.691 J-6.585
X43.519 Y76.649 I-1.142 J-0.36
G3 X43.522 Y76.372 I11.199 J0.
G2 X43.506 Y76.096 I-1.625 J-0.04
G1 X43.187 Y73.927
G2 X43.122 Y73.663 I-1.432 J0.21
G3 X43.035 Y73.405 I13.945 J-4.843
G2 X42.87 Y73.076 I-1.163 J0.38
X42.655 Y72.777 I-34.428 J24.466
G1 X42.598 Y72.704
X42.535 Y72.637
X42.404 Y72.506
X42.379 Y72.47
X42.369 Y72.428
X42.218 Y70.294
X42.224 Y70.277
X42.242 Y70.269
X44.842
X44.859 Y70.277
X44.865 Y70.294
X44.728 Y72.243
X44.717 Y72.285
X44.693 Y72.321
G3 X44.506 Y72.51 I-12.065 J-11.733
G2 X44.341 Y72.717 I0.841 J0.844
X44.095 Y73.111 I26.412 J16.723
X43.933 Y73.545 I1.035 J0.634
X43.79 Y74.497 I29.272 J4.872
G1 X43.667 Y75.426
X43.648 Y75.598
X43.643 Y75.685
Y75.772
G2 X43.664 Y76.187 I19.625 J-0.783
X43.761 Y76.591 I1.193 J-0.073
G1 X43.929 Y76.975
X43.977 Y77.075
X44.034 Y77.169
X44.644 Y78.086
X44.712 Y78.177
X44.734 Y78.195
X44.761 Y78.203
X44.789 Y78.2
X44.817 Y78.197
X44.844 Y78.204
X44.867 Y78.22
X44.915 Y78.267
G3 X45.133 Y78.477 I-4.853 J5.24
G1 X45.138 Y78.49
X45.133 Y78.502
X45.12 Y78.507
X42.372
X42.36 Y78.502
X42.354 Y78.49
X42.36 Y78.477
G3 X42.576 Y78.264 I12.071 J12.055
G2 X42.792 Y78.051 I-11.854 J-12.268
X42.959 Y77.849 I-0.992 J-0.991
G3 X43.109 Y77.634 I9.858 J6.708
G2 X43.266 Y77.327 I-0.949 J-0.677
G1 X43.369 Y77.019
G2 X43.429 Y76.649 I-1.106 J-0.37
G1 Y76.278
X43.426 Y76.193
X43.417 Y76.109
X43.098 Y73.94
G2 X43.035 Y73.683 I-1.37 J0.201
G3 X42.95 Y73.433 I11.653 J-4.086
G2 X42.786 Y73.111 I-1.108 J0.362
G1 X42.582 Y72.83
X42.525 Y72.758
X42.461 Y72.691
X42.331 Y72.562
X42.304 Y72.528
X42.286 Y72.488
X42.278 Y72.446
X42.121 Y70.215
X42.124 Y70.196
X42.137 Y70.183
X42.156 Y70.177
X44.928
X44.946 Y70.183
X44.959 Y70.196
X44.963 Y70.215
X44.819 Y72.26
X44.81 Y72.303
X44.793 Y72.343
X44.766 Y72.378
G3 X44.581 Y72.562 I-6.52 J-6.341
G2 X44.417 Y72.765 I0.773 J0.796
X44.179 Y73.143 I50.818 J32.175
X44.022 Y73.56 I0.972 J0.606
X43.88 Y74.509 I29.183 J4.857
G1 X43.756 Y75.438
G2 X43.737 Y75.787 I2.22 J0.296
X43.748 Y76.136 I21.67 J-0.514
X43.844 Y76.555 I1.165 J-0.046
G1 X44.011 Y76.939
X44.056 Y77.031
X44.109 Y77.119
X44.719 Y78.036
X44.789 Y78.132
X44.867 Y78.22
X44.892 Y78.237
X44.921 Y78.243
X44.949 Y78.237
X44.978 Y78.232
X45.007 Y78.237
X45.031 Y78.253
X45.074 Y78.295
X45.221 Y78.441
X45.239 Y78.467
X45.245 Y78.498
Y78.57
X45.237 Y78.588
X45.219 Y78.596
X42.267
X42.249 Y78.588
X42.241 Y78.57
Y78.504
X42.248 Y78.473
X42.265 Y78.447
G3 X42.497 Y78.217 I20.924 J20.897
G2 X42.729 Y77.988 I-20.692 J-21.126
X42.891 Y77.791 I-0.949 J-0.948
G3 X43.036 Y77.582 I8.43 J5.699
G2 X43.181 Y77.298 I-0.876 J-0.625
G1 X43.283 Y76.99
G2 X43.34 Y76.637 I-1.039 J-0.348
G3 X43.339 Y76.278 I63.408 J-0.358
G1 X43.336 Y76.2
X43.328 Y76.122
X43.009 Y73.953
G2 X42.947 Y73.704 I-1.309 J0.192
G3 X42.864 Y73.461 I9.85 J-3.489
G2 X42.713 Y73.164 I-1.023 J0.334
G1 X42.509 Y72.882
X42.446 Y72.802
X42.375 Y72.728
X42.229 Y72.584
X42.205 Y72.549
X42.194 Y72.507
X42.025 Y70.114
X42.031 Y70.097
X42.048 Y70.089
X45.035
X45.052 Y70.097
X45.059 Y70.114
X44.903 Y72.322
X44.892 Y72.364
X44.868 Y72.4
G3 X44.669 Y72.597 I-5.883 J-5.722
G2 X44.493 Y72.813 I0.805 J0.838
G1 X44.263 Y73.176
G2 X44.111 Y73.575 I0.909 J0.576
X43.969 Y74.521 I29.094 J4.842
G1 X43.845 Y75.45
G2 X43.827 Y75.791 I2.149 J0.286
X43.838 Y76.133 I23.504 J-0.595
X43.93 Y76.53 I1.09 J-0.043
G3 X44.094 Y76.903 I-74.246 J32.769
G1 X44.135 Y76.988
X44.184 Y77.07
X44.794 Y77.987
X44.856 Y78.071
X44.926 Y78.148
X45.031 Y78.253
X45.055 Y78.269
X45.083 Y78.274
X45.11 Y78.267
X45.138 Y78.261
X45.165 Y78.266
X45.189 Y78.281
X45.293 Y78.383
X45.317 Y78.414
X45.332 Y78.45
X45.337 Y78.489
X45.336 Y78.649
X45.331 Y78.668
X45.317 Y78.682
X45.298 Y78.688
X42.188
X42.169 Y78.682
X42.155 Y78.668
X42.15 Y78.649
Y78.494
X42.155 Y78.456
X42.17 Y78.42
X42.193 Y78.389
G3 X42.429 Y78.156 I14.36 J14.341
G2 X42.665 Y77.924 I-14.124 J-14.573
G1 X42.748 Y77.832
X42.822 Y77.733
X42.963 Y77.53
G2 X43.102 Y77.254 I-0.826 J-0.589
G3 X43.198 Y76.962 I36.673 J11.94
G2 X43.251 Y76.622 I-0.977 J-0.327
G3 X43.249 Y76.278 I27.093 J-0.344
G1 X43.246 Y76.207
X43.239 Y76.135
X42.92 Y73.966
X42.896 Y73.844
X42.859 Y73.725
X42.779 Y73.489
G2 X42.629 Y73.199 I-0.971 J0.317
G3 X42.436 Y72.935 I25.978 J-19.207
G1 X42.373 Y72.856
X42.301 Y72.783
X42.156 Y72.641
X42.129 Y72.606
X42.111 Y72.567
X42.103 Y72.524
X41.927 Y70.035
X41.931 Y70.016
X41.944 Y70.003
X41.963 Y69.997
X45.121
X45.139 Y70.003
X45.152 Y70.016
X45.156 Y70.035
X44.993 Y72.339
X44.985 Y72.382
X44.968 Y72.421
X44.941 Y72.456
G3 X44.744 Y72.649 I-4.239 J-4.122
G2 X44.569 Y72.861 I0.744 J0.795
G3 X44.348 Y73.207 I-37. J-23.426
G2 X44.199 Y73.59 I0.849 J0.549
X44.058 Y74.533 I29.006 J4.828
G1 X43.934 Y75.462
G2 X43.917 Y75.795 I2.079 J0.277
X43.928 Y76.129 I25.935 J-0.7
X44.018 Y76.51 I1.024 J-0.041
G3 X44.176 Y76.867 I-27.168 J12.255
G1 X44.214 Y76.945
X44.259 Y77.02
X44.869 Y77.937
G2 X45.07 Y78.17 I1.034 J-0.688
G1 X45.189 Y78.281
X45.212 Y78.296
X45.24 Y78.301
X45.267 Y78.295
X45.294 Y78.29
X45.322 Y78.295
X45.345 Y78.31
X45.396 Y78.362
X45.417 Y78.394
X45.425 Y78.432
X45.424 Y78.75
X45.416 Y78.768
X45.398 Y78.776
X42.087
X42.069 Y78.768
X42.061 Y78.75
Y78.437
X42.069 Y78.399
X42.091 Y78.367
G3 X42.346 Y78.114 I25.415 J25.382
G2 X42.601 Y77.861 I-25.159 J-25.635
G1 X42.651 Y77.806
X42.697 Y77.748
G3 X42.872 Y77.506 I14.547 J10.374
G2 X43.01 Y77.241 I-0.769 J-0.568
G3 X43.108 Y76.951 I29.972 J10.024
G2 X43.159 Y76.649 I-0.875 J-0.302
G1 X43.162 Y76.432
Y76.323
X43.157 Y76.215
X43.15 Y76.148
X42.831 Y73.98
X42.817 Y73.905
X42.796 Y73.831
G3 X42.704 Y73.542 I20.925 J-6.838
G2 X42.567 Y73.269 I-0.899 J0.28
G1 X42.364 Y72.988
X42.293 Y72.9
X42.215 Y72.82
X42.054 Y72.663
X42.03 Y72.627
X42.019 Y72.586
X41.832 Y69.934
X41.838 Y69.917
X41.855 Y69.909
X45.228
X45.246 Y69.917
X45.252 Y69.934
X45.078 Y72.4
X45.067 Y72.442
X45.043 Y72.478
X44.901 Y72.621
X44.76 Y72.764
X44.698 Y72.834
X44.645 Y72.909
G3 X44.432 Y73.239 I-17.539 J-11.105
G2 X44.288 Y73.604 I0.789 J0.521
X44.147 Y74.545 I28.917 J4.813
G1 X44.024 Y75.474
G2 X44.007 Y75.799 I2.009 J0.268
X44.018 Y76.126 I29.292 J-0.841
X44.092 Y76.448 I0.895 J-0.036
G1 X44.259 Y76.831
X44.293 Y76.902
X44.334 Y76.97
X44.944 Y77.887
X44.996 Y77.957
X45.054 Y78.022
X45.225 Y78.192
X45.345 Y78.31
X45.369 Y78.326
X45.397 Y78.33
X45.424 Y78.323
X45.453 Y78.316
X45.481 Y78.326
X45.501 Y78.348
X45.513 Y78.38
X45.517 Y78.415
X45.516 Y78.829
X45.51 Y78.848
X45.496 Y78.862
X45.477 Y78.868
X42.008
X41.989 Y78.862
X41.975 Y78.848
X41.97 Y78.829
Y78.42
X41.975 Y78.381
X41.99 Y78.345
X42.013 Y78.314
G3 X42.275 Y78.056 I17.772 J17.749
G2 X42.538 Y77.797 I-17.51 J-18.008
G1 X42.616 Y77.711
X42.685 Y77.617
X42.816 Y77.425
G2 X42.941 Y77.173 I-0.72 J-0.514
G3 X43.027 Y76.905 I11.797 J3.649
G2 X43.074 Y76.593 I-0.854 J-0.286
G3 X43.069 Y76.278 I10.967 J-0.315
G1 X43.067 Y76.22
X43.06 Y76.161
X42.742 Y73.993
X42.719 Y73.878
X42.684 Y73.766
X42.608 Y73.545
G2 X42.469 Y73.28 I-0.848 J0.277
G3 X42.291 Y73.041 I9.278 J-7.085
G1 X42.22 Y72.954
X42.142 Y72.874
X41.981 Y72.719
X41.954 Y72.685
X41.936 Y72.646
X41.928 Y72.603
X41.734 Y69.855
X41.738 Y69.836
X41.751 Y69.823
X41.769 Y69.817
X45.314
X45.333 Y69.823
X45.346 Y69.836
X45.349 Y69.855
X45.168 Y72.417
X45.16 Y72.46
X45.142 Y72.5
X45.116 Y72.534
G3 X44.907 Y72.736 I-3.314 J-3.223
G2 X44.721 Y72.957 I0.724 J0.798
G3 X44.516 Y73.271 I-10.785 J-6.828
G2 X44.377 Y73.619 I0.73 J0.493
X44.237 Y74.557 I28.828 J4.798
G1 X44.113 Y75.485
G2 X44.096 Y75.804 I1.939 J0.258
X44.108 Y76.122 I34.201 J-1.045
X44.174 Y76.412 I0.805 J-0.032
G1 X44.341 Y76.796
X44.372 Y76.859
X44.409 Y76.92
X45.019 Y77.837
X45.065 Y77.9
X45.118 Y77.958
X45.296 Y78.134
X45.473 Y78.309
X45.501 Y78.348
X45.515 Y78.368
X45.535 Y78.383
X45.559 Y78.392
X45.583 Y78.402
X45.599 Y78.423
X45.605 Y78.448
X45.603 Y78.93
X45.596 Y78.948
X45.578 Y78.956
X41.907
X41.889 Y78.948
X41.881 Y78.93
Y78.363
X41.889 Y78.325
X41.911 Y78.292
X42.474 Y77.733
X42.514 Y77.69
X42.55 Y77.643
X42.743 Y77.373
X42.798 Y77.282
X42.839 Y77.184
X42.942 Y76.876
X42.963 Y76.802
X42.975 Y76.726
X42.979 Y76.649
X42.982 Y76.438
Y76.333
X42.977 Y76.228
X42.971 Y76.174
X42.653 Y74.006
X42.641 Y73.946
X42.625 Y73.887
X42.522 Y73.572
X42.495 Y73.503
X42.462 Y73.437
X42.421 Y73.375
X42.218 Y73.094
X42.149 Y73.012
X42.014 Y72.877
X41.879 Y72.742
X41.855 Y72.706
X41.844 Y72.664
X41.639 Y69.754
X41.645 Y69.737
X41.662 Y69.729
X45.422
X45.439 Y69.737
X45.445 Y69.754
X45.252 Y72.478
X45.242 Y72.52
X45.217 Y72.556
X45.053 Y72.723
X44.889 Y72.889
X44.84 Y72.945
X44.797 Y73.006
X44.567 Y73.369
G2 X44.466 Y73.634 I0.605 J0.383
X44.326 Y74.569 I28.739 J4.783
G1 X44.202 Y75.497
G2 X44.186 Y75.808 I1.87 J0.249
X44.198 Y76.118 I42.016 J-1.364
X44.257 Y76.376 I0.715 J-0.029
G1 X44.424 Y76.76
X44.451 Y76.816
X44.484 Y76.87
X45.094 Y77.787
X45.135 Y77.843
X45.182 Y77.895
G2 X45.379 Y78.091 I15.282 J-15.158
G3 X45.576 Y78.288 I-15.085 J15.355
G1 X45.598 Y78.32
X45.605 Y78.358
Y78.448
X45.61 Y78.477
X45.627 Y78.501
X45.651 Y78.517
X45.675 Y78.533
X45.691 Y78.558
X45.696 Y78.586
X45.695 Y79.009
X45.69 Y79.028
X45.676 Y79.042
X45.657 Y79.048
X41.828
X41.809 Y79.042
X41.795 Y79.028
X41.79 Y79.009
Y78.345
X41.795 Y78.307
X41.81 Y78.271
X41.833 Y78.24
G3 X42.122 Y77.955 I21.549 J21.521
G2 X42.41 Y77.67 I-21.26 J-21.806
G1 X42.483 Y77.589
X42.547 Y77.5
X42.67 Y77.321
G2 X42.781 Y77.091 I-0.618 J-0.441
G3 X42.857 Y76.848 I6.017 J1.744
G1 X42.875 Y76.783
X42.885 Y76.716
X42.889 Y76.649
X42.892 Y76.442
Y76.338
X42.887 Y76.234
X42.882 Y76.187
X42.564 Y74.019
X42.542 Y73.911
X42.509 Y73.807
X42.436 Y73.6
X42.399 Y73.511
X42.349 Y73.428
X42.223 Y73.247
X42.158 Y73.158
X42.085 Y73.075
X41.945 Y72.937
X41.806 Y72.798
X41.779 Y72.764
X41.762 Y72.724
X41.753 Y72.682
X41.541 Y69.675
X41.545 Y69.656
X41.558 Y69.643
X41.576 Y69.637
X45.507
X45.526 Y69.643
X45.539 Y69.656
X45.543 Y69.675
X45.343 Y72.495
X45.335 Y72.538
X45.317 Y72.578
X45.291 Y72.613
X45.122 Y72.782
X44.953 Y72.952
X44.91 Y73.001
X44.873 Y73.054
X44.643 Y73.417
X44.603 Y73.49
X44.574 Y73.568
X44.555 Y73.649
G2 X44.415 Y74.58 I28.65 J4.768
G1 X44.291 Y75.509
G2 X44.276 Y75.812 I1.802 J0.24
X44.288 Y76.115 I56.307 J-1.942
G1 X44.295 Y76.192
X44.313 Y76.267
X44.339 Y76.34
X44.506 Y76.724
X44.53 Y76.773
X44.559 Y76.82
X45.169 Y77.737
X45.205 Y77.786
X45.246 Y77.832
G2 X45.45 Y78.033 I10.834 J-10.746
G3 X45.654 Y78.235 I-10.63 J10.948
G1 X45.677 Y78.266
X45.692 Y78.302
X45.697 Y78.341
X45.696 Y78.586
X45.702 Y78.613
X45.717 Y78.637
X45.74 Y78.652
X45.763 Y78.668
X45.779 Y78.691
X45.784 Y78.719
X45.783 Y79.11
X45.775 Y79.128
X45.757 Y79.136
X41.727
X41.709 Y79.128
X41.701 Y79.11
Y78.288
X41.709 Y78.25
X41.731 Y78.218
X42.347 Y77.606
X42.404 Y77.539
X42.596 Y77.268
X42.638 Y77.2
X42.668 Y77.127
X42.771 Y76.819
X42.792 Y76.735
X42.799 Y76.649
X42.802 Y76.445
Y76.343
X42.798 Y76.24
X42.793 Y76.2
X42.475 Y74.032
X42.454 Y73.943
X42.351 Y73.628
X42.319 Y73.552
X42.276 Y73.481
X42.072 Y73.199
X42.021 Y73.138
X41.862 Y72.979
X41.704 Y72.821
X41.68 Y72.785
X41.669 Y72.743
X41.446 Y69.574
X41.452 Y69.557
X41.469 Y69.549
X45.615
X45.632 Y69.557
X45.638 Y69.574
X45.427 Y72.557
X45.417 Y72.599
X45.392 Y72.635
G3 X45.205 Y72.825 I-14.188 J-13.798
G2 X45.018 Y73.015 I14.001 J13.989
G1 X44.981 Y73.057
X44.949 Y73.102
X44.719 Y73.465
X44.685 Y73.528
X44.66 Y73.594
X44.643 Y73.664
G2 X44.504 Y74.592 I28.562 J4.754
G1 X44.38 Y75.521
G2 X44.366 Y75.827 I1.765 J0.235
G1 X44.377 Y76.111
X44.384 Y76.177
X44.399 Y76.242
X44.422 Y76.304
X44.589 Y76.688
X44.609 Y76.73
X44.634 Y76.771
X45.244 Y77.688
X45.275 Y77.729
X45.309 Y77.768
G2 X45.533 Y77.991 I19.643 J-19.484
G3 X45.756 Y78.214 I-19.42 J19.707
G1 X45.778 Y78.246
X45.785 Y78.284
X45.784 Y78.719
X45.79 Y78.747
X45.806 Y78.771
X45.83 Y78.788
X45.854 Y78.804
X45.87 Y78.828
X45.875 Y78.857
X45.874 Y79.189
X45.869 Y79.208
X45.855 Y79.222
X45.836 Y79.228
X41.648
X41.629 Y79.222
X41.615 Y79.208
X41.61 Y79.189
Y78.271
X41.615 Y78.232
X41.63 Y78.196
X41.653 Y78.165
G3 X41.968 Y77.854 I25.689 J25.655
G2 X42.283 Y77.543 I-25.374 J-25.967
G1 X42.33 Y77.486
X42.523 Y77.216
X42.557 Y77.159
X42.583 Y77.099
X42.686 Y76.791
X42.703 Y76.721
X42.709 Y76.649
X42.712 Y76.448
X42.713 Y76.347
X42.708 Y76.247
X42.704 Y76.214
X42.386 Y74.045
X42.368 Y73.971
X42.265 Y73.656
X42.239 Y73.592
X42.203 Y73.533
X41.999 Y73.252
X41.956 Y73.201
X41.794 Y73.039
X41.631 Y72.877
X41.604 Y72.843
X41.587 Y72.803
X41.579 Y72.76
X41.348 Y69.495
X41.352 Y69.476
X41.365 Y69.463
X41.383 Y69.457
X45.701
X45.719 Y69.463
X45.732 Y69.476
X45.736 Y69.495
X45.518 Y72.574
X45.51 Y72.617
X45.492 Y72.656
X45.466 Y72.691
G3 X45.274 Y72.884 I-9.845 J-9.575
G2 X45.082 Y73.078 I9.653 J9.768
G1 X45.052 Y73.112
X45.025 Y73.15
X44.795 Y73.513
X44.767 Y73.565
X44.746 Y73.621
X44.732 Y73.678
G2 X44.593 Y74.604 I28.473 J4.739
G1 X44.47 Y75.533
G2 X44.456 Y75.824 I1.676 J0.223
G1 X44.467 Y76.108
X44.478 Y76.189
X44.504 Y76.268
X44.671 Y76.652
X44.709 Y76.721
X45.319 Y77.638
X45.344 Y77.673
X45.373 Y77.705
G2 X45.604 Y77.933 I13.826 J-13.714
G3 X45.834 Y78.161 I-13.596 J13.942
G1 X45.858 Y78.193
X45.872 Y78.229
X45.877 Y78.267
X45.875 Y78.857
X45.881 Y78.884
X45.896 Y78.907
X45.919 Y78.923
X45.942 Y78.938
X45.958 Y78.962
X45.963 Y78.989
X45.962 Y79.29
X45.955 Y79.308
X45.937 Y79.316
X41.547
X41.529 Y79.308
X41.521 Y79.29
Y78.214
X41.529 Y78.176
X41.551 Y78.143
X42.219 Y77.479
X42.257 Y77.434
X42.45 Y77.164
X42.477 Y77.119
X42.498 Y77.07
X42.601 Y76.762
X42.614 Y76.706
X42.619 Y76.649
X42.622 Y76.451
X42.623 Y76.352
X42.618 Y76.253
X42.615 Y76.227
X42.297 Y74.058
X42.283 Y73.999
X42.18 Y73.684
X42.159 Y73.633
X42.13 Y73.586
X41.926 Y73.305
X41.892 Y73.264
G2 X41.711 Y73.082 I-13.133 J12.866
G3 X41.529 Y72.899 I12.951 J-13.048
G1 X41.505 Y72.864
X41.494 Y72.822
X41.252 Y69.394
X41.259 Y69.377
X41.276 Y69.369
X45.808
X45.825 Y69.377
X45.831 Y69.394
X45.602 Y72.635
X45.592 Y72.677
X45.567 Y72.713
G3 X45.357 Y72.927 I-17.901 J-17.409
G2 X45.147 Y73.14 I17.691 J17.623
G1 X45.101 Y73.198
X44.871 Y73.561
X44.839 Y73.625
X44.821 Y73.693
G2 X44.683 Y74.616 I28.384 J4.724
G1 X44.559 Y75.545
G2 X44.546 Y75.82 I1.587 J0.211
G1 X44.557 Y76.104
X44.566 Y76.169
X44.587 Y76.232
X44.754 Y76.616
X44.784 Y76.671
X45.394 Y77.588
X45.437 Y77.641
G2 X45.687 Y77.891 I24.55 J-24.351
G3 X45.937 Y78.14 I-24.301 J24.601
G1 X45.958 Y78.172
X45.966 Y78.21
X45.963 Y78.989
X45.969 Y79.018
X45.985 Y79.042
X46.009 Y79.058
X46.033 Y79.074
X46.049 Y79.099
X46.055 Y79.127
X46.054 Y79.369
X46.049 Y79.388
X46.035 Y79.402
X46.015 Y79.408
X41.468
X41.449 Y79.402
X41.435 Y79.388
X41.43 Y79.369
Y78.196
X41.435 Y78.158
X41.45 Y78.122
X41.473 Y78.091
G3 X41.814 Y77.753 I30.192 J30.153
G2 X42.156 Y77.415 I-29.851 J-30.49
G1 X42.184 Y77.382
X42.377 Y77.112
X42.397 Y77.078
X42.412 Y77.041
X42.515 Y76.734
X42.526 Y76.692
X42.529 Y76.649
X42.532 Y76.454
X42.533 Y76.357
X42.528 Y76.26
X42.526 Y76.24
X42.208 Y74.071
X42.197 Y74.027
X42.094 Y73.712
X42.078 Y73.674
X42.057 Y73.639
X41.853 Y73.357
X41.828 Y73.327
G2 X41.642 Y73.141 I-9.137 J8.951
G3 X41.456 Y72.956 I8.951 J-9.137
G1 X41.43 Y72.921
X41.412 Y72.882
X41.404 Y72.839
X41.155 Y69.315
X41.159 Y69.296
X41.172 Y69.283
X41.19 Y69.277
X45.894
X45.912 Y69.283
X45.925 Y69.296
X45.929 Y69.315
X45.693 Y72.652
X45.685 Y72.695
X45.667 Y72.735
X45.641 Y72.769
G3 X45.426 Y72.986 I-12.367 J-12.028
G2 X45.211 Y73.203 I12.153 J12.244
G1 X45.177 Y73.246
X44.947 Y73.609
X44.923 Y73.657
X44.91 Y73.708
G2 X44.772 Y74.628 I28.295 J4.709
G1 X44.648 Y75.557
G2 X44.636 Y75.817 I1.497 J0.2
G1 X44.647 Y76.1
X44.654 Y76.149
X44.669 Y76.196
X44.836 Y76.58
X44.859 Y76.621
X45.468 Y77.538
X45.501 Y77.578
G2 X45.758 Y77.833 I17.182 J-17.043
G3 X46.014 Y78.088 I-16.926 J17.298
G1 X46.038 Y78.119
X46.053 Y78.155
X46.057 Y78.193
X46.055 Y79.127
X46.06 Y79.155
X46.075 Y79.178
X46.099 Y79.193
X46.122 Y79.209
X46.137 Y79.232
X46.142 Y79.26
Y79.47
X46.134 Y79.488
X46.116 Y79.496
X41.367
X41.349 Y79.488
X41.341 Y79.47
Y78.139
X41.349 Y78.101
X41.371 Y78.069
X42.092 Y77.352
X42.111 Y77.33
X42.303 Y77.059
X42.327 Y77.013
X42.43 Y76.705
X42.437 Y76.677
X42.439 Y76.649
Y76.278
X42.437 Y76.253
X42.118 Y74.084
X42.112 Y74.055
X42.009 Y73.74
X41.998 Y73.715
X41.984 Y73.692
X41.78 Y73.41
X41.763 Y73.39
G2 X41.559 Y73.184 I-16.728 J16.388
G3 X41.354 Y72.978 I16.523 J-16.594
G1 X41.33 Y72.942
X41.32 Y72.9
X41.059 Y69.214
X41.066 Y69.197
X41.083 Y69.189
X46.001
X46.018 Y69.197
X46.025 Y69.214
X45.777 Y72.713
X45.767 Y72.755
X45.742 Y72.791
G3 X45.509 Y73.029 I-22.045 J-21.439
G2 X45.276 Y73.266 I21.812 J21.676
G1 X45.253 Y73.294
X45.023 Y73.657
X45.008 Y73.689
X44.998 Y73.723
G2 X44.861 Y74.64 I28.207 J4.695
G1 X44.737 Y75.569
G2 X44.726 Y75.833 I1.468 J0.196
G3 X44.737 Y76.097 I-40.857 J1.894
G1 X44.742 Y76.129
X44.752 Y76.16
X44.919 Y76.544
X44.934 Y76.571
X45.543 Y77.488
X45.565 Y77.515
X46.117 Y78.066
X46.138 Y78.098
X46.146 Y78.137
X46.142 Y79.26
X46.148 Y79.288
X46.164 Y79.312
X46.188 Y79.329
X46.212 Y79.345
X46.228 Y79.369
X46.234 Y79.398
X46.233 Y79.549
X46.228 Y79.568
X46.214 Y79.582
X46.195 Y79.588
X41.288
X41.269 Y79.582
X41.255 Y79.568
X41.25 Y79.549
Y78.122
X41.255 Y78.083
X41.27 Y78.047
X41.293 Y78.016
G3 X41.661 Y77.652 I35.059 J35.013
G2 X42.028 Y77.288 I-34.691 J-35.377
G1 X42.037 Y77.277
X42.23 Y77.007
X42.242 Y76.984
X42.345 Y76.676
X42.349 Y76.649
X42.352 Y76.461
X42.353 Y76.366
X42.349 Y76.272
X42.348 Y76.266
X42.029 Y74.097
X42.026 Y74.083
X41.923 Y73.768
X41.911 Y73.744
X41.707 Y73.463
X41.699 Y73.453
G2 X41.49 Y73.244 I-11.582 J11.347
G3 X41.281 Y73.034 I11.373 J-11.556
G1 X41.255 Y73.
X41.237 Y72.96
X41.229 Y72.918
X40.962 Y69.135
X40.965 Y69.116
X40.978 Y69.103
X40.997 Y69.097
X46.087
X46.105 Y69.103
X46.118 Y69.116
X46.122 Y69.135
X45.868 Y72.73
X45.86 Y72.773
X45.842 Y72.813
X45.816 Y72.848
G3 X45.578 Y73.088 I-15.177 J-14.76
G2 X45.34 Y73.329 I14.939 J15.
G1 X45.329 Y73.343
X45.099 Y73.706
X45.087 Y73.737
G2 X44.95 Y74.652 I28.118 J4.68
G1 X44.826 Y75.581
G2 X44.816 Y75.837 I1.403 J0.187
G3 X44.827 Y76.093 I-27.676 J1.36
G1 X44.834 Y76.124
X45.001 Y76.508
X45.009 Y76.521
X45.618 Y77.438
X45.629 Y77.451
G2 X45.91 Y77.731 I20.728 J-20.56
G3 X46.192 Y78.011 I-20.446 J20.84
G1 X46.217 Y78.044
X46.232 Y78.082
X46.238 Y78.123
X46.234 Y79.398
X46.239 Y79.423
X46.253 Y79.444
X46.274 Y79.458
X46.295 Y79.473
X46.309 Y79.494
X46.314 Y79.519
Y79.602
X46.309 Y79.651
X46.286 Y79.668
X41.193
X41.169 Y79.651
Y78.038
X41.179 Y78.017
X41.967 Y77.227
X42.16 Y76.957
X42.263 Y76.649
Y76.278
X41.944 Y74.11
X41.841 Y73.795
X41.638 Y73.513
X41.155 Y73.021
X40.874 Y69.038
X40.899 Y69.017
X46.195
X46.21 Y69.038
X45.941 Y72.834
X45.402 Y73.389
X45.172 Y73.752
X45.096 Y74.206
X44.912 Y75.592
X44.898 Y75.722
X44.913 Y76.09
X45.08 Y76.474
X45.69 Y77.391
X46.311 Y78.017
X46.319 Y78.06
X46.314 Y79.519
Z-0.82
G0 Z5.
X50.88 Y73.58
Z-0.208
G1 X53.77 Y76.47 Z-0.351 F17.
X53.783 Y76.492
Y76.518
X53.77 Y76.54
X53.748 Y76.553
X53.722
X53.699 Y76.54
X48.418 Y71.259 Z-0.612
X48.405 Y71.237
Y71.211
X48.418 Y71.189
X48.441 Y71.176
X48.466
X48.489 Y71.189
X53.77 Y76.47 Z-0.873
X53.783 Y76.492
Y76.518
X53.77 Y76.54
X53.748 Y76.553
X53.722
X53.699 Y76.54
X48.418 Y71.259 Z-1.133
X48.405 Y71.237
Y71.211
X48.418 Y71.189
X48.441 Y71.176
X48.466
X48.489 Y71.189
X51.016 Y73.716 Z-1.258
X51.005 Y73.751
X51. Y73.768 F200.
X50.983 Y73.776
X50.969 Y73.774
X50.959 Y73.765
X50.957 Y73.751
X50.967 Y73.661
X50.974 Y73.57
X50.99
X50.997 Y73.661
X51.005 Y73.751
X51.016 Y73.782
X51.038 Y73.807
X51.05 Y73.823
Y73.844
X51.038 Y73.861
X51.018 Y73.868
X50.884 Y73.867
X50.866 Y73.862
X50.855 Y73.849
X50.852 Y73.831
G2 X50.902 Y73.362 I-4.157 J-0.677
G3 X50.93 Y72.892 I22.324 J1.108
G1 X50.937 Y72.872
X50.952 Y72.858
X50.972 Y72.853
X50.991
X51.011 Y72.858
X51.026 Y72.872
X51.033 Y72.892
G3 X51.062 Y73.362 I-22.558 J1.628
G2 X51.108 Y73.831 I4.974 J-0.255
G1 X51.106 Y73.849
X51.094 Y73.863
X51.077 Y73.868
X51.018
X50.99 Y73.873
X50.967 Y73.888
X50.951 Y73.912
X50.936 Y73.935
X50.913 Y73.95
X50.885 Y73.956
X50.796
X50.781 Y73.953
X50.763 Y73.947
X50.75 Y73.935
X50.747 Y73.918
X50.778 Y73.747
X50.797 Y73.574
X50.849 Y72.79
X50.858 Y72.772
X50.877 Y72.765
X51.086
X51.105 Y72.772
X51.114 Y72.79
X51.17 Y73.621
X51.187 Y73.768
X51.211 Y73.913
X51.208 Y73.934
X51.191 Y73.948
X51.174 Y73.954
X51.16 Y73.956
X50.885
X50.857 Y73.962
X50.835 Y73.978
X50.82 Y74.003
X50.804 Y74.028
X50.778 Y74.041
X50.749 Y74.039
X50.668 Y74.012
X50.652 Y74.002
X50.643 Y73.986
X50.642 Y73.967
G2 X50.727 Y73.342 I-3.352 J-0.772
G3 X50.763 Y72.712 I22.561 J0.964
G1 X50.769 Y72.692
X50.784 Y72.678
X50.804 Y72.673
X51.159
X51.179 Y72.678
X51.194 Y72.692
X51.2 Y72.712
G3 X51.236 Y73.34 I-21.06 J1.52
G2 X51.315 Y73.964 I3.792 J-0.16
G1 X51.314 Y73.985
X51.304 Y74.003
X51.286 Y74.014
X51.202 Y74.041
X51.162 Y74.048
X50.793 Y74.047
X50.753 Y74.04
X50.749 Y74.039
X50.721 Y74.035
X50.693 Y74.042
X50.671 Y74.059
X50.649 Y74.077
X50.621 Y74.084
X50.593 Y74.082
X50.552 Y74.07
X50.537 Y74.059
X50.534 Y74.04
X50.542 Y74.012
X50.549 Y73.984
X50.573 Y73.879
X50.593 Y73.774
X50.608 Y73.668
X50.618 Y73.561
X50.681 Y72.61
X50.69 Y72.592
X50.709 Y72.585
X51.254
X51.273 Y72.592
X51.282 Y72.61
X51.35 Y73.608
X51.361 Y73.717
X51.377 Y73.825
X51.423 Y74.039
X51.42 Y74.059
X51.404 Y74.071
X51.316 Y74.097
X51.228 Y74.125
X51.197 Y74.133
X51.165 Y74.136
X50.79
X50.758 Y74.133
X50.727 Y74.125
X50.593 Y74.082
X50.563 Y74.079
X50.534 Y74.088
X50.51 Y74.107
X50.49 Y74.12
X50.467 Y74.121
X50.446 Y74.11
X50.433 Y74.09
Y74.066
X50.444 Y74.028
X50.463 Y73.963
X50.485 Y73.862
X50.504 Y73.76
X50.518 Y73.658
X50.528 Y73.555
G2 X50.561 Y73.043 I-48.552 J-3.437
G3 X50.595 Y72.532 I48.585 J2.925
G1 X50.602 Y72.512
X50.617 Y72.498
X50.637 Y72.493
X51.326
X51.346 Y72.498
X51.361 Y72.512
X51.368 Y72.532
G3 X51.404 Y73.067 I-53.083 J3.831
G2 X51.44 Y73.601 I53.119 J-3.296
G1 X51.45 Y73.707
X51.466 Y73.812
X51.51 Y74.019
X51.52 Y74.055
X51.531 Y74.092
Y74.112
X51.52 Y74.129
X51.503 Y74.139
X51.38 Y74.173
X51.259 Y74.212
X51.212 Y74.224
X51.164 Y74.228
X50.791 Y74.227
X50.743 Y74.223
X50.696 Y74.211
G2 X50.454 Y74.14 I-0.804 J2.283
G1 X50.437 Y74.13
X50.426 Y74.114
Y74.094
X50.433 Y74.066
X50.435 Y74.038
X50.427 Y74.012
X50.408 Y73.991
X50.39 Y73.971
X50.381 Y73.945
X50.382 Y73.917
G2 X50.438 Y73.548 I-2.274 J-0.534
G1 X50.514 Y72.43
X50.523 Y72.412
X50.542 Y72.405
X51.421
X51.44 Y72.412
X51.449 Y72.43
X51.53 Y73.595
G2 X51.594 Y73.998 I2.33 J-0.168
G1 X51.618 Y74.084
X51.642 Y74.171
X51.639 Y74.19
X51.623 Y74.201
G2 X51.261 Y74.305 I0.599 J2.773
G1 X51.229 Y74.313
X51.196 Y74.316
X50.759 Y74.315
X50.726 Y74.313
X50.693 Y74.304
G2 X50.335 Y74.204 I-0.801 J2.19
G1 X50.323 Y74.198
X50.316 Y74.187
Y74.174
X50.346 Y74.057
X50.376 Y73.941
X50.382 Y73.917
X50.383 Y73.888
X50.373 Y73.86
X50.353 Y73.838
X50.332 Y73.816
X50.321 Y73.788
Y73.759
X50.338 Y73.651
X50.348 Y73.542
X50.427 Y72.352
X50.434 Y72.332
X50.449 Y72.318
X50.469 Y72.313
X51.494
X51.514 Y72.318
X51.529 Y72.332
X51.535 Y72.352
X51.619 Y73.588
G2 X51.672 Y73.915 I1.887 J-0.136
G1 X51.752 Y74.232
X51.751 Y74.25
X51.741 Y74.266
X51.724 Y74.275
X51.614 Y74.297
X51.506 Y74.324
X51.398 Y74.355
X51.292 Y74.391
X51.244 Y74.404
X51.195 Y74.408
X50.759 Y74.407
X50.71 Y74.403
X50.661 Y74.39
X50.486 Y74.333
X50.396 Y74.309
X50.306 Y74.29
X50.27 Y74.284
X50.234 Y74.279
X50.217 Y74.27
X50.207 Y74.254
X50.206 Y74.235
G3 X50.292 Y73.892 I40.695 J10.008
G1 X50.321 Y73.759
X50.32 Y73.73
X50.309 Y73.704
X50.288 Y73.684
X50.267 Y73.665
X50.254 Y73.64
X50.252 Y73.612
X50.259 Y73.536
X50.346 Y72.25
X50.355 Y72.232
X50.374 Y72.225
X51.589
X51.608 Y72.232
X51.617 Y72.25
X51.709 Y73.582
G2 X51.773 Y73.969 I2.13 J-0.154
G1 X51.864 Y74.318
X51.861 Y74.336
X51.846 Y74.345
G2 X51.588 Y74.393 I0.277 J2.194
X51.336 Y74.469 I0.678 J2.721
G1 X51.258 Y74.489
X51.177 Y74.496
X50.776 Y74.495
X50.696 Y74.488
X50.618 Y74.468
G2 X50.368 Y74.395 I-0.731 J2.04
X50.112 Y74.348 I-0.717 J3.152
G1 X50.097 Y74.338
X50.094 Y74.32
G2 X50.195 Y73.932 I-57.641 J-15.141
X50.252 Y73.612 I-2.168 J-0.554
G1 X50.249 Y73.583
X50.236 Y73.557
X50.213 Y73.539
X50.191 Y73.521
X50.177 Y73.496
X50.173 Y73.468
X50.26 Y72.172
X50.266 Y72.152
X50.281 Y72.138
X50.301 Y72.133
X51.661
X51.681 Y72.138
X51.696 Y72.152
X51.703 Y72.172
X51.799 Y73.576
G2 X51.866 Y73.987 I2.324 J-0.168
X51.98 Y74.388 I7.787 J-1.999
G1 Y74.406
X51.971 Y74.42
X51.954 Y74.426
G2 X51.636 Y74.476 I0.165 J2.101
X51.328 Y74.57 I0.583 J2.474
G1 X51.278 Y74.583
X51.227 Y74.588
X50.727 Y74.587
X50.675 Y74.582
X50.625 Y74.568
G2 X50.319 Y74.477 I-0.779 J2.046
X50.004 Y74.427 I-0.571 J2.578
G1 X49.988 Y74.42
X49.979 Y74.406
Y74.388
G2 X50.06 Y74.098 I-4.648 J-1.454
G1 X50.114 Y73.877
G2 X50.169 Y73.529 I-2.006 J-0.493
G1 X50.173 Y73.468
X50.169 Y73.439
X50.155 Y73.415
X50.133 Y73.397
X50.11 Y73.38
X50.096 Y73.355
X50.092 Y73.327
X50.178 Y72.07
X50.187 Y72.052
X50.206 Y72.045
X51.756
X51.775 Y72.052
X51.784 Y72.07
X51.889 Y73.569
G2 X51.943 Y73.91 I1.971 J-0.142
G1 X52.031 Y74.256
X52.065 Y74.372
X52.107 Y74.485
X52.105 Y74.501
X52.091 Y74.508
G2 X51.724 Y74.548 I0.024 J1.966
X51.368 Y74.649 I0.484 J2.378
G1 X51.293 Y74.669
X51.215 Y74.676
X50.737 Y74.675
X50.66 Y74.668
X50.586 Y74.648
G2 X49.868 Y74.507 I-0.783 J2.086
G1 X49.854 Y74.499
X49.853 Y74.483
G2 X49.945 Y74.19 I-2.258 J-0.871
G1 X50.027 Y73.855
G2 X50.079 Y73.523 I-1.919 J-0.472
G1 X50.092 Y73.327
X50.089 Y73.299
X50.075 Y73.274
X50.052 Y73.256
X50.029 Y73.239
X50.015 Y73.214
X50.012 Y73.186
X50.092 Y71.992
X50.098 Y71.972
X50.114 Y71.958
X50.134 Y71.953
X51.829
X51.849 Y71.958
X51.864 Y71.972
X51.87 Y71.992
X51.978 Y73.563
G2 X52.031 Y73.888 I1.881 J-0.136
G1 X52.118 Y74.234
X52.143 Y74.321
X52.173 Y74.406
X52.244 Y74.571
X52.245 Y74.586
X52.237 Y74.599
X52.222 Y74.603
G2 X51.905 Y74.609 I-0.119 J2.089
X51.594 Y74.668 I0.162 J1.705
G1 X51.512 Y74.695
X51.416 Y74.729
X51.343 Y74.751
X51.268 Y74.764
X51.191 Y74.768
X50.76 Y74.767
X50.684 Y74.763
X50.61 Y74.75
X50.537 Y74.728
G2 X50.144 Y74.625 I-0.748 J2.049
X49.739 Y74.598 I-0.334 J2.02
G1 X49.725 Y74.594
X49.716 Y74.581
X49.718 Y74.566
G2 X49.846 Y74.205 I-1.884 J-0.876
X49.939 Y73.834 I-39.549 J-10.12
X49.989 Y73.517 I-1.831 J-0.45
G1 X50.012 Y73.186
X50.008 Y73.158
X49.994 Y73.133
X49.971 Y73.116
X49.949 Y73.099
X49.935 Y73.074
X49.931 Y73.046
X50.011 Y71.89
X50.019 Y71.872
X50.038 Y71.865
X51.924
X51.943 Y71.872
X51.952 Y71.89
X52.068 Y73.556
G2 X52.122 Y73.887 I1.856 J-0.134
G3 X52.205 Y74.212 I-56.994 J14.707
G2 X52.288 Y74.457 I1.588 J-0.4
X52.405 Y74.688 I1.823 J-0.782
G1 Y74.702
X52.393 Y74.708
X52.353 Y74.702
X52.314 Y74.697
G2 X51.619 Y74.755 I-0.2 J1.799
G1 X51.509 Y74.789
X51.4 Y74.829
X51.329 Y74.849
X51.255 Y74.856
X50.696 Y74.855
X50.623 Y74.848
X50.552 Y74.828
G2 X50.069 Y74.702 I-0.758 J1.914
X49.57 Y74.701 I-0.252 J1.869
G1 X49.558 Y74.695
X49.557 Y74.681
G2 X49.674 Y74.449 I-1.708 J-1.004
X49.756 Y74.202 I-1.51 J-0.638
G3 X49.843 Y73.859 I29.795 J7.327
G2 X49.9 Y73.51 I-1.884 J-0.486
G1 X49.931 Y73.046
X49.928 Y73.017
X49.914 Y72.993
X49.891 Y72.975
X49.868 Y72.958
X49.854 Y72.933
X49.85 Y72.904
X49.924 Y71.812
X49.931 Y71.792
X49.946 Y71.778
X49.966 Y71.773
X51.996
X52.016 Y71.778
X52.031 Y71.792
X52.038 Y71.812
X52.158 Y73.55
G2 X52.211 Y73.873 I1.79 J-0.129
G3 X52.292 Y74.19 I-39.959 J10.407
G2 X52.393 Y74.474 I1.569 J-0.395
X52.542 Y74.736 I1.634 J-0.756
G1 X52.566 Y74.768
X52.589 Y74.801
X52.592 Y74.814
X52.585 Y74.825
X52.571 Y74.828
G2 X52.107 Y74.778 I-0.486 J2.331
X51.644 Y74.841 I-0.014 J1.622
G1 X51.545 Y74.873
X51.448 Y74.909
X51.379 Y74.931
X51.307 Y74.944
X51.235 Y74.948
X50.716 Y74.947
X50.644 Y74.943
X50.573 Y74.93
X50.504 Y74.908
G2 X50.021 Y74.786 I-0.738 J1.914
X49.522 Y74.797 I-0.214 J1.705
G1 X49.454 Y74.81
X49.385 Y74.826
X49.373 Y74.823
X49.367 Y74.813
X49.369 Y74.802
X49.393 Y74.768
X49.418 Y74.735
G2 X49.568 Y74.469 I-1.482 J-1.014
X49.669 Y74.181 I-1.475 J-0.676
G3 X49.754 Y73.845 I24.577 J6.044
G2 X49.81 Y73.504 I-1.82 J-0.474
G1 X49.85 Y72.904
X49.847 Y72.876
X49.833 Y72.852
X49.81 Y72.834
X49.788 Y72.817
X49.774 Y72.793
X49.77 Y72.765
X49.843 Y71.71
X49.852 Y71.692
X49.871 Y71.685
X52.091
X52.11 Y71.692
X52.119 Y71.71
X52.248 Y73.543
G2 X52.3 Y73.858 I1.725 J-0.125
G3 X52.38 Y74.168 I-30.086 J7.911
G2 X52.614 Y74.686 I1.567 J-0.395
G1 X52.713 Y74.829
X52.813 Y74.971
X52.801 Y74.987
X52.704 Y74.953
X52.605 Y74.924
X52.505 Y74.902
X52.403 Y74.887
X52.294 Y74.875
G2 X51.856 Y74.888 I-0.173 J1.556
X51.435 Y75.009 I0.336 J1.956
G1 X51.368 Y75.029
X51.298 Y75.036
X50.653 Y75.035
X50.583 Y75.028
X50.517 Y75.008
G2 X50.036 Y74.876 I-0.738 J1.756
X49.537 Y74.884 I-0.224 J1.644
G1 X49.441 Y74.903
X49.346 Y74.925
X49.252 Y74.952
X49.16 Y74.984
X49.148 Y74.969
X49.247 Y74.827
X49.346 Y74.686
G2 X49.581 Y74.159 I-1.334 J-0.913
G3 X49.665 Y73.831 I20.647 J5.077
G2 X49.72 Y73.498 I-1.758 J-0.462
G1 X49.77 Y72.765
X49.767 Y72.736
X49.752 Y72.711
X49.73 Y72.694
X49.707 Y72.676
X49.693 Y72.651
X49.689 Y72.623
X49.756 Y71.632
X49.763 Y71.612
X49.778 Y71.598
X49.798 Y71.593
X52.164
X52.184 Y71.598
X52.199 Y71.612
X52.205 Y71.632
X52.337 Y73.537
G2 X52.389 Y73.844 I1.661 J-0.12
G3 X52.467 Y74.146 I-23.659 J6.283
G2 X52.652 Y74.571 I1.387 J-0.349
X52.908 Y74.958 I13.904 J-8.962
G1 X52.961 Y75.025
X53.022 Y75.095
X53.026 Y75.108
X53.02 Y75.121
X53.007 Y75.126
X52.901
X52.88 Y75.121
G2 X52.643 Y75.028 I-0.75 J1.572
X52.393 Y74.976 I-0.399 J1.294
X52.042 Y74.961 I-0.29 J2.6
X51.694 Y75.014 I0.033 J1.377
G1 X51.587 Y75.049
X51.482 Y75.089
X51.417 Y75.111
X51.349 Y75.124
X51.281 Y75.128
X50.669 Y75.127
X50.601 Y75.123
X50.534 Y75.109
X50.47 Y75.088
G2 X50.019 Y74.966 I-0.704 J1.714
X49.552 Y74.973 I-0.211 J1.53
X49.306 Y75.031 I0.328 J1.952
X49.07 Y75.124 I0.456 J1.502
G1 X49.048 Y75.129
X48.948
X48.935 Y75.124
X48.929 Y75.111
X48.934 Y75.098
G2 X49.103 Y74.881 I-1.662 J-1.471
G1 X49.271 Y74.635
G2 X49.471 Y74.206 I-1.183 J-0.809
X49.59 Y73.748 I-16.694 J-4.593
X49.63 Y73.491 I-1.482 J-0.364
G1 X49.689 Y72.623
X49.686 Y72.595
X49.672 Y72.57
X49.649 Y72.553
X49.627 Y72.536
X49.613 Y72.511
X49.609 Y72.483
X49.675 Y71.53
X49.684 Y71.512
X49.703 Y71.505
X52.259
X52.278 Y71.512
X52.286 Y71.53
X52.427 Y73.53
G2 X52.478 Y73.83 I1.597 J-0.115
G3 X52.554 Y74.124 I-19.154 J5.14
G2 X52.762 Y74.585 I1.392 J-0.351
G3 X52.946 Y74.859 I-15.812 J10.831
G2 X53.155 Y75.114 I1.344 J-0.887
G1 X53.198 Y75.154
X53.242 Y75.195
X53.233 Y75.215
X52.902 Y75.214
X52.871 Y75.21
X52.841 Y75.2
X52.731 Y75.152
X52.618 Y75.114
X52.502 Y75.084
X52.383 Y75.066
X52.274 Y75.053
G2 X51.864 Y75.068 I-0.156 J1.397
X51.472 Y75.189 I0.319 J1.734
G1 X51.409 Y75.209
X51.343 Y75.216
X50.607 Y75.215
X50.542 Y75.208
X50.479 Y75.188
G2 X50.032 Y75.057 I-0.694 J1.544
X49.567 Y75.062 I-0.218 J1.477
G1 X49.449 Y75.085
X49.333 Y75.116
X49.22 Y75.154
X49.11 Y75.202
X49.079 Y75.213
X49.047 Y75.217
X48.723 Y75.218
X48.715 Y75.198
X48.766 Y75.148
X48.817 Y75.099
G2 X49.019 Y74.85 I-1.161 J-1.146
G3 X49.197 Y74.584 I14.978 J9.864
G2 X49.407 Y74.116 I-1.185 J-0.811
G3 X49.487 Y73.803 I15.142 J3.724
G2 X49.54 Y73.485 I-1.634 J-0.438
G1 X49.609 Y72.483
X49.606 Y72.455
X49.592 Y72.43
X49.569 Y72.412
X49.546 Y72.395
X49.532 Y72.37
X49.528 Y72.341
X49.589 Y71.452
X49.595 Y71.432
X49.61 Y71.418
X49.631 Y71.413
X52.331
X52.351 Y71.418
X52.366 Y71.432
X52.373 Y71.452
X52.517 Y73.524
G2 X52.567 Y73.816 I1.534 J-0.111
G3 X52.642 Y74.102 I-15.83 J4.294
G2 X52.816 Y74.497 I1.25 J-0.315
X53.057 Y74.856 I21.096 J-13.926
G1 X53.13 Y74.952
X53.213 Y75.04
X53.386 Y75.208
X53.396 Y75.226
Y75.245
X53.386 Y75.262
X53.361 Y75.287
X53.339 Y75.302
X53.313 Y75.307
X52.897 Y75.306
X52.85 Y75.3
X52.805 Y75.284
X52.701 Y75.239
X52.595 Y75.201
X52.485 Y75.173
X52.373 Y75.155
G2 X52.057 Y75.14 I-0.274 J2.463
X51.743 Y75.187 I0.021 J1.208
G1 X51.629 Y75.225
X51.518 Y75.269
X51.457 Y75.291
X51.394 Y75.304
X51.33 Y75.308
X50.619 Y75.307
X50.556 Y75.303
X50.493 Y75.289
X50.433 Y75.268
G2 X49.788 Y75.134 I-0.633 J1.435
X49.147 Y75.287 I0.012 J1.476
G1 X49.1 Y75.303
X49.052 Y75.309
X48.642 Y75.31
X48.616 Y75.305
X48.594 Y75.29
X48.57 Y75.267
X48.561 Y75.25
Y75.23
X48.57 Y75.213
X48.746 Y75.039
X48.831 Y74.949
X48.906 Y74.85
G2 X49.147 Y74.491 I-17.76 J-12.156
X49.319 Y74.095 I-1.072 J-0.703
G3 X49.398 Y73.789 I13.148 J3.233
G2 X49.451 Y73.479 I-1.573 J-0.426
G1 X49.528 Y72.341
X49.525 Y72.313
X49.511 Y72.289
X49.488 Y72.272
X49.466 Y72.254
X49.452 Y72.23
X49.449 Y72.202
X49.507 Y71.35
X49.516 Y71.332
X49.535 Y71.325
X52.426
X52.445 Y71.332
X52.454 Y71.35
X52.607 Y73.517
G2 X52.655 Y73.801 I1.471 J-0.106
G3 X52.729 Y74.08 I-13.283 J3.644
G2 X52.898 Y74.46 I1.183 J-0.298
X53.131 Y74.805 I31.463 J-21.047
X53.3 Y75.003 I1.021 J-0.699
G3 X53.487 Y75.185 I-7.89 J8.309
G1 X53.498 Y75.2
X53.504 Y75.219
X53.505 Y75.227
X53.502 Y75.26
X53.485 Y75.288
X53.406 Y75.367
X53.374 Y75.388
X53.336 Y75.395
X52.891 Y75.394
X52.829 Y75.387
X52.771 Y75.366
X52.673 Y75.323
X52.572 Y75.288
X52.469 Y75.261
X52.364 Y75.245
X52.255 Y75.232
G2 X51.873 Y75.249 I-0.138 J1.239
X51.511 Y75.369 I0.301 J1.51
G1 X51.452 Y75.389
X51.391 Y75.396
X50.558 Y75.395
X50.497 Y75.388
X50.439 Y75.368
X50.342 Y75.326
X50.242 Y75.292
X50.14 Y75.265
X50.037 Y75.244
G2 X49.598 Y75.236 I-0.242 J1.287
X49.18 Y75.369 I0.212 J1.394
G1 X49.122 Y75.39
X49.06 Y75.397
X48.618 Y75.398
X48.58 Y75.391
X48.548 Y75.369
X48.463 Y75.283
X48.448 Y75.26
X48.446 Y75.233
X48.451 Y75.213
X48.463 Y75.197
G3 X48.656 Y75.006 I6.7 J6.613
G2 X48.832 Y74.8 I-0.905 J-0.946
X49.064 Y74.454 I-24.681 J-16.893
X49.232 Y74.073 I-1.01 J-0.671
G1 X49.328 Y73.683
X49.349 Y73.579
X49.361 Y73.472
X49.449 Y72.202
X49.445 Y72.174
X49.431 Y72.149
X49.408 Y72.131
X49.385 Y72.113
X49.371 Y72.088
X49.367 Y72.06
X49.421 Y71.272
X49.428 Y71.252
X49.443 Y71.238
X49.463 Y71.233
X52.498
X52.519 Y71.238
X52.534 Y71.252
X52.54 Y71.272
X52.696 Y73.511
G2 X52.744 Y73.787 I1.409 J-0.102
G3 X52.816 Y74.058 I-11.275 J3.13
G2 X52.985 Y74.432 I1.131 J-0.285
G1 X53.205 Y74.754
G2 X53.369 Y74.944 I0.935 J-0.64
G3 X53.549 Y75.117 I-5.1 J5.487
G1 X53.571 Y75.144
X53.587 Y75.175
X53.595 Y75.209
X53.6 Y75.242
Y75.275
X53.589 Y75.306
X53.57 Y75.333
X53.458 Y75.444
X53.428 Y75.468
X53.392 Y75.482
X53.353 Y75.487
X52.899 Y75.486
X52.839 Y75.481
X52.781 Y75.467
X52.725 Y75.446
X52.636 Y75.407
X52.544 Y75.374
X52.45 Y75.349
X52.354 Y75.334
G2 X52.072 Y75.32 I-0.261 J2.344
X51.793 Y75.36 I0.009 J1.041
X51.556 Y75.449 I0.44 J1.53
G1 X51.5 Y75.471
X51.442 Y75.484
X51.381 Y75.488
X50.568 Y75.487
X50.508 Y75.483
X50.449 Y75.469
X50.393 Y75.447
G2 X49.811 Y75.314 I-0.59 J1.233
X49.228 Y75.447 I-0.007 J1.305
G1 X49.171 Y75.47
X49.111 Y75.484
X49.049 Y75.489
X48.6 Y75.49
X48.562 Y75.485
X48.526 Y75.47
X48.496 Y75.447
X48.376 Y75.327
X48.36 Y75.304
X48.351 Y75.278
Y75.251
X48.356 Y75.209
X48.368 Y75.171
X48.39 Y75.14
G3 X48.582 Y74.952 I4.748 J4.687
G2 X48.757 Y74.749 I-0.839 J-0.898
X48.982 Y74.418 I-45.541 J-31.171
X49.144 Y74.052 I-0.948 J-0.639
G3 X49.22 Y73.761 I10.103 J2.484
G2 X49.271 Y73.466 I-1.453 J-0.402
G1 X49.367 Y72.06
X49.364 Y72.032
X49.35 Y72.008
X49.327 Y71.99
X49.305 Y71.973
X49.291 Y71.949
X49.288 Y71.921
X49.34 Y71.17
X49.349 Y71.152
X49.368 Y71.145
X52.594
X52.613 Y71.152
X52.621 Y71.17
X52.786 Y73.504
X52.797 Y73.598
X52.816 Y73.69
G2 X52.907 Y74.046 I69.246 J-17.449
X53.059 Y74.381 I1.027 J-0.265
G1 X53.28 Y74.703
G2 X53.449 Y74.899 I0.962 J-0.659
G3 X53.636 Y75.079 I-5.086 J5.486
G1 X53.663 Y75.117
X53.678 Y75.162
X53.696 Y75.291
X53.693 Y75.324
X53.676 Y75.352
X53.48 Y75.547
X53.448 Y75.568
X53.41 Y75.576
X52.841 Y75.574
X52.781 Y75.566
X52.725 Y75.545
X52.635 Y75.501
X52.54 Y75.466
X52.443 Y75.44
X52.344 Y75.423
X52.235 Y75.411
G2 X51.885 Y75.429 I-0.12 J1.079
X51.555 Y75.548 I0.279 J1.288
G1 X51.499 Y75.569
X51.44 Y75.576
X50.51 Y75.575
X50.45 Y75.568
X50.393 Y75.546
X50.32 Y75.511
X50.246 Y75.48
X50.169 Y75.455
X50.091 Y75.437
X49.975 Y75.418
X49.859 Y75.406
X49.743 Y75.405
X49.627 Y75.417
X49.528 Y75.437
X49.43 Y75.462
X49.335 Y75.495
X49.243 Y75.538
X49.235 Y75.542
X49.227 Y75.547
X49.168 Y75.569
X49.105 Y75.577
X48.543 Y75.578
X48.505 Y75.571
X48.473 Y75.549
X48.273 Y75.348
X48.258 Y75.324
X48.256 Y75.297
X48.272 Y75.176
X48.285 Y75.131
X48.313 Y75.093
G3 X48.507 Y74.904 I4.901 J4.838
G2 X48.683 Y74.698 I-0.851 J-0.909
G1 X48.9 Y74.381
G2 X49.057 Y74.03 I-0.888 J-0.608
G1 X49.153 Y73.64
X49.171 Y73.551
X49.181 Y73.459
X49.288 Y71.921
X49.284 Y71.892
X49.27 Y71.867
X49.247 Y71.85
X49.224 Y71.832
X49.21 Y71.807
X49.206 Y71.778
X49.253 Y71.092
X49.26 Y71.072
X49.275 Y71.058
X49.295 Y71.053
X52.666
X52.686 Y71.058
X52.701 Y71.072
X52.708 Y71.092
X52.876 Y73.498
G2 X52.922 Y73.758 I1.288 J-0.093
G3 X52.991 Y74.014 I-8.326 J2.371
G2 X53.144 Y74.349 I0.987 J-0.249
G3 X53.354 Y74.652 I-28.928 J20.262
G2 X53.521 Y74.843 I0.893 J-0.612
G3 X53.705 Y75.018 I-3.642 J4.024
G1 X53.734 Y75.055
X53.756 Y75.097
X53.768 Y75.143
X53.79 Y75.299
Y75.336
X53.778 Y75.372
X53.756 Y75.402
X53.532 Y75.624
X53.502 Y75.648
X53.466 Y75.663
X53.427 Y75.668
X52.849 Y75.665
X52.79 Y75.66
X52.732 Y75.646
X52.677 Y75.623
X52.595 Y75.584
X52.51 Y75.552
X52.423 Y75.528
X52.334 Y75.513
X52.211 Y75.503
X52.087 Y75.499
X52.005 Y75.503
X51.923 Y75.514
X51.843 Y75.533
X51.721 Y75.574
X51.603 Y75.627
X51.548 Y75.65
X51.49 Y75.663
X51.431 Y75.668
X50.519 Y75.667
X50.459 Y75.662
X50.4 Y75.648
X50.344 Y75.624
G2 X49.28 Y75.623 I-0.534 J1.027
G1 X49.22 Y75.648
X49.158 Y75.663
X49.093 Y75.669
X48.526 Y75.67
X48.487 Y75.665
X48.452 Y75.65
X48.421 Y75.627
X48.186 Y75.391
X48.17 Y75.369
X48.161 Y75.343
Y75.315
X48.181 Y75.158
X48.193 Y75.112
X48.213 Y75.07
X48.243 Y75.033
G3 X48.434 Y74.848 I3.743 J3.695
G2 X48.609 Y74.647 I-0.785 J-0.858
G3 X48.818 Y74.344 I38.8 J26.557
G2 X48.97 Y74.009 I-0.828 J-0.576
G3 X49.042 Y73.733 I7.904 J1.944
G2 X49.092 Y73.453 I-1.335 J-0.378
G1 X49.206 Y71.778
X49.203 Y71.75
X49.189 Y71.726
X49.167 Y71.709
X49.145 Y71.692
X49.131 Y71.667
X49.127 Y71.64
X49.172 Y70.99
X49.181 Y70.972
X49.2 Y70.965
X52.761
X52.78 Y70.972
X52.789 Y70.99
X52.966 Y73.491
X52.975 Y73.569
X52.991 Y73.646
G3 X53.071 Y73.972 I-29.476 J7.427
G2 X53.208 Y74.28 I0.901 J-0.217
G1 X53.428 Y74.602
X53.479 Y74.669
X53.536 Y74.731
X53.67 Y74.862
X53.805 Y74.993
X53.833 Y75.032
X53.847 Y75.077
X53.884 Y75.331
X53.882 Y75.372
X53.866 Y75.41
X53.857 Y75.422
X53.84 Y75.442
X53.554 Y75.727
X53.522 Y75.749
X53.484 Y75.756
X52.78 Y75.753
X52.733 Y75.747
X52.689 Y75.73
X52.671 Y75.719
X52.654 Y75.709
X52.575 Y75.671
X52.494 Y75.64
X52.41 Y75.616
X52.324 Y75.602
X52.215 Y75.59
G2 X51.91 Y75.607 I-0.102 J0.915
X51.625 Y75.714 I0.245 J1.087
G1 X51.615 Y75.72
X51.606 Y75.725
X51.546 Y75.749
X51.483 Y75.756
X50.45 Y75.755
X50.403 Y75.749
X50.359 Y75.732
X50.337 Y75.72
X50.316 Y75.707
X50.233 Y75.668
X50.147 Y75.639
X50.059 Y75.616
X49.97 Y75.597
X49.876 Y75.585
X49.78
X49.685 Y75.592
X49.591 Y75.605
X49.522 Y75.62
X49.455 Y75.64
X49.389 Y75.666
X49.326 Y75.696
X49.303 Y75.709
X49.281 Y75.722
X49.235 Y75.741
X49.188 Y75.753
X49.139 Y75.757
X48.469 Y75.759
X48.431 Y75.751
X48.399 Y75.73
X48.09 Y75.419
X48.075 Y75.399
X48.067 Y75.376
Y75.351
X48.101 Y75.093
X48.115 Y75.048
X48.142 Y75.009
X48.287 Y74.864
X48.433 Y74.72
X48.486 Y74.66
X48.535 Y74.596
G3 X48.736 Y74.307 I17.712 J12.123
G2 X48.882 Y73.987 I-0.77 J-0.545
G1 X48.978 Y73.597
X48.993 Y73.523
X49.002 Y73.447
X49.127 Y71.64
X49.123 Y71.611
X49.109 Y71.586
X49.086 Y71.568
X49.063 Y71.551
X49.049 Y71.525
X49.045 Y71.497
X49.086 Y70.912
X49.092 Y70.892
X49.107 Y70.878
X49.127 Y70.873
X52.833
X52.854 Y70.878
X52.869 Y70.892
X52.875 Y70.912
X53.056 Y73.485
X53.071 Y73.609
X53.1 Y73.73
X53.165 Y73.97
G2 X53.308 Y74.275 I0.861 J-0.217
G3 X53.502 Y74.551 I-9.707 J7.058
G2 X53.679 Y74.75 I0.886 J-0.607
G3 X53.874 Y74.933 I-2.89 J3.286
G1 X53.904 Y74.969
X53.925 Y75.012
X53.937 Y75.058
X53.977 Y75.333
X53.978 Y75.373
X53.968 Y75.413
X53.95 Y75.45
X53.932 Y75.475
X53.907 Y75.506
X53.606 Y75.805
X53.576 Y75.828
X53.54 Y75.843
X53.501 Y75.848
X52.781 Y75.845
X52.734 Y75.841
X52.687 Y75.829
X52.644 Y75.81
X52.627 Y75.8
X52.61 Y75.79
G2 X52.225 Y75.68 I-0.434 J0.792
X51.827 Y75.725 I-0.065 J1.2
G1 X51.744 Y75.757
X51.665 Y75.797
X51.601 Y75.825
X51.534 Y75.842
X51.464 Y75.848
X50.451 Y75.847
X50.404 Y75.843
X50.358 Y75.831
X50.315 Y75.813
X50.294 Y75.8
X50.272 Y75.788
G2 X49.947 Y75.686 I-0.431 J0.801
X49.606 Y75.694 I-0.14 J1.202
G1 X49.536 Y75.71
X49.469 Y75.734
X49.34 Y75.795
X49.27 Y75.824
X49.196 Y75.842
X49.12 Y75.849
X48.451 Y75.85
X48.413 Y75.845
X48.377 Y75.831
X48.346 Y75.807
X48.022 Y75.481
X48.002 Y75.456
X47.984 Y75.421
X47.975 Y75.383
Y75.344
X48.011 Y75.074
X48.022 Y75.028
X48.043 Y74.986
X48.072 Y74.949
G3 X48.275 Y74.756 I3.177 J3.136
G2 X48.46 Y74.545 I-0.775 J-0.868
G3 X48.654 Y74.271 I10.749 J7.357
G2 X48.795 Y73.966 I-0.712 J-0.515
G1 X48.891 Y73.576
X48.904 Y73.509
X48.912 Y73.44
X49.045 Y71.497
X49.042 Y71.469
X49.028 Y71.445
X49.006 Y71.428
X48.984 Y71.41
X48.97 Y71.386
X48.966 Y71.358
X49.004 Y70.81
X49.013 Y70.792
X49.032 Y70.785
X52.928
X52.948 Y70.792
X52.956 Y70.81
X53.145 Y73.478
X53.153 Y73.54
X53.165 Y73.602
X53.252 Y73.948
G2 X53.356 Y74.178 I0.694 J-0.175
G1 X53.577 Y74.5
X53.617 Y74.554
X53.663 Y74.603
X53.819 Y74.756
X53.975 Y74.908
X54.002 Y74.946
X54.017 Y74.991
X54.072 Y75.375
X54.071 Y75.416
X54.054 Y75.453
X53.999 Y75.534
X53.976 Y75.561
X53.628 Y75.907
X53.596 Y75.929
X53.558 Y75.936
X52.734 Y75.933
X52.687 Y75.927
X52.643 Y75.91
X52.605 Y75.888
X52.568 Y75.866
X52.505 Y75.835
X52.44 Y75.81
X52.373 Y75.792
X52.304 Y75.781
X52.207 Y75.773
X52.11 Y75.768
X52.013 Y75.773
X51.918 Y75.793
X51.811 Y75.826
X51.759 Y75.845
X51.709 Y75.87
X51.659 Y75.898
X51.608 Y75.925
X51.58 Y75.931
X51.552 Y75.933
X51.408 Y75.935
X51.265 Y75.933
X50.404 Y75.935
X50.358 Y75.929
X50.314 Y75.912
X50.272 Y75.888
X50.231 Y75.864
X50.161 Y75.832
X50.088 Y75.808
X49.937 Y75.774
X49.858 Y75.764
X49.779 Y75.765
X49.699 Y75.772
X49.621 Y75.783
X49.566 Y75.794
X49.512 Y75.811
X49.46 Y75.831
X49.409 Y75.855
X49.374 Y75.875
X49.34 Y75.894
X49.285 Y75.917
X49.226 Y75.932
X49.167 Y75.937
X48.394 Y75.939
X48.356 Y75.931
X48.324 Y75.91
X47.956 Y75.539
X47.931 Y75.509
X47.897 Y75.458
X47.882 Y75.423
X47.881 Y75.385
X47.931 Y75.009
X47.944 Y74.964
X47.972 Y74.926
X48.138 Y74.759
X48.305 Y74.593
X48.348 Y74.546
X48.386 Y74.495
X48.603 Y74.178
G2 X48.707 Y73.944 I-0.591 J-0.404
G1 X48.803 Y73.554
X48.815 Y73.495
X48.822 Y73.434
X48.966 Y71.358
X48.963 Y71.33
X48.948 Y71.305
X48.925 Y71.287
X48.903 Y71.269
X48.888 Y71.244
X48.885 Y71.215
X48.918 Y70.732
X48.924 Y70.712
X48.94 Y70.698
X48.96 Y70.693
X53.001
X53.021 Y70.698
X53.036 Y70.712
X53.043 Y70.732
X53.235 Y73.472
X53.241 Y73.526
X53.252 Y73.58
X53.34 Y73.926
X53.362 Y73.997
X53.392 Y74.064
X53.43 Y74.127
X53.651 Y74.449
X53.686 Y74.496
X53.726 Y74.539
X53.885 Y74.693
X54.044 Y74.847
X54.074 Y74.884
X54.095 Y74.926
X54.107 Y74.972
X54.165 Y75.376
X54.166 Y75.417
X54.157 Y75.457
X54.138 Y75.494
X54.075 Y75.585
X54.041 Y75.626
X53.681 Y75.985
X53.65 Y76.008
X53.614 Y76.023
X53.575 Y76.028
X52.735 Y76.025
X52.687 Y76.021
X52.641 Y76.009
X52.598 Y75.99
X52.561 Y75.968
X52.524 Y75.946
G2 X52.205 Y75.858 I-0.346 J0.632
X51.877 Y75.898 I-0.04 J1.041
G1 X51.796 Y75.928
X51.721 Y75.969
X51.669 Y75.997
X51.614 Y76.015
X51.557 Y76.023
X51.413 Y76.025
X51.269 Y76.024
X50.405 Y76.027
X50.358 Y76.023
X50.312 Y76.011
X50.269 Y75.993
X50.143 Y75.926
X50.077 Y75.897
X50.008 Y75.879
X49.855 Y75.856
X49.778 Y75.853
X49.701 Y75.861
X49.573 Y75.887
X49.51 Y75.907
X49.45 Y75.934
X49.378 Y75.974
X49.305 Y76.01
X49.282 Y76.017
X49.257 Y76.02
X49.206 Y76.023
X48.998 Y76.027
X48.791
X48.584 Y76.029
X48.376 Y76.031
X48.338 Y76.026
X48.302 Y76.011
X48.272 Y75.987
X47.891 Y75.604
X47.854 Y75.559
X47.813 Y75.496
X47.796 Y75.462
X47.787 Y75.425
X47.788 Y75.386
X47.84 Y74.991
X47.852 Y74.945
X47.872 Y74.903
X47.902 Y74.866
X48.071 Y74.698
X48.241 Y74.53
X48.278 Y74.489
X48.312 Y74.444
X48.529 Y74.127
X48.567 Y74.063
X48.598 Y73.994
X48.62 Y73.923
X48.716 Y73.533
X48.726 Y73.481
X48.732 Y73.428
X48.885 Y71.215
X48.881 Y71.188
X48.867 Y71.163
X48.845 Y71.146
X48.823 Y71.129
X48.809 Y71.105
X48.806 Y71.077
X48.837 Y70.63
X48.845 Y70.612
X48.864 Y70.604
X53.096
X53.115 Y70.612
X53.124 Y70.63
X53.325 Y73.465
X53.33 Y73.512
X53.34 Y73.558
X53.427 Y73.904
X53.446 Y73.964
X53.472 Y74.022
X53.505 Y74.076
X53.725 Y74.398
X53.756 Y74.438
X53.79 Y74.475
X53.967 Y74.649
X54.144 Y74.823
X54.172 Y74.861
X54.186 Y74.906
X54.261 Y75.419
X54.259 Y75.46
X54.242 Y75.497
X54.138 Y75.65
X54.115 Y75.677
X53.702 Y76.088
X53.67 Y76.109
X53.632 Y76.117
X52.702 Y76.113
X52.668 Y76.11
X52.623 Y76.096
X52.58 Y76.077
X52.531 Y76.051
X52.482 Y76.023
X52.409 Y75.99
X52.332 Y75.97
X52.175 Y75.948
X52.106 Y75.945
X52.037 Y75.953
X51.902 Y75.984
X51.848 Y76.004
X51.796 Y76.029
X51.696 Y76.086
X51.662 Y76.1
X51.613 Y76.11
X51.562 Y76.113
X51.415 Y76.116
X51.268 Y76.114
X50.386 Y76.115
X50.356 Y76.113
X50.3 Y76.099
X50.247 Y76.076
X50.146 Y76.022
X50.088 Y75.996
X50.028 Y75.977
X49.904 Y75.951
X49.841 Y75.944
X49.777 Y75.945
X49.651 Y75.96
X49.573 Y75.98
X49.499 Y76.013
X49.357 Y76.088
X49.323 Y76.102
X49.288 Y76.109
X49.249 Y76.112
X49.21 Y76.114
X49.099 Y76.116
X48.988 Y76.115
X48.319 Y76.119
X48.282 Y76.111
X48.25 Y76.09
X47.815 Y75.653
X47.79 Y75.623
X47.71 Y75.5
X47.695 Y75.465
X47.694 Y75.427
X47.76 Y74.926
X47.774 Y74.881
X47.801 Y74.842
G3 X47.989 Y74.654 I13.935 J13.755
G2 X48.177 Y74.467 I-13.747 J-13.943
G1 X48.209 Y74.431
X48.238 Y74.393
X48.455 Y74.076
X48.487 Y74.021
X48.514 Y73.962
X48.533 Y73.901
X48.629 Y73.511
X48.643 Y73.421
X48.806 Y71.077
X48.802 Y71.048
X48.788 Y71.023
X48.765 Y71.005
X48.742 Y70.988
X48.728 Y70.963
X48.724 Y70.934
X48.75 Y70.552
X48.757 Y70.532
X48.772 Y70.518
X48.792 Y70.513
X53.168
X53.188 Y70.518
X53.204 Y70.532
X53.21 Y70.552
X53.415 Y73.459
X53.427 Y73.536
X53.514 Y73.882
X53.54 Y73.957
X53.579 Y74.025
X53.799 Y74.347
X53.853 Y74.412
G2 X54.033 Y74.587 I8.239 J-8.292
G3 X54.213 Y74.762 I-8.059 J8.467
G1 X54.243 Y74.799
X54.264 Y74.841
X54.276 Y74.887
X54.353 Y75.42
X54.354 Y75.461
X54.345 Y75.501
X54.326 Y75.538
X54.214 Y75.701
X54.18 Y75.742
X53.754 Y76.166
X53.723 Y76.189
X53.688 Y76.204
X53.65 Y76.208
X52.702 Y76.205
X52.651 Y76.2
X52.594 Y76.184
X52.541 Y76.159
X52.439 Y76.102
X52.374 Y76.073
X52.305 Y76.056
X52.165 Y76.037
X52.08 Y76.035
X51.996 Y76.047
X51.915 Y76.072
X51.838 Y76.107
X51.749 Y76.157
X51.703 Y76.178
X51.655 Y76.193
X51.611 Y76.2
X51.567 Y76.203
X51.42 Y76.206
X51.272 Y76.204
X50.386 Y76.207
X50.341 Y76.203
X50.277 Y76.188
X50.215 Y76.164
X50.157 Y76.131
X50.1 Y76.098
X50.039 Y76.073
X49.974 Y76.056
X49.854 Y76.036
X49.792 Y76.033
X49.731 Y76.038
X49.63 Y76.058
X49.58 Y76.073
X49.533 Y76.094
X49.432 Y76.15
X49.38 Y76.176
X49.325 Y76.192
X49.27 Y76.199
X49.215 Y76.203
X48.987 Y76.208
X48.758 Y76.207
X48.53 Y76.209
X48.302 Y76.211
X48.263 Y76.206
X48.228 Y76.191
X48.197 Y76.167
X47.75 Y75.718
X47.713 Y75.673
X47.626 Y75.539
X47.609 Y75.504
X47.6 Y75.467
X47.601 Y75.429
X47.67 Y74.907
X47.681 Y74.861
X47.702 Y74.819
X47.731 Y74.782
G3 X47.922 Y74.593 I9.511 J9.388
G2 X48.113 Y74.404 I-9.32 J-9.578
G1 X48.163 Y74.342
X48.38 Y74.025
X48.419 Y73.955
X48.445 Y73.88
X48.541 Y73.49
X48.553 Y73.415
X48.724 Y70.934
X48.72 Y70.906
X48.706 Y70.882
X48.684 Y70.865
X48.662 Y70.848
X48.648 Y70.823
X48.645 Y70.796
X48.669 Y70.45
X48.678 Y70.432
X48.697 Y70.424
X53.263
X53.283 Y70.432
X53.291 Y70.45
X53.504 Y73.452
X53.514 Y73.514
X53.602 Y73.86
X53.622 Y73.92
X53.653 Y73.974
X53.874 Y74.296
X53.916 Y74.348
G2 X54.115 Y74.543 I15.159 J-15.256
G3 X54.314 Y74.737 I-14.96 J15.45
G1 X54.341 Y74.776
X54.356 Y74.821
X54.449 Y75.463
X54.447 Y75.504
X54.431 Y75.541
X54.277 Y75.765
X54.254 Y75.792
X53.769 Y76.275
X53.741 Y76.293
X53.709 Y76.298
X53.698 Y76.297
X53.686 Y76.296
X52.685 Y76.293
X52.651 Y76.29
X52.584 Y76.272
X52.519 Y76.245
X52.395 Y76.181
X52.338 Y76.156
X52.278 Y76.142
X52.155 Y76.127
X52.103 Y76.125
X52.052 Y76.132
X51.952 Y76.157
X51.903 Y76.175
X51.856 Y76.2
X51.766 Y76.252
X51.732 Y76.267
X51.653 Y76.285
X51.572 Y76.293
X51.422 Y76.295
X51.272 Y76.293
X50.372 Y76.295
X50.341 Y76.293
X50.268 Y76.277
X50.196 Y76.255
X50.171 Y76.244
X50.068 Y76.186
X50.015 Y76.16
X49.958 Y76.144
X49.853 Y76.126
X49.799 Y76.122
X49.746 Y76.127
X49.659 Y76.143
X49.616 Y76.155
X49.575 Y76.173
X49.5 Y76.215
X49.425 Y76.256
X49.392 Y76.269
X49.35 Y76.28
X49.307 Y76.286
X49.22 Y76.293
X49.098 Y76.295
X48.975
X48.242 Y76.299
X48.207 Y76.292
X48.177 Y76.272
X47.674 Y75.767
X47.65 Y75.737
X47.523 Y75.543
X47.508 Y75.508
X47.506 Y75.47
X47.59 Y74.842
X47.603 Y74.797
X47.631 Y74.759
G3 X47.84 Y74.549 I17.281 J17.059
G2 X48.049 Y74.34 I-17.072 J-17.268
G1 X48.089 Y74.291
X48.306 Y73.974
X48.337 Y73.919
X48.358 Y73.858
X48.454 Y73.469
X48.463 Y73.409
X48.645 Y70.796
X48.641 Y70.767
X48.627 Y70.742
X48.604 Y70.724
X48.581 Y70.706
X48.567 Y70.681
X48.563 Y70.652
X48.582 Y70.372
X48.589 Y70.352
X48.604 Y70.338
X48.624 Y70.333
X53.336
X53.356 Y70.338
X53.371 Y70.352
X53.378 Y70.372
X53.594 Y73.446
X53.602 Y73.492
X53.689 Y73.838
X53.704 Y73.883
X53.727 Y73.924
X53.948 Y74.246
X53.98 Y74.284
G2 X54.181 Y74.48 I10.328 J-10.394
G3 X54.383 Y74.677 I-10.127 J10.59
G1 X54.413 Y74.713
X54.434 Y74.756
X54.446 Y74.802
X54.542 Y75.464
X54.543 Y75.505
X54.533 Y75.545
X54.514 Y75.582
X54.352 Y75.817
X54.318 Y75.858
X53.81 Y76.364
X53.785 Y76.382
X53.756 Y76.392
X53.725
X53.705 Y76.389
X53.686 Y76.387
X52.685 Y76.385
X52.634 Y76.38
X52.56 Y76.361
X52.489 Y76.331
X52.352 Y76.26
X52.303 Y76.239
X52.251 Y76.228
X52.145 Y76.216
X52.087 Y76.215
X52.03 Y76.224
X51.976 Y76.241
X51.924 Y76.266
X51.813 Y76.325
X51.754 Y76.352
X51.692 Y76.37
X51.635 Y76.379
X51.577 Y76.383
X51.427 Y76.386
X51.276 Y76.384
X50.372 Y76.387
X50.327 Y76.383
X50.245 Y76.364
X50.167 Y76.335
X50.018 Y76.26
X49.968 Y76.238
X49.914 Y76.223
X49.86 Y76.216
X49.777 Y76.217
X49.695 Y76.227
X49.634 Y76.244
X49.577 Y76.273
X49.468 Y76.337
X49.419 Y76.357
X49.371 Y76.369
X49.323 Y76.376
X49.224 Y76.383
X48.977 Y76.388
X48.73 Y76.387
G3 X48.471 Y76.384 I-0.024 J-9.451
G2 X48.213 Y76.392 I-0.057 J2.288
G1 X48.186 Y76.39
X48.162 Y76.381
X48.14 Y76.366
X47.61 Y75.832
X47.573 Y75.787
X47.438 Y75.581
X47.421 Y75.547
X47.413 Y75.51
Y75.472
X47.499 Y74.828
X47.511 Y74.779
X47.533 Y74.735
X47.564 Y74.696
G3 X47.774 Y74.486 I11.609 J11.46
G2 X47.984 Y74.277 I-11.399 J-11.669
G1 X48.015 Y74.24
X48.232 Y73.923
X48.255 Y73.882
X48.27 Y73.837
X48.366 Y73.447
X48.373 Y73.402
X48.563 Y70.652
X48.56 Y70.625
X48.546 Y70.6
X48.524 Y70.583
X48.502 Y70.566
X48.488 Y70.542
X48.484 Y70.514
X48.501 Y70.27
X48.51 Y70.252
X48.529 Y70.244
X53.431
X53.45 Y70.252
X53.459 Y70.27
X53.684 Y73.439
X53.689 Y73.47
X53.776 Y73.816
X53.786 Y73.846
X53.802 Y73.873
X54.022 Y74.195
X54.043 Y74.22
G2 X54.263 Y74.436 I18.61 J-18.729
G3 X54.483 Y74.652 I-18.39 J18.945
G1 X54.511 Y74.69
X54.525 Y74.735
X54.637 Y75.507
X54.635 Y75.548
X54.619 Y75.585
X54.415 Y75.881
X54.393 Y75.908
X53.826 Y76.473
X53.8 Y76.488
X53.77 Y76.49
X53.728 Y76.48
X53.686 Y76.474
X52.668 Y76.473
X52.635 Y76.47
X52.567 Y76.457
X52.533 Y76.448
X52.419 Y76.397
X52.309 Y76.338
X52.268 Y76.321
X52.224 Y76.314
X52.135 Y76.306
X52.101 Y76.305
X52.067 Y76.312
X52.001 Y76.33
X51.957 Y76.347
X51.917 Y76.37
X51.837 Y76.419
X51.803 Y76.433
X51.729 Y76.456
X51.693 Y76.464
X51.582 Y76.473
X51.429 Y76.475
X51.276 Y76.474
X50.357 Y76.475
X50.327 Y76.473
X50.224 Y76.451
X50.123 Y76.42
X50.097 Y76.409
X50.014 Y76.358
X49.971 Y76.335
X49.925 Y76.321
X49.851 Y76.306
X49.813 Y76.302
X49.776 Y76.304
X49.716 Y76.314
X49.686 Y76.321
X49.658 Y76.333
X49.576 Y76.378
X49.493 Y76.423
X49.461 Y76.436
X49.397 Y76.456
X49.36 Y76.463
X49.295 Y76.469
X49.229 Y76.473
X49.105 Y76.475
X48.981 Y76.474
X48.235 Y76.477
X48.205 Y76.481
X48.176 Y76.49
X48.151 Y76.491
X48.129 Y76.479
X47.534 Y75.881
X47.509 Y75.851
X47.336 Y75.585
X47.321 Y75.55
X47.319 Y75.512
X47.418 Y74.767
X47.432 Y74.718
X47.46 Y74.675
X47.465 Y74.671
X47.521 Y74.613
X47.578 Y74.557
X47.749 Y74.385
X47.92 Y74.214
X47.94 Y74.19
X48.157 Y73.873
X48.173 Y73.845
X48.183 Y73.815
X48.279 Y73.426
X48.284 Y73.396
X48.484 Y70.514
X48.481 Y70.485
X48.466 Y70.46
X48.443 Y70.443
X48.42 Y70.425
X48.406 Y70.4
X48.402 Y70.371
X48.415 Y70.192
X48.421 Y70.172
X48.436 Y70.158
X48.457 Y70.153
X53.503
X53.523 Y70.158
X53.539 Y70.172
X53.545 Y70.192
X53.774 Y73.433
X53.776 Y73.448
X53.863 Y73.794
X53.876 Y73.822
X54.096 Y74.144
X54.107 Y74.156
G2 X54.33 Y74.374 I12.727 J-12.808
G3 X54.554 Y74.593 I-12.504 J13.026
G1 X54.583 Y74.628
X54.603 Y74.67
X54.615 Y74.714
X54.73 Y75.508
X54.731 Y75.549
X54.721 Y75.589
X54.703 Y75.625
X54.491 Y75.933
X54.457 Y75.974
X53.848 Y76.58
X53.83 Y76.592
X53.808 Y76.595
X53.787 Y76.59
X53.737 Y76.571
X53.685 Y76.565
X52.668
X52.618 Y76.56
X52.525 Y76.537
X52.436 Y76.503
X52.266 Y76.417
X52.232 Y76.404
X52.196 Y76.399
X52.125 Y76.395
X52.095
X52.065 Y76.401
X52.009 Y76.424
X51.874 Y76.495
X51.803 Y76.526
X51.73 Y76.547
X51.659 Y76.557
X51.587 Y76.563
X51.434 Y76.566
X51.28 Y76.564
X50.357 Y76.567
X50.312 Y76.563
X50.213 Y76.541
X50.116 Y76.507
X50.024 Y76.465
X49.933 Y76.419
X49.883 Y76.4
X49.83 Y76.394
X49.725 Y76.404
X49.7 Y76.413
X49.618 Y76.458
X49.536 Y76.504
X49.488 Y76.524
X49.425 Y76.54
X49.362 Y76.551
X49.234 Y76.563
X49.109 Y76.567
X48.984 Y76.568
X48.735 Y76.566
X48.235 Y76.569
X48.218 Y76.571
X48.201 Y76.577
X48.169 Y76.591
X48.143 Y76.596
X48.118 Y76.59
X48.096 Y76.576
X47.469 Y75.946
X47.432 Y75.901
X47.251 Y75.624
X47.234 Y75.59
X47.226 Y75.552
Y75.514
X47.327 Y74.753
X47.339 Y74.703
X47.36 Y74.657
X47.39 Y74.616
X47.394 Y74.612
X47.398 Y74.608
X47.512 Y74.493
X47.627 Y74.379
X47.742 Y74.265
X47.856 Y74.151
X47.866 Y74.139
X48.083 Y73.822
X48.096 Y73.794
X48.192 Y73.404
X48.194 Y73.39
X48.402 Y70.371
X48.399 Y70.345
X48.386 Y70.323
X48.366 Y70.308
X48.346 Y70.292
X48.333 Y70.27
X48.33 Y70.244
X48.341 Y70.092
X48.363 Y70.072
X53.597
X53.619 Y70.092
X53.859 Y73.427
X53.947 Y73.773
X54.167 Y74.095
X54.671 Y74.596
X54.685 Y74.639
X54.824 Y75.592
X54.538 Y76.007
X53.842 Y76.7
X53.824 Y76.708
X53.75 Y76.661
X53.685 Y76.649
X52.635 Y76.645
X52.503 Y76.621
X52.355 Y76.564
X52.224 Y76.493
X52.115 Y76.481
X52.05 Y76.499
X51.888 Y76.587
X51.747 Y76.631
X51.592 Y76.649
X50.328 Y76.647
X50.176 Y76.623
X50.039 Y76.573
X49.892 Y76.494
X49.805 Y76.478
X49.74 Y76.489
X49.544 Y76.591
X49.414 Y76.631
X49.238 Y76.649
X48.236 Y76.651
X48.153 Y76.684
X48.114 Y76.709
X47.385 Y75.976
X47.134 Y75.592
X47.146 Y75.508
X47.261 Y74.639
X47.339 Y74.553
X47.795 Y74.09
X48.012 Y73.773
X48.108 Y73.383
X48.33 Y70.244
Z-1.058
G0 Z5.
X52.398 Y77.806
Z-0.447
G1 X53.171 Y77.034 Z-0.485 F17.
X53.193 Y77.021
X53.219
X53.241 Y77.034
X53.254 Y77.057
Y77.082
X53.241 Y77.105
X48.638 Y81.708 Z-0.712
X48.615 Y81.721
X48.59
X48.567 Y81.708
X48.554 Y81.686
Y81.66
X48.567 Y81.638
X53.171 Y77.034 Z-0.94
X53.193 Y77.021
X53.219
X53.241 Y77.034
X53.254 Y77.057
Y77.082
X53.241 Y77.105
X48.638 Y81.708 Z-1.167
X48.615 Y81.721
X48.59
X48.567 Y81.708
X48.554 Y81.686
Y81.66
X48.567 Y81.638
X53.171 Y77.034 Z-1.394
X53.193 Y77.021
X53.219
X53.241 Y77.034
X53.254 Y77.057
Y77.082
X53.241 Y77.105
X51.166 Y79.181 Z-1.497
X51.152 Y79.19
X51.136 Y79.194
X51.122 Y79.195
X51.102 Y79.192
X51.085 Y79.181
X51.075 Y79.163
X51.061 Y79.122 F200.
Y79.106
X51.071 Y79.092
X51.087 Y79.087
X51.15
X51.169 Y79.092
X51.183 Y79.106
X51.189 Y79.125
Y79.502
X51.165 Y79.505
X51.118 Y79.312
X51.075 Y79.163
X51.061 Y79.139
X51.039 Y79.122
X51.012 Y79.115
X50.986 Y79.108
X50.963 Y79.092
X50.948 Y79.068
X50.93 Y79.022
X50.932 Y79.007
X50.946 Y78.999
X51.251 Y78.998
X51.269 Y79.006
X51.277 Y79.024
Y79.643
X51.27 Y79.661
X51.252 Y79.668
X51.134
X51.113 Y79.661
X51.103 Y79.642
X51.068 Y79.47
X51.026 Y79.3
X50.983 Y79.159
X50.948 Y79.068
X50.933 Y79.044
X50.909 Y79.027
X50.881 Y79.021
X50.853 Y79.015
X50.829 Y79.
X50.812 Y78.977
X50.806 Y78.964
X50.795 Y78.942
X50.793 Y78.927
X50.802 Y78.913
X50.817 Y78.908
X51.33 Y78.906
X51.349 Y78.911
X51.363 Y78.925
X51.368 Y78.944
G3 X51.367 Y79.333 I-32.711 J0.038
G2 X51.37 Y79.722 I9.773 J0.105
G1 X51.366 Y79.741
X51.352 Y79.755
X51.333 Y79.76
X51.067
X51.046 Y79.755
X51.03 Y79.741
X51.022 Y79.721
G2 X50.945 Y79.346 I-3.065 J0.432
X50.816 Y78.986 I-2.3 J0.621
G1 X50.812 Y78.977
X50.795 Y78.955
X50.772 Y78.94
X50.744 Y78.936
X50.717 Y78.931
X50.693 Y78.916
X50.677 Y78.894
X50.653 Y78.843
X50.654 Y78.828
X50.667 Y78.82
X51.431 Y78.818
X51.449 Y78.825
X51.456 Y78.843
X51.454 Y79.665
X51.457 Y79.734
X51.464 Y79.823
X51.458 Y79.841
X51.441 Y79.848
X50.974
X50.954 Y79.841
X50.945 Y79.822
X50.93 Y79.701
X50.908 Y79.582
X50.851 Y79.344
G2 X50.764 Y79.089 I-1.67 J0.429
G1 X50.677 Y78.894
X50.66 Y78.871
X50.635 Y78.856
X50.607 Y78.852
X50.579 Y78.849
