(1001)
(T1  D=0.6 CR=0. - ZMIN=-0.733 - FLAT END MILL)
G0 G90 G94 G17
G21
G53 G0 Z0.

(0.6MM  FLATEND  CONTOUR )
M5
M9
T1
S12000 M3
G4 P4.
G55
G0 X31.084 Y53.878
Z15.
Z0.985
G1 Z-0.078 F40.
X31.065 Y53.899
X31.039 Y53.91
X31.01 Y53.907
X30.987 Y53.892
X30.966 Y53.87 F10.
X31.011 Y52.219 F40.
X31.017 Y52.032
X31.14 Y50.534
X31.15 Y50.414 F10.
X31.172 Y50.397
X33.409 F40.
X33.529 F10.
X33.543
X33.557 Y50.414
Y53.273 F40.
X33.558 Y53.296
X33.561 Y53.32
X33.566 Y53.343
X33.571 Y53.359
X33.576 Y53.374
X33.583 Y53.39
X33.59 Y53.406
X33.599 Y53.421
X33.609 Y53.437
X33.62 Y53.452
X33.633 Y53.468
X33.652 Y53.488
X33.672 Y53.505
X33.691 Y53.519
X33.71 Y53.531
X33.724 Y53.538
X33.738 Y53.544
X33.752 Y53.55
X33.765 Y53.555
X33.779 Y53.559
X33.793 Y53.562
X33.807 Y53.565
X33.82 Y53.567
X33.844 Y53.569
X33.867
X36.633
X36.727 Y53.568
X36.751 Y53.566
X36.774 Y53.562
X36.798 Y53.555
X36.821 Y53.547
X36.838 Y53.539
X36.855 Y53.531
X36.867 Y53.523
X36.88 Y53.515
X36.893 Y53.505
X36.906 Y53.495
X36.921 Y53.48
X36.934 Y53.466
X36.946 Y53.451
X36.957 Y53.437
X36.971 Y53.413
X36.982 Y53.39
X36.992 Y53.367
X36.999 Y53.343
X37.004 Y53.32
X37.007 Y53.296
X37.008 Y53.273
Y50.533
Y50.413 F10.
X37.009 Y50.396
X39.714 F40.
X39.834 F10.
X39.847 Y50.413
Y53.273 F40.
X39.848 Y53.296
X39.852 Y53.32
X39.857 Y53.343
X39.864 Y53.367
X39.873 Y53.39
X39.884 Y53.413
X39.899 Y53.437
X39.909 Y53.451
X39.921 Y53.466
X39.934 Y53.48
X39.95 Y53.495
X39.962 Y53.505
X39.975 Y53.515
X39.988 Y53.523
X40. Y53.531
X40.009 Y53.535
X40.033 Y53.546
X40.056 Y53.555
X40.08 Y53.561
X40.103 Y53.566
X40.126 Y53.568
X40.15 Y53.569
X42.822
X43.01
X43.027 Y53.567
X43.043 Y53.565
X43.06 Y53.562
X43.077 Y53.558
X43.094 Y53.553
X43.11 Y53.547
X43.127 Y53.539
X43.144 Y53.531
X43.157 Y53.523
X43.171 Y53.513
X43.184 Y53.503
X43.198 Y53.492
X43.216 Y53.473
X43.232 Y53.455
X43.246 Y53.436
X43.257 Y53.418
X43.267 Y53.399
X43.275 Y53.38
X43.282 Y53.362
X43.288 Y53.343
X43.293 Y53.32
X43.296 Y53.296
X43.297 Y53.273
Y50.533
Y50.413 F10.
X43.319 Y50.396
X46. F40.
X46.12 F10.
X46.136 Y50.413
Y53.273 F40.
X46.137 Y53.296
X46.14 Y53.32
X46.145 Y53.343
X46.149 Y53.357
X46.154 Y53.37
X46.159 Y53.384
X46.165 Y53.398
X46.172 Y53.411
X46.18 Y53.425
X46.188 Y53.438
X46.198 Y53.452
X46.219 Y53.476
X46.231 Y53.488
X46.244 Y53.499
X46.266 Y53.516
X46.289 Y53.531
X46.313 Y53.543
X46.338 Y53.552
X46.362 Y53.56
X46.386 Y53.565
X46.409 Y53.568
X46.433 Y53.569
X49.199
X49.293
X49.316 Y53.567
X49.34 Y53.564
X49.363 Y53.558
X49.387 Y53.551
X49.409 Y53.542
X49.431 Y53.531
X49.444 Y53.523
X49.456 Y53.515
X49.469 Y53.505
X49.481 Y53.495
X49.496 Y53.482
X49.51 Y53.467
X49.521 Y53.453
X49.532 Y53.439
X49.546 Y53.416
X49.558 Y53.393
X49.567 Y53.37
X49.574 Y53.347
X49.575 Y53.343
X49.58 Y53.32
X49.583 Y53.296
X49.584 Y53.273
Y50.533
Y50.413 F10.
X49.607 Y50.396
X52.285 F40.
X52.405 F10.
X52.423 Y50.413
X52.424 Y53.273 F40.
X52.425 Y53.296
X52.428 Y53.32
X52.433 Y53.343
X52.44 Y53.366
X52.449 Y53.39
X52.46 Y53.413
X52.475 Y53.436
X52.485 Y53.451
X52.496 Y53.465
X52.51 Y53.479
X52.525 Y53.494
X52.537 Y53.504
X52.55 Y53.513
X52.562 Y53.522
X52.575 Y53.529
X52.577 Y53.531
X52.6 Y53.542
X52.623 Y53.552
X52.646 Y53.559
X52.67 Y53.564
X52.693 Y53.567
X52.716 Y53.569
X52.762
X55.576
X55.594 Y53.568
X55.612 Y53.566
X55.63 Y53.564
X55.648 Y53.559
X55.666 Y53.554
X55.684 Y53.548
X55.702 Y53.54
X55.72 Y53.531
X55.741 Y53.517
X55.763 Y53.501
X55.783 Y53.483
X55.803 Y53.462
X55.818 Y53.442
X55.831 Y53.422
X55.842 Y53.402
X55.851 Y53.383
X55.858 Y53.363
X55.864 Y53.343
X55.869 Y53.32
X55.872 Y53.296
X55.873 Y53.273
Y50.533
Y50.413 F10.
X55.893 Y50.396
X58.575 F40.
X58.695 F10.
X58.712 Y50.413
Y53.273 F40.
X58.714 Y53.296
X58.717 Y53.32
X58.722 Y53.343
X58.729 Y53.367
X58.738 Y53.39
X58.749 Y53.414
X58.764 Y53.437
X58.774 Y53.451
X58.786 Y53.466
X58.799 Y53.48
X58.815 Y53.495
X58.827 Y53.505
X58.84 Y53.515
X58.853 Y53.523
X58.866 Y53.531
X58.887 Y53.541
X58.908 Y53.55
X58.93 Y53.557
X58.951 Y53.563
X58.975 Y53.567
X58.998 Y53.569
X59.045
X61.858
X61.882 Y53.568
X61.905 Y53.566
X61.929 Y53.561
X61.952 Y53.555
X61.966 Y53.55
X61.98 Y53.545
X61.995 Y53.538
X62.009 Y53.531
X62.031 Y53.517
X62.052 Y53.501
X62.076 Y53.479
X62.096 Y53.457
X62.11 Y53.438
X62.121 Y53.42
X62.131 Y53.401
X62.14 Y53.383
X62.147 Y53.363
X62.153 Y53.343
X62.158 Y53.32
X62.161 Y53.296
X62.162 Y53.273
Y50.533
Y50.413 F10.
X62.183 Y50.396
X64.856 F40.
X64.976 F10.
X64.998 Y50.413
X64.999 Y53.273 F40.
X65. Y53.296
X65.003 Y53.32
X65.008 Y53.343
X65.015 Y53.366
X65.023 Y53.388
X65.034 Y53.411
X65.048 Y53.433
X65.057 Y53.447
X65.068 Y53.461
X65.08 Y53.475
X65.094 Y53.488
X65.117 Y53.508
X65.14 Y53.524
X65.152 Y53.531
X65.174 Y53.542
X65.196 Y53.551
X65.218 Y53.558
X65.24 Y53.563
X65.262 Y53.567
X65.284 Y53.569
X65.328
X68.141
X68.16
X68.179 Y53.567
X68.199 Y53.565
X68.218 Y53.561
X68.237 Y53.555
X68.256 Y53.549
X68.276 Y53.54
X68.295 Y53.531
X68.312 Y53.52
X68.329 Y53.509
X68.351 Y53.49
X68.373 Y53.467
X68.39 Y53.447
X68.404 Y53.426
X68.415 Y53.405
X68.425 Y53.385
X68.433 Y53.364
X68.439 Y53.343
X68.444 Y53.32
X68.447 Y53.296
X68.448 Y53.273
Y50.533
Y50.413 F10.
X68.465 Y50.396
X70.668 F40.
X70.788 F10.
X70.808 Y50.413
X70.941 Y52.032 F40.
X70.946 Y52.219
X70.988 Y53.744
X70.991 Y53.864 F10.
X70.973 Y53.885
X70.603 F40.
X70.579 Y53.883
X70.556 Y53.88
X70.532 Y53.878
X70.485
X70.392
X70.204 Y53.885
X69.641
X69.454 Y53.878
X69.266
X69.079 Y53.885
X68.516
X68.329 Y53.878
X68.141 Y53.879
X67.953 Y53.885
X67.391
X67.203 Y53.878
X67.11
X67.063 Y53.879
X67.039 Y53.881
X67.016 Y53.885
X66.992 Y53.886
X66.266
X66.242 Y53.882
X66.219 Y53.88
X66.172
X66.078
X65.89 Y53.886
X65.328
X65.14 Y53.88
X64.953
X64.765 Y53.886
X64.203
X64.015 Y53.879
X63.851
X63.827 Y53.88
X63.804 Y53.883
X63.781 Y53.886
X63.077
X62.89 Y53.879
X62.702 Y53.886
X61.975
X61.952 Y53.882
X61.929 Y53.88
X61.905 Y53.879
X61.764
X61.577 Y53.887
X61.014
X60.827 Y53.88
X60.639
X60.452 Y53.887
X59.889
X59.701 Y53.88
X59.514 Y53.881
X59.326 Y53.887
X58.764
X58.576 Y53.88
X58.389 Y53.887
X57.639
X57.451 Y53.881
X57.263 Y53.887
X56.56
X56.537 Y53.885
X56.513 Y53.882
X56.49 Y53.881
X56.326
X56.138 Y53.887
X55.576 Y53.888
X55.388 Y53.881
X55.2
X55.013 Y53.888
X54.45
X54.263 Y53.88
X54.122 Y53.881
X54.099 Y53.882
X54.075 Y53.884
X54.052 Y53.888
X53.325
X53.137 Y53.881
X52.95 Y53.888
X52.247
X52.223 Y53.886
X52.2 Y53.883
X52.176 Y53.881
X52.153
X52.012
X51.825 Y53.888
X51.262
X51.074 Y53.881
X50.887
X50.699 Y53.888
X50.137 Y53.889
X49.949 Y53.881
X49.809
X49.785
X49.762 Y53.883
X49.738 Y53.887
X49.715 Y53.889
X49.011
X48.824 Y53.881
X48.636 Y53.889
X47.91
X47.886 Y53.886
X47.863 Y53.884
X47.839
X47.699
X47.511 Y53.889
X46.948
X46.761 Y53.884
X46.573
X46.386 Y53.889
X45.823
X45.636 Y53.884
X45.495
X45.472
X45.448 Y53.885
X45.425 Y53.889
X45.401
X44.698 Y53.89
X44.51 Y53.884
X44.323 Y53.89
X43.62
X43.596 Y53.887
X43.573 Y53.884
X43.549 Y53.883
X43.479
X43.385
X43.198 Y53.89
X42.635
X42.447 Y53.883
X42.26
X42.072 Y53.89
X41.51
X41.322 Y53.882
X41.181
X41.158 Y53.883
X41.135 Y53.886
X41.111 Y53.89
X41.088
X40.384
X40.197 Y53.884
X40.009 Y53.89
X39.306 Y53.891
X39.283 Y53.889
X39.259 Y53.886
X39.236 Y53.884
X39.212
X39.072
X38.884 Y53.891
X38.321
X38.134 Y53.884
X37.946
X37.759 Y53.891
X37.196
X37.009 Y53.884
X36.868
X36.844
X36.821 Y53.886
X36.798 Y53.889
X36.774 Y53.891
X36.071
X35.883 Y53.884
X35.79
X35.743
X35.719 Y53.886
X35.696 Y53.891
X35.672
X34.969
X34.946 Y53.889
X34.922 Y53.885
X34.899 Y53.884
X34.852
X34.758
X34.57 Y53.891
X34.008
X33.82 Y53.885
X33.633
X33.445 Y53.892
X32.883
X32.695 Y53.885
X32.507
X32.32 Y53.892
X31.757
X31.57 Y53.885
X31.476
X31.429
X31.406 Y53.887
X31.382 Y53.891
X31.359 Y53.892
X30.987
X30.972 Y53.867
X30.971 Y53.839
X30.983 Y53.813
X31.006 Y53.796
G0 Z5.
X33.861 Y47.282
Z0.984
G1 Z-0.078 F40.
X33.866 Y47.259
X33.879 Y47.24
X33.898 Y47.227
X33.921 Y47.222
X36.563
X36.683 F10.
X36.7 Y47.238
Y49.957 F40.
Y50.077 F10.
X36.683 Y50.092
X33.976 F40.
X33.856 F10.
X33.834 Y50.077
Y47.358 F40.
Y47.238 F10.
X33.856 Y47.222
X33.921 F40.
X33.944 Y47.227
X33.963 Y47.24
X33.976 Y47.259
X33.981 Y47.282
G0 Z5.
X33.474 Y53.221
Z0.981
G1 Z-0.09 F40.
X33.502 Y53.216
X33.529 Y53.225
X33.549 Y53.246
X33.557 Y53.273
X33.558 Y53.296
X33.561 Y53.32
X33.566 Y53.343
X33.571 Y53.359
X33.576 Y53.374
X33.583 Y53.39
X33.59 Y53.406
X33.599 Y53.421
X33.609 Y53.437
X33.62 Y53.452
X33.633 Y53.468
X33.652 Y53.488
X33.672 Y53.505
X33.691 Y53.519
X33.71 Y53.531
X33.724 Y53.538
X33.738 Y53.544
X33.752 Y53.55
X33.765 Y53.555
X33.779 Y53.559
X33.793 Y53.562
X33.807 Y53.565
X33.82 Y53.567
X33.844 Y53.569
X33.867
X36.633
X36.727 Y53.568
X36.751 Y53.566
X36.774 Y53.562
X36.798 Y53.555
X36.821 Y53.547
X36.838 Y53.539
X36.855 Y53.531
X36.867 Y53.523
X36.88 Y53.515
X36.893 Y53.505
X36.906 Y53.495
X36.921 Y53.48
X36.934 Y53.466
X36.946 Y53.451
X36.957 Y53.437
X36.971 Y53.413
X36.982 Y53.39
X36.992 Y53.367
X36.999 Y53.343
X37.004 Y53.32
X37.007 Y53.296
X37.008 Y53.273
Y50.533
Y50.413 F10.
X37.009 Y50.396
X39.714 F40.
X39.834 F10.
X39.847 Y50.413
Y53.273 F40.
X39.848 Y53.296
X39.852 Y53.32
X39.857 Y53.343
X39.864 Y53.367
X39.873 Y53.39
X39.884 Y53.413
X39.899 Y53.437
X39.909 Y53.451
X39.921 Y53.466
X39.934 Y53.48
X39.95 Y53.495
X39.962 Y53.505
X39.975 Y53.515
X39.988 Y53.523
X40. Y53.531
X40.009 Y53.535
X40.033 Y53.546
X40.056 Y53.555
X40.08 Y53.561
X40.103 Y53.566
X40.126 Y53.568
X40.15 Y53.569
X42.822
X43.01
X43.027 Y53.567
X43.043 Y53.565
X43.06 Y53.562
X43.077 Y53.558
X43.094 Y53.553
X43.11 Y53.547
X43.127 Y53.539
X43.144 Y53.531
X43.157 Y53.523
X43.171 Y53.513
X43.184 Y53.503
X43.198 Y53.492
X43.216 Y53.473
X43.232 Y53.455
X43.246 Y53.436
X43.257 Y53.418
X43.267 Y53.399
X43.275 Y53.38
X43.282 Y53.362
X43.288 Y53.343
X43.293 Y53.32
X43.296 Y53.296
X43.297 Y53.273
Y50.533
Y50.413 F10.
X43.319 Y50.396
X46. F40.
X46.12 F10.
X46.136 Y50.413
Y53.273 F40.
X46.137 Y53.296
X46.14 Y53.32
X46.145 Y53.343
X46.149 Y53.357
X46.154 Y53.37
X46.159 Y53.384
X46.165 Y53.398
X46.172 Y53.411
X46.18 Y53.425
X46.188 Y53.438
X46.198 Y53.452
X46.219 Y53.476
X46.231 Y53.488
X46.244 Y53.499
X46.266 Y53.516
X46.289 Y53.531
X46.313 Y53.543
X46.338 Y53.552
X46.362 Y53.56
X46.386 Y53.565
X46.409 Y53.568
X46.433 Y53.569
X49.199
X49.293
X49.316 Y53.567
X49.34 Y53.564
X49.363 Y53.558
X49.387 Y53.551
X49.409 Y53.542
X49.431 Y53.531
X49.444 Y53.523
X49.456 Y53.515
X49.469 Y53.505
X49.481 Y53.495
X49.496 Y53.482
X49.51 Y53.467
X49.521 Y53.453
X49.532 Y53.439
X49.546 Y53.416
X49.558 Y53.393
X49.567 Y53.37
X49.574 Y53.347
X49.575 Y53.343
X49.58 Y53.32
X49.583 Y53.296
X49.584 Y53.273
Y50.533
Y50.413 F10.
X49.607 Y50.396
X52.285 F40.
X52.405 F10.
X52.423 Y50.413
X52.424 Y53.273 F40.
X52.425 Y53.296
X52.428 Y53.32
X52.433 Y53.343
X52.44 Y53.366
X52.449 Y53.39
X52.46 Y53.413
X52.475 Y53.436
X52.485 Y53.451
X52.496 Y53.465
X52.51 Y53.479
X52.525 Y53.494
X52.537 Y53.504
X52.55 Y53.513
X52.562 Y53.522
X52.575 Y53.529
X52.577 Y53.531
X52.6 Y53.542
X52.623 Y53.552
X52.646 Y53.559
X52.67 Y53.564
X52.693 Y53.567
X52.716 Y53.569
X52.762
X55.576
X55.594 Y53.568
X55.612 Y53.566
X55.63 Y53.564
X55.648 Y53.559
X55.666 Y53.554
X55.684 Y53.548
X55.702 Y53.54
X55.72 Y53.531
X55.741 Y53.517
X55.763 Y53.501
X55.783 Y53.483
X55.803 Y53.462
X55.818 Y53.442
X55.831 Y53.422
X55.842 Y53.402
X55.851 Y53.383
X55.858 Y53.363
X55.864 Y53.343
X55.869 Y53.32
X55.872 Y53.296
X55.873 Y53.273
Y50.533
Y50.413 F10.
X55.893 Y50.396
X58.575 F40.
X58.695 F10.
X58.712 Y50.413
Y53.273 F40.
X58.714 Y53.296
X58.717 Y53.32
X58.722 Y53.343
X58.729 Y53.367
X58.738 Y53.39
X58.749 Y53.414
X58.764 Y53.437
X58.774 Y53.451
X58.786 Y53.466
X58.799 Y53.48
X58.815 Y53.495
X58.827 Y53.505
X58.84 Y53.515
X58.853 Y53.523
X58.866 Y53.531
X58.887 Y53.541
X58.908 Y53.55
X58.93 Y53.557
X58.951 Y53.563
X58.975 Y53.567
X58.998 Y53.569
X59.045
X61.858
X61.882 Y53.568
X61.905 Y53.566
X61.929 Y53.561
X61.952 Y53.555
X61.966 Y53.55
X61.98 Y53.545
X61.995 Y53.538
X62.009 Y53.531
X62.031 Y53.517
X62.052 Y53.501
X62.076 Y53.479
X62.096 Y53.457
X62.11 Y53.438
X62.121 Y53.42
X62.131 Y53.401
X62.14 Y53.383
X62.147 Y53.363
X62.153 Y53.343
X62.158 Y53.32
X62.161 Y53.296
X62.162 Y53.273
Y50.533
Y50.413 F10.
X62.183 Y50.396
X64.856 F40.
X64.976 F10.
X64.998 Y50.413
X64.999 Y53.273 F40.
X65. Y53.296
X65.003 Y53.32
X65.008 Y53.343
X65.015 Y53.366
X65.023 Y53.388
X65.034 Y53.411
X65.048 Y53.433
X65.057 Y53.447
X65.068 Y53.461
X65.08 Y53.475
X65.094 Y53.488
X65.117 Y53.508
X65.14 Y53.524
X65.152 Y53.531
X65.174 Y53.542
X65.196 Y53.551
X65.218 Y53.558
X65.24 Y53.563
X65.262 Y53.567
X65.284 Y53.569
X65.328
X68.141
X68.16
X68.179 Y53.567
X68.199 Y53.565
X68.218 Y53.561
X68.237 Y53.555
X68.256 Y53.549
X68.276 Y53.54
X68.295 Y53.531
X68.312 Y53.52
X68.329 Y53.509
X68.351 Y53.49
X68.373 Y53.467
X68.39 Y53.447
X68.404 Y53.426
X68.415 Y53.405
X68.425 Y53.385
X68.433 Y53.364
X68.439 Y53.343
X68.444 Y53.32
X68.447 Y53.296
X68.448 Y53.273
Y50.533
Y50.413 F10.
X68.465 Y50.396
X70.668 F40.
X70.788 F10.
X70.808 Y50.413
X70.941 Y52.032 F40.
X70.946 Y52.219
X70.988 Y53.744
X70.991 Y53.864 F10.
X70.973 Y53.885
X70.603 F40.
X70.579 Y53.883
X70.556 Y53.88
X70.532 Y53.878
X70.485
X70.392
X70.204 Y53.885
X69.641
X69.454 Y53.878
X69.266
X69.079 Y53.885
X68.516
X68.329 Y53.878
X68.141 Y53.879
X67.953 Y53.885
X67.391
X67.203 Y53.878
X67.11
X67.063 Y53.879
X67.039 Y53.881
X67.016 Y53.885
X66.992 Y53.886
X66.266
X66.242 Y53.882
X66.219 Y53.88
X66.172
X66.078
X65.89 Y53.886
X65.328
X65.14 Y53.88
X64.953
X64.765 Y53.886
X64.203
X64.015 Y53.879
X63.851
X63.827 Y53.88
X63.804 Y53.883
X63.781 Y53.886
X63.077
X62.89 Y53.879
X62.702 Y53.886
X61.975
X61.952 Y53.882
X61.929 Y53.88
X61.905 Y53.879
X61.764
X61.577 Y53.887
X61.014
X60.827 Y53.88
X60.639
X60.452 Y53.887
X59.889
X59.701 Y53.88
X59.514 Y53.881
X59.326 Y53.887
X58.764
X58.576 Y53.88
X58.389 Y53.887
X57.639
X57.451 Y53.881
X57.263 Y53.887
X56.56
X56.537 Y53.885
X56.513 Y53.882
X56.49 Y53.881
X56.326
X56.138 Y53.887
X55.576 Y53.888
X55.388 Y53.881
X55.2
X55.013 Y53.888
X54.45
X54.263 Y53.88
X54.122 Y53.881
X54.099 Y53.882
X54.075 Y53.884
X54.052 Y53.888
X53.325
X53.137 Y53.881
X52.95 Y53.888
X52.247
X52.223 Y53.886
X52.2 Y53.883
X52.176 Y53.881
X52.153
X52.012
X51.825 Y53.888
X51.262
X51.074 Y53.881
X50.887
X50.699 Y53.888
X50.137 Y53.889
X49.949 Y53.881
X49.809
X49.785
X49.762 Y53.883
X49.738 Y53.887
X49.715 Y53.889
X49.011
X48.824 Y53.881
X48.636 Y53.889
X47.91
X47.886 Y53.886
X47.863 Y53.884
X47.839
X47.699
X47.511 Y53.889
X46.948
X46.761 Y53.884
X46.573
X46.386 Y53.889
X45.823
X45.636 Y53.884
X45.495
X45.472
X45.448 Y53.885
X45.425 Y53.889
X45.401
X44.698 Y53.89
X44.51 Y53.884
X44.323 Y53.89
X43.62
X43.596 Y53.887
X43.573 Y53.884
X43.549 Y53.883
X43.479
X43.385
X43.198 Y53.89
X42.635
X42.447 Y53.883
X42.26
X42.072 Y53.89
X41.51
X41.322 Y53.882
X41.181
X41.158 Y53.883
X41.135 Y53.886
X41.111 Y53.89
X41.088
X40.384
X40.197 Y53.884
X40.009 Y53.89
X39.306 Y53.891
X39.283 Y53.889
X39.259 Y53.886
X39.236 Y53.884
X39.212
X39.072
X38.884 Y53.891
X38.321
X38.134 Y53.884
X37.946
X37.759 Y53.891
X37.196
X37.009 Y53.884
X36.868
X36.844
X36.821 Y53.886
X36.798 Y53.889
X36.774 Y53.891
X36.071
X35.883 Y53.884
X35.79
X35.743
X35.719 Y53.886
X35.696 Y53.891
X35.672
X34.969
X34.946 Y53.889
X34.922 Y53.885
X34.899 Y53.884
X34.852
X34.758
X34.57 Y53.891
X34.008
X33.82 Y53.885
X33.633
X33.445 Y53.892
X32.883
X32.695 Y53.885
X32.507
X32.32 Y53.892
X31.757
X31.57 Y53.885
X31.476
X31.429
X31.406 Y53.887
X31.382 Y53.891
X31.359 Y53.892
X31.107
X30.987 F10.
X30.966 Y53.87
X31.011 Y52.219 F40.
X31.017 Y52.032
X31.14 Y50.534
X31.15 Y50.414 F10.
X31.172 Y50.397
X33.409 F40.
X33.529 F10.
X33.543
X33.557 Y50.414
Y53.273 F40.
X33.55 Y53.301
X33.532 Y53.322
X33.505 Y53.332
X33.477 Y53.329
G0 Z5.
X31.825 Y46.894
Z0.984
G1 Z-0.078 F40.
X31.809 Y46.915
X31.786 Y46.927
X31.76 Y46.929
X31.736 Y46.919
X31.712 Y46.902 F10.
X32.091 Y45.287 F40.
X32.132 Y45.132
X32.61 Y43.576
X32.645 Y43.462 F10.
X32.667 Y43.442
X69.172 Y43.435 F40.
X69.292 F10.
X69.311 Y43.456
X69.829 Y45.142 F40.
X69.867 Y45.287
X70.219 Y46.784
X70.247 Y46.901 F10.
X70.223 Y46.918
X68.587 F40.
X68.467 F10.
X68.45 Y46.901
Y44.069 F40.
X68.449 Y44.022
X68.447 Y43.998
X68.442 Y43.975
X68.436 Y43.954
X68.428 Y43.932
X68.419 Y43.911
X68.407 Y43.89
X68.392 Y43.868
X68.375 Y43.847
X68.352 Y43.823
X68.329 Y43.804
X68.304 Y43.788
X68.283 Y43.777
X68.263 Y43.767
X68.243 Y43.76
X68.222 Y43.754
X68.202 Y43.75
X68.182 Y43.747
X68.161 Y43.746
X68.141
X65.328
X65.283
X65.26 Y43.748
X65.238 Y43.752
X65.215 Y43.758
X65.193 Y43.766
X65.17 Y43.776
X65.147 Y43.788
X65.14 Y43.792
X65.117 Y43.808
X65.094 Y43.828
X65.081 Y43.842
X65.068 Y43.856
X65.058 Y43.87
X65.048 Y43.884
X65.035 Y43.906
X65.024 Y43.929
X65.016 Y43.952
X65.009 Y43.975
X65.004 Y43.998
X65.002 Y44.022
X65.001 Y44.069
Y46.782
Y46.902 F10.
X64.977 Y46.918
X62.305 F40.
X62.185 F10.
X62.164 Y46.902
Y44.069 F40.
X62.163 Y44.022
X62.16 Y43.998
X62.156 Y43.975
X62.149 Y43.951
X62.14 Y43.927
X62.131 Y43.909
X62.122 Y43.892
X62.111 Y43.874
X62.098 Y43.857
X62.079 Y43.837
X62.058 Y43.816
X62.037 Y43.801
X62.017 Y43.788
X62.001 Y43.779
X61.985 Y43.771
X61.968 Y43.764
X61.952 Y43.759
X61.929 Y43.753
X61.905 Y43.748
X61.882 Y43.746
X61.858
X59.045
X58.998
X58.975 Y43.748
X58.951 Y43.752
X58.929 Y43.758
X58.906 Y43.766
X58.884 Y43.776
X58.861 Y43.788
X58.837 Y43.804
X58.813 Y43.824
X58.798 Y43.838
X58.785 Y43.852
X58.774 Y43.867
X58.764 Y43.881
X58.75 Y43.904
X58.739 Y43.928
X58.73 Y43.951
X58.723 Y43.975
X58.718 Y43.998
X58.715 Y44.022
X58.714 Y44.069
Y46.782
Y46.902 F10.
X58.697 Y46.918
X56.014 F40.
X55.894 F10.
X55.875 Y46.902
Y44.069 F40.
X55.874 Y44.022
X55.872 Y43.998
X55.867 Y43.975
X55.861 Y43.955
X55.854 Y43.934
X55.845 Y43.914
X55.834 Y43.893
X55.821 Y43.873
X55.805 Y43.852
X55.784 Y43.83
X55.763 Y43.811
X55.746 Y43.799
X55.729 Y43.788
X55.71 Y43.777
X55.69 Y43.768
X55.671 Y43.761
X55.652 Y43.756
X55.633 Y43.751
X55.614 Y43.748
X55.595 Y43.746
X55.576
X52.762
X52.715
X52.692 Y43.747
X52.669 Y43.751
X52.645 Y43.757
X52.622 Y43.764
X52.598 Y43.774
X52.575 Y43.786
X52.572 Y43.788
X52.548 Y43.804
X52.524 Y43.824
X52.509 Y43.838
X52.496 Y43.853
X52.485 Y43.867
X52.475 Y43.881
X52.461 Y43.905
X52.45 Y43.928
X52.441 Y43.952
X52.434 Y43.975
X52.429 Y43.998
X52.427 Y44.022
X52.426 Y44.069
Y46.782
Y46.902 F10.
X52.406 Y46.918
X49.728 F40.
X49.608 F10.
X49.587 Y46.902
Y44.069 F40.
X49.586 Y44.022
X49.583 Y43.998
X49.578 Y43.975
X49.574 Y43.96
X49.567 Y43.938
X49.558 Y43.917
X49.546 Y43.895
X49.533 Y43.874
X49.523 Y43.861
X49.512 Y43.848
X49.5 Y43.835
X49.486 Y43.822
X49.463 Y43.803
X49.44 Y43.788
X49.426 Y43.78
X49.413 Y43.774
X49.4 Y43.768
X49.387 Y43.763
X49.363 Y43.755
X49.34 Y43.75
X49.316 Y43.747
X49.293 Y43.746
X49.011
X46.433
X46.409 Y43.747
X46.386 Y43.75
X46.361 Y43.756
X46.348 Y43.759
X46.335 Y43.764
X46.323 Y43.769
X46.31 Y43.774
X46.298 Y43.781
X46.285 Y43.788
X46.263 Y43.802
X46.242 Y43.819
X46.218 Y43.842
X46.198 Y43.865
X46.189 Y43.879
X46.18 Y43.893
X46.172 Y43.907
X46.166 Y43.92
X46.16 Y43.934
X46.155 Y43.948
X46.15 Y43.961
X46.147 Y43.975
X46.142 Y43.998
X46.139 Y44.022
X46.138 Y44.069
Y46.782
Y46.902 F10.
X46.122 Y46.918
X43.441 F40.
X43.321 F10.
X43.299 Y46.902
Y44.069 F40.
X43.298 Y44.022
X43.295 Y43.998
X43.291 Y43.975
X43.285 Y43.956
X43.279 Y43.936
X43.27 Y43.917
X43.26 Y43.898
X43.248 Y43.878
X43.234 Y43.859
X43.217 Y43.84
X43.198 Y43.821
X43.175 Y43.802
X43.152 Y43.788
X43.135 Y43.778
X43.117 Y43.77
X43.099 Y43.763
X43.081 Y43.757
X43.063 Y43.753
X43.046 Y43.749
X43.028 Y43.747
X43.01 Y43.746
X42.822
X40.15
X40.126
X40.103 Y43.749
X40.08 Y43.754
X40.056 Y43.76
X40.033 Y43.769
X40.009 Y43.78
X39.996 Y43.788
X39.972 Y43.804
X39.947 Y43.824
X39.933 Y43.838
X39.92 Y43.853
X39.908 Y43.867
X39.898 Y43.881
X39.884 Y43.905
X39.873 Y43.928
X39.864 Y43.952
X39.858 Y43.975
X39.853 Y43.998
X39.85 Y44.022
X39.849 Y44.069
Y46.782
Y46.902 F10.
X39.836 Y46.918
X37.154 F40.
X37.034 F10.
X37.01 Y46.902
Y44.051 F40.
Y44.032
X37.009 Y44.014
X37.006 Y43.994
X37.002 Y43.975
X36.995 Y43.952
X36.986 Y43.928
X36.975 Y43.905
X36.961 Y43.881
X36.951 Y43.867
X36.94 Y43.853
X36.927 Y43.838
X36.912 Y43.824
X36.888 Y43.804
X36.863 Y43.788
X36.842 Y43.776
X36.821 Y43.767
X36.798 Y43.759
X36.774 Y43.752
X36.751 Y43.748
X36.727 Y43.746
X36.633
X33.867
X33.844
X33.82 Y43.748
X33.806 Y43.75
X33.792 Y43.753
X33.777 Y43.757
X33.763 Y43.761
X33.749 Y43.767
X33.735 Y43.773
X33.72 Y43.78
X33.706 Y43.788
X33.688 Y43.799
X33.669 Y43.813
X33.651 Y43.83
X33.633 Y43.849
X33.62 Y43.865
X33.609 Y43.88
X33.599 Y43.896
X33.591 Y43.912
X33.583 Y43.928
X33.577 Y43.943
X33.572 Y43.959
X33.568 Y43.975
X33.563 Y43.998
X33.56 Y44.022
X33.559 Y44.069
Y46.782
Y46.902 F10.
X33.545 Y46.919
X33.531
X31.736 F40.
X31.713 Z-0.073
X31.694 Z-0.06
X31.681 Z-0.041
X31.676 Z-0.018
G0 Z5.
X33.861 Y47.282
Z0.984
G1 Z-0.09 F40.
X33.866 Y47.259
X33.879 Y47.24
X33.898 Y47.227
X33.921 Y47.222
X36.563
X36.683 F10.
X36.7 Y47.238
Y49.957 F40.
Y50.077 F10.
X36.683 Y50.092
X33.976 F40.
X33.856 F10.
X33.834 Y50.077
Y47.358 F40.
Y47.238 F10.
X33.856 Y47.222
X33.921 F40.
X33.944 Y47.227
X33.963 Y47.24
X33.976 Y47.259
X33.981 Y47.282
G0 Z5.
X33.481 Y53.218
Z0.982
G1 Z-0.115 F40.
X33.507 Y53.217
X33.532 Y53.227
X33.55 Y53.247
X33.557 Y53.273
X33.558 Y53.296
X33.561 Y53.32
X33.566 Y53.343
X33.571 Y53.359
X33.576 Y53.374
X33.583 Y53.39
X33.59 Y53.406
X33.599 Y53.421
X33.609 Y53.437
X33.62 Y53.452
X33.633 Y53.468
X33.652 Y53.488
X33.672 Y53.505
X33.691 Y53.519
X33.71 Y53.531
X33.724 Y53.538
X33.738 Y53.544
X33.752 Y53.55
X33.765 Y53.555
X33.779 Y53.559
X33.793 Y53.562
X33.807 Y53.565
X33.82 Y53.567
X33.844 Y53.569
X33.867
X36.633
X36.727 Y53.568
X36.751 Y53.566
X36.774 Y53.562
X36.798 Y53.555
X36.821 Y53.547
X36.838 Y53.539
X36.855 Y53.531
X36.867 Y53.523
X36.88 Y53.515
X36.893 Y53.505
X36.906 Y53.495
X36.921 Y53.48
X36.934 Y53.466
X36.946 Y53.451
X36.957 Y53.437
X36.971 Y53.413
X36.982 Y53.39
X36.992 Y53.367
X36.999 Y53.343
X37.004 Y53.32
X37.007 Y53.296
X37.008 Y53.273
Y50.533
Y50.413 F10.
X37.009 Y50.396
X39.714 F40.
X39.834 F10.
X39.847 Y50.413
Y53.273 F40.
X39.848 Y53.296
X39.852 Y53.32
X39.857 Y53.343
X39.864 Y53.367
X39.873 Y53.39
X39.884 Y53.413
X39.899 Y53.437
X39.909 Y53.451
X39.921 Y53.466
X39.934 Y53.48
X39.95 Y53.495
X39.962 Y53.505
X39.975 Y53.515
X39.988 Y53.523
X40. Y53.531
X40.009 Y53.535
X40.033 Y53.546
X40.056 Y53.555
X40.08 Y53.561
X40.103 Y53.566
X40.126 Y53.568
X40.15 Y53.569
X42.822
X43.01
X43.027 Y53.567
X43.043 Y53.565
X43.06 Y53.562
X43.077 Y53.558
X43.094 Y53.553
X43.11 Y53.547
X43.127 Y53.539
X43.144 Y53.531
X43.157 Y53.523
X43.171 Y53.513
X43.184 Y53.503
X43.198 Y53.492
X43.216 Y53.473
X43.232 Y53.455
X43.246 Y53.436
X43.257 Y53.418
X43.267 Y53.399
X43.275 Y53.38
X43.282 Y53.362
X43.288 Y53.343
X43.293 Y53.32
X43.296 Y53.296
X43.297 Y53.273
Y50.533
Y50.413 F10.
X43.319 Y50.396
X46. F40.
X46.12 F10.
X46.136 Y50.413
Y53.273 F40.
X46.137 Y53.296
X46.14 Y53.32
X46.145 Y53.343
X46.149 Y53.357
X46.154 Y53.37
X46.159 Y53.384
X46.165 Y53.398
X46.172 Y53.411
X46.18 Y53.425
X46.188 Y53.438
X46.198 Y53.452
X46.219 Y53.476
X46.231 Y53.488
X46.244 Y53.499
X46.266 Y53.516
X46.289 Y53.531
X46.313 Y53.543
X46.338 Y53.552
X46.362 Y53.56
X46.386 Y53.565
X46.409 Y53.568
X46.433 Y53.569
X49.199
X49.293
X49.316 Y53.567
X49.34 Y53.564
X49.363 Y53.558
X49.387 Y53.551
X49.409 Y53.542
X49.431 Y53.531
X49.444 Y53.523
X49.456 Y53.515
X49.469 Y53.505
X49.481 Y53.495
X49.496 Y53.482
X49.51 Y53.467
X49.521 Y53.453
X49.532 Y53.439
X49.546 Y53.416
X49.558 Y53.393
X49.567 Y53.37
X49.574 Y53.347
X49.575 Y53.343
X49.58 Y53.32
X49.583 Y53.296
X49.584 Y53.273
Y50.533
Y50.413 F10.
X49.607 Y50.396
X52.285 F40.
X52.405 F10.
X52.423 Y50.413
X52.424 Y53.273 F40.
X52.425 Y53.296
X52.428 Y53.32
X52.433 Y53.343
X52.44 Y53.366
X52.449 Y53.39
X52.46 Y53.413
X52.475 Y53.436
X52.485 Y53.451
X52.496 Y53.465
X52.51 Y53.479
X52.525 Y53.494
X52.537 Y53.504
X52.55 Y53.513
X52.562 Y53.522
X52.575 Y53.529
X52.577 Y53.531
X52.6 Y53.542
X52.623 Y53.552
X52.646 Y53.559
X52.67 Y53.564
X52.693 Y53.567
X52.716 Y53.569
X52.762
X55.576
X55.594 Y53.568
X55.612 Y53.566
X55.63 Y53.564
X55.648 Y53.559
X55.666 Y53.554
X55.684 Y53.548
X55.702 Y53.54
X55.72 Y53.531
X55.741 Y53.517
X55.763 Y53.501
X55.783 Y53.483
X55.803 Y53.462
X55.818 Y53.442
X55.831 Y53.422
X55.842 Y53.402
X55.851 Y53.383
X55.858 Y53.363
X55.864 Y53.343
X55.869 Y53.32
X55.872 Y53.296
X55.873 Y53.273
Y50.533
Y50.413 F10.
X55.893 Y50.396
X58.575 F40.
X58.695 F10.
X58.712 Y50.413
Y53.273 F40.
X58.714 Y53.296
X58.717 Y53.32
X58.722 Y53.343
X58.729 Y53.367
X58.738 Y53.39
X58.749 Y53.414
X58.764 Y53.437
X58.774 Y53.451
X58.786 Y53.466
X58.799 Y53.48
X58.815 Y53.495
X58.827 Y53.505
X58.84 Y53.515
X58.853 Y53.523
X58.866 Y53.531
X58.887 Y53.541
X58.908 Y53.55
X58.93 Y53.557
X58.951 Y53.563
X58.975 Y53.567
X58.998 Y53.569
X59.045
X61.858
X61.882 Y53.568
X61.905 Y53.566
X61.929 Y53.561
X61.952 Y53.555
X61.966 Y53.55
X61.98 Y53.545
X61.995 Y53.538
X62.009 Y53.531
X62.031 Y53.517
X62.052 Y53.501
X62.076 Y53.479
X62.096 Y53.457
X62.11 Y53.438
X62.121 Y53.42
X62.131 Y53.401
X62.14 Y53.383
X62.147 Y53.363
X62.153 Y53.343
X62.158 Y53.32
X62.161 Y53.296
X62.162 Y53.273
Y50.533
Y50.413 F10.
X62.183 Y50.396
X64.856 F40.
X64.976 F10.
X64.998 Y50.413
X64.999 Y53.273 F40.
X65. Y53.296
X65.003 Y53.32
X65.008 Y53.343
X65.015 Y53.366
X65.023 Y53.388
X65.034 Y53.411
X65.048 Y53.433
X65.057 Y53.447
X65.068 Y53.461
X65.08 Y53.475
X65.094 Y53.488
X65.117 Y53.508
X65.14 Y53.524
X65.152 Y53.531
X65.174 Y53.542
X65.196 Y53.551
X65.218 Y53.558
X65.24 Y53.563
X65.262 Y53.567
X65.284 Y53.569
X65.328
X68.141
X68.16
X68.179 Y53.567
X68.199 Y53.565
X68.218 Y53.561
X68.237 Y53.555
X68.256 Y53.549
X68.276 Y53.54
X68.295 Y53.531
X68.312 Y53.52
X68.329 Y53.509
X68.351 Y53.49
X68.373 Y53.467
X68.39 Y53.447
X68.404 Y53.426
X68.415 Y53.405
X68.425 Y53.385
X68.433 Y53.364
X68.439 Y53.343
X68.444 Y53.32
X68.447 Y53.296
X68.448 Y53.273
Y50.533
Y50.413 F10.
X68.465 Y50.396
X70.668 F40.
X70.788 F10.
X70.808 Y50.413
X70.941 Y52.032 F40.
X70.946 Y52.219
X70.988 Y53.744
X70.991 Y53.864 F10.
X70.973 Y53.885
X70.603 F40.
X70.579 Y53.883
X70.556 Y53.88
X70.532 Y53.878
X70.485
X70.392
X70.204 Y53.885
X69.641
X69.454 Y53.878
X69.266
X69.079 Y53.885
X68.516
X68.329 Y53.878
X68.141 Y53.879
X67.953 Y53.885
X67.391
X67.203 Y53.878
X67.11
X67.063 Y53.879
X67.039 Y53.881
X67.016 Y53.885
X66.992 Y53.886
X66.266
X66.242 Y53.882
X66.219 Y53.88
X66.172
X66.078
X65.89 Y53.886
X65.328
X65.14 Y53.88
X64.953
X64.765 Y53.886
X64.203
X64.015 Y53.879
X63.851
X63.827 Y53.88
X63.804 Y53.883
X63.781 Y53.886
X63.077
X62.89 Y53.879
X62.702 Y53.886
X61.975
X61.952 Y53.882
X61.929 Y53.88
X61.905 Y53.879
X61.764
X61.577 Y53.887
X61.014
X60.827 Y53.88
X60.639
X60.452 Y53.887
X59.889
X59.701 Y53.88
X59.514 Y53.881
X59.326 Y53.887
X58.764
X58.576 Y53.88
X58.389 Y53.887
X57.639
X57.451 Y53.881
X57.263 Y53.887
X56.56
X56.537 Y53.885
X56.513 Y53.882
X56.49 Y53.881
X56.326
X56.138 Y53.887
X55.576 Y53.888
X55.388 Y53.881
X55.2
X55.013 Y53.888
X54.45
X54.263 Y53.88
X54.122 Y53.881
X54.099 Y53.882
X54.075 Y53.884
X54.052 Y53.888
X53.325
X53.137 Y53.881
X52.95 Y53.888
X52.247
X52.223 Y53.886
X52.2 Y53.883
X52.176 Y53.881
X52.153
X52.012
X51.825 Y53.888
X51.262
X51.074 Y53.881
X50.887
X50.699 Y53.888
X50.137 Y53.889
X49.949 Y53.881
X49.809
X49.785
X49.762 Y53.883
X49.738 Y53.887
X49.715 Y53.889
X49.011
X48.824 Y53.881
X48.636 Y53.889
X47.91
X47.886 Y53.886
X47.863 Y53.884
X47.839
X47.699
X47.511 Y53.889
X46.948
X46.761 Y53.884
X46.573
X46.386 Y53.889
X45.823
X45.636 Y53.884
X45.495
X45.472
X45.448 Y53.885
X45.425 Y53.889
X45.401
X44.698 Y53.89
X44.51 Y53.884
X44.323 Y53.89
X43.62
X43.596 Y53.887
X43.573 Y53.884
X43.549 Y53.883
X43.479
X43.385
X43.198 Y53.89
X42.635
X42.447 Y53.883
X42.26
X42.072 Y53.89
X41.51
X41.322 Y53.882
X41.181
X41.158 Y53.883
X41.135 Y53.886
X41.111 Y53.89
X41.088
X40.384
X40.197 Y53.884
X40.009 Y53.89
X39.306 Y53.891
X39.283 Y53.889
X39.259 Y53.886
X39.236 Y53.884
X39.212
X39.072
X38.884 Y53.891
X38.321
X38.134 Y53.884
X37.946
X37.759 Y53.891
X37.196
X37.009 Y53.884
X36.868
X36.844
X36.821 Y53.886
X36.798 Y53.889
X36.774 Y53.891
X36.071
X35.883 Y53.884
X35.79
X35.743
X35.719 Y53.886
X35.696 Y53.891
X35.672
X34.969
X34.946 Y53.889
X34.922 Y53.885
X34.899 Y53.884
X34.852
X34.758
X34.57 Y53.891
X34.008
X33.82 Y53.885
X33.633
X33.445 Y53.892
X32.883
X32.695 Y53.885
X32.507
X32.32 Y53.892
X31.757
X31.57 Y53.885
X31.476
X31.429
X31.406 Y53.887
X31.382 Y53.891
X31.359 Y53.892
X31.107
X30.987 F10.
X30.966 Y53.87
X31.011 Y52.219 F40.
X31.017 Y52.032
X31.14 Y50.534
X31.15 Y50.414 F10.
X31.172 Y50.397
X33.409 F40.
X33.529 F10.
X33.543
X33.557 Y50.414
Y53.273 F40.
X33.551 Y53.299
X33.534 Y53.32
X33.51 Y53.331
X33.484
G0 Z5.
X40.263 Y50.059
Z0.984
G1 Z-0.078 F40.
X40.249 Y50.083
X40.226 Y50.098
X40.199 Y50.101
X40.173 Y50.092
X40.15 Y50.077 F10.
Y47.358 F40.
Y47.238 F10.
X40.173 Y47.222
X42.848 F40.
X42.968 F10.
X42.989 Y47.238
Y49.957 F40.
Y50.077 F10.
X42.968 Y50.092
X40.173 F40.
X40.15 Y50.065
Y50.028
Y49.952 Z-0.079
Y49.875 Z-0.081
Y49.568 Z-0.088
Y49.491 Z-0.089
Y49.415 Z-0.09
Y49.338
Y49.288
Y47.358
Y47.238 F10.
X40.173 Y47.222
X42.848 F40.
X42.968 F10.
X42.989 Y47.238
Y49.957 F40.
Y50.077 F10.
X42.968 Y50.092
X40.293 F40.
X40.173 F10.
X40.15 Y50.077
Y49.288 F40.
X40.156 Y49.26
X40.175 Y49.239
X40.202 Y49.228
X40.23 Y49.231
G0 Z5.
X46.526 Y49.341
Z0.981
G1 Z-0.078 F40.
X46.496 Y49.348
X46.467 Y49.339
X46.446 Y49.317
X46.438 Y49.288
Y47.358
Y47.238 F10.
X46.455 Y47.222
X49.136 F40.
X49.256 F10.
X49.275 Y47.238
Y49.957 F40.
Y50.077 F10.
X49.256 Y50.092
X46.575 F40.
X46.455 F10.
X46.438 Y50.077
Y49.288 F40.
Y49.249
Y49.211
Y49.134 Z-0.079
Y49.058 Z-0.081
Y48.751 Z-0.088
Y48.674 Z-0.089
Y48.597 Z-0.09
Y48.52
Y48.47
Y47.358
Y47.238 F10.
X46.455 Y47.222
X49.136 F40.
X49.256 F10.
X49.275 Y47.238
Y49.957 F40.
Y50.077 F10.
X49.256 Y50.092
X46.575 F40.
X46.455 F10.
X46.438 Y50.077
Y48.47 F40.
X46.445 Y48.443
X46.464 Y48.421
X46.491 Y48.411
X46.519 Y48.414
G0 Z5.
X52.814 Y48.524
Z0.981
G1 Z-0.078 F40.
X52.784 Y48.53
X52.755 Y48.522
X52.734 Y48.5
X52.726 Y48.47
Y47.358
Y47.238 F10.
X52.744 Y47.222
X55.423 F40.
X55.543 F10.
X55.565 Y47.238
Y49.957 F40.
Y50.077 F10.
X55.543 Y50.092
X52.864 F40.
X52.744 F10.
X52.726 Y50.077
Y48.47 F40.
Y48.432
Y48.394
Y48.317 Z-0.079
Y48.24 Z-0.081
Y47.933 Z-0.088
Y47.857 Z-0.089
Y47.78 Z-0.09
Y47.703
Y47.653
Y47.358
Y47.238 F10.
X52.744 Y47.222
X55.423 F40.
X55.543 F10.
X55.565 Y47.238
Y49.957 F40.
Y50.077 F10.
X55.543 Y50.092
X52.864 F40.
X52.744 F10.
X52.726 Y50.077
Y48.47 F40.
Y47.653
X52.733 Y47.625
X52.752 Y47.604
X52.778 Y47.594
X52.806 Y47.597
G0 Z5.
X59.102 Y47.706
Z0.981
G1 Z-0.078 F40.
X59.073 Y47.713
X59.044 Y47.704
X59.023 Y47.683
X59.015 Y47.653
Y47.358
Y47.238 F10.
X59.03 Y47.222
X61.712 F40.
X61.832 F10.
X61.854 Y47.238
Y49.957 F40.
Y50.077 F10.
X61.832 Y50.092
X59.15 F40.
X59.03 F10.
X59.015 Y50.077
Y47.653 F40.
Y47.615
Y47.576
Y47.5 Z-0.079
Y47.423 Z-0.081
Y47.27 Z-0.084
Y47.23 Z-0.085
X59.053 Y47.222 Z-0.086
X59.13 Z-0.088
X59.207 Z-0.089
X59.284 Z-0.09
X59.36
X59.41
X61.712
X61.832 F10.
X61.854 Y47.238
Y49.957 F40.
Y50.077 F10.
X61.832 Y50.092
X59.15 F40.
X59.03 F10.
X59.015 Y50.077
Y47.653 F40.
Y47.358
Y47.238 F10.
X59.03 Y47.222
X59.41 F40.
X59.438 Y47.229
X59.459 Y47.248
X59.47 Y47.274
X59.467 Y47.303
G0 Z5.
X65.325 Y47.333
Z0.984
G1 Z-0.078 F40.
X65.302 Y47.317
X65.288 Y47.292
Y47.263
X65.301 Y47.238
X65.314 Y47.222 F10.
X67.982 F40.
X68.102 F10.
X68.123 Y47.238
Y49.957 F40.
Y50.077 F10.
X68.102 Y50.092
X65.434 F40.
X65.314 F10.
X65.301 Y50.077
Y47.238 F40.
X65.334 Y47.222
X65.37
X65.447 Z-0.079
X65.524 Z-0.081
X65.831 Z-0.088
X65.908 Z-0.089
X65.984 Z-0.09
X66.061
X66.111
X67.982
X68.102 F10.
X68.123 Y47.238
Y49.957 F40.
Y50.077 F10.
X68.102 Y50.092
X65.434 F40.
X65.314 F10.
X65.301 Y50.077
Y47.358 F40.
Y47.238 F10.
X65.314 Y47.222
X66.111 F40.
X66.139 Y47.229
X66.16 Y47.248
X66.171 Y47.274
X66.167 Y47.303
G0 Z5.
X62.275 Y46.9
Z0.984
G1 Z-0.09 F40.
X62.258 Y46.92
X62.234 Y46.931
X62.208 Y46.93
X62.185 Y46.918
X62.164 Y46.902 F10.
Y44.069 F40.
X62.163 Y44.022
X62.16 Y43.998
X62.156 Y43.975
X62.149 Y43.951
X62.14 Y43.927
X62.131 Y43.909
X62.122 Y43.892
X62.111 Y43.874
X62.098 Y43.857
X62.079 Y43.837
X62.058 Y43.816
X62.037 Y43.801
X62.017 Y43.788
X62.001 Y43.779
X61.985 Y43.771
X61.968 Y43.764
X61.952 Y43.759
X61.929 Y43.753
X61.905 Y43.748
X61.882 Y43.746
X61.858
X59.045
X58.998
X58.975 Y43.748
X58.951 Y43.752
X58.929 Y43.758
X58.906 Y43.766
X58.884 Y43.776
X58.861 Y43.788
X58.837 Y43.804
X58.813 Y43.824
X58.798 Y43.838
X58.785 Y43.852
X58.774 Y43.867
X58.764 Y43.881
X58.75 Y43.904
X58.739 Y43.928
X58.73 Y43.951
X58.723 Y43.975
X58.718 Y43.998
X58.715 Y44.022
X58.714 Y44.069
Y46.782
Y46.902 F10.
X58.697 Y46.918
X56.014 F40.
X55.894 F10.
X55.875 Y46.902
Y44.069 F40.
X55.874 Y44.022
X55.872 Y43.998
X55.867 Y43.975
X55.861 Y43.955
X55.854 Y43.934
X55.845 Y43.914
X55.834 Y43.893
X55.821 Y43.873
X55.805 Y43.852
X55.784 Y43.83
X55.763 Y43.811
X55.746 Y43.799
X55.729 Y43.788
X55.71 Y43.777
X55.69 Y43.768
X55.671 Y43.761
X55.652 Y43.756
X55.633 Y43.751
X55.614 Y43.748
X55.595 Y43.746
X55.576
X52.762
X52.715
X52.692 Y43.747
X52.669 Y43.751
X52.645 Y43.757
X52.622 Y43.764
X52.598 Y43.774
X52.575 Y43.786
X52.572 Y43.788
X52.548 Y43.804
X52.524 Y43.824
X52.509 Y43.838
X52.496 Y43.853
X52.485 Y43.867
X52.475 Y43.881
X52.461 Y43.905
X52.45 Y43.928
X52.441 Y43.952
X52.434 Y43.975
X52.429 Y43.998
X52.427 Y44.022
X52.426 Y44.069
Y46.782
Y46.902 F10.
X52.406 Y46.918
X49.728 F40.
X49.608 F10.
X49.587 Y46.902
Y44.069 F40.
X49.586 Y44.022
X49.583 Y43.998
X49.578 Y43.975
X49.574 Y43.96
X49.567 Y43.938
X49.558 Y43.917
X49.546 Y43.895
X49.533 Y43.874
X49.523 Y43.861
X49.512 Y43.848
X49.5 Y43.835
X49.486 Y43.822
X49.463 Y43.803
X49.44 Y43.788
X49.426 Y43.78
X49.413 Y43.774
X49.4 Y43.768
X49.387 Y43.763
X49.363 Y43.755
X49.34 Y43.75
X49.316 Y43.747
X49.293 Y43.746
X49.011
X46.433
X46.409 Y43.747
X46.386 Y43.75
X46.361 Y43.756
X46.348 Y43.759
X46.335 Y43.764
X46.323 Y43.769
X46.31 Y43.774
X46.298 Y43.781
X46.285 Y43.788
X46.263 Y43.802
X46.242 Y43.819
X46.218 Y43.842
X46.198 Y43.865
X46.189 Y43.879
X46.18 Y43.893
X46.172 Y43.907
X46.166 Y43.92
X46.16 Y43.934
X46.155 Y43.948
X46.15 Y43.961
X46.147 Y43.975
X46.142 Y43.998
X46.139 Y44.022
X46.138 Y44.069
Y46.782
Y46.902 F10.
X46.122 Y46.918
X43.441 F40.
X43.321 F10.
X43.299 Y46.902
Y44.069 F40.
X43.298 Y44.022
X43.295 Y43.998
X43.291 Y43.975
X43.285 Y43.956
X43.279 Y43.936
X43.27 Y43.917
X43.26 Y43.898
X43.248 Y43.878
X43.234 Y43.859
X43.217 Y43.84
X43.198 Y43.821
X43.175 Y43.802
X43.152 Y43.788
X43.135 Y43.778
X43.117 Y43.77
X43.099 Y43.763
X43.081 Y43.757
X43.063 Y43.753
X43.046 Y43.749
X43.028 Y43.747
X43.01 Y43.746
X42.822
X40.15
X40.126
X40.103 Y43.749
X40.08 Y43.754
X40.056 Y43.76
X40.033 Y43.769
X40.009 Y43.78
X39.996 Y43.788
X39.972 Y43.804
X39.947 Y43.824
X39.933 Y43.838
X39.92 Y43.853
X39.908 Y43.867
X39.898 Y43.881
X39.884 Y43.905
X39.873 Y43.928
X39.864 Y43.952
X39.858 Y43.975
X39.853 Y43.998
X39.85 Y44.022
X39.849 Y44.069
Y46.782
Y46.902 F10.
X39.836 Y46.918
X37.154 F40.
X37.034 F10.
X37.01 Y46.902
Y44.051 F40.
Y44.032
X37.009 Y44.014
X37.006 Y43.994
X37.002 Y43.975
X36.995 Y43.952
X36.986 Y43.928
X36.975 Y43.905
X36.961 Y43.881
X36.951 Y43.867
X36.94 Y43.853
X36.927 Y43.838
X36.912 Y43.824
X36.888 Y43.804
X36.863 Y43.788
X36.842 Y43.776
X36.821 Y43.767
X36.798 Y43.759
X36.774 Y43.752
X36.751 Y43.748
X36.727 Y43.746
X36.633
X33.867
X33.844
X33.82 Y43.748
X33.806 Y43.75
X33.792 Y43.753
X33.777 Y43.757
X33.763 Y43.761
X33.749 Y43.767
X33.735 Y43.773
X33.72 Y43.78
X33.706 Y43.788
X33.688 Y43.799
X33.669 Y43.813
X33.651 Y43.83
X33.633 Y43.849
X33.62 Y43.865
X33.609 Y43.88
X33.599 Y43.896
X33.591 Y43.912
X33.583 Y43.928
X33.577 Y43.943
X33.572 Y43.959
X33.568 Y43.975
X33.563 Y43.998
X33.56 Y44.022
X33.559 Y44.069
Y46.782
Y46.902 F10.
X33.545 Y46.919
X33.531
X31.856 F40.
X31.736 F10.
X31.712 Y46.902
X32.091 Y45.287 F40.
X32.132 Y45.132
X32.61 Y43.576
X32.645 Y43.462 F10.
X32.667 Y43.442
X69.172 Y43.435 F40.
X69.292 F10.
X69.311 Y43.456
X69.829 Y45.142 F40.
X69.867 Y45.287
X70.219 Y46.784
X70.247 Y46.901 F10.
X70.223 Y46.918
X68.587 F40.
X68.467 F10.
X68.45 Y46.901
Y44.069 F40.
X68.449 Y44.022
X68.447 Y43.998
X68.442 Y43.975
X68.436 Y43.954
X68.428 Y43.932
X68.419 Y43.911
X68.407 Y43.89
X68.392 Y43.868
X68.375 Y43.847
X68.352 Y43.823
X68.329 Y43.804
X68.304 Y43.788
X68.283 Y43.777
X68.263 Y43.767
X68.243 Y43.76
X68.222 Y43.754
X68.202 Y43.75
X68.182 Y43.747
X68.161 Y43.746
X68.141
X65.328
X65.283
X65.26 Y43.748
X65.238 Y43.752
X65.215 Y43.758
X65.193 Y43.766
X65.17 Y43.776
X65.147 Y43.788
X65.14 Y43.792
X65.117 Y43.808
X65.094 Y43.828
X65.081 Y43.842
X65.068 Y43.856
X65.058 Y43.87
X65.048 Y43.884
X65.035 Y43.906
X65.024 Y43.929
X65.016 Y43.952
X65.009 Y43.975
X65.004 Y43.998
X65.002 Y44.022
X65.001 Y44.069
Y46.782
Y46.902 F10.
X64.977 Y46.918
X62.185 F40.
X62.164 Y46.897
Y46.868 Z-0.091
Y46.813
Y46.697 Z-0.093
Y46.582 Z-0.096
Y46.467 Z-0.099
Y46.236 Z-0.107
Y46.121 Z-0.11
Y46.006 Z-0.113
Y45.89 Z-0.115
Y45.804
Y45.775
Y44.069
X62.163 Y44.022
X62.16 Y43.998
X62.156 Y43.975
X62.149 Y43.951
X62.14 Y43.927
X62.131 Y43.909
X62.122 Y43.892
X62.111 Y43.874
X62.098 Y43.857
X62.079 Y43.837
X62.058 Y43.816
X62.037 Y43.801
X62.017 Y43.788
X62.001 Y43.779
X61.985 Y43.771
X61.968 Y43.764
X61.952 Y43.759
X61.929 Y43.753
X61.905 Y43.748
X61.882 Y43.746
X61.858
X59.045
X58.998
X58.975 Y43.748
X58.951 Y43.752
X58.929 Y43.758
X58.906 Y43.766
X58.884 Y43.776
X58.861 Y43.788
X58.837 Y43.804
X58.813 Y43.824
X58.798 Y43.838
X58.785 Y43.852
X58.774 Y43.867
X58.764 Y43.881
X58.75 Y43.904
X58.739 Y43.928
X58.73 Y43.951
X58.723 Y43.975
X58.718 Y43.998
X58.715 Y44.022
X58.714 Y44.069
Y46.782
Y46.902 F10.
X58.697 Y46.918
X56.014 F40.
X55.894 F10.
X55.875 Y46.902
Y44.069 F40.
X55.874 Y44.022
X55.872 Y43.998
X55.867 Y43.975
X55.861 Y43.955
X55.854 Y43.934
X55.845 Y43.914
X55.834 Y43.893
X55.821 Y43.873
X55.805 Y43.852
X55.784 Y43.83
X55.763 Y43.811
X55.746 Y43.799
X55.729 Y43.788
X55.71 Y43.777
X55.69 Y43.768
X55.671 Y43.761
X55.652 Y43.756
X55.633 Y43.751
X55.614 Y43.748
X55.595 Y43.746
X55.576
X52.762
X52.715
X52.692 Y43.747
X52.669 Y43.751
X52.645 Y43.757
X52.622 Y43.764
X52.598 Y43.774
X52.575 Y43.786
X52.572 Y43.788
X52.548 Y43.804
X52.524 Y43.824
X52.509 Y43.838
X52.496 Y43.853
X52.485 Y43.867
X52.475 Y43.881
X52.461 Y43.905
X52.45 Y43.928
X52.441 Y43.952
X52.434 Y43.975
X52.429 Y43.998
X52.427 Y44.022
X52.426 Y44.069
Y46.782
Y46.902 F10.
X52.406 Y46.918
X49.728 F40.
X49.608 F10.
X49.587 Y46.902
Y44.069 F40.
X49.586 Y44.022
X49.583 Y43.998
X49.578 Y43.975
X49.574 Y43.96
X49.567 Y43.938
X49.558 Y43.917
X49.546 Y43.895
X49.533 Y43.874
X49.523 Y43.861
X49.512 Y43.848
X49.5 Y43.835
X49.486 Y43.822
X49.463 Y43.803
X49.44 Y43.788
X49.426 Y43.78
X49.413 Y43.774
X49.4 Y43.768
X49.387 Y43.763
X49.363 Y43.755
X49.34 Y43.75
X49.316 Y43.747
X49.293 Y43.746
X49.011
X46.433
X46.409 Y43.747
X46.386 Y43.75
X46.361 Y43.756
X46.348 Y43.759
X46.335 Y43.764
X46.323 Y43.769
X46.31 Y43.774
X46.298 Y43.781
X46.285 Y43.788
X46.263 Y43.802
X46.242 Y43.819
X46.218 Y43.842
X46.198 Y43.865
X46.189 Y43.879
X46.18 Y43.893
X46.172 Y43.907
X46.166 Y43.92
X46.16 Y43.934
X46.155 Y43.948
X46.15 Y43.961
X46.147 Y43.975
X46.142 Y43.998
X46.139 Y44.022
X46.138 Y44.069
Y46.782
Y46.902 F10.
X46.122 Y46.918
X43.441 F40.
X43.321 F10.
X43.299 Y46.902
Y44.069 F40.
X43.298 Y44.022
X43.295 Y43.998
X43.291 Y43.975
X43.285 Y43.956
X43.279 Y43.936
X43.27 Y43.917
X43.26 Y43.898
X43.248 Y43.878
X43.234 Y43.859
X43.217 Y43.84
X43.198 Y43.821
X43.175 Y43.802
X43.152 Y43.788
X43.135 Y43.778
X43.117 Y43.77
X43.099 Y43.763
X43.081 Y43.757
X43.063 Y43.753
X43.046 Y43.749
X43.028 Y43.747
X43.01 Y43.746
X42.822
X40.15
X40.126
X40.103 Y43.749
X40.08 Y43.754
X40.056 Y43.76
X40.033 Y43.769
X40.009 Y43.78
X39.996 Y43.788
X39.972 Y43.804
X39.947 Y43.824
X39.933 Y43.838
X39.92 Y43.853
X39.908 Y43.867
X39.898 Y43.881
X39.884 Y43.905
X39.873 Y43.928
X39.864 Y43.952
X39.858 Y43.975
X39.853 Y43.998
X39.85 Y44.022
X39.849 Y44.069
Y46.782
Y46.902 F10.
X39.836 Y46.918
X37.154 F40.
X37.034 F10.
X37.01 Y46.902
Y44.051 F40.
Y44.032
X37.009 Y44.014
X37.006 Y43.994
X37.002 Y43.975
X36.995 Y43.952
X36.986 Y43.928
X36.975 Y43.905
X36.961 Y43.881
X36.951 Y43.867
X36.94 Y43.853
X36.927 Y43.838
X36.912 Y43.824
X36.888 Y43.804
X36.863 Y43.788
X36.842 Y43.776
X36.821 Y43.767
X36.798 Y43.759
X36.774 Y43.752
X36.751 Y43.748
X36.727 Y43.746
X36.633
X33.867
X33.844
X33.82 Y43.748
X33.806 Y43.75
X33.792 Y43.753
X33.777 Y43.757
X33.763 Y43.761
X33.749 Y43.767
X33.735 Y43.773
X33.72 Y43.78
X33.706 Y43.788
X33.688 Y43.799
X33.669 Y43.813
X33.651 Y43.83
X33.633 Y43.849
X33.62 Y43.865
X33.609 Y43.88
X33.599 Y43.896
X33.591 Y43.912
X33.583 Y43.928
X33.577 Y43.943
X33.572 Y43.959
X33.568 Y43.975
X33.563 Y43.998
X33.56 Y44.022
X33.559 Y44.069
Y46.782
Y46.902 F10.
X33.545 Y46.919
X33.531
X31.856 F40.
X31.736 F10.
X31.712 Y46.902
X32.091 Y45.287 F40.
X32.132 Y45.132
X32.61 Y43.576
X32.645 Y43.462 F10.
X32.667 Y43.442
X69.172 Y43.435 F40.
X69.292 F10.
X69.311 Y43.456
X69.829 Y45.142 F40.
X69.867 Y45.287
X70.219 Y46.784
X70.247 Y46.901 F10.
X70.223 Y46.918
X68.587 F40.
X68.467 F10.
X68.45 Y46.901
Y44.069 F40.
X68.449 Y44.022
X68.447 Y43.998
X68.442 Y43.975
X68.436 Y43.954
X68.428 Y43.932
X68.419 Y43.911
X68.407 Y43.89
X68.392 Y43.868
X68.375 Y43.847
X68.352 Y43.823
X68.329 Y43.804
X68.304 Y43.788
X68.283 Y43.777
X68.263 Y43.767
X68.243 Y43.76
X68.222 Y43.754
X68.202 Y43.75
X68.182 Y43.747
X68.161 Y43.746
X68.141
X65.328
X65.283
X65.26 Y43.748
X65.238 Y43.752
X65.215 Y43.758
X65.193 Y43.766
X65.17 Y43.776
X65.147 Y43.788
X65.14 Y43.792
X65.117 Y43.808
X65.094 Y43.828
X65.081 Y43.842
X65.068 Y43.856
X65.058 Y43.87
X65.048 Y43.884
X65.035 Y43.906
X65.024 Y43.929
X65.016 Y43.952
X65.009 Y43.975
X65.004 Y43.998
X65.002 Y44.022
X65.001 Y44.069
Y46.782
Y46.902 F10.
X64.977 Y46.918
X62.305 F40.
X62.185 F10.
X62.164 Y46.902
Y45.775 F40.
X62.17 Y45.749
X62.187 Y45.728
X62.211 Y45.717
X62.238
G0 Z5.
X65.314 Y47.327
Z0.985
G1 Z-0.115 F40.
X65.296 Y47.309
X65.287 Y47.285
X65.289 Y47.26
X65.301 Y47.238
X65.314 Y47.222 F10.
X67.982 F40.
X68.102 F10.
X68.123 Y47.238
Y49.957 F40.
Y50.077 F10.
X68.102 Y50.092
X65.434 F40.
X65.314 F10.
X65.301 Y50.077
Y47.238 F40.
X65.345 Y47.222
X65.392 Z-0.116
X65.484 Z-0.117
X65.675 Z-0.12
X65.865 Z-0.125
X66.056 Z-0.131
X66.437 Z-0.145
X66.627 Z-0.151
X66.818 Z-0.156
X67.008 Z-0.159
X67.199 Z-0.161
X67.249
X67.982
X68.102 F10.
X68.123 Y47.238
Y49.957 F40.
Y50.077 F10.
X68.102 Y50.092
X65.434 F40.
X65.314 F10.
X65.301 Y50.077
Y47.358 F40.
Y47.238 F10.
X65.314 Y47.222
X67.249 F40.
X67.272 Z-0.156
X67.291 Z-0.143
X67.304 Z-0.124
X67.309 Z-0.101
G0 Z5.
X60.294
Z0.985
G1 Z-0.003 F40.
X60.302 Z-0.032 F17.
X60.323 Z-0.054
X60.352 Z-0.063
X61.832 Z-0.114
X61.852 Y47.237 Z-0.115
X61.854 Y47.238
Y49.957 F40.
Y50.077 F10.
X61.832 Y50.092
X59.15 F40.
X59.03 F10.
X59.015 Y50.077
Y47.358 F40.
Y47.238 F10.
X59.03 Y47.222
X61.712 F40.
X61.832 F10.
X61.854 Y47.238 F40.
Y47.285
Y47.333 Z-0.116
Y47.428 Z-0.117
Y47.619 Z-0.12
Y47.809 Z-0.125
Y48. Z-0.131
Y48.381 Z-0.145
Y48.571 Z-0.151
Y48.762 Z-0.156
Y48.952 Z-0.159
Y49.143 Z-0.161
Y49.193
Y49.957
Y50.077 F10.
X61.832 Y50.092
X59.15 F40.
X59.03 F10.
X59.015 Y50.077
Y47.358 F40.
Y47.238 F10.
X59.03 Y47.222
X61.712 F40.
X61.832 F10.
X61.854 Y47.238
Y49.193 F40.
G0 Z5.
X55.492 Y49.134
Z0.982
G1 Z-0.115 F40.
X55.518
X55.542 Y49.146
X55.559 Y49.167
X55.565 Y49.193
Y49.957
Y50.077 F10.
X55.543 Y50.092
X52.864 F40.
X52.744 F10.
X52.726 Y50.077
Y47.358 F40.
Y47.238 F10.
X52.744 Y47.222
X55.423 F40.
X55.543 F10.
X55.565 Y47.238
Y49.193 F40.
Y49.24
Y49.288 Z-0.116
Y49.383 Z-0.117
Y49.574 Z-0.12
Y49.764 Z-0.125
Y50.038 Z-0.134
Y50.066 Z-0.135
X55.556 Y50.092
X55.502 Z-0.137
X55.311 Z-0.143
X55.121 Z-0.15
X54.93 Z-0.155
X54.74 Z-0.159
X54.549 Z-0.161
X54.499
X52.864
X52.744 F10.
X52.726 Y50.077
Y47.358 F40.
Y47.238 F10.
X52.744 Y47.222
X55.423 F40.
X55.543 F10.
X55.565 Y47.238
Y49.193 F40.
Y49.957
Y50.077 F10.
X55.543 Y50.092
X54.499 F40.
G0 Z5.
X46.546 Y50.081
Z0.985
G1 Z-0.115 F40.
X46.527 Y50.099
X46.503 Y50.107
X46.478 Y50.105
X46.455 Y50.092
X46.438 Y50.077 F10.
Y47.358 F40.
Y47.238 F10.
X46.455 Y47.222
X49.136 F40.
X49.256 F10.
X49.275 Y47.238
Y49.957 F40.
Y50.077 F10.
X49.256 Y50.092
X46.455 F40.
X46.438 Y50.048
Y50.002 Z-0.116
Y49.909 Z-0.117
Y49.719 Z-0.12
Y49.528 Z-0.125
Y49.338 Z-0.131
Y48.957 Z-0.145
Y48.766 Z-0.151
Y48.576 Z-0.156
Y48.385 Z-0.159
Y48.195 Z-0.161
Y48.145
Y47.358
Y47.238 F10.
X46.455 Y47.222
X49.136 F40.
X49.256 F10.
X49.275 Y47.238
Y49.957 F40.
Y50.077 F10.
X49.256 Y50.092
X46.575 F40.
X46.455 F10.
X46.438 Y50.077
Y48.145 F40.
G0 Z5.
X42.915 Y48.086
Z0.982
G1 Z-0.115 F40.
X42.942
X42.966 Y48.098
X42.983 Y48.119
X42.989 Y48.145
Y49.957
Y50.077 F10.
X42.968 Y50.092
X40.293 F40.
X40.173 F10.
X40.15 Y50.077
Y47.358 F40.
Y47.238 F10.
X40.173 Y47.222
X42.848 F40.
X42.968 F10.
X42.989 Y47.238
Y48.145 F40.
Y48.192
Y48.24 Z-0.116
Y48.335 Z-0.117
Y48.526 Z-0.12
Y48.716 Z-0.125
Y48.907 Z-0.131
Y49.288 Z-0.145
Y49.478 Z-0.151
Y49.669 Z-0.156
Y49.859 Z-0.159
Y49.955 Z-0.16
Y50.002 Z-0.161
Y50.05
X42.972 Y50.092
X42.97 Y50.09
X42.968 Y50.092 F10.
X40.293 F40.
X40.173 F10.
X40.15 Y50.077
Y47.358 F40.
Y47.238 F10.
X40.173 Y47.222
X42.848 F40.
X42.968 F10.
X42.989 Y47.238
Y49.957 F40.
Y50.077 F10.
X42.97 Y50.09 F40.
X42.964 Y50.095 Z-0.145
X42.962 Y50.097 Z-0.127
G0 Z5.
X36.698 Y49.987
Z0.985
G1 Z-0.115 F40.
X36.714 Y50.007
X36.719 Y50.031
X36.715 Y50.056
X36.7 Y50.077
X36.683 Y50.092 F10.
X33.976 F40.
X33.856 F10.
X33.834 Y50.077
Y47.358 F40.
Y47.238 F10.
X33.856 Y47.222
X33.921
X36.563 F40.
X36.683 F10.
X36.7 Y47.238
Y50.077 F40.
X36.655 Y50.092
X36.608 Z-0.116
X36.515 Z-0.117
X36.325 Z-0.12
X36.134 Z-0.125
X35.944 Z-0.131
X35.563 Z-0.145
X35.372 Z-0.151
X35.182 Z-0.156
X34.991 Z-0.159
X34.801 Z-0.161
X34.751
X33.976
X33.856 F10.
X33.834 Y50.077
Y47.358 F40.
Y47.238 F10.
X33.856 Y47.222
X33.921
X36.563 F40.
X36.683 F10.
X36.7 Y47.238
Y49.957 F40.
Y50.077 F10.
X36.683 Y50.092
X34.751 F40.
G0 Z5.
X33.606 Y46.86
Z0.985
G1 Z-0.067 F40.
X33.604 Y46.873 Z-0.114
X33.598 Y46.889 Z-0.131
X33.588 Y46.902 Z-0.148
X33.568 Y46.915 Z-0.154
X33.545 Y46.919 Z-0.161
X33.531
X31.856
X31.736 F10.
X31.712 Y46.902
X32.091 Y45.287 F40.
X32.132 Y45.132
X32.61 Y43.576
X32.645 Y43.462 F10.
X32.667 Y43.442
X69.172 Y43.435 F40.
X69.292 F10.
X69.311 Y43.456
X69.829 Y45.142 F40.
X69.867 Y45.287
X70.219 Y46.784
X70.247 Y46.901 F10.
X70.223 Y46.918
X68.587 F40.
X68.467 F10.
X68.45 Y46.901
Y44.069 F40.
X68.449 Y44.022
X68.447 Y43.998
X68.442 Y43.975
X68.436 Y43.954
X68.428 Y43.932
X68.419 Y43.911
X68.407 Y43.89
X68.392 Y43.868
X68.375 Y43.847
X68.352 Y43.823
X68.329 Y43.804
X68.304 Y43.788
X68.283 Y43.777
X68.263 Y43.767
X68.243 Y43.76
X68.222 Y43.754
X68.202 Y43.75
X68.182 Y43.747
X68.161 Y43.746
X68.141
X65.328
X65.283
X65.26 Y43.748
X65.238 Y43.752
X65.215 Y43.758
X65.193 Y43.766
X65.17 Y43.776
X65.147 Y43.788
X65.14 Y43.792
X65.117 Y43.808
X65.094 Y43.828
X65.081 Y43.842
X65.068 Y43.856
X65.058 Y43.87
X65.048 Y43.884
X65.035 Y43.906
X65.024 Y43.929
X65.016 Y43.952
X65.009 Y43.975
X65.004 Y43.998
X65.002 Y44.022
X65.001 Y44.069
Y46.782
Y46.902 F10.
X64.977 Y46.918
X62.305 F40.
X62.185 F10.
X62.164 Y46.902
Y44.069 F40.
X62.163 Y44.022
X62.16 Y43.998
X62.156 Y43.975
X62.149 Y43.951
X62.14 Y43.927
X62.131 Y43.909
X62.122 Y43.892
X62.111 Y43.874
X62.098 Y43.857
X62.079 Y43.837
X62.058 Y43.816
X62.037 Y43.801
X62.017 Y43.788
X62.001 Y43.779
X61.985 Y43.771
X61.968 Y43.764
X61.952 Y43.759
X61.929 Y43.753
X61.905 Y43.748
X61.882 Y43.746
X61.858
X59.045
X58.998
X58.975 Y43.748
X58.951 Y43.752
X58.929 Y43.758
X58.906 Y43.766
X58.884 Y43.776
X58.861 Y43.788
X58.837 Y43.804
X58.813 Y43.824
X58.798 Y43.838
X58.785 Y43.852
X58.774 Y43.867
X58.764 Y43.881
X58.75 Y43.904
X58.739 Y43.928
X58.73 Y43.951
X58.723 Y43.975
X58.718 Y43.998
X58.715 Y44.022
X58.714 Y44.069
Y46.782
Y46.902 F10.
X58.697 Y46.918
X56.014 F40.
X55.894 F10.
X55.875 Y46.902
Y44.069 F40.
X55.874 Y44.022
X55.872 Y43.998
X55.867 Y43.975
X55.861 Y43.955
X55.854 Y43.934
X55.845 Y43.914
X55.834 Y43.893
X55.821 Y43.873
X55.805 Y43.852
X55.784 Y43.83
X55.763 Y43.811
X55.746 Y43.799
X55.729 Y43.788
X55.71 Y43.777
X55.69 Y43.768
X55.671 Y43.761
X55.652 Y43.756
X55.633 Y43.751
X55.614 Y43.748
X55.595 Y43.746
X55.576
X52.762
X52.715
X52.692 Y43.747
X52.669 Y43.751
X52.645 Y43.757
X52.622 Y43.764
X52.598 Y43.774
X52.575 Y43.786
X52.572 Y43.788
X52.548 Y43.804
X52.524 Y43.824
X52.509 Y43.838
X52.496 Y43.853
X52.485 Y43.867
X52.475 Y43.881
X52.461 Y43.905
X52.45 Y43.928
X52.441 Y43.952
X52.434 Y43.975
X52.429 Y43.998
X52.427 Y44.022
X52.426 Y44.069
Y46.782
Y46.902 F10.
X52.406 Y46.918
X49.728 F40.
X49.608 F10.
X49.587 Y46.902
Y44.069 F40.
X49.586 Y44.022
X49.583 Y43.998
X49.578 Y43.975
X49.574 Y43.96
X49.567 Y43.938
X49.558 Y43.917
X49.546 Y43.895
X49.533 Y43.874
X49.523 Y43.861
X49.512 Y43.848
X49.5 Y43.835
X49.486 Y43.822
X49.463 Y43.803
X49.44 Y43.788
X49.426 Y43.78
X49.413 Y43.774
X49.4 Y43.768
X49.387 Y43.763
X49.363 Y43.755
X49.34 Y43.75
X49.316 Y43.747
X49.293 Y43.746
X49.011
X46.433
X46.409 Y43.747
X46.386 Y43.75
X46.361 Y43.756
X46.348 Y43.759
X46.335 Y43.764
X46.323 Y43.769
X46.31 Y43.774
X46.298 Y43.781
X46.285 Y43.788
X46.263 Y43.802
X46.242 Y43.819
X46.218 Y43.842
X46.198 Y43.865
X46.189 Y43.879
X46.18 Y43.893
X46.172 Y43.907
X46.166 Y43.92
X46.16 Y43.934
X46.155 Y43.948
X46.15 Y43.961
X46.147 Y43.975
X46.142 Y43.998
X46.139 Y44.022
X46.138 Y44.069
Y46.782
Y46.902 F10.
X46.122 Y46.918
X43.441 F40.
X43.321 F10.
X43.299 Y46.902
Y44.069 F40.
X43.298 Y44.022
X43.295 Y43.998
X43.291 Y43.975
X43.285 Y43.956
X43.279 Y43.936
X43.27 Y43.917
X43.26 Y43.898
X43.248 Y43.878
X43.234 Y43.859
X43.217 Y43.84
X43.198 Y43.821
X43.175 Y43.802
X43.152 Y43.788
X43.135 Y43.778
X43.117 Y43.77
X43.099 Y43.763
X43.081 Y43.757
X43.063 Y43.753
X43.046 Y43.749
X43.028 Y43.747
X43.01 Y43.746
X42.822
X40.15
X40.126
X40.103 Y43.749
X40.08 Y43.754
X40.056 Y43.76
X40.033 Y43.769
X40.009 Y43.78
X39.996 Y43.788
X39.972 Y43.804
X39.947 Y43.824
X39.933 Y43.838
X39.92 Y43.853
X39.908 Y43.867
X39.898 Y43.881
X39.884 Y43.905
X39.873 Y43.928
X39.864 Y43.952
X39.858 Y43.975
X39.853 Y43.998
X39.85 Y44.022
X39.849 Y44.069
Y46.782
Y46.902 F10.
X39.836 Y46.918
X37.154 F40.
X37.034 F10.
X37.01 Y46.902
Y44.051 F40.
Y44.032
X37.009 Y44.014
X37.006 Y43.994
X37.002 Y43.975
X36.995 Y43.952
X36.986 Y43.928
X36.975 Y43.905
X36.961 Y43.881
X36.951 Y43.867
X36.94 Y43.853
X36.927 Y43.838
X36.912 Y43.824
X36.888 Y43.804
X36.863 Y43.788
X36.842 Y43.776
X36.821 Y43.767
X36.798 Y43.759
X36.774 Y43.752
X36.751 Y43.748
X36.727 Y43.746
X36.633
X33.867
X33.844
X33.82 Y43.748
X33.806 Y43.75
X33.792 Y43.753
X33.777 Y43.757
X33.763 Y43.761
X33.749 Y43.767
X33.735 Y43.773
X33.72 Y43.78
X33.706 Y43.788
X33.688 Y43.799
X33.669 Y43.813
X33.651 Y43.83
X33.633 Y43.849
X33.62 Y43.865
X33.609 Y43.88
X33.599 Y43.896
X33.591 Y43.912
X33.583 Y43.928
X33.577 Y43.943
X33.572 Y43.959
X33.568 Y43.975
X33.563 Y43.998
X33.56 Y44.022
X33.559 Y44.069
Y46.782
Y46.902 F10.
X33.545 Y46.919 F40.
G0 Z5.
X33.497 Y50.354
Z0.985
G1 Z-0.067 F40.
X33.51 Y50.355 Z-0.114
X33.526 Y50.361 Z-0.131
X33.54 Y50.372 Z-0.148
X33.553 Y50.391 Z-0.154
X33.557 Y50.414 Z-0.161
Y53.273
X33.558 Y53.296
X33.561 Y53.32
X33.566 Y53.343
X33.571 Y53.359
X33.576 Y53.374
X33.583 Y53.39
X33.59 Y53.406
X33.599 Y53.421
X33.609 Y53.437
X33.62 Y53.452
X33.633 Y53.468
X33.652 Y53.488
X33.672 Y53.505
X33.691 Y53.519
X33.71 Y53.531
X33.724 Y53.538
X33.738 Y53.544
X33.752 Y53.55
X33.765 Y53.555
X33.779 Y53.559
X33.793 Y53.562
X33.807 Y53.565
X33.82 Y53.567
X33.844 Y53.569
X33.867
X36.633
X36.727 Y53.568
X36.751 Y53.566
X36.774 Y53.562
X36.798 Y53.555
X36.821 Y53.547
X36.838 Y53.539
X36.855 Y53.531
X36.867 Y53.523
X36.88 Y53.515
X36.893 Y53.505
X36.906 Y53.495
X36.921 Y53.48
X36.934 Y53.466
X36.946 Y53.451
X36.957 Y53.437
X36.971 Y53.413
X36.982 Y53.39
X36.992 Y53.367
X36.999 Y53.343
X37.004 Y53.32
X37.007 Y53.296
X37.008 Y53.273
Y50.533
Y50.413 F10.
X37.009 Y50.396
X39.714 F40.
X39.834 F10.
X39.847 Y50.413
Y53.273 F40.
X39.848 Y53.296
X39.852 Y53.32
X39.857 Y53.343
X39.864 Y53.367
X39.873 Y53.39
X39.884 Y53.413
X39.899 Y53.437
X39.909 Y53.451
X39.921 Y53.466
X39.934 Y53.48
X39.95 Y53.495
X39.962 Y53.505
X39.975 Y53.515
X39.988 Y53.523
X40. Y53.531
X40.009 Y53.535
X40.033 Y53.546
X40.056 Y53.555
X40.08 Y53.561
X40.103 Y53.566
X40.126 Y53.568
X40.15 Y53.569
X42.822
X43.01
X43.027 Y53.567
X43.043 Y53.565
X43.06 Y53.562
X43.077 Y53.558
X43.094 Y53.553
X43.11 Y53.547
X43.127 Y53.539
X43.144 Y53.531
X43.157 Y53.523
X43.171 Y53.513
X43.184 Y53.503
X43.198 Y53.492
X43.216 Y53.473
X43.232 Y53.455
X43.246 Y53.436
X43.257 Y53.418
X43.267 Y53.399
X43.275 Y53.38
X43.282 Y53.362
X43.288 Y53.343
X43.293 Y53.32
X43.296 Y53.296
X43.297 Y53.273
Y50.533
Y50.413 F10.
X43.319 Y50.396
X46. F40.
X46.12 F10.
X46.136 Y50.413
Y53.273 F40.
X46.137 Y53.296
X46.14 Y53.32
X46.145 Y53.343
X46.149 Y53.357
X46.154 Y53.37
X46.159 Y53.384
X46.165 Y53.398
X46.172 Y53.411
X46.18 Y53.425
X46.188 Y53.438
X46.198 Y53.452
X46.219 Y53.476
X46.231 Y53.488
X46.244 Y53.499
X46.266 Y53.516
X46.289 Y53.531
X46.313 Y53.543
X46.338 Y53.552
X46.362 Y53.56
X46.386 Y53.565
X46.409 Y53.568
X46.433 Y53.569
X49.199
X49.293
X49.316 Y53.567
X49.34 Y53.564
X49.363 Y53.558
X49.387 Y53.551
X49.409 Y53.542
X49.431 Y53.531
X49.444 Y53.523
X49.456 Y53.515
X49.469 Y53.505
X49.481 Y53.495
X49.496 Y53.482
X49.51 Y53.467
X49.521 Y53.453
X49.532 Y53.439
X49.546 Y53.416
X49.558 Y53.393
X49.567 Y53.37
X49.574 Y53.347
X49.575 Y53.343
X49.58 Y53.32
X49.583 Y53.296
X49.584 Y53.273
Y50.533
Y50.413 F10.
X49.607 Y50.396
X52.285 F40.
X52.405 F10.
X52.423 Y50.413
X52.424 Y53.273 F40.
X52.425 Y53.296
X52.428 Y53.32
X52.433 Y53.343
X52.44 Y53.366
X52.449 Y53.39
X52.46 Y53.413
X52.475 Y53.436
X52.485 Y53.451
X52.496 Y53.465
X52.51 Y53.479
X52.525 Y53.494
X52.537 Y53.504
X52.55 Y53.513
X52.562 Y53.522
X52.575 Y53.529
X52.577 Y53.531
X52.6 Y53.542
X52.623 Y53.552
X52.646 Y53.559
X52.67 Y53.564
X52.693 Y53.567
X52.716 Y53.569
X52.762
X55.576
X55.594 Y53.568
X55.612 Y53.566
X55.63 Y53.564
X55.648 Y53.559
X55.666 Y53.554
X55.684 Y53.548
X55.702 Y53.54
X55.72 Y53.531
X55.741 Y53.517
X55.763 Y53.501
X55.783 Y53.483
X55.803 Y53.462
X55.818 Y53.442
X55.831 Y53.422
X55.842 Y53.402
X55.851 Y53.383
X55.858 Y53.363
X55.864 Y53.343
X55.869 Y53.32
X55.872 Y53.296
X55.873 Y53.273
Y50.533
Y50.413 F10.
X55.893 Y50.396
X58.575 F40.
X58.695 F10.
X58.712 Y50.413
Y53.273 F40.
X58.714 Y53.296
X58.717 Y53.32
X58.722 Y53.343
X58.729 Y53.367
X58.738 Y53.39
X58.749 Y53.414
X58.764 Y53.437
X58.774 Y53.451
X58.786 Y53.466
X58.799 Y53.48
X58.815 Y53.495
X58.827 Y53.505
X58.84 Y53.515
X58.853 Y53.523
X58.866 Y53.531
X58.887 Y53.541
X58.908 Y53.55
X58.93 Y53.557
X58.951 Y53.563
X58.975 Y53.567
X58.998 Y53.569
X59.045
X61.858
X61.882 Y53.568
X61.905 Y53.566
X61.929 Y53.561
X61.952 Y53.555
X61.966 Y53.55
X61.98 Y53.545
X61.995 Y53.538
X62.009 Y53.531
X62.031 Y53.517
X62.052 Y53.501
X62.076 Y53.479
X62.096 Y53.457
X62.11 Y53.438
X62.121 Y53.42
X62.131 Y53.401
X62.14 Y53.383
X62.147 Y53.363
X62.153 Y53.343
X62.158 Y53.32
X62.161 Y53.296
X62.162 Y53.273
Y50.533
Y50.413 F10.
X62.183 Y50.396
X64.856 F40.
X64.976 F10.
X64.998 Y50.413
X64.999 Y53.273 F40.
X65. Y53.296
X65.003 Y53.32
X65.008 Y53.343
X65.015 Y53.366
X65.023 Y53.388
X65.034 Y53.411
X65.048 Y53.433
X65.057 Y53.447
X65.068 Y53.461
X65.08 Y53.475
X65.094 Y53.488
X65.117 Y53.508
X65.14 Y53.524
X65.152 Y53.531
X65.174 Y53.542
X65.196 Y53.551
X65.218 Y53.558
X65.24 Y53.563
X65.262 Y53.567
X65.284 Y53.569
X65.328
X68.141
X68.16
X68.179 Y53.567
X68.199 Y53.565
X68.218 Y53.561
X68.237 Y53.555
X68.256 Y53.549
X68.276 Y53.54
X68.295 Y53.531
X68.312 Y53.52
X68.329 Y53.509
X68.351 Y53.49
X68.373 Y53.467
X68.39 Y53.447
X68.404 Y53.426
X68.415 Y53.405
X68.425 Y53.385
X68.433 Y53.364
X68.439 Y53.343
X68.444 Y53.32
X68.447 Y53.296
X68.448 Y53.273
Y50.533
Y50.413 F10.
X68.465 Y50.396
X70.668 F40.
X70.788 F10.
X70.808 Y50.413
X70.941 Y52.032 F40.
X70.946 Y52.219
X70.988 Y53.744
X70.991 Y53.864 F10.
X70.973 Y53.885
X70.603 F40.
X70.579 Y53.883
X70.556 Y53.88
X70.532 Y53.878
X70.485
X70.392
X70.204 Y53.885
X69.641
X69.454 Y53.878
X69.266
X69.079 Y53.885
X68.516
X68.329 Y53.878
X68.141 Y53.879
X67.953 Y53.885
X67.391
X67.203 Y53.878
X67.11
X67.063 Y53.879
X67.039 Y53.881
X67.016 Y53.885
X66.992 Y53.886
X66.266
X66.242 Y53.882
X66.219 Y53.88
X66.172
X66.078
X65.89 Y53.886
X65.328
X65.14 Y53.88
X64.953
X64.765 Y53.886
X64.203
X64.015 Y53.879
X63.851
X63.827 Y53.88
X63.804 Y53.883
X63.781 Y53.886
X63.077
X62.89 Y53.879
X62.702 Y53.886
X61.975
X61.952 Y53.882
X61.929 Y53.88
X61.905 Y53.879
X61.764
X61.577 Y53.887
X61.014
X60.827 Y53.88
X60.639
X60.452 Y53.887
X59.889
X59.701 Y53.88
X59.514 Y53.881
X59.326 Y53.887
X58.764
X58.576 Y53.88
X58.389 Y53.887
X57.639
X57.451 Y53.881
X57.263 Y53.887
X56.56
X56.537 Y53.885
X56.513 Y53.882
X56.49 Y53.881
X56.326
X56.138 Y53.887
X55.576 Y53.888
X55.388 Y53.881
X55.2
X55.013 Y53.888
X54.45
X54.263 Y53.88
X54.122 Y53.881
X54.099 Y53.882
X54.075 Y53.884
X54.052 Y53.888
X53.325
X53.137 Y53.881
X52.95 Y53.888
X52.247
X52.223 Y53.886
X52.2 Y53.883
X52.176 Y53.881
X52.153
X52.012
X51.825 Y53.888
X51.262
X51.074 Y53.881
X50.887
X50.699 Y53.888
X50.137 Y53.889
X49.949 Y53.881
X49.809
X49.785
X49.762 Y53.883
X49.738 Y53.887
X49.715 Y53.889
X49.011
X48.824 Y53.881
X48.636 Y53.889
X47.91
X47.886 Y53.886
X47.863 Y53.884
X47.839
X47.699
X47.511 Y53.889
X46.948
X46.761 Y53.884
X46.573
X46.386 Y53.889
X45.823
X45.636 Y53.884
X45.495
X45.472
X45.448 Y53.885
X45.425 Y53.889
X45.401
X44.698 Y53.89
X44.51 Y53.884
X44.323 Y53.89
X43.62
X43.596 Y53.887
X43.573 Y53.884
X43.549 Y53.883
X43.479
X43.385
X43.198 Y53.89
X42.635
X42.447 Y53.883
X42.26
X42.072 Y53.89
X41.51
X41.322 Y53.882
X41.181
X41.158 Y53.883
X41.135 Y53.886
X41.111 Y53.89
X41.088
X40.384
X40.197 Y53.884
X40.009 Y53.89
X39.306 Y53.891
X39.283 Y53.889
X39.259 Y53.886
X39.236 Y53.884
X39.212
X39.072
X38.884 Y53.891
X38.321
X38.134 Y53.884
X37.946
X37.759 Y53.891
X37.196
X37.009 Y53.884
X36.868
X36.844
X36.821 Y53.886
X36.798 Y53.889
X36.774 Y53.891
X36.071
X35.883 Y53.884
X35.79
X35.743
X35.719 Y53.886
X35.696 Y53.891
X35.672
X34.969
X34.946 Y53.889
X34.922 Y53.885
X34.899 Y53.884
X34.852
X34.758
X34.57 Y53.891
X34.008
X33.82 Y53.885
X33.633
X33.445 Y53.892
X32.883
X32.695 Y53.885
X32.507
X32.32 Y53.892
X31.757
X31.57 Y53.885
X31.476
X31.429
X31.406 Y53.887
X31.382 Y53.891
X31.359 Y53.892
X31.107
X30.987 F10.
X30.966 Y53.87
X31.011 Y52.219 F40.
X31.017 Y52.032
X31.14 Y50.534
X31.15 Y50.414 F10.
X31.172 Y50.397
X33.409 F40.
X33.529 F10.
X33.543
X33.557 Y50.414 F40.
G0 Z5.
X27.265 Y17.62
Z0.985
G1 Z-0.643 F40.
Y17.644
X27.255 Y17.666
X27.237 Y17.682
X27.215 Y17.69
X27.194 Y17.693 F10.
X26.247 Y16.445 F40.
X26.174 Y16.35 F10.
X26.192 Y16.333
X26.361 Y16.245
X26.379 Y16.239
X26.506 Y16.237 F40.
X26.626 Y16.234 F10.
X26.646
X26.666 Y16.245
X26.901 Y16.377 F40.
X26.921 Y16.39
X27.178 Y16.662
X27.195 Y16.684
X27.374 Y16.995
X27.382 Y17.018
X27.408 Y17.158
X27.429 Y17.276 F10.
X27.431 Y17.299
X27.349 Y17.533 F40.
X27.339 Y17.557
X27.215 Y17.69
X27.188 Y17.684
X27.141 Y17.622
X27.08 Y17.542 Z-0.644
X26.953 Y17.375 Z-0.648
X26.826 Y17.209 Z-0.653
X26.7 Y17.042 Z-0.66
X26.446 Y16.708 Z-0.675
X26.319 Y16.541 Z-0.682
X26.224 Y16.416 Z-0.686
X26.192 Y16.374 Z-0.687
X26.205 Y16.326 Z-0.688
X26.249 Y16.303 Z-0.689
X26.329 Y16.262 Z-0.691
X26.353 Y16.249
X26.378 Y16.24 Z-0.692
X26.431 Y16.239
X26.559 Y16.237 Z-0.693
X26.584 Y16.236
X26.645 Y16.235 F10.
X26.665 Y16.245 F40.
X26.901 Y16.377
X26.921 Y16.39
X27.178 Y16.662
X27.195 Y16.684
X27.374 Y16.995
X27.382 Y17.018
X27.407 Y17.158
X27.429 Y17.276 F10.
X27.43 Y17.299
X27.348 Y17.533 F40.
X27.339 Y17.557
X27.215 Y17.69 F10.
X27.194 Y17.693
X26.247 Y16.445 F40.
X26.174 Y16.35 F10.
X26.192 Y16.333
X26.361 Y16.245
X26.379 Y16.24
X26.584 Y16.236 F40.
X26.627 Y16.235
X26.668 Y16.247
X26.742 Y16.288 Z-0.694
X26.817 Y16.33 Z-0.695
X26.892 Y16.372 Z-0.697
X26.927 Y16.396 Z-0.698
X26.957 Y16.427 Z-0.699
X27.015 Y16.49 Z-0.701
X27.162 Y16.645 Z-0.708
X27.191 Y16.677 Z-0.71
X27.362 Y16.974 Z-0.722
X27.38 Y17.012 Z-0.723
X27.388 Y17.055 Z-0.724
X27.419 Y17.223 Z-0.729
X27.427 Y17.265 Z-0.73
X27.426 Y17.308 Z-0.731
X27.398 Y17.388 Z-0.732
X27.37 Y17.469 Z-0.733
X27.342 Y17.55
X27.31 Y17.588
X27.215 Y17.69 F10.
X27.194 Y17.693
X26.247 Y16.445 F40.
X26.174 Y16.35 F10.
X26.192 Y16.333
X26.361 Y16.245
X26.379 Y16.241
X26.584 Y16.237
X26.644 Y16.235
X26.664 Y16.245
X26.901 Y16.378 F40.
X26.921 Y16.39
X27.178 Y16.662
X27.195 Y16.684
X27.374 Y16.995
X27.381 Y17.018
X27.407 Y17.158
X27.428 Y17.276 F10.
X27.429 Y17.299
X27.348 Y17.533 F40.
X27.339 Y17.557
X27.31 Y17.588
X27.291 Y17.608 Z-0.726
X27.277 Y17.623 Z-0.706
X27.272 Y17.629 Z-0.678
G0 Z5.
X50.427 Y8.253
Z0.984
G1 Z-0.643 F40.
X50.409 Y8.236
X50.4 Y8.215
X50.399 Y8.191
X50.408 Y8.169
X50.421 Y8.149 F10.
X50.61 Y8.17 F40.
X50.63 Y8.173
X50.699 Y8.2
X50.887 Y8.285
X50.943 Y8.312
X50.958 Y8.328
X51.074 Y8.467
X51.112 Y8.515 F10.
X51.129 Y8.539
X51.136 Y8.563 F40.
X51.187 Y8.844
X51.195 Y8.891
X51.193 Y8.915
X51.164 Y9.102
X51.157 Y9.125
X51.122 Y9.209
X51.111 Y9.23
X51.036 Y9.359
X51.016 Y9.382
X50.884 Y9.5
X50.745 Y9.583
X50.722 Y9.593
X50.699 Y9.602
X50.676 Y9.608
X50.556 Y9.626
X50.438 Y9.643 F10.
X50.413 Y9.623
X50.408 Y8.169 F40.
X50.428 Y8.15
X50.506 Y8.158
X50.605 Y8.169 Z-0.644
X50.631 Y8.174
X50.704 Y8.202 Z-0.646
X50.801 Y8.243 Z-0.648
X50.942 Y8.312 Z-0.652
X50.96 Y8.331 Z-0.653
X50.977 Y8.351
X51.11 Y8.513 Z-0.66
X51.126 Y8.534 Z-0.661
X51.135 Y8.559 Z-0.662
X51.163 Y8.713 Z-0.667
X51.196 Y8.893 Z-0.674
X51.192 Y8.92 Z-0.675
X51.164 Y9.101 Z-0.681
X51.156 Y9.126 Z-0.682
X51.126 Y9.199 Z-0.684
X51.114 Y9.222 Z-0.685
X51.061 Y9.312 Z-0.687
X51.035 Y9.357 Z-0.688
X51.02 Y9.379 Z-0.689
X51. Y9.397
X50.902 Y9.484 Z-0.691
X50.881 Y9.499 Z-0.692
X50.836 Y9.526
X50.769 Y9.567 Z-0.693
X50.746 Y9.58
X50.701 Y9.601
X50.699 Y9.602
X50.676 Y9.607
X50.556 Y9.625
X50.438 Y9.642 F10.
X50.413 Y9.622
X50.408 Y8.289 F40.
Y8.169 F10.
X50.421 Y8.149
X50.608 Y8.169 F40.
X50.627 Y8.174
X50.699 Y8.202
X50.887 Y8.285
X50.942 Y8.311 F10.
X50.956 Y8.328 F40.
X51.074 Y8.469
X51.113 Y8.516 F10.
X51.13 Y8.54
X51.135 Y8.563 F40.
X51.195 Y8.891
X51.192 Y8.915
X51.163 Y9.102
X51.157 Y9.125
X51.131 Y9.187
X51.122 Y9.207
X51.034 Y9.358
X51.017 Y9.381
X50.9 Y9.486
X50.887 Y9.496
X50.744 Y9.581
X50.722 Y9.594
X50.701 Y9.601
X50.659 Y9.61
X50.617 Y9.616
X50.532 Y9.628 Z-0.694
X50.457 Y9.639 Z-0.695
X50.413 Y9.623 Z-0.696
Y9.577 Z-0.697
X50.412 Y9.406 Z-0.701
X50.411 Y9.234 Z-0.707
X50.41 Y8.891 Z-0.719
Y8.72 Z-0.724
X50.409 Y8.549 Z-0.729
X50.408 Y8.377 Z-0.732
Y8.206 Z-0.733
Y8.154
X50.415 Y8.158
X50.421 Y8.149 F10.
X50.607 Y8.169 F40.
X50.626 Y8.174
X50.699 Y8.202
X50.887 Y8.285
X50.927 Y8.305
X50.941 Y8.311 F10.
X51.036 Y8.425 F40.
X51.113 Y8.517 F10.
X51.13 Y8.54
X51.135 Y8.563
X51.195 Y8.891 F40.
X51.192 Y8.915
X51.163 Y9.102
X51.157 Y9.125
X51.131 Y9.186
X51.122 Y9.206
X51.032 Y9.358
X51.018 Y9.381
X50.9 Y9.485
X50.887 Y9.494
X50.722 Y9.593
X50.701 Y9.601
X50.699 Y9.602
X50.676 Y9.606
X50.556 Y9.624
X50.438 Y9.641 F10.
X50.414 Y9.622
X50.413 Y9.621
X50.408 Y8.289 F40.
Y8.169 F10.
X50.415 Y8.158 F40.
G0 Z5.
X50.405 Y5.522
Z0.985
G1 Z-0.643 F40.
X50.39 Y5.504
X50.382 Y5.482
X50.384 Y5.459
X50.395 Y5.438
X50.41 Y5.419 F10.
X50.512 F40.
X50.535 Y5.422
X50.887 Y5.486
X51.133 Y5.645
X51.148 Y5.658
X51.31 Y5.915
X51.312 Y5.928
X51.371 Y6.245
X51.374 Y6.268
X51.341 Y6.526
X51.338 Y6.549
X51.291 Y6.666
X51.28 Y6.69
X51.184 Y6.857
X51.165 Y6.877
X51.017 Y7.007
X50.998 Y7.02
X50.84 Y7.112
X50.817 Y7.122
X50.77 Y7.138
X50.746 Y7.143
X50.535 Y7.172
X50.416 Y7.188 F10.
X50.402 Y7.169
X50.395 Y5.438 F40.
X50.416 Y5.419
X50.495
X50.52
X50.545 Y5.424
X50.595 Y5.433 Z-0.644
X50.801 Y5.47 Z-0.648
X50.879 Y5.484 Z-0.65
X50.902 Y5.496
X50.99 Y5.552 Z-0.653
X51.144 Y5.652 Z-0.659
X51.158 Y5.674 Z-0.66
X51.298 Y5.896 Z-0.669
X51.311 Y5.919 Z-0.67
X51.363 Y6.202 Z-0.68
X51.372 Y6.254 Z-0.682
Y6.28
X51.362 Y6.358 Z-0.685
X51.349 Y6.462 Z-0.687
X51.338 Y6.54 Z-0.689
X51.331 Y6.565
X51.302 Y6.638 Z-0.691
X51.293 Y6.662
X51.267 Y6.708 Z-0.692
X51.241 Y6.753
X51.202 Y6.822 Z-0.693
X51.189 Y6.845
X51.158 Y6.883
X51.035 Y6.991
X51.015 Y7.007
X50.84 Y7.109
X50.817 Y7.122
X50.77 Y7.138
X50.746 Y7.142
X50.535 Y7.171
X50.416 Y7.187 F10.
X50.402 Y7.168
X50.396 Y5.558 F40.
X50.395 Y5.438 F10.
X50.41 Y5.419
X50.512 F40.
X50.535 Y5.422
X50.863 Y5.481
X50.887 Y5.486
X51.133 Y5.645
X51.147 Y5.658
X51.31 Y5.915
X51.312 Y5.928
X51.371 Y6.245
X51.374 Y6.268
X51.337 Y6.549
X51.328 Y6.573
X51.3 Y6.643
X51.29 Y6.666
X51.182 Y6.857
X51.165 Y6.877
X51.158 Y6.883
X51.093 Y6.94
X51.029 Y6.997 Z-0.694
X50.993 Y7.02
X50.956 Y7.041 Z-0.695
X50.845 Y7.106 Z-0.698
X50.807 Y7.125 Z-0.699
X50.766 Y7.139 Z-0.7
X50.723 Y7.145 Z-0.701
X50.436 Y7.184 Z-0.711
X50.402 Y7.158 Z-0.712
Y6.987 Z-0.718
X50.401 Y6.815 Z-0.724
X50.4 Y6.644 Z-0.729
X50.399 Y6.473 Z-0.732
Y6.301 Z-0.733
Y6.251
X50.396 Y5.558
X50.395 Y5.438 F10.
X50.41 Y5.419
X50.512 F40.
X50.535 Y5.422
X50.863 Y5.481
X50.887 Y5.486
X51.133 Y5.645
X51.147 Y5.658
X51.309 Y5.915
X51.312 Y5.928
X51.371 Y6.245
X51.373 Y6.268
X51.337 Y6.549
X51.328 Y6.573
X51.3 Y6.643
X51.288 Y6.666
X51.18 Y6.856
X51.165 Y6.877
X51.034 Y6.992
X51.014 Y7.006
X50.817 Y7.121
X50.793 Y7.13
X50.77 Y7.138
X50.535 Y7.17
X50.416 Y7.186 F10.
X50.402 Y7.168
X50.399 Y6.251 F40.
X50.398 Y6.228 Z-0.729
Y6.209 Z-0.716
Y6.196 Z-0.696
Y6.191 Z-0.673
G0 Z5.
X52.136 Y16.76
Z0.983
G1 Z-0.211 F40.
Y16.737
X52.145 Y16.715
X52.162 Y16.698
X52.184 Y16.69
X52.2 Y16.687
X52.223 Y16.685
X52.317 Y16.702 F10.
X52.34 Y16.716
X52.387 Y16.748
X52.397 Y16.763
X52.421 Y16.807
X52.427 Y16.831
X52.436 Y16.901
X52.435 Y16.924 F40.
X52.418 Y17.014
X52.412 Y17.033
X52.366 Y17.105
X52.348 Y17.126
X52.121 Y17.297
X52.025 Y17.369 F10.
X52.024
X51.994 Y17.333
X51.977 Y17.312
X51.928 Y17.065 F40.
X51.926 Y17.041
X51.95 Y16.901
X51.958 Y16.878
X52.012 Y16.783
X52.021 Y16.768
X52.036 Y16.753 F10.
X52.106 Y16.704
X52.129 Y16.699 F40.
X52.184 Y16.69
X52.226 Y16.685
X52.309 Y16.7
X52.347 Y16.72 Z-0.212
X52.382 Y16.744
X52.406 Y16.779 Z-0.213
X52.425 Y16.817 Z-0.214
X52.436 Y16.901 Z-0.215
X52.431 Y16.943 Z-0.216
X52.416 Y17.026 Z-0.218
X52.393 Y17.062 Z-0.219
X52.371 Y17.097 Z-0.221
X52.343 Y17.13 Z-0.222
X52.309 Y17.155 Z-0.223
X52.106 Y17.308 Z-0.232
X52.038 Y17.359 Z-0.235
X52.002 Y17.343 Z-0.236
X51.977 Y17.312 Z-0.237
X51.962 Y17.236 Z-0.24
X51.929 Y17.07 Z-0.246
Y17.027 Z-0.247
X51.949 Y16.902 Z-0.251
X51.966 Y16.863 Z-0.252
X52.008 Y16.79 Z-0.254
X52.032 Y16.755 Z-0.255
X52.102 Y16.707 Z-0.257
X52.143 Y16.697 Z-0.258
X52.184 Y16.69 Z-0.259
X52.226 Y16.685
X52.309 Y16.7 Z-0.26
X52.347 Y16.72 Z-0.261
X52.383 Y16.745
X52.408 Y16.782
X52.421 Y16.807
X52.427 Y16.831
X52.436 Y16.901
X52.435 Y16.924
X52.418 Y17.014
X52.412 Y17.033
X52.366 Y17.105
X52.348 Y17.126
X52.121 Y17.297
X52.025 Y17.369 F10.
X52.024
X51.994 Y17.333
X51.977 Y17.312
X51.928 Y17.065 F40.
X51.926 Y17.041
X51.95 Y16.901
X51.958 Y16.878
X52.012 Y16.783
X52.021 Y16.768
X52.036 Y16.753 F10.
X52.106 Y16.704
X52.129 Y16.699
X52.184 Y16.69
X52.2 Y16.687
X52.223 Y16.685 F40.
X52.317 Y16.702 F10.
X52.34 Y16.716
X52.387 Y16.748
X52.397 Y16.763 F40.
X52.408 Y16.782
X52.426 Y16.818
X52.436 Y16.898
X52.432 Y16.938 Z-0.262
X52.417 Y17.016 Z-0.263
X52.399 Y17.052 Z-0.264
X52.378 Y17.086 Z-0.265
X52.356 Y17.12 Z-0.266
X52.323 Y17.144 Z-0.267
X52.26 Y17.192 Z-0.269
X52.045 Y17.354 Z-0.278
X52.007 Y17.349 Z-0.279
X51.982 Y17.318 Z-0.28
X51.971 Y17.279 Z-0.282
X51.931 Y17.084 Z-0.289
X51.926 Y17.044 Z-0.29
X51.939 Y16.965 Z-0.292
X51.946 Y16.925 Z-0.293
X51.953 Y16.886 Z-0.294
X51.993 Y16.816 Z-0.296
X52.013 Y16.781 Z-0.297
X52.039 Y16.751 Z-0.298
X52.105 Y16.705 Z-0.299
X52.144 Y16.697
X52.183 Y16.69
X52.233 Y16.686
X52.317 Y16.702 F10.
X52.34 Y16.716 F40.
X52.387 Y16.748 F10.
X52.397 Y16.763
X52.421 Y16.807
X52.427 Y16.831
X52.436 Y16.901
X52.435 Y16.924 F40.
X52.418 Y17.014
X52.412 Y17.033
X52.366 Y17.105
X52.348 Y17.126
X52.121 Y17.297
X52.025 Y17.369 F10.
X52.024
X51.994 Y17.333
X51.977 Y17.312
X51.928 Y17.065 F40.
X51.926 Y17.041
X51.95 Y16.901
X51.958 Y16.878
X52.012 Y16.783
X52.021 Y16.768
X52.036 Y16.753 F10.
X52.106 Y16.704
X52.129 Y16.699 F40.
X52.2 Y16.687
X52.223 Y16.685
X52.233 Y16.686
X52.255 Y16.695
X52.272 Y16.712
X52.281 Y16.734
Y16.757
G0 Z5.
X62.543 Y9.701
Z0.983
G1 Z-0.643 F40.
X62.523 Y9.688
X62.509 Y9.67
X62.503 Y9.647
X62.507 Y9.624
X62.515 Y9.602 F10.
X62.562 Y9.617 F40.
X62.585 Y9.626
X63.022 Y9.835
X63.044 Y9.853
X63.077 Y9.886
X63.159 Y9.974
X63.24 Y10.062 F10.
X63.25 Y10.08
X63.297 Y10.25 F40.
X63.32 Y10.343
X63.324 Y10.367
X63.281 Y10.624
X63.265 Y10.723
X63.259 Y10.745
X63.126 Y11.067
X63.114 Y11.084
X63.102 Y11.101
X63.077 Y11.134
X62.986 Y11.257
X62.964 Y11.28
X62.89 Y11.331
X62.826 Y11.374
X62.81 Y11.384
X62.795 Y11.39
X62.608 Y11.427
X62.585
X62.187 Y11.361
X62.171 Y11.357
X62.069 Y11.324 F10.
X62.012 Y11.306
X61.99 Y11.29
X62.507 Y9.624 F40.
X62.555 Y9.615
X62.601 Y9.633
X62.687 Y9.674 Z-0.644
X62.876 Y9.765 Z-0.648
X63.017 Y9.832 Z-0.652
X63.039 Y9.848 Z-0.653
X63.057 Y9.867
X63.202 Y10.018 Z-0.66
X63.237 Y10.058 Z-0.662
X63.25 Y10.081 Z-0.663
X63.284 Y10.207 Z-0.667
X63.312 Y10.307 Z-0.671
X63.318 Y10.333 Z-0.672
X63.324 Y10.359 Z-0.673
X63.32 Y10.385 Z-0.674
X63.316 Y10.411 Z-0.675
X63.282 Y10.618 Z-0.681
X63.265 Y10.721 Z-0.684
X63.258 Y10.747 Z-0.685
X63.228 Y10.819 Z-0.687
X63.148 Y11.013 Z-0.691
X63.128 Y11.062 Z-0.692
X63.114 Y11.084
X63.099 Y11.105
X63.036 Y11.189 Z-0.693
X63.006 Y11.229
X62.986 Y11.256
X62.964 Y11.28
X62.89 Y11.331
X62.826 Y11.374
X62.81 Y11.384
X62.795 Y11.39
X62.608 Y11.427
X62.585
X62.187 Y11.361
X62.171 Y11.357
X62.069 Y11.324 F10.
X62.012 Y11.306
X61.99 Y11.29
X62.471 Y9.738 F40.
X62.507 Y9.624 F10.
X62.515 Y9.602
X62.562 Y9.617
X62.585 Y9.626
X63.021 Y9.834 F40.
X63.043 Y9.854
X63.077 Y9.887
X63.158 Y9.974
X63.24 Y10.062 F10.
X63.249 Y10.081
X63.295 Y10.25 F40.
X63.32 Y10.343
X63.323 Y10.367
X63.265 Y10.722
X63.259 Y10.745
X63.126 Y11.067
X63.077 Y11.134
X63.006 Y11.229
X62.981 Y11.263
X62.948 Y11.291
X62.877 Y11.339 Z-0.694
X62.842 Y11.363
X62.806 Y11.387 Z-0.695
X62.764 Y11.396 Z-0.696
X62.722 Y11.404 Z-0.697
X62.638 Y11.421 Z-0.699
X62.596 Y11.428 Z-0.7
X62.553 Y11.421 Z-0.701
X62.384 Y11.393 Z-0.707
X62.215 Y11.365 Z-0.713
X62.173 Y11.357 Z-0.714
X62.051 Y11.318 Z-0.719
X62.009 Y11.305 Z-0.72
X61.999 Y11.263 Z-0.721
X62.021 Y11.19 Z-0.723
X62.072 Y11.027 Z-0.728
X62.123 Y10.863 Z-0.732
X62.173 Y10.699 Z-0.733
X62.188 Y10.652
X62.471 Y9.738
X62.507 Y9.624 F10.
X62.515 Y9.602
X62.562 Y9.617
X62.585 Y9.626
X63.02 Y9.834 F40.
X63.042 Y9.854
X63.077 Y9.888
X63.158 Y9.975
X63.24 Y10.062 F10.
X63.248 Y10.082
X63.32 Y10.343 F40.
X63.323 Y10.367
X63.265 Y10.721
X63.259 Y10.744
X63.133 Y11.05
X63.126 Y11.067
X63.077 Y11.134
X63.006 Y11.229
X62.986 Y11.256
X62.964 Y11.279
X62.89 Y11.33
X62.826 Y11.374
X62.81 Y11.384
X62.795 Y11.39
X62.608 Y11.427
X62.585
X62.187 Y11.361
X62.171 Y11.357
X62.069 Y11.324 F10.
X62.012 Y11.306
X61.99 Y11.29
X62.188 Y10.652 F40.
G0 Z5.
X74.774 Y78.924
Z0.984
G1 Z-0.643 F40.
Y78.9
X74.783 Y78.879
X74.8 Y78.862
X74.822 Y78.854
X74.985 Y78.825
X75.08 Y78.81 F10.
X75.094 Y78.811 F40.
X75.698 Y79.002
X75.717 Y79.012
X76.299 Y79.469
X76.312 Y79.482
X76.768 Y79.993
X76.8 Y80.029
X76.815 Y80.047
X76.878 Y80.136
X77.251 Y80.676
X77.262 Y80.698
X77.433 Y81.073
X77.518 Y81.26
X77.56 Y81.354
X77.569 Y81.377
X77.616 Y82.01
X77.615 Y82.033 F10.
X77.587 Y82.104 F40.
X77.548 Y82.197
X77.518 Y82.268
X77.511 Y82.282
X77.315 Y82.5
X77.298 Y82.517
X77.026 Y82.671
X77.003 Y82.676
X76.768 Y82.715
X76.745 Y82.716
X76.301 Y82.603
X76.283 Y82.595
X75.845 Y82.319
X75.83 Y82.305
X75.042 Y81.488
X75.025 Y81.468
X75.011 Y81.448
X74.882 Y81.26
X74.607 Y80.862
X74.593 Y80.839
X74.443 Y80.511
X74.357 Y80.324
X74.287 Y80.168
X74.28 Y80.152
X74.231 Y79.504
X74.238 Y79.48 F10.
X74.275 Y79.387 F40.
X74.33 Y79.256
X74.338 Y79.242
X74.544 Y79.012
X74.564 Y78.999
X74.799 Y78.867
X74.822 Y78.854
X74.874 Y78.844
X74.925 Y78.835
X75.029 Y78.818 Z-0.644
X75.081 Y78.81 Z-0.645
X75.107 Y78.815
X75.132 Y78.823 Z-0.646
X75.231 Y78.854 Z-0.648
X75.431 Y78.918 Z-0.653
X75.706 Y79.004 Z-0.663
X75.727 Y79.02 Z-0.664
X75.974 Y79.214 Z-0.675
X76.139 Y79.344 Z-0.682
X76.263 Y79.441 Z-0.686
X76.304 Y79.473 Z-0.687
X76.339 Y79.512 Z-0.688
X76.374 Y79.551 Z-0.689
X76.444 Y79.63 Z-0.691
X76.583 Y79.786 Z-0.693
X76.617 Y79.823
X76.8 Y80.029
X76.816 Y80.047
X76.878 Y80.136
X77.251 Y80.676
X77.262 Y80.698
X77.433 Y81.073
X77.518 Y81.261
X77.56 Y81.354
X77.569 Y81.378
X77.616 Y82.01
X77.615 Y82.033 F10.
X77.587 Y82.104 F40.
X77.548 Y82.197
X77.518 Y82.266
X77.512 Y82.281
X77.315 Y82.5
X77.298 Y82.517
X77.026 Y82.671
X77.003 Y82.676
X76.768 Y82.715
X76.745
X76.301 Y82.603
X76.283 Y82.595
X75.845 Y82.319
X75.83 Y82.305
X75.042 Y81.488
X75.025 Y81.468
X74.607 Y80.862
X74.593 Y80.839
X74.443 Y80.511
X74.357 Y80.324
X74.28 Y80.152
X74.279 Y80.136
X74.231 Y79.504
X74.238 Y79.48 F10.
X74.275 Y79.387 F40.
X74.33 Y79.257
X74.337 Y79.243
X74.544 Y79.012
X74.564 Y78.999
X74.799 Y78.867
X74.822 Y78.854
X74.987 Y78.825
X75.08 Y78.81 F10.
X75.094 Y78.811 F40.
X75.698 Y79.002
X75.717 Y79.012
X76.299 Y79.469
X76.312 Y79.482
X76.617 Y79.823
X76.674 Y79.887
X76.731 Y79.951 Z-0.694
X76.788 Y80.015 Z-0.695
X76.816 Y80.047 Z-0.696
X76.84 Y80.083 Z-0.697
X76.938 Y80.224 Z-0.701
X77.035 Y80.365 Z-0.707
X77.23 Y80.646 Z-0.719
X77.254 Y80.682 Z-0.72
X77.308 Y80.799 Z-0.724
X77.379 Y80.955 Z-0.729
X77.45 Y81.11 Z-0.732
X77.521 Y81.267 Z-0.733
X77.541 Y81.312
X77.56 Y81.354
X77.569 Y81.378
X77.616 Y82.01
X77.615 Y82.033 F10.
X77.587 Y82.104 F40.
X77.548 Y82.197
X77.512 Y82.281
X77.499 Y82.295
X77.315 Y82.5
X77.298 Y82.517
X77.026 Y82.671
X77.003 Y82.675
X76.768 Y82.714
X76.745 Y82.715
X76.301 Y82.602
X76.283 Y82.595
X75.845 Y82.319
X75.83 Y82.305
X75.042 Y81.488
X75.025 Y81.468
X74.608 Y80.862
X74.593 Y80.839
X74.443 Y80.511
X74.357 Y80.324
X74.28 Y80.152
X74.279 Y80.136
X74.231 Y79.504
X74.238 Y79.48 F10.
X74.275 Y79.387 F40.
X74.33 Y79.258
X74.336 Y79.243
X74.544 Y79.012
X74.564 Y78.999
X74.799 Y78.867
X74.822 Y78.854
X74.989 Y78.825
X75.08 Y78.81 F10.
X75.094 Y78.811 F40.
X75.698 Y79.002
X75.717 Y79.012
X76.299 Y79.469
X76.312 Y79.482
X76.617 Y79.823
X76.8 Y80.029
X76.816 Y80.047
X77.25 Y80.676
X77.262 Y80.698
X77.433 Y81.073
X77.518 Y81.261
X77.541 Y81.312
X77.544 Y81.317 Z-0.725
G0 Z5.
X47.875 Y90.268
Z0.984
G1 Z-0.643 F40.
X47.899 Y90.271
X47.919 Y90.283
X47.933 Y90.301
X47.939 Y90.324
X47.958 Y90.675
X47.959 Y90.699
X47.886 Y91.077
X47.882 Y91.091
X47.833 Y91.191
X47.782 Y91.284
X47.757 Y91.331
X47.743 Y91.346
X47.581 Y91.474
X47.558 Y91.489
X47.277 Y91.552
X47.253 Y91.553
X47.136 Y91.551
X46.948 Y91.541
X46.896 Y91.537 F10.
X46.853 Y91.533
X46.839 Y91.516
X46.97 Y89.898 F40.
X46.98 Y89.778 F10.
X46.997 Y89.762
X47.034 Y89.765
X47.054 Y89.767
X47.526 Y89.874 F40.
X47.541 Y89.879
X47.699 Y89.98
X47.794 Y90.049
X47.807 Y90.066
X47.906 Y90.254
X47.929 Y90.301
X47.939 Y90.324
X47.942 Y90.376
X47.945 Y90.429
X47.95 Y90.533 Z-0.644
X47.958 Y90.664 Z-0.646
X47.959 Y90.69 Z-0.647
X47.955 Y90.716
X47.95 Y90.742 Z-0.648
X47.911 Y90.948 Z-0.653
X47.886 Y91.076 Z-0.657
X47.877 Y91.101 Z-0.658
X47.854 Y91.148 Z-0.66
X47.806 Y91.241 Z-0.664
X47.756 Y91.333 Z-0.667
X47.736 Y91.351 Z-0.668
X47.571 Y91.481 Z-0.676
X47.547 Y91.492 Z-0.677
X47.496 Y91.503 Z-0.678
X47.394 Y91.526 Z-0.682
X47.292 Y91.549 Z-0.685
X47.267 Y91.554
X47.188 Y91.552 Z-0.687
X46.978 Y91.544 Z-0.691
X46.887 Y91.536 Z-0.692
X46.857 Y91.533
X46.839 Y91.509
X46.844 Y91.455 Z-0.693
X46.848 Y91.405
X46.97 Y89.898
X46.98 Y89.778 F10.
X46.997 Y89.762
X47.034 Y89.765
X47.054 Y89.767 F40.
X47.525 Y89.874
X47.539 Y89.879
X47.699 Y89.98
X47.798 Y90.053 F10.
X47.806 Y90.066 F40.
X47.905 Y90.254
X47.929 Y90.301
X47.939 Y90.324
X47.958 Y90.675
X47.959 Y90.699
X47.886 Y91.077
X47.882 Y91.091
X47.833 Y91.191
X47.782 Y91.284
X47.757 Y91.331
X47.743 Y91.345
X47.581 Y91.473
X47.558 Y91.489 F10.
X47.277 Y91.552 F40.
X47.253 Y91.553
X47.136 Y91.551
X46.948 Y91.541
X46.896 Y91.537 F10.
X46.853 Y91.533
X46.839 Y91.516
X46.848 Y91.405 F40.
X46.855 Y91.319
X46.862 Y91.234 Z-0.694
X46.876 Y91.063 Z-0.697
X46.889 Y90.892 Z-0.701
X46.903 Y90.722 Z-0.707
X46.931 Y90.38 Z-0.719
X46.945 Y90.209 Z-0.724
X46.959 Y90.038 Z-0.729
X46.973 Y89.868 Z-0.732
X46.979 Y89.789 Z-0.733
X47.013 Y89.764
X47.055 Y89.768
X47.104 Y89.779
X47.524 Y89.874
X47.537 Y89.879
X47.699 Y89.98
X47.778 Y90.038 F10.
X47.797 Y90.052
X47.929 Y90.301 F40.
X47.938 Y90.324
X47.958 Y90.675
X47.959 Y90.699
X47.886 Y91.077
X47.881 Y91.091
X47.832 Y91.191
X47.782 Y91.284
X47.757 Y91.331
X47.743 Y91.345
X47.581 Y91.472
X47.558 Y91.489 F10.
X47.277 Y91.552 F40.
X47.253 Y91.553
X47.136 Y91.551
X46.948 Y91.541
X46.896 Y91.537 F10.
X46.853 Y91.533
X46.839 Y91.516
X46.97 Y89.898 F40.
X46.98 Y89.778 F10.
X46.997 Y89.762
X47.034 Y89.765
X47.054 Y89.767
X47.104 Y89.779 F40.
X47.116 Y89.781 Z-0.714
X47.121 Y89.782 Z-0.691
G0 Z15.

G53 Z0.
M30
