(1001)
(T1  D=0.2 CR=0. - ZMIN=-0.781 - FLAT END MILL)
G0 G90 G94 G17
G21
G53 G0 Z0.

(0.6MM  FLATEND  CONTOUR LEAVES)
M5
M9
T1
S12000 M3
G4 P4.
G55
G0 X8.043 Y50.187
Z15.
Z0.955
G1 Z-0.044 F40.
X8.041 Y50.193 Z-0.058 F333.
X8.038 Y50.206 Z-0.064
X7.948 Y50.544 Z-0.077
X7.944 Y50.569
X7.927 Y50.795 Z-0.085
Y50.796
X7.881 Y51.401 F40.
Y51.425
X7.967 Y52.772
X7.974 Y52.87
X8.011 Y53.308
X8.015 Y53.332
X8.025 Y53.355
X8.028 Y53.36
X8.037 Y53.372
X8.051 Y53.385
X8.075 Y53.398
X8.099 Y53.404
X8.123
X8.142 Y53.4
X8.161 Y53.391
X8.18 Y53.377
X8.95 Y52.674
X9.005 Y52.621
X9.615 Y51.963
X9.636 Y51.939
X10.115 Y51.252
X10.129 Y51.229
X10.453 Y50.495
X10.462 Y50.471
X10.466 Y50.446
X10.474 Y50.371
X10.479 Y50.324
X10.515 Y50.03
X10.539 Y49.834
X10.542 Y49.81
X10.541 Y49.786
X10.42 Y49.124
X10.419 Y49.1
X10.397 Y48.292
X10.394 Y48.267
X10.39 Y48.254
X10.384 Y48.24
X10.376 Y48.229
X10.352 Y48.207
X10.327 Y48.195
X10.303 Y48.19
X9.886 Y48.108
X9.864 Y48.103
X9.47 Y47.896
X9.445 Y47.887
X9.421 Y47.885
X9.396 Y47.889
X9.373 Y47.899
X9.35 Y47.918
X9.298 Y47.981
X8.634 Y48.795
X8.622 Y48.813
X8.187 Y49.663
X8.176 Y49.687
X8.162 Y49.736
X7.948 Y50.544
X7.944 Y50.569
X7.927 Y50.796
X7.926 Y50.81 Z-0.08
Y50.816 Z-0.065
G0 Z5.
X9.977 Y51.803
Z0.955
G1 Z-0.044 F40.
X9.973 Y51.807 Z-0.058 F333.
X9.964 Y51.817 Z-0.064
X9.561 Y52.265 Z-0.085
X9.396 Y52.448 F40.
X9.385 Y52.463
X9.376 Y52.478
X9.298 Y52.607
X8.818 Y53.411
X8.809 Y53.428
X8.803 Y53.443
X8.798 Y53.457
X8.734 Y53.653
X8.51 Y54.339
X8.502 Y54.363
X8.499 Y54.388
X8.417 Y55.219
X8.412 Y55.269
X8.413 Y55.294
X8.488 Y56.199
X8.496 Y56.297
X8.533 Y56.493
X8.678 Y57.277
X8.753 Y57.668
X8.775 Y57.785
X8.781 Y57.803
X8.792 Y57.822
X8.809 Y57.84
X8.833 Y57.855
X8.858 Y57.863
X8.882
X8.907 Y57.858
X8.931 Y57.845
X8.956 Y57.822
X9.614 Y57.081
X9.69 Y56.991
X10.229 Y56.273
X10.246 Y56.248
X10.651 Y55.514
X10.663 Y55.491
X10.67 Y55.469
X10.908 Y54.73
X10.916 Y54.706
X10.918 Y54.682
X10.926 Y54.241
X10.927 Y54.045
Y54.032
X10.926 Y54.02
X10.919 Y53.99
X10.706 Y53.213
X10.699 Y53.188
X10.696 Y53.164
X10.635 Y52.674
X10.63 Y52.576
X10.6 Y51.964
X10.598 Y51.94
X10.592 Y51.915
X10.466 Y51.499
X10.461 Y51.483
X10.453 Y51.467
X10.44 Y51.45
X10.421 Y51.434
X10.399 Y51.424
X10.376 Y51.419
X10.352 Y51.42
X10.327 Y51.427
X10.303 Y51.442
X10.29 Y51.455
X10.25 Y51.499
X9.561 Y52.265
X9.551 Y52.276 Z-0.08
X9.548 Y52.28 Z-0.065
G0 Z5.
X10.633 Y51.592
Z0.955
G1 Z-0.044 F40.
Y51.598 Z-0.058 F333.
X10.634 Y51.611 Z-0.064
X10.638 Y51.915 Z-0.075
X10.639 Y51.94 Z-0.076
X10.652 Y52.213 Z-0.085
X10.67 Y52.59 F40.
X10.676 Y52.674
X10.736 Y53.164
X10.74 Y53.188
X10.964 Y54.009
X10.975 Y54.045
X11.011 Y54.143
X11.16 Y54.578
X11.169 Y54.605
X11.176 Y54.619
X11.185 Y54.633
X11.65 Y55.271
X11.673 Y55.296
X12.262 Y55.844
X12.286 Y55.865
X13.042 Y56.395
X13.119 Y56.442
X13.976 Y56.945
X14.001 Y56.958
X14.025 Y56.964
X14.05
X14.074 Y56.957
X14.099 Y56.943
X14.113 Y56.928
X14.123 Y56.914
X14.13 Y56.899
X14.134 Y56.885
X14.136 Y56.86
X14.133 Y56.836
X13.88 Y55.416
X13.872 Y55.367
X13.865 Y55.343
X13.857 Y55.318
X13.371 Y53.898
X13.362 Y53.874
X13.35 Y53.849
X13.008 Y53.262
X12.951 Y53.164
X12.939 Y53.144
X12.923 Y53.124
X12.408 Y52.508
X12.395 Y52.493
X12.381 Y52.478
X12.335 Y52.441
X11.707 Y51.922
X11.687 Y51.905
X11.667 Y51.891
X11.65 Y51.881
X10.866 Y51.445
X10.786 Y51.401
X10.768 Y51.392
X10.745 Y51.386
X10.723
X10.701 Y51.39
X10.678 Y51.401
X10.67 Y51.407
X10.649 Y51.43
X10.637 Y51.453
X10.632 Y51.476
Y51.499
X10.638 Y51.915
X10.639 Y51.94
X10.652 Y52.213
X10.653 Y52.227 Z-0.08
Y52.233 Z-0.065
G0 Z5.
X11.073 Y51.025
Z0.955
G1 Z-0.044 F40.
X11.076 Y51.03 Z-0.058 F333.
X11.083 Y51.042 Z-0.064
X11.128 Y51.12 Z-0.068
X11.138 Y51.133
X11.463 Y51.507 Z-0.085
X11.681 Y51.757 F40.
X11.7 Y51.776
X12.393 Y52.38
X12.433 Y52.412
X13.266 Y53.027
X13.29 Y53.043
X13.315 Y53.052
X13.339 Y53.054
X13.364 Y53.05
X13.388 Y53.038
X13.413 Y53.017
X13.427 Y52.992
X13.434 Y52.968
X13.435 Y52.943
X13.353 Y51.695
X13.349 Y51.646
X13.34 Y51.597
X13.119 Y50.412
X13.102 Y50.324
X13.097 Y50.299
X13.088 Y50.275
X12.567 Y49.051
X12.551 Y49.014
X12.542 Y48.995
X12.531 Y48.976
X12.118 Y48.395
X12.107 Y48.38
X12.095 Y48.365
X11.999 Y48.267
X11.552 Y47.814
X11.528 Y47.791
X11.504 Y47.778
X11.491 Y47.774
X11.479 Y47.771
X11.466
X11.454 Y47.772
X11.43 Y47.778
X11.411 Y47.788
X11.393 Y47.801
X11.156 Y47.974
X11.133 Y47.989
X10.845 Y48.117
X10.829 Y48.12
X10.523 Y48.183
X10.499 Y48.19
X10.474 Y48.203
X10.456 Y48.221
X10.444 Y48.24
X10.438 Y48.254
X10.435 Y48.267
X10.434 Y48.292
X10.421 Y48.561
X10.42 Y48.586
X10.463 Y49.222
X10.466 Y49.247
X10.572 Y49.763
X10.587 Y49.834
X10.609 Y49.932
X10.716 Y50.397
X10.725 Y50.422
X10.768 Y50.497
X11.128 Y51.12
X11.138 Y51.133
X11.463 Y51.507
X11.473 Y51.518 Z-0.08
X11.477 Y51.522 Z-0.065
G0 Z5.
X9.959 Y48.095
Z0.955
G1 Z-0.044 F40.
X9.964 Y48.096 Z-0.058 F333.
X9.978 Y48.098 Z-0.064
X10.278 Y48.154 Z-0.075
X10.303 Y48.158 Z-0.076
X10.327 Y48.157 Z-0.077
X10.352 Y48.162 Z-0.078
X10.376 Y48.165
X10.401 Y48.162 Z-0.079
X10.425 Y48.156 Z-0.08
X10.45 Y48.152 Z-0.081
X10.474 Y48.147 Z-0.082
X10.571 Y48.143 Z-0.085
X10.572
X10.866 Y48.063 F40.
X10.964 Y48.037
X10.988 Y48.025
X11.311 Y47.824
X11.333 Y47.81
X11.356 Y47.788
X11.362 Y47.778
X11.372 Y47.753
X11.395 Y47.729
X11.454 Y47.667
X11.535 Y47.582
X11.544 Y47.568
X11.552 Y47.553
X11.845 Y46.939
X11.853 Y46.918
X11.856 Y46.896
X11.877 Y46.701
X11.882 Y46.652
X11.88 Y46.627
X11.86 Y46.431
X11.856 Y46.407
X11.851 Y46.393
X11.65 Y45.889
X11.641 Y45.872
X11.488 Y45.644
X11.471 Y45.623
X11.454 Y45.609
X11.195 Y45.398
X11.16 Y45.373
X11.058 Y45.33
X10.811 Y45.226
X10.797 Y45.219
X10.782 Y45.212
X10.768 Y45.208
X10.729 Y45.2
X10.67 Y45.188
X10.572 Y45.169
X10.395 Y45.132
X10.376 Y45.131
X10.353 Y45.134
X9.788 Y45.292
X9.69 Y45.32
X9.672 Y45.33
X9.512 Y45.44
X9.494 Y45.448
X9.47 Y45.453
X9.445 Y45.466
X9.43 Y45.48
X9.419 Y45.493
X9.04 Y45.966
X9.026 Y45.991
X9.019 Y46.015
X8.907 Y46.496
X8.882 Y46.603
X8.876 Y46.627
X8.874 Y46.652
X8.878 Y46.676
X8.982 Y47.19
X8.989 Y47.225
X8.995 Y47.242
X9.005 Y47.259
X9.298 Y47.696
X9.309 Y47.712
X9.323 Y47.727
X9.347 Y47.745
X9.47 Y47.829
X9.489 Y47.843
X9.494 Y47.858
X9.505 Y47.876
X9.527 Y47.897
X9.549 Y47.91
X9.872 Y48.072
X9.886 Y48.079
X9.911 Y48.086
X10.278 Y48.154
X10.303 Y48.158
X10.327 Y48.157
X10.352 Y48.162
X10.376 Y48.165
X10.401 Y48.162
X10.425 Y48.156
X10.45 Y48.152
X10.474 Y48.147
X10.572 Y48.143
X10.586 Z-0.08
X10.592 Z-0.065
G0 Z5.
X11.088 Y45.292
Z0.955
G1 Z-0.044 F40.
X11.093 Y45.294 Z-0.058 F333.
X11.105 Y45.299 Z-0.064
X11.176 Y45.33 Z-0.067
X11.195 Y45.341 Z-0.068
X11.356 Y45.46 Z-0.075
X11.373 Y45.473 Z-0.076
X11.544 Y45.644 Z-0.084
X11.552 Y45.652
X11.575 Y45.667 Z-0.085
X11.576 Y45.668
X11.601 Y45.675 F40.
X11.625 Y45.677
X11.65 Y45.672
X11.667 Y45.664
X11.685 Y45.652
X11.72 Y45.623
X12.3 Y45.154
X12.321 Y45.134
X12.335 Y45.118
X12.794 Y44.605
X12.811 Y44.585
X12.825 Y44.565
X12.836 Y44.546
X12.891 Y44.448
X13.511 Y43.34
X13.519 Y43.324
X13.524 Y43.307
X13.534 Y43.273
X13.908 Y42.018
X13.912 Y42.
X14.13 Y40.727
X14.134 Y40.703
X14.133 Y40.678
X14.126 Y40.654
X14.111 Y40.629
X14.099 Y40.617
X14.074 Y40.602
X14.05 Y40.595
X14.025 Y40.594
X14.001 Y40.599
X13.987 Y40.606
X13.947 Y40.629
X13.112 Y41.119
X13.021 Y41.176
X12.286 Y41.694
X12.269 Y41.706
X11.747 Y42.196
X11.65 Y42.288
X11.644 Y42.294
X11.503 Y42.49
X11.173 Y42.947
X11.16 Y42.969
X11.155 Y42.979
X11.123 Y43.077
X11.09 Y43.175
X11.024 Y43.371
X10.99 Y43.469
X10.964 Y43.544
X10.784 Y44.155
X10.775 Y44.194
X10.768 Y44.233
X10.731 Y44.448
X10.714 Y44.546
X10.701 Y44.644
X10.673 Y44.938
X10.67 Y44.975
X10.665 Y45.036
Y45.05
X10.666 Y45.065
X10.67 Y45.079
X10.676 Y45.092
X10.685 Y45.106
X10.7 Y45.123
X10.716 Y45.134
X10.729 Y45.14
X10.755 Y45.148
X11.176 Y45.33
X11.195 Y45.341
X11.356 Y45.46
X11.373 Y45.473
X11.544 Y45.644
X11.552 Y45.652
X11.576 Y45.668
X11.588 Y45.675 Z-0.08
X11.593 Y45.679 Z-0.065
G0 Z5.
X10.003 Y45.15
Z0.955
G1 Z-0.044 F40.
X10.009 Z-0.058 F333.
X10.022 Y45.148 Z-0.064
X10.376 Y45.097 Z-0.077
X10.395 Y45.099
X10.499 Y45.109 Z-0.081
X10.523 Y45.11 Z-0.082
X10.547 Y45.107 Z-0.083
X10.572 Y45.097 Z-0.084
X10.589 Y45.084
X10.605 Y45.065 Z-0.085
X10.613 Y45.05 F40.
X10.618 Y45.036
X10.622 Y45.014
X10.731 Y44.203
X10.737 Y44.179
X10.922 Y43.552
X10.924 Y43.537
X10.925 Y43.518
X10.921 Y43.273
X10.914 Y42.906
X10.909 Y42.881
X10.662 Y42.123
X10.651 Y42.098
X10.27 Y41.413
X10.243 Y41.364
X10.225 Y41.339
X9.69 Y40.628
X9.608 Y40.531
X8.953 Y39.793
X8.93 Y39.771
X8.907 Y39.758
X8.882 Y39.752
X8.858 Y39.753
X8.833 Y39.759
X8.809 Y39.774
X8.791 Y39.792
X8.781 Y39.81
X8.774 Y39.828
X8.771 Y39.846
X8.676 Y40.335
X8.495 Y41.315
X8.493 Y41.339
X8.417 Y42.257
X8.414 Y42.294
X8.41 Y42.343
X8.414 Y42.392
X8.462 Y43.028
X8.465 Y43.053
X8.471 Y43.077
X8.617 Y43.665
X8.642 Y43.763
X8.651 Y43.787
X8.945 Y44.448
X8.967 Y44.497
X8.979 Y44.522
X8.995 Y44.546
X9.451 Y45.232
X9.471 Y45.262
X9.482 Y45.278
X9.494 Y45.293
X9.519 Y45.311
X9.543 Y45.32
X9.568 Y45.322
X9.592 Y45.318
X9.617 Y45.309
X9.935 Y45.171
X9.96 Y45.162
X9.984 Y45.154
X9.998 Y45.151
X10.376 Y45.097
X10.395 Y45.099
X10.499 Y45.109
X10.523 Y45.11
X10.547 Y45.107
X10.572 Y45.097
X10.589 Y45.084
X10.605 Y45.065
X10.615 Y45.054 Z-0.08
X10.618 Y45.05 Z-0.065
G0 Z5.
X11.185 Y41.395
Z0.955
G1 Z-0.044 F40.
X11.184 Y41.4 Z-0.058 F333.
X11.182 Y41.413 Z-0.064
Y41.414
X11.17 Y41.511 Z-0.068
X11.129 Y41.853 Z-0.08
X11.127 Y41.878 Z-0.081
X11.131 Y41.902 Z-0.082
X11.141 Y41.925
X11.16 Y41.949 Z-0.083
X11.184 Y41.965 Z-0.084
X11.208 Y41.973 Z-0.085
X11.209
X11.233 Y41.975 F40.
X11.258 Y41.97
X11.282 Y41.96
X11.307 Y41.95
X12.188 Y41.575
X12.213 Y41.562
X12.237 Y41.547
X12.923 Y41.092
X12.968 Y41.062
X12.991 Y41.043
X13.021 Y41.014
X13.566 Y40.485
X13.59 Y40.462
X13.609 Y40.439
X13.613 Y40.433
X14.074 Y39.803
X14.087 Y39.782
X14.099 Y39.761
X14.695 Y38.475
X14.74 Y38.377
X14.75 Y38.352
X14.758 Y38.328
X15.167 Y36.908
X15.172 Y36.884
X15.171 Y36.859
X15.164 Y36.835
X15.149 Y36.81
X15.132 Y36.793
X15.114 Y36.783
X15.096 Y36.777
X15.078 Y36.774
X15.054 Y36.776
X15.029 Y36.784
X14.099 Y37.204
X14.001 Y37.253
X13.315 Y37.635
X13.217 Y37.69
X13.215 Y37.691
X13.086 Y37.789
X12.55 Y38.195
X12.531 Y38.211
X12.47 Y38.279
X11.989 Y38.818
X11.972 Y38.842
X11.943 Y38.906
X11.917 Y38.964
X11.78 Y39.258
X11.734 Y39.356
X11.724 Y39.381
X11.419 Y40.164
X11.41 Y40.189
X11.399 Y40.237
X11.309 Y40.629
X11.287 Y40.727
X11.182 Y41.413
X11.17 Y41.511
X11.129 Y41.853
X11.127 Y41.878
X11.131 Y41.902
X11.141 Y41.925
X11.16 Y41.949
X11.184 Y41.965
X11.209 Y41.973
X11.222 Y41.977 Z-0.08
X11.228 Y41.979 Z-0.065
G0 Z5.
X10.551 Y41.53
Z0.955
G1 Z-0.044 F40.
X10.554 Y41.534 Z-0.058 F333.
X10.563 Y41.545 Z-0.064
X10.768 Y41.821 Z-0.076
X10.79 Y41.851 Z-0.078
X10.801 Y41.866
X10.816 Y41.881 Z-0.079
X10.841 Y41.895 Z-0.08
X10.865 Y41.902 Z-0.081
X10.866
X10.88 Y41.903
X10.894 Y41.902 Z-0.082
X10.912 Y41.898 Z-0.083
X10.929 Y41.89
X10.946 Y41.878 Z-0.084
X10.964 Y41.857 Z-0.085
X10.97 Y41.846
Y41.845
X10.971 Y41.844 F40.
X11.153 Y41.413
X11.157 Y41.399
X11.16 Y41.385
X11.262 Y40.727
X11.281 Y40.629
X11.383 Y40.189
X11.39 Y40.164
X11.696 Y39.381
X11.702 Y39.356
X11.718 Y39.16
X11.759 Y38.695
Y38.671
X11.757 Y38.656
X11.591 Y37.887
X11.585 Y37.863
X11.575 Y37.838
X11.258 Y37.095
X11.247 Y37.073
X10.768 Y36.274
X10.732 Y36.223
X10.124 Y35.374
X10.109 Y35.358
X10.096 Y35.348
X10.082 Y35.341
X10.063 Y35.336
X10.044 Y35.334
X10.025 Y35.336
X10.006 Y35.341
X9.984 Y35.354
X9.963 Y35.375
X9.951 Y35.396
X9.944 Y35.418
X9.82 Y35.831
X9.791 Y35.929
X9.462 Y37.079
X9.457 Y37.104
X9.396 Y37.592
X9.302 Y38.352
X9.301 Y38.377
X9.376 Y39.16
X9.379 Y39.18
X9.385 Y39.199
X9.622 Y39.993
X9.63 Y40.017
X9.641 Y40.042
X10.047 Y40.825
X10.082 Y40.893
X10.09 Y40.908
X10.099 Y40.923
X10.768 Y41.821
X10.79 Y41.851
X10.801 Y41.866
X10.816 Y41.881
X10.841 Y41.895
X10.865 Y41.902
X10.866
X10.88 Y41.903
X10.894 Y41.902
X10.912 Y41.898
X10.929 Y41.89
X10.946 Y41.878
X10.964 Y41.857
X10.97 Y41.845
X10.977 Y41.833 Z-0.08
X10.979 Y41.828 Z-0.065
G0 Z5.
X12.184 Y37.264
Z0.955
G1 Z-0.044 F40.
X12.183 Y37.27 Z-0.058 F333.
X12.179 Y37.283 Z-0.064
X12.175 Y37.3 Z-0.065
X12.079 Y37.716 Z-0.08
X12.074 Y37.74 Z-0.081
X12.075 Y37.765 Z-0.082
X12.081 Y37.789
X12.092 Y37.809 Z-0.083
X12.11 Y37.829 Z-0.084
X12.125 Y37.839 Z-0.085
X12.139 Y37.845
Y37.846
X12.164 Y37.851 F40.
X12.188
X12.213 Y37.845
X12.237 Y37.837
X13.119 Y37.568
X13.168 Y37.553
X13.192 Y37.542
X13.217 Y37.53
X13.976 Y37.134
X14.001 Y37.12
X14.022 Y37.104
X14.666 Y36.598
X14.686 Y36.579
X14.744 Y36.516
X15.187 Y36.027
X15.23 Y35.978
X15.247 Y35.953
X16.021 Y34.656
X16.032 Y34.637
X16.042 Y34.618
X16.058 Y34.58
X16.601 Y33.236
X16.61 Y33.211
X16.614 Y33.187
X16.611 Y33.163
X16.602 Y33.139
X16.592 Y33.122
X16.575 Y33.106
X16.561 Y33.097
X16.548 Y33.091
X16.541 Y33.089
X16.527 Y33.086
X16.514 Y33.085
X16.5 Y33.086
X16.486 Y33.089
X16.45 Y33.101
X15.47 Y33.425
X15.372 Y33.466
X14.647 Y33.774
X14.588 Y33.8
X14.564 Y33.814
X13.866 Y34.236
X13.848 Y34.248
X13.83 Y34.264
X13.246 Y34.795
X13.229 Y34.815
X13.208 Y34.852
X13.15 Y34.95
X13.021 Y35.166
X12.974 Y35.243
X12.923 Y35.33
X12.565 Y36.027
X12.531 Y36.094
X12.528 Y36.103
X12.387 Y36.516
X12.354 Y36.614
X12.175 Y37.3
X12.079 Y37.716
X12.074 Y37.74
X12.075 Y37.765
X12.081 Y37.789
X12.092 Y37.809
X12.11 Y37.829
X12.125 Y37.839
X12.139 Y37.846
X12.152 Y37.852 Z-0.08
X12.158 Y37.854 Z-0.065
G0 Z5.
X11.525 Y37.315
Z0.955
G1 Z-0.044 F40.
X11.528 Y37.32 Z-0.058 F333.
X11.535 Y37.332 Z-0.064
X11.694 Y37.594 Z-0.075
X11.748 Y37.681 Z-0.079
X11.755 Y37.691
X11.778 Y37.71 Z-0.08
X11.8 Y37.721 Z-0.081
X11.823 Y37.725 Z-0.082
X11.845 Y37.724 Z-0.083
X11.86 Y37.721
X11.875 Y37.714 Z-0.084
X11.89 Y37.705
X11.905 Y37.691 Z-0.085
X11.912 Y37.683
Y37.682
X11.917 Y37.675 F40.
X12.132 Y37.282
X12.139 Y37.265
X12.156 Y37.202
X12.311 Y36.614
X12.335 Y36.532
X12.489 Y36.087
X12.495 Y36.072
X12.569 Y35.929
X12.872 Y35.341
X12.884 Y35.317
X12.891 Y35.292
X12.923 Y35.128
X12.957 Y34.95
X13.013 Y34.656
X13.017 Y34.631
Y34.607
X12.937 Y33.823
X12.933 Y33.799
X12.866 Y33.579
X12.687 Y32.991
X12.677 Y32.967
X12.324 Y32.208
X12.277 Y32.11
X11.748 Y31.177
X11.732 Y31.154
X11.717 Y31.14
X11.702 Y31.13
X11.689 Y31.125
X11.676 Y31.122
X11.663 Y31.12
X11.65
X11.631 Y31.123
X11.612 Y31.13
X11.591 Y31.145
X11.578 Y31.158
X11.569 Y31.171
X11.56 Y31.192
X11.381 Y31.62
X11.356 Y31.682
X10.846 Y32.991
X10.837 Y33.015
X10.819 Y33.089
X10.67 Y33.698
X10.661 Y33.736
X10.658 Y33.755
X10.596 Y34.46
X10.592 Y34.509
Y34.533
X10.654 Y35.219
X10.657 Y35.243
X10.852 Y35.97
X10.858 Y35.991
X10.866 Y36.012
X11.175 Y36.712
X11.218 Y36.81
X11.258 Y36.875
X11.694 Y37.594
X11.748 Y37.681
X11.755 Y37.691
X11.778 Y37.71
X11.8 Y37.721
X11.823 Y37.725
X11.845 Y37.724
X11.86 Y37.721
X11.875 Y37.714
X11.89 Y37.705
X11.905 Y37.691
X11.912 Y37.682
X11.92 Y37.671 Z-0.08
X11.924 Y37.666 Z-0.065
G0 Z5.
X13.584 Y33.274
Z0.955
G1 Z-0.044 F40.
X13.583 Y33.277 Z-0.055 F333.
X13.58 Y33.285 Z-0.062
X13.577 Y33.293 Z-0.064
X13.546 Y33.383 Z-0.068
X13.447 Y33.676 Z-0.079
X13.431 Y33.725 Z-0.08
X13.427 Y33.75 Z-0.081
X13.43 Y33.774 Z-0.082
X13.435 Y33.789 Z-0.083
X13.442 Y33.804
X13.453 Y33.819 Z-0.084
X13.47 Y33.834 Z-0.085
X13.49 Y33.844
X13.491
X13.511 Y33.85 F40.
X13.535 Y33.851
X13.56 Y33.847
X13.609 Y33.838
X14.49 Y33.667
X14.539 Y33.657
X14.564 Y33.649
X14.588 Y33.64
X15.394 Y33.323
X15.416 Y33.312
X15.459 Y33.285
X16.12 Y32.87
X16.138 Y32.858
X16.156 Y32.842
X16.646 Y32.403
X16.743 Y32.316
X16.753 Y32.306
X16.773 Y32.281
X17.671 Y31.081
X17.689 Y31.057
X17.704 Y31.032
X18.381 Y29.759
X18.409 Y29.706
X18.415 Y29.684
X18.417 Y29.662
X18.414 Y29.644
X18.409 Y29.627
X18.402 Y29.614
X18.393 Y29.602
X18.376 Y29.586
X18.36 Y29.576
X18.335 Y29.568
X18.311 Y29.567
X18.286 Y29.571
X17.331 Y29.778
X17.233 Y29.8
X16.352 Y30.07
X16.327 Y30.078
X15.568 Y30.434
X15.549 Y30.445
X14.907 Y30.914
X14.883 Y30.935
X14.882
X14.864 Y30.96
X14.811 Y31.032
X14.737 Y31.13
X14.588 Y31.329
X14.538 Y31.397
X14.52 Y31.424
X14.055 Y32.134
X14.043 Y32.159
X13.839 Y32.599
X13.805 Y32.685
X13.58 Y33.285
X13.546 Y33.383
X13.447 Y33.676
X13.431 Y33.725
X13.427 Y33.75
X13.43 Y33.774
X13.435 Y33.789
X13.442 Y33.804
X13.453 Y33.819
X13.47 Y33.834
X13.491 Y33.844
X13.503 Y33.851 Z-0.08
X13.508 Y33.854 Z-0.065
G0 Z5.
X12.933 Y33.268
Z0.955
G1 Z-0.044 F40.
X12.935 Y33.273 Z-0.058 F333.
X12.941 Y33.285 Z-0.064
X13.084 Y33.579 Z-0.076
X13.119 Y33.651 Z-0.079
X13.128 Y33.664
X13.14 Y33.676 Z-0.08
X13.159 Y33.69 Z-0.081
X13.179 Y33.697
X13.198 Y33.701 Z-0.082
X13.217 Y33.7 Z-0.083
X13.231 Y33.698
X13.244 Y33.693 Z-0.084
X13.258 Y33.686
X13.271 Y33.676 Z-0.085
X13.285 Y33.663
Y33.662
X13.295 Y33.648 F40.
X13.546 Y33.285
X13.559 Y33.26
X13.809 Y32.599
X13.854 Y32.501
X14.025 Y32.134
X14.038 Y32.11
X14.49 Y31.42
X14.504 Y31.397
X14.512 Y31.373
X14.588 Y31.122
X14.686 Y30.799
X14.705 Y30.739
X14.708 Y30.714
X14.728 Y30.323
X14.727 Y30.298
X14.665 Y29.613
X14.662 Y29.588
X14.478 Y28.854
X14.471 Y28.829
X14.197 Y28.085
X14.161 Y27.997
X13.805 Y27.195
X13.787 Y27.155
X13.774 Y27.135
X13.753 Y27.115
X13.73 Y27.104
X13.707 Y27.099
X13.69 Y27.098
X13.674 Y27.101
X13.657 Y27.106
X13.64 Y27.115
X13.621 Y27.133
X13.609 Y27.15
X13.413 Y27.508
X13.36 Y27.605
X12.621 Y29.074
X12.612 Y29.098
X12.381 Y29.857
X12.366 Y29.906
X12.362 Y29.931
X12.272 Y30.788
X12.269 Y30.812
X12.27 Y30.837
X12.316 Y31.424
X12.318 Y31.449
X12.323 Y31.473
X12.466 Y32.11
X12.473 Y32.134
X12.481 Y32.159
X12.727 Y32.84
X12.732 Y32.853
X12.738 Y32.866
X13.084 Y33.579
X13.119 Y33.651
X13.128 Y33.664
X13.14 Y33.676
X13.159 Y33.69
X13.179 Y33.697
X13.198 Y33.701
X13.217 Y33.7
X13.231 Y33.698
X13.244 Y33.693
X13.258 Y33.686
X13.271 Y33.676
X13.285 Y33.662
X13.295 Y33.652 Z-0.08
X13.299 Y33.648 Z-0.065
G0 Z5.
X15.395 Y29.475
Z0.955
G1 Z-0.044 F40.
X15.393 Y29.48 Z-0.058 F333.
X15.387 Y29.493 Z-0.064
X15.34 Y29.588 Z-0.068
X15.306 Y29.662 Z-0.071
X15.194 Y29.906 Z-0.08
X15.188 Y29.931 Z-0.081
X15.187 Y29.955 Z-0.082
X15.192 Y29.978 Z-0.083
X15.203 Y30. Z-0.084
X15.221 Y30.02 Z-0.085
X15.238 Y30.032
X15.239 Y30.033
X15.256 Y30.04 F40.
X15.274 Y30.044
X15.299
X15.323 Y30.043
X16.299 Y29.964
X16.322 Y29.961
X16.345 Y29.955
X17.184 Y29.725
X17.209 Y29.717
X17.233 Y29.707
X17.331 Y29.659
X17.97 Y29.345
X17.993 Y29.332
X18.017 Y29.315
X18.615 Y28.878
X18.659 Y28.845
X18.682 Y28.822
X19.704 Y27.703
X19.725 Y27.679
X19.743 Y27.654
X20.564 Y26.425
X20.578 Y26.402
X20.587 Y26.379
X20.589 Y26.355
X20.586 Y26.332
X20.578 Y26.312
X20.564 Y26.291
X20.539 Y26.271
X20.515 Y26.261
X20.49 Y26.257
X20.466 Y26.259
X19.486 Y26.366
X19.388 Y26.378
X18.482 Y26.554
X18.458 Y26.562
X17.686 Y26.829
X17.666 Y26.836
X17.645 Y26.847
X16.958 Y27.247
X16.939 Y27.262
X16.894 Y27.311
X16.743 Y27.475
X16.646 Y27.581
X16.623 Y27.605
X16.542 Y27.703
X15.96 Y28.413
X15.947 Y28.431
X15.937 Y28.45
X15.666 Y28.922
X15.639 Y28.976
X15.34 Y29.588
X15.306 Y29.662
X15.194 Y29.906
X15.188 Y29.931
X15.187 Y29.955
X15.192 Y29.978
X15.203 Y30.
X15.221 Y30.02
X15.239 Y30.033
X15.25 Y30.041 Z-0.08
X15.255 Y30.044 Z-0.065
G0 Z5.
X14.806 Y29.352
Z0.955
G1 Z-0.044 F40.
X14.808 Y29.357 Z-0.058 F333.
X14.812 Y29.37 Z-0.064
X14.908 Y29.662 Z-0.075
X14.941 Y29.759 Z-0.079
X14.946 Y29.773
X14.953 Y29.787 Z-0.08
X14.964 Y29.801
X14.98 Y29.815 Z-0.081
X15.005 Y29.828 Z-0.082
X15.029 Y29.833 Z-0.083
X15.054 Y29.832 Z-0.084
X15.078 Y29.825 Z-0.085
X15.095 Y29.815
X15.113 Y29.8 F40.
X15.274 Y29.611
X15.293 Y29.588
X15.306 Y29.564
X15.666 Y28.834
X15.697 Y28.78
X15.967 Y28.329
X15.976 Y28.316
X16.079 Y28.193
X16.591 Y27.581
X16.603 Y27.569
X16.611 Y27.556
X16.622 Y27.532
X16.646 Y27.476
X16.796 Y27.115
X16.817 Y27.067
X16.828 Y27.042
X16.833 Y27.018
X16.893 Y26.43
X16.898
X16.886 Y26.748
Y26.773
X16.893 Y26.797
X16.907 Y26.822
X16.923 Y26.838
X16.939 Y26.848
X16.964 Y26.857
X16.988 Y26.859
X17.013 Y26.856
X17.037 Y26.845
X17.846 Y26.415
X17.87 Y26.399
X18.507 Y25.956
X18.528 Y25.94
X18.632 Y25.842
X19.051 Y25.451
X19.076 Y25.426
X19.132 Y25.353
X19.498 Y24.878
X19.507 Y24.863
X19.824 Y24.276
X19.835 Y24.251
X20.066 Y23.618
X20.074 Y23.594
X20.075 Y23.59
X20.361 Y22.097
X20.365 Y22.072
Y22.048
X20.357 Y22.023
X20.343 Y21.999
X20.328 Y21.985
X20.314 Y21.976
X20.292 Y21.967
X20.27 Y21.963
X20.246 Y21.965
X20.221 Y21.974
X19.584 Y22.235
X19.486 Y22.276
X19.041 Y22.513
X18.857 Y22.611
X18.843 Y22.62
X18.409 Y22.929
X18.311 Y22.999
X18.307 Y23.003
X18.207 Y23.101
X17.883 Y23.419
X17.86 Y23.443
X17.821 Y23.497
X17.514 Y23.928
X17.503 Y23.946
X17.242 Y24.491
X17.233 Y24.511
X17.216 Y24.569
X17.046 Y25.132
X17.04 Y25.157
X16.92 Y25.867
X16.918 Y25.891
X16.912 Y26.038
X16.907
X16.888 Y25.769
X16.885 Y25.745
X16.686 Y24.667
X16.68 Y24.643
X16.325 Y23.492
X16.294 Y23.394
X16.289 Y23.378
X16.282 Y23.362
X16.271 Y23.346
X16.254 Y23.329
X16.229 Y23.316
X16.205 Y23.31
X16.18 Y23.311
X16.156 Y23.318
X16.133 Y23.331
X16.11 Y23.356
X15.862 Y23.714
X15.813 Y23.786
X14.882 Y25.277
X14.835 Y25.353
X14.825 Y25.377
X14.514 Y26.234
X14.505 Y26.259
X14.499 Y26.283
X14.49 Y26.35
X14.392 Y27.162
X14.386 Y27.213
X14.375 Y27.311
X14.374 Y27.336
X14.51 Y28.437
X14.514 Y28.462
X14.521 Y28.486
X14.908 Y29.662
X14.941 Y29.759
X14.946 Y29.773
X14.953 Y29.787
X14.964 Y29.801
X14.98 Y29.815
X15.005 Y29.828
X15.029 Y29.833
X15.054 Y29.832
X15.078 Y29.825
X15.095 Y29.815
X15.108 Y29.808 Z-0.08
X15.113 Y29.805 Z-0.065
G0 Z5.
X11.83 Y55.828
Z0.955
G1 Z-0.044 F40.
X11.825 Y55.826 Z-0.058 F333.
X11.813 Y55.82 Z-0.064
X11.322 Y55.612 Z-0.083
X11.29 Y55.598 Z-0.084
X11.274 Y55.592 Z-0.085
X11.258 Y55.586
X11.234 Y55.583 F40.
X11.21 Y55.586
X11.187 Y55.595
X11.163 Y55.612
X11.16 Y55.615
X11.144 Y55.639
X11.136 Y55.663
X11.133 Y55.686
X11.136 Y55.71
X11.183 Y56.101
X11.197 Y56.199
X11.287 Y56.787
X11.305 Y56.885
X11.411 Y57.35
X11.418 Y57.374
X11.731 Y58.179
X11.74 Y58.2
X11.765 Y58.256
X11.811 Y58.354
X11.982 Y58.721
X11.994 Y58.745
X12.004 Y58.759
X12.531 Y59.345
X12.556 Y59.368
X13.217 Y59.865
X13.241 Y59.88
X14.02 Y60.312
X14.099 Y60.351
X15.029 Y60.772
X15.054 Y60.781
X15.078 Y60.784
X15.102 Y60.781
X15.127 Y60.771
X15.144 Y60.758
X15.162 Y60.737
X15.171 Y60.721
X15.175 Y60.704
X15.176 Y60.7
X15.177 Y60.684
X15.176 Y60.668
X15.172 Y60.652
X14.765 Y59.235
X14.758 Y59.211
X14.748 Y59.186
X14.726 Y59.137
X14.108 Y57.805
X14.099 Y57.785
X14.088 Y57.766
X14.017 Y57.668
X13.659 Y57.179
X13.609 Y57.11
X13.596 Y57.095
X13.581 Y57.081
X13.021 Y56.537
X12.996 Y56.514
X12.971 Y56.493
X12.237 Y56.007
X12.232 Y56.004
X12.209 Y55.989
X12.186 Y55.979
X11.322 Y55.612
X11.29 Y55.598
X11.274 Y55.592
X11.258 Y55.586
X11.244 Y55.581 Z-0.08
X11.239 Y55.58 Z-0.065
G0 Z5.
X11.169 Y56.3
Z0.955
G1 Z-0.044 F40.
X11.168 Y56.294 Z-0.058 F333.
X11.166 Y56.281 Z-0.064
X11.15 Y56.175 Z-0.068
X11.144 Y56.15 Z-0.069
X11.124 Y56.101 Z-0.071
X10.964 Y55.718 Z-0.085
X10.963 Y55.717
X10.96 Y55.71 F40.
X10.951 Y55.694
X10.937 Y55.679
X10.913 Y55.663
X10.889 Y55.656
X10.866 Y55.654
X10.844 Y55.657
X10.822 Y55.666
X10.8 Y55.683
X10.789 Y55.696
X10.768 Y55.724
X10.091 Y56.633
X10.082 Y56.647
X10.06 Y56.689
X9.629 Y57.521
X9.618 Y57.546
X9.61 Y57.57
X9.376 Y58.354
X9.369 Y58.378
X9.365 Y58.403
X9.298 Y59.102
X9.295 Y59.137
X9.291 Y59.186
X9.292 Y59.211
X9.447 Y60.459
X9.453 Y60.484
X9.788 Y61.661
X9.795 Y61.683
X9.886 Y61.984
X9.913 Y62.075
X9.935 Y62.148
X9.945 Y62.173
X9.959 Y62.193
X9.972 Y62.204
X9.984 Y62.212
X10.009 Y62.222
X10.033 Y62.225
X10.058 Y62.222
X10.082 Y62.212
X10.102 Y62.197
X10.121 Y62.173
X10.682 Y61.389
X10.752 Y61.291
X11.232 Y60.49
X11.242 Y60.471
X11.569 Y59.7
X11.578 Y59.676
X11.588 Y59.627
X11.748 Y58.875
X11.749 Y58.859
Y58.843
X11.74 Y58.745
X11.723 Y58.55
X11.714 Y58.452
X11.705 Y58.354
X11.69 Y58.2
X11.685 Y58.179
X11.677 Y58.158
X11.383 Y57.399
X11.375 Y57.374
X11.261 Y56.885
X11.258 Y56.869
X11.15 Y56.175
X11.144 Y56.15
X11.124 Y56.101
X10.964 Y55.718
X10.963 Y55.717
X10.957 Y55.704 Z-0.08
X10.955 Y55.698 Z-0.065
G0 Z5.
X12.713 Y59.873
Z0.955
G1 Z-0.044 F40.
X12.707 Y59.871 Z-0.058 F333.
X12.694 Y59.867 Z-0.064
X12.229 Y59.725 Z-0.081
X12.184 Y59.711 Z-0.083
X12.162 Y59.706 Z-0.084
X12.139 Y59.707 Z-0.085
X12.117 Y59.712
X12.116
X12.093 Y59.725 F40.
X12.069 Y59.749
X12.057 Y59.774
X12.052 Y59.798
X12.053 Y59.823
X12.075 Y59.921
X12.141 Y60.214
X12.165 Y60.312
X12.318 Y60.9
X12.335 Y60.963
X12.498 Y61.438
X12.507 Y61.463
X12.519 Y61.487
X12.897 Y62.222
X12.91 Y62.246
X12.983 Y62.369
X13.217 Y62.76
X13.226 Y62.773
X13.238 Y62.785
X13.823 Y63.312
X13.841 Y63.326
X14.56 Y63.757
X14.574 Y63.764
X15.372 Y64.102
X15.443 Y64.131
X16.45 Y64.464
X16.474 Y64.471
X16.499 Y64.472
X16.523 Y64.468
X16.548 Y64.455
X16.565 Y64.44
X16.576 Y64.425
X16.587 Y64.401
X16.591 Y64.376
X16.589 Y64.352
X16.581 Y64.327
X16.027 Y62.956
X16.015 Y62.932
X16.002 Y62.907
X15.227 Y61.61
X15.211 Y61.585
X15.195 Y61.565
X14.681 Y60.998
X14.658 Y60.973
X14.635 Y60.952
X14.001 Y60.455
X13.982 Y60.441
X13.964 Y60.429
X13.217 Y60.04
X13.175 Y60.018
X13.161 Y60.012
X13.147 Y60.006
X13.119 Y59.997
X12.229 Y59.725
X12.184 Y59.711
X12.162 Y59.706
X12.139 Y59.707
X12.116 Y59.712
X12.102 Y59.716 Z-0.08
X12.097 Y59.717 Z-0.065
G0 Z5.
X12.156 Y60.422
Z0.955
G1 Z-0.044 F40.
X12.154 Y60.417 Z-0.058 F333.
X12.151 Y60.403 Z-0.064
X12.127 Y60.312 Z-0.068
X12.12 Y60.288 Z-0.069
X12.108 Y60.263
X11.895 Y59.876 Z-0.085
X11.888 Y59.865
X11.885 Y59.861 F40.
X11.87 Y59.846
X11.845 Y59.831
X11.821 Y59.825
X11.796 Y59.824
X11.772 Y59.83
X11.748 Y59.844
X11.728 Y59.863
X11.715 Y59.882
X11.201 Y60.728
X11.188 Y60.753
X11.166 Y60.802
X10.841 Y61.536
X10.831 Y61.561
X10.824 Y61.585
X10.64 Y62.271
X10.627 Y62.32
X10.624 Y62.344
X10.572 Y62.919
X10.562 Y63.03
X10.563 Y63.054
X10.627 Y63.789
X10.63 Y63.813
X10.635 Y63.838
X10.804 Y64.523
X10.81 Y64.548
X10.819 Y64.572
X11.337 Y65.894
X11.356 Y65.94
X11.529 Y66.359
X11.54 Y66.384
X11.552 Y66.4
X11.576 Y66.421
X11.601 Y66.432
X11.625 Y66.436
X11.65 Y66.433
X11.666 Y66.428
X11.683 Y66.419
X11.703 Y66.401
X11.715 Y66.384
X12.237 Y65.467
X12.269 Y65.404
X12.634 Y64.621
X12.657 Y64.572
X12.672 Y64.523
X12.904 Y63.764
X12.911 Y63.74
X12.923 Y63.626
X12.996 Y62.932
X12.997 Y62.907
X12.992 Y62.883
X12.987 Y62.858
X12.968 Y62.76
X12.911 Y62.467
X12.874 Y62.271
X12.868 Y62.246
X12.856 Y62.222
X12.528 Y61.585
X12.478 Y61.487
X12.468 Y61.463
X12.308 Y60.998
X12.282 Y60.9
X12.127 Y60.312
X12.12 Y60.288
X12.108 Y60.263
X11.895 Y59.876
X11.888 Y59.865
X11.88 Y59.853 Z-0.08
X11.876 Y59.848 Z-0.065
G0 Z5.
X14.082 Y63.815
Z0.955
G1 Z-0.044 F40.
X14.076 Y63.814 Z-0.058 F333.
X14.063 Y63.812 Z-0.064
X13.56 Y63.714 Z-0.082
X13.535 Y63.71 Z-0.083
X13.511 Y63.706 Z-0.084
X13.491 Y63.707 Z-0.085
X13.472 Y63.712
X13.471 Y63.713
X13.452 Y63.723 F40.
X13.432 Y63.74
X13.42 Y63.755
X13.413 Y63.771
X13.408 Y63.788
X13.406 Y63.804
X13.408 Y63.821
X13.411 Y63.838
X13.546 Y64.229
X13.564 Y64.28
X13.805 Y64.92
X13.847 Y65.013
X14.028 Y65.404
X14.039 Y65.426
X14.49 Y66.115
X14.542 Y66.188
X14.588 Y66.249
X14.837 Y66.579
X14.882 Y66.639
X14.907 Y66.66
X15.519 Y67.105
X15.543 Y67.123
X15.568 Y67.135
X16.31 Y67.48
X16.331 Y67.488
X17.206 Y67.755
X17.233 Y67.762
X18.262 Y67.986
X18.286 Y67.99
X18.311
X18.328 Y67.987
X18.345 Y67.98
X18.362 Y67.968
X18.379 Y67.95
X18.392 Y67.926
X18.398 Y67.901
Y67.877
X18.391 Y67.853
X18.378 Y67.828
X17.689 Y66.531
X17.674 Y66.506
X17.657 Y66.482
X16.761 Y65.284
X16.743 Y65.262
X16.731 Y65.248
X16.716 Y65.233
X16.141 Y64.719
X16.121 Y64.701
X16.1 Y64.686
X15.421 Y64.261
X15.397 Y64.246
X15.372 Y64.234
X14.588 Y63.926
X14.539 Y63.907
X14.515 Y63.899
X13.56 Y63.714
X13.535 Y63.71
X13.511 Y63.706
X13.491 Y63.707
X13.471 Y63.713
X13.458 Y63.716 Z-0.08
X13.452 Y63.718 Z-0.065
G0 Z5.
X13.58 Y64.429
Z0.955
G1 Z-0.044 F40.
X13.578 Y64.424 Z-0.058 F333.
X13.573 Y64.411 Z-0.064
X13.53 Y64.296 Z-0.069
X13.522 Y64.28
X13.511 Y64.264 Z-0.07
X13.258 Y63.902 Z-0.085
Y63.901
X13.237 Y63.879 F40.
X13.217 Y63.867
X13.192 Y63.859
X13.168 Y63.858
X13.143 Y63.863
X13.119 Y63.875
X13.102 Y63.89
X13.09 Y63.905
X13.082 Y63.92
X12.711 Y64.685
X12.703 Y64.702
X12.697 Y64.719
X12.445 Y65.42
X12.44 Y65.435
X12.433 Y65.465
X12.335 Y65.901
X12.293 Y66.09
X12.289 Y66.114
X12.241 Y66.726
Y66.751
X12.326 Y67.559
X12.335 Y67.645
X12.338 Y67.657
X12.584 Y68.465
X12.595 Y68.489
X13.315 Y69.921
X13.36 Y70.007
X13.575 Y70.399
X13.588 Y70.419
X13.609 Y70.44
X13.633 Y70.453
X13.658 Y70.459
X13.682 Y70.458
X13.707 Y70.451
X13.72 Y70.444
X13.733 Y70.435
X13.749 Y70.417
X13.759 Y70.399
X14.107 Y69.615
X14.145 Y69.517
X14.365 Y68.93
X14.392 Y68.855
X14.398 Y68.832
X14.671 Y67.51
X14.674 Y67.485
X14.691 Y67.167
Y67.143
X14.674 Y66.824
X14.671 Y66.8
X14.663 Y66.775
X14.633 Y66.677
X14.544 Y66.384
X14.484 Y66.188
X14.476 Y66.164
X14.462 Y66.139
X14.014 Y65.456
X14.001 Y65.434
X13.804 Y65.013
X13.763 Y64.915
X13.53 Y64.296
X13.522 Y64.28
X13.511 Y64.264
X13.258 Y63.901
X13.25 Y63.889 Z-0.08
X13.246 Y63.885 Z-0.065
G0 Z5.
X15.314 Y67.304
Z0.955
G1 Z-0.044 F40.
X15.309 Y67.301 Z-0.058 F333.
X15.298 Y67.293 Z-0.064
X14.962 Y67.069 Z-0.078
X14.882 Y67.016 Z-0.082
X14.858 Y67.003 Z-0.083
X14.833 Y66.997 Z-0.084
X14.809 Y66.998
X14.785 Y67.005 Z-0.085
X14.784
X14.764 Y67.017 F40.
X14.744 Y67.037
X14.735 Y67.051
X14.728 Y67.069
X14.724 Y67.094
X14.7 Y67.559
X14.695 Y67.657
X14.69 Y67.755
X14.681 Y67.924
X14.68 Y67.937
X14.681 Y67.95
X14.719 Y68.685
X14.723 Y68.709
X14.839 Y69.346
X14.844 Y69.37
X15.05 Y69.958
X15.062 Y69.982
X15.352 Y70.496
X15.361 Y70.51
X15.372 Y70.524
X15.755 Y70.986
X15.764 Y70.997
X15.863 Y71.084
X16.254 Y71.427
X16.271 Y71.441
X16.841 Y71.824
X16.878 Y71.848
X17.576 Y72.223
X17.601 Y72.236
X17.625 Y72.242
X17.65
X17.674 Y72.236
X17.699 Y72.222
X17.713 Y72.208
X17.723 Y72.195
X17.731 Y72.178
X17.736 Y72.161
X17.737 Y72.137
X17.606 Y70.594
X17.601 Y70.57
X17.459 Y70.007
X17.435 Y69.909
X17.429 Y69.89
X17.397 Y69.811
X17.174 Y69.272
X17.163 Y69.248
X17.148 Y69.223
X16.812 Y68.683
X16.798 Y68.659
X16.781 Y68.636
X16.309 Y68.097
X16.297 Y68.083
X16.284 Y68.07
X15.687 Y67.559
X15.666 Y67.541
X15.641 Y67.523
X14.962 Y67.069
X14.882 Y67.016
X14.858 Y67.003
X14.833 Y66.997
X14.809 Y66.998
X14.784 Y67.005
X14.771 Y67.009 Z-0.08
X14.765 Y67.01 Z-0.065
G0 Z5.
X84.164 Y67.347
Z0.955
G1 Z-0.044 F40.
X84.161 Y67.352 Z-0.058 F333.
X84.155 Y67.364 Z-0.064
X83.908 Y67.83 Z-0.083
X83.896 Y67.853 Z-0.084
X83.889 Y67.877 Z-0.085
Y67.901
X83.895 Y67.926 F40.
X83.908 Y67.95
X83.926 Y67.969
X83.944 Y67.981
X83.969 Y67.989
X83.993 Y67.991
X84.018 Y67.987
X85.022 Y67.768
X85.08 Y67.755
X85.953 Y67.487
X85.977 Y67.478
X86.736 Y67.123
X86.761 Y67.108
X87.398 Y66.642
X87.411 Y66.633
X87.424 Y66.62
X87.453 Y66.579
X87.471 Y66.555
X87.525 Y66.482
X87.67 Y66.286
X87.77 Y66.152
X87.78 Y66.137
X88.241 Y65.433
X88.255 Y65.41
X88.451 Y64.987
X88.483 Y64.915
X88.704 Y64.327
X88.74 Y64.229
X88.873 Y63.838
X88.878 Y63.813
X88.876 Y63.789
X88.869 Y63.764
X88.853 Y63.74
X88.842 Y63.73
X88.818 Y63.715
X88.793 Y63.707
X88.769
X88.744 Y63.711
X88.646 Y63.729
X87.863 Y63.881
X87.765 Y63.901
X87.742 Y63.908
X87.718 Y63.917
X86.926 Y64.229
X86.904 Y64.238
X86.883 Y64.25
X86.785 Y64.311
X86.197 Y64.679
X86.171 Y64.697
X86.158 Y64.707
X86.145 Y64.719
X85.573 Y65.231
X85.548 Y65.255
X85.529 Y65.279
X84.629 Y66.482
X84.612 Y66.506
X84.597 Y66.531
X83.908 Y67.83
X83.896 Y67.853
X83.889 Y67.877
Y67.901
Y67.916 Z-0.08
Y67.921 Z-0.065
G0 Z5.
X85.763 Y68.341
Z0.955
G1 Z-0.044 F40.
X85.759 Y68.345 Z-0.058 F333.
X85.75 Y68.355 Z-0.064
X85.505 Y68.636 Z-0.077
X85.487 Y68.66 Z-0.078
X85.382 Y68.829 Z-0.085
Y68.83
X85.128 Y69.238 F40.
X85.12 Y69.252
X85.091 Y69.321
X84.858 Y69.884
X84.85 Y69.909
X84.684 Y70.57
X84.678 Y70.594
X84.546 Y72.137
X84.548 Y72.161
X84.552 Y72.177
X84.56 Y72.193
X84.571 Y72.209
X84.589 Y72.225
X84.609 Y72.236
X84.63 Y72.241
X84.655 Y72.242
X84.679 Y72.237
X84.704 Y72.225
X85.392 Y71.856
X85.414 Y71.843
X86.002 Y71.448
X86.022 Y71.433
X86.51 Y71.005
X86.529 Y70.986
X86.909 Y70.527
X86.921 Y70.512
X86.931 Y70.496
X87.221 Y69.982
X87.233 Y69.958
X87.439 Y69.37
X87.445 Y69.346
X87.561 Y68.709
X87.564 Y68.685
X87.603 Y67.95
Y67.926
X87.594 Y67.755
X87.585 Y67.559
X87.58 Y67.461
X87.561 Y67.094
X87.557 Y67.069
X87.551 Y67.055
X87.543 Y67.041
X87.529 Y67.024
X87.514 Y67.013
X87.492 Y67.003
X87.471 Y66.999
X87.446
X87.422 Y67.006
X87.397 Y67.02
X86.643 Y67.524
X86.622 Y67.54
X86.002 Y68.071
X85.983 Y68.09
X85.505 Y68.636
X85.487 Y68.66
X85.382 Y68.83
X85.374 Y68.842 Z-0.08
X85.371 Y68.847 Z-0.065
G0 Z5.
X87.642 Y67.693
Z0.955
G1 Z-0.044 F40.
X87.644 Y67.698 Z-0.058 F333.
X87.647 Y67.712 Z-0.064
X87.777 Y68.299 Z-0.085
Y68.3
X87.905 Y68.881 F40.
X87.912 Y68.905
X88.18 Y69.615
X88.223 Y69.713
X88.528 Y70.399
X88.536 Y70.414
X88.548 Y70.43
X88.573 Y70.448
X88.597 Y70.458
X88.622 Y70.46
X88.646 Y70.457
X88.663 Y70.451
X88.68 Y70.441
X88.701 Y70.42
X88.714 Y70.399
X88.94 Y69.983
X88.979 Y69.909
X89.693 Y68.489
X89.703 Y68.465
X89.95 Y67.657
X89.954 Y67.632
X90.048 Y66.751
X90.047 Y66.726
X89.999 Y66.114
X89.995 Y66.09
X89.852 Y65.453
X89.846 Y65.429
X89.838 Y65.404
X89.59 Y64.719
X89.581 Y64.694
X89.498 Y64.523
X89.212 Y63.935
X89.198 Y63.908
X89.188 Y63.894
X89.174 Y63.88
X89.155 Y63.868
X89.136 Y63.861
X89.112 Y63.858
X89.087 Y63.86
X89.063 Y63.87
X89.038 Y63.889
X89.021 Y63.912
X88.767 Y64.278
X88.755 Y64.303
X88.523 Y64.915
X88.482 Y65.013
X88.29 Y65.424
X88.28 Y65.444
X88.157 Y65.633
X87.827 Y66.137
X87.817 Y66.152
X87.809 Y66.167
X87.803 Y66.188
X87.765 Y66.314
X87.744 Y66.384
X87.667 Y66.636
X87.617 Y66.8
X87.61 Y66.824
X87.608 Y66.849
X87.598 Y67.069
X87.595 Y67.118
X87.598 Y67.167
X87.62 Y67.583
X87.624 Y67.608
X87.777 Y68.3
X87.78 Y68.314 Z-0.08
X87.781 Y68.319 Z-0.065
G0 Z5.
X90.259 Y65.843
Z0.955
G1 Z-0.044 F40.
X90.262 Y65.848 Z-0.058 F333.
X90.268 Y65.86 Z-0.064
X90.566 Y66.383 Z-0.085
Y66.384
X90.581 Y66.404 F40.
X90.593 Y66.416
X90.606 Y66.424
X90.63 Y66.434
X90.655 Y66.437
X90.679 Y66.434
X90.704 Y66.424
X90.716 Y66.416
X90.729 Y66.404
X90.743 Y66.384
X90.754 Y66.359
X90.907 Y65.992
X90.948 Y65.894
X91.465 Y64.572
X91.475 Y64.548
X91.481 Y64.523
X91.649 Y63.838
X91.655 Y63.813
X91.658 Y63.789
X91.722 Y63.054
X91.723 Y63.03
X91.661 Y62.344
X91.658 Y62.32
X91.646 Y62.271
X91.462 Y61.585
X91.455 Y61.561
X91.445 Y61.536
X91.12 Y60.802
X91.095 Y60.748
X91.083 Y60.726
X90.564 Y59.875
X90.553 Y59.859
X90.536 Y59.843
X90.522 Y59.835
X90.508 Y59.829
X90.483 Y59.824
X90.459 Y59.826
X90.434 Y59.833
X90.41 Y59.85
X90.394 Y59.867
X90.384 Y59.885
X90.177 Y60.263
X90.165 Y60.288
X90.158 Y60.312
X90.003 Y60.9
X89.976 Y60.998
X89.812 Y61.473
X89.806 Y61.487
X89.503 Y62.075
X89.423 Y62.23
X89.417 Y62.244
X89.412 Y62.257
X89.41 Y62.271
X89.372 Y62.467
X89.288 Y62.907
X89.284 Y62.932
X89.285 Y62.956
X89.37 Y63.74
X89.375 Y63.764
X89.621 Y64.563
X89.626 Y64.576
X89.647 Y64.621
X90.018 Y65.416
X90.065 Y65.502
X90.566 Y66.384
X90.573 Y66.396 Z-0.08
X90.576 Y66.401 Z-0.065
G0 Z5.
X87.918 Y63.64
Z0.955
G1 Z-0.044 F40.
X87.923 Y63.637 Z-0.058 F333.
X87.935 Y63.63 Z-0.064
X88.45 Y63.318 Z-0.085
X88.451
X88.47 Y63.303 F40.
X89.038 Y62.787
X89.068 Y62.76
X89.086 Y62.736
X89.136 Y62.65
X89.245 Y62.467
X89.304 Y62.369
X89.332 Y62.321
X89.377 Y62.244
X89.384 Y62.23
X89.774 Y61.473
X89.781 Y61.459
X89.939 Y60.998
X89.969 Y60.9
X90.136 Y60.263
X90.147 Y60.214
X90.214 Y59.919
X90.236 Y59.823
X90.237 Y59.802
X90.234 Y59.782
X90.227 Y59.762
X90.214 Y59.742
X90.195 Y59.725
X90.175 Y59.714
X90.156 Y59.708
X90.136 Y59.706
X90.116 Y59.708
X90.059 Y59.725
X89.234 Y59.977
X89.136 Y60.007
X89.112 Y60.018
X89.038 Y60.057
X88.328 Y60.427
X88.304 Y60.442
X88.255 Y60.48
X87.667 Y60.941
X87.636 Y60.965
X87.62 Y60.982
X87.606 Y60.998
X87.099 Y61.557
X87.079 Y61.581
X87.076 Y61.585
X87.06 Y61.61
X86.295 Y62.89
X86.276 Y62.923
X86.267 Y62.94
X86.26 Y62.956
X85.708 Y64.324
X85.706 Y64.327
X85.698 Y64.35
X85.696 Y64.373
X85.699 Y64.397
X85.708 Y64.42
X85.711 Y64.425
X85.72 Y64.438
X85.734 Y64.452
X85.758 Y64.465
X85.782 Y64.472
X85.806
X85.83 Y64.467
X86.843 Y64.131
X86.883 Y64.115
X87.71 Y63.763
X87.731 Y63.753
X88.451 Y63.318
X88.463 Y63.311 Z-0.08
X88.468 Y63.308 Z-0.065
G0 Z5.
X87.251 Y60.294
Z0.955
G1 Z-0.044 F40.
X87.249 Y60.299 Z-0.058 F333.
X87.245 Y60.312 Z-0.064
X87.177 Y60.55 Z-0.073
X87.147 Y60.655 Z-0.077
X87.143 Y60.679 Z-0.078
X87.144 Y60.704 Z-0.079
X87.148 Y60.718
X87.155 Y60.732 Z-0.08
X87.164 Y60.746
X87.177 Y60.76 Z-0.081
X87.202 Y60.775 Z-0.082
X87.226 Y60.783 Z-0.083
X87.251 Y60.784 Z-0.084
X87.275 Y60.779
X87.299 Y60.768 Z-0.085
X88.255 Y60.335 F40.
X88.299 Y60.312
X89.087 Y59.873
X89.112 Y59.856
X89.76 Y59.366
X89.778 Y59.352
X89.796 Y59.333
X90.322 Y58.745
X90.34 Y58.721
X90.352 Y58.696
X90.373 Y58.648
X90.41 Y58.567
X90.508 Y58.353
X90.553 Y58.256
X90.596 Y58.158
X90.9 Y57.374
X90.906 Y57.35
X91.013 Y56.885
X91.031 Y56.787
X91.128 Y56.15
X91.134 Y56.101
X91.183 Y55.71
X91.185 Y55.685
X91.182 Y55.661
X91.173 Y55.636
X91.154 Y55.612
X91.139 Y55.6
X91.125 Y55.592
X91.11 Y55.587
X91.095 Y55.585
X91.071
X91.047 Y55.592
X90.997 Y55.612
X90.214 Y55.946
X90.116 Y55.988
X90.102 Y55.995
X90.089 Y56.004
X90.018 Y56.05
X89.35 Y56.493
X89.332 Y56.507
X89.245 Y56.591
X88.74 Y57.081
X88.716 Y57.105
X88.697 Y57.13
X88.255 Y57.736
X88.233 Y57.766
X88.219 Y57.791
X88.207 Y57.815
X87.595 Y59.137
X87.569 Y59.195
X87.561 Y59.215
X87.177 Y60.55
X87.147 Y60.655
X87.143 Y60.679
X87.144 Y60.704
X87.148 Y60.718
X87.155 Y60.732
X87.164 Y60.746
X87.177 Y60.76
X87.202 Y60.775
X87.226 Y60.783
X87.251 Y60.784
X87.275 Y60.779
X87.299 Y60.768
X87.312 Y60.762 Z-0.08
X87.318 Y60.76 Z-0.065
G0 Z5.
X90.61 Y59.093
Z0.955
G1 Z-0.044 F40.
X90.611 Y59.098 Z-0.058 F333.
X90.614 Y59.112 Z-0.064
X90.735 Y59.676 Z-0.084
X90.742 Y59.7 Z-0.085
X90.743
X91.066 Y60.459 F40.
X91.077 Y60.484
X91.151 Y60.606
X91.562 Y61.291
X91.585 Y61.325
X92.192 Y62.173
X92.212 Y62.197
X92.232 Y62.212
X92.251 Y62.22
X92.271 Y62.224
X92.295
X92.32 Y62.217
X92.344 Y62.202
X92.359 Y62.187
X92.368 Y62.173
X92.369 Y62.172
X92.378 Y62.148
X92.52 Y61.683
X92.548 Y61.585
X92.865 Y60.472
X92.868 Y60.451
X93.022 Y59.211
X93.024 Y59.186
X93.02 Y59.137
X92.95 Y58.403
X92.946 Y58.378
X92.939 Y58.354
X92.704 Y57.57
X92.697 Y57.547
X92.687 Y57.523
X92.255 Y56.689
X92.242 Y56.665
X92.229 Y56.64
X92.192 Y56.591
X91.536 Y55.71
X91.525 Y55.695
X91.512 Y55.68
X91.487 Y55.664
X91.463 Y55.657
X91.438 Y55.655
X91.414 Y55.66
X91.389 Y55.672
X91.369 Y55.691
X91.356 Y55.71
X91.315 Y55.808
X91.192 Y56.101
X91.172 Y56.15
X91.166 Y56.175
X91.071 Y56.787
X91.056 Y56.885
X90.941 Y57.374
X90.933 Y57.399
X90.636 Y58.158
X90.627 Y58.182
X90.623 Y58.207
X90.611 Y58.354
X90.606 Y58.423
X90.567 Y58.868
Y58.892
X90.578 Y58.941
X90.735 Y59.676
X90.743 Y59.7
X90.747 Y59.714 Z-0.08
X90.748 Y59.719 Z-0.065
G0 Z5.
X92.726 Y57.106
Z0.955
G1 Z-0.044 F40.
X92.73 Y57.11 Z-0.058 F333.
X92.739 Y57.12 Z-0.064
X93.139 Y57.57 Z-0.085
X93.349 Y57.806 F40.
X93.373 Y57.833
X93.398 Y57.851
X93.422 Y57.86
X93.447 Y57.862
X93.471 Y57.859
X93.495 Y57.848
X93.519 Y57.829
X93.533 Y57.809
X93.54 Y57.789
X93.545 Y57.766
X93.638 Y57.277
X93.803 Y56.395
X93.821 Y56.297
X93.829 Y56.199
X93.905 Y55.294
X93.906 Y55.269
X93.902 Y55.22
X93.82 Y54.388
X93.816 Y54.363
X93.809 Y54.339
X93.544 Y53.53
X93.521 Y53.457
X93.512 Y53.433
X93.499 Y53.408
X92.957 Y52.5
X92.944 Y52.478
X92.927 Y52.454
X92.906 Y52.429
X92.07 Y51.499
X92.024 Y51.448
X92. Y51.431
X91.977 Y51.422
X91.953 Y51.419
X91.928 Y51.422
X91.904 Y51.431
X91.879 Y51.451
X91.863 Y51.475
X91.854 Y51.499
X91.728 Y51.915
X91.722 Y51.94
X91.72 Y51.964
X91.689 Y52.576
X91.683 Y52.674
X91.622 Y53.164
X91.619 Y53.189
X91.612 Y53.213
X91.487 Y53.667
X91.397 Y53.996
X91.391 Y54.021
X91.39 Y54.045
X91.394 Y54.241
X91.401 Y54.706
X91.404 Y54.73
X91.412 Y54.755
X91.652 Y55.489
X91.661 Y55.514
X92.043 Y56.199
X92.075 Y56.257
X92.105 Y56.297
X92.622 Y56.983
X92.663 Y57.034
X93.139 Y57.57
X93.149 Y57.581 Z-0.08
X93.153 Y57.585 Z-0.065
G0 Z5.
X90.216 Y55.698
Z0.955
G1 Z-0.044 F40.
X90.22 Y55.694 Z-0.058 F333.
X90.23 Y55.685 Z-0.064
X90.668 Y55.273 Z-0.085
X90.669 Y55.272
X90.687 Y55.25 F40.
X91.15 Y54.608
X91.164 Y54.584
X91.181 Y54.535
X91.193 Y54.495
X91.213 Y54.437
X91.313 Y54.143
X91.347 Y54.045
X91.376 Y53.947
X91.58 Y53.198
X91.585 Y53.177
X91.647 Y52.674
X91.654 Y52.576
X91.685 Y51.94
X91.686 Y51.915
X91.692 Y51.485
X91.691 Y51.471
X91.688 Y51.458
X91.683 Y51.444
X91.67 Y51.422
X91.646 Y51.401
X91.631 Y51.393
X91.616 Y51.388
X91.6 Y51.386
X91.585
X91.561 Y51.39
X91.538 Y51.401
X91.487 Y51.429
X90.704 Y51.864
X90.656 Y51.891
X90.631 Y51.91
X90.606 Y51.93
X90.018 Y52.416
X89.942 Y52.478
X89.92 Y52.502
X89.694 Y52.772
X89.399 Y53.126
X89.384 Y53.145
X89.372 Y53.164
X89.315 Y53.262
X88.973 Y53.849
X88.963 Y53.87
X88.955 Y53.891
X88.467 Y55.318
X88.458 Y55.347
X88.453 Y55.361
X88.451 Y55.375
X88.191 Y56.836
X88.188 Y56.86
X88.19 Y56.885
X88.196 Y56.903
X88.206 Y56.922
X88.23 Y56.946
X88.255 Y56.959
X88.279 Y56.964
X88.304 Y56.963
X88.328 Y56.956
X88.353 Y56.942
X89.234 Y56.424
X89.281 Y56.395
X90.038 Y55.862
X90.058 Y55.846
X90.669 Y55.272
X90.679 Y55.263 Z-0.08
X90.684 Y55.259 Z-0.065
G0 Z5.
X88.91 Y52.547
Z0.955
G1 Z-0.044 F40.
Y52.553 Z-0.058 F333.
X88.909 Y52.566 Z-0.064
X88.884 Y52.943 Z-0.078
X88.885 Y52.968
X88.889 Y52.987 Z-0.079
X88.898 Y53.006 Z-0.08
X88.919 Y53.03 Z-0.081
X88.94 Y53.044 Z-0.082
X88.965 Y53.052 Z-0.083
X88.989 Y53.054 Z-0.084
X89.014 Y53.049
X89.038 Y53.038 Z-0.085
Y53.037
X89.136 Y52.965 F40.
X89.822 Y52.459
X89.92 Y52.386
X90.619 Y51.776
X90.631 Y51.764
X90.692 Y51.695
X91.175 Y51.137
X91.193 Y51.114
X91.197 Y51.107
X91.591 Y50.422
X91.604 Y50.397
X91.612 Y50.373
X91.623 Y50.324
X91.645 Y50.226
X91.712 Y49.932
X91.735 Y49.834
X91.756 Y49.736
X91.854 Y49.247
X91.857 Y49.222
X91.9 Y48.586
X91.899 Y48.561
X91.889 Y48.292
X91.887 Y48.267
X91.883 Y48.25
X91.879 Y48.241
X91.87 Y48.225
X91.855 Y48.208
X91.83 Y48.192
X91.806 Y48.185
X91.781 Y48.182
X91.683 Y48.172
X91.675 Y48.169
X91.291 Y48.043
X91.267 Y48.033
X90.997 Y47.848
X90.9 Y47.782
X90.89 Y47.778
X90.872 Y47.772
X90.853 Y47.771
X90.835 Y47.772
X90.816 Y47.778
X90.802 Y47.785
X90.778 Y47.804
X90.754 Y47.828
X90.312 Y48.277
X90.225 Y48.365
X90.214 Y48.379
X90.154 Y48.463
X89.788 Y48.977
X89.775 Y49.002
X89.753 Y49.051
X89.228 Y50.283
X89.223 Y50.297
X89.22 Y50.31
X89.199 Y50.422
X88.979 Y51.597
X88.97 Y51.646
X88.967 Y51.695
X88.884 Y52.943
X88.885 Y52.968
X88.889 Y52.987
X88.898 Y53.006
X88.919 Y53.03
X88.94 Y53.044
X88.965 Y53.052
X88.989 Y53.054
X89.014 Y53.049
X89.038 Y53.037
X89.051 Y53.031 Z-0.08
X89.056 Y53.029 Z-0.065
G0 Z5.
X91.911 Y50.605
Z0.955
G1 Z-0.044 F40.
X91.914 Y50.61 Z-0.058 F333.
X91.919 Y50.623 Z-0.064
X92.159 Y51.175 Z-0.085
X92.173 Y51.198 F40.
X92.586 Y51.817
X92.607 Y51.842
X93.082 Y52.38
X93.153 Y52.459
X93.79 Y53.066
X93.838 Y53.111
X94.132 Y53.37
X94.157 Y53.39
X94.181 Y53.402
X94.206 Y53.406
X94.23 Y53.404
X94.246 Y53.399
X94.263 Y53.391
X94.279 Y53.379
X94.295 Y53.36
X94.306 Y53.335
X94.311 Y53.311
X94.349 Y52.87
X94.356 Y52.772
X94.444 Y51.425
X94.443 Y51.401
X94.387 Y50.618
X94.384 Y50.593
X94.379 Y50.569
X94.182 Y49.785
X94.175 Y49.761
X94.164 Y49.736
X93.786 Y48.953
X93.777 Y48.935
X93.768 Y48.916
X93.754 Y48.898
X93.153 Y48.112
X93.137 Y48.092
X93.121 Y48.072
X92.975 Y47.919
X92.957 Y47.902
X92.932 Y47.889
X92.908 Y47.884
X92.883 Y47.885
X92.859 Y47.892
X92.761 Y47.943
X92.467 Y48.098
X92.446 Y48.105
X92.026 Y48.189
X92.002 Y48.194
X91.977 Y48.204
X91.962 Y48.214
X91.946 Y48.23
X91.935 Y48.25
X91.929 Y48.267
X91.926 Y48.292
X91.904 Y49.1
X91.903 Y49.124
X91.783 Y49.782
X91.781 Y49.797
Y49.806
X91.784 Y49.834
X91.807 Y50.03
X91.861 Y50.471
X91.865 Y50.495
X91.874 Y50.52
X92.159 Y51.175
X92.165 Y51.188 Z-0.08
X92.167 Y51.194 Z-0.065
G0 Z5.
X91.367 Y47.97
Z0.955
G1 Z-0.044 F40.
X91.372 Y47.973 Z-0.058 F333.
X91.384 Y47.978 Z-0.064
X91.659 Y48.104 Z-0.075
X91.683 Y48.112 Z-0.076
X91.781 Y48.133 Z-0.079
X91.928 Y48.163 Z-0.085
X91.952 Y48.165
X91.953
X91.977 Y48.162 F40.
X92.075 Y48.141
X92.407 Y48.072
X92.422 Y48.068
X92.437 Y48.062
X92.467 Y48.047
X92.761 Y47.892
X92.774 Y47.884
X92.787 Y47.876
X92.957 Y47.76
X92.998 Y47.732
X93.011 Y47.719
X93.021 Y47.706
X93.32 Y47.264
X93.334 Y47.239
X93.34 Y47.215
X93.451 Y46.67
X93.453 Y46.65
X93.451 Y46.629
X93.445 Y46.603
X93.302 Y46.015
X93.295 Y45.995
X93.284 Y45.975
X93.237 Y45.917
X92.916 Y45.525
X92.887 Y45.491
X92.873 Y45.478
X92.859 Y45.469
X92.663 Y45.336
X92.653 Y45.33
X92.631 Y45.32
X91.974 Y45.134
X91.95 Y45.131
X91.933 Y45.132
X91.683 Y45.183
X91.585 Y45.203
X91.487 Y45.224
X91.464 Y45.229
X91.454 Y45.232
X91.438 Y45.239
X91.422 Y45.25
X90.878 Y45.607
X90.856 Y45.623
X90.84 Y45.643
X90.692 Y45.864
X90.681 Y45.882
X90.518 Y46.226
X90.513 Y46.24
X90.51 Y46.255
X90.508 Y46.269
X90.448 Y46.627
X90.446 Y46.652
X90.449 Y46.676
X90.529 Y47.092
X90.539 Y47.141
X90.549 Y47.166
X90.777 Y47.557
X90.793 Y47.582
X90.802 Y47.591
X90.977 Y47.778
X90.997 Y47.798
X91.011 Y47.807
X91.024 Y47.814
X91.659 Y48.104
X91.683 Y48.112
X91.781 Y48.133
X91.928 Y48.163
X91.953 Y48.165
X91.967 Y48.166 Z-0.08
X91.973 Y48.167 Z-0.065
G0 Z5.
X90.25 Y45.334
Z0.955
G1 Z-0.044 F40.
X90.255 Y45.337 Z-0.058 F333.
X90.265 Y45.346 Z-0.064
X90.633 Y45.643 Z-0.081
X90.656 Y45.661 Z-0.082
X90.68 Y45.672 Z-0.083
X90.704 Y45.677 Z-0.084
X90.728 Y45.675
X90.752 Y45.668 Z-0.085
X90.753
X90.776 Y45.652 F40.
X91.078 Y45.38
X91.095 Y45.366
X91.464 Y45.182
X91.599 Y45.14
X91.613 Y45.134
X91.628 Y45.124
X91.643 Y45.109
X91.658 Y45.085
X91.665 Y45.06
X91.666 Y45.036
X91.653 Y44.938
X91.563 Y44.252
X91.557 Y44.203
X91.551 Y44.182
X91.369 Y43.567
X91.338 Y43.469
X91.306 Y43.371
X91.162 Y42.955
X91.149 Y42.93
X90.686 Y42.294
X90.669 Y42.273
X90.06 Y41.706
X90.039 Y41.69
X89.332 Y41.194
X89.234 Y41.13
X88.353 Y40.613
X88.328 Y40.601
X88.304 Y40.594
X88.279
X88.255 Y40.601
X88.235 Y40.611
X88.215 Y40.629
X88.2 Y40.654
X88.193 Y40.678
X88.192 Y40.703
X88.196 Y40.727
X88.414 Y42.
X88.421 Y42.025
X88.793 Y43.273
X88.808 Y43.322
X88.82 Y43.347
X89.437 Y44.448
X89.492 Y44.546
X89.507 Y44.572
X89.517 Y44.585
X89.745 Y44.84
X89.92 Y45.036
X90.008 Y45.134
X90.018 Y45.145
X90.042 Y45.166
X90.633 Y45.643
X90.656 Y45.661
X90.68 Y45.672
X90.704 Y45.677
X90.728 Y45.675
X90.753 Y45.668
X90.766 Y45.663 Z-0.08
X90.772 Y45.662 Z-0.065
G0 Z5.
X91.625 Y44.45
Z0.955
G1 Z-0.044 F40.
X91.626 Y44.456 Z-0.058 F333.
X91.628 Y44.469 Z-0.064
X91.698 Y45.011 Z-0.083
X91.702 Y45.036 Z-0.084
X91.707 Y45.05 Z-0.085
X91.714 Y45.064
X91.715
X91.725 Y45.078 F40.
X91.742 Y45.092
X91.761 Y45.103
X91.781 Y45.109
X91.806 Y45.11
X91.933 Y45.098
X91.95
X92.332 Y45.15
X92.351 Y45.158
X92.712 Y45.311
X92.736 Y45.32
X92.761 Y45.322
X92.785 Y45.318
X92.81 Y45.307
X92.825 Y45.296
X92.84 Y45.279
X92.859 Y45.251
X93.339 Y44.53
X93.349 Y44.514
X93.379 Y44.448
X93.674 Y43.787
X93.683 Y43.763
X93.707 Y43.665
X93.854 Y43.077
X93.86 Y43.053
X93.862 Y43.028
X93.911 Y42.392
X93.915 Y42.343
X93.911 Y42.294
X93.831 Y41.339
X93.829 Y41.315
X93.642 Y40.315
X93.554 Y39.846
X93.55 Y39.828
X93.544 Y39.811
X93.529 Y39.786
X93.512 Y39.771
X93.495 Y39.761
X93.471 Y39.753
X93.447 Y39.752
X93.422 Y39.757
X93.398 Y39.769
X93.384 Y39.779
X93.371 Y39.794
X92.663 Y40.592
X92.634 Y40.629
X92.096 Y41.347
X92.084 Y41.362
X92.075 Y41.378
X91.678 Y42.098
X91.666 Y42.123
X91.657 Y42.147
X91.487 Y42.673
X91.42 Y42.881
X91.412 Y42.906
X91.408 Y42.93
Y42.979
X91.407 Y43.077
X91.403 Y43.273
X91.402 Y43.371
X91.4 Y43.518
X91.402 Y43.542
X91.408 Y43.567
X91.591 Y44.193
X91.594 Y44.213
X91.698 Y45.011
X91.702 Y45.036
X91.707 Y45.05
X91.715 Y45.064
X91.721 Y45.077 Z-0.08
X91.724 Y45.082 Z-0.065
G0 Z5.
X90.535 Y41.749
Z0.955
G1 Z-0.044 F40.
X90.54 Y41.751 Z-0.058 F333.
X90.553 Y41.756 Z-0.064
X90.997 Y41.946 Z-0.081
X91.046 Y41.966 Z-0.083
X91.071 Y41.973 Z-0.084
X91.095 Y41.975 Z-0.085
X91.11 Y41.972
X91.111 Y41.971
X91.117 Y41.97 F40.
X91.14 Y41.96
X91.155 Y41.949
X91.17 Y41.931
X91.178 Y41.917
X91.184 Y41.902
X91.187 Y41.878
X91.186 Y41.853
X91.145 Y41.511
X91.133 Y41.413
X91.028 Y40.727
X91.007 Y40.629
X90.909 Y40.205
X90.905 Y40.189
X90.9 Y40.173
X90.606 Y39.42
X90.58 Y39.356
X90.536 Y39.258
X90.336 Y38.829
X90.327 Y38.811
X90.312 Y38.792
X89.788 Y38.21
X89.771 Y38.194
X89.104 Y37.691
X89.088 Y37.681
X88.353 Y37.273
X88.255 Y37.221
X87.293 Y36.786
X87.275 Y36.779
X87.251 Y36.774
X87.226 Y36.775
X87.202 Y36.783
X87.177 Y36.799
X87.166 Y36.81
X87.151 Y36.835
X87.145 Y36.859
X87.144 Y36.884
X87.149 Y36.908
X87.561 Y38.341
X87.569 Y38.361
X87.575 Y38.377
X87.621 Y38.475
X88.21 Y39.748
X88.219 Y39.766
X88.229 Y39.785
X88.241 Y39.803
X88.702 Y40.433
X88.721 Y40.457
X88.744 Y40.481
X89.301 Y41.021
X89.332 Y41.051
X89.357 Y41.069
X90.069 Y41.541
X90.093 Y41.557
X90.116 Y41.57
X90.214 Y41.612
X90.997 Y41.946
X91.046 Y41.966
X91.071 Y41.973
X91.095 Y41.975
X91.111 Y41.971
X91.125 Y41.969 Z-0.08
X91.131 Y41.968 Z-0.065
G0 Z5.
X91.161 Y41.261
Z0.955
G1 Z-0.044 F40.
X91.162 Y41.267 Z-0.058 F333.
X91.164 Y41.28 Z-0.064
X91.181 Y41.388 Z-0.068
X91.188 Y41.413 Z-0.069
X91.368 Y41.838 Z-0.085
X91.37 Y41.843
X91.376 Y41.856 F40.
X91.389 Y41.873
X91.404 Y41.885
X91.418 Y41.893
X91.432 Y41.899
X91.447 Y41.902
X91.461 Y41.903
X91.476 Y41.902
X91.487 Y41.9
X91.512 Y41.89
X91.536 Y41.87
X91.585 Y41.804
X92.242 Y40.923
X92.25 Y40.91
X92.7 Y40.042
X92.712 Y40.017
X92.72 Y39.993
X92.963 Y39.181
X92.966 Y39.16
X93.041 Y38.377
X93.04 Y38.352
X92.884 Y37.104
X92.879 Y37.08
X92.55 Y35.929
X92.521 Y35.831
X92.392 Y35.402
X92.383 Y35.383
X92.369 Y35.364
X92.352 Y35.35
X92.335 Y35.341
X92.319 Y35.336
X92.303 Y35.334
X92.287
X92.271 Y35.337
X92.259 Y35.341
X92.246 Y35.348
X92.233 Y35.357
X92.218 Y35.373
X92.207 Y35.388
X91.585 Y36.255
X91.546 Y36.32
X91.095 Y37.072
X91.087 Y37.088
X90.759 Y37.863
X90.751 Y37.887
X90.606 Y38.575
X90.585 Y38.671
X90.581 Y38.695
X90.582 Y38.72
X90.611 Y39.062
X90.62 Y39.16
X90.639 Y39.356
X90.644 Y39.378
X90.653 Y39.4
X90.949 Y40.162
X90.957 Y40.189
X91.059 Y40.629
X91.078 Y40.727
X91.181 Y41.388
X91.188 Y41.413
X91.368 Y41.838
X91.37 Y41.843
X91.376 Y41.856 Z-0.08
X91.379 Y41.861 Z-0.065
G0 Z5.
X89.593 Y37.682
Z0.955
G1 Z-0.044 F40.
X89.598 Y37.683 Z-0.058 F333.
X89.611 Y37.687 Z-0.064
X90.018 Y37.812 Z-0.079
X90.116 Y37.842 Z-0.083
X90.14 Y37.849 Z-0.084
X90.165 Y37.852 Z-0.085
X90.189 Y37.849
X90.214 Y37.839 F40.
X90.228 Y37.829
X90.243 Y37.814
X90.257 Y37.789
X90.264 Y37.765
Y37.74
X90.259 Y37.716
X90.165 Y37.3
X90.158 Y37.275
X89.986 Y36.614
X89.953 Y36.516
X89.811 Y36.1
X89.799 Y36.076
X89.421 Y35.341
X89.366 Y35.243
X89.332 Y35.187
X89.102 Y34.803
X89.084 Y34.778
X89.057 Y34.754
X88.497 Y34.25
X88.482 Y34.236
X88.466 Y34.226
X87.765 Y33.806
X87.748 Y33.796
X87.667 Y33.762
X86.883 Y33.429
X86.785 Y33.397
X85.855 Y33.089
X85.83 Y33.084
X85.806 Y33.085
X85.791 Y33.089
X85.777 Y33.095
X85.763 Y33.104
X85.745 Y33.121
X85.734 Y33.138
X85.726 Y33.162
X85.723 Y33.187
X85.727 Y33.211
X85.736 Y33.236
X86.271 Y34.558
X86.295 Y34.617
X86.306 Y34.636
X86.317 Y34.656
X87.079 Y35.932
X87.093 Y35.956
X87.11 Y35.979
X87.152 Y36.027
X87.63 Y36.555
X87.648 Y36.574
X87.667 Y36.593
X87.693 Y36.614
X88.317 Y37.104
X88.335 Y37.117
X88.353 Y37.128
X89.136 Y37.537
X89.161 Y37.549
X89.185 Y37.557
X90.018 Y37.812
X90.116 Y37.842
X90.14 Y37.849
X90.165 Y37.852
X90.189 Y37.849
X90.203 Y37.847 Z-0.08
X90.209 Y37.846 Z-0.065
G0 Z5.
X90.158 Y37.133
Z0.955
G1 Z-0.044 F40.
X90.159 Y37.139 Z-0.058 F333.
X90.163 Y37.152 Z-0.064
X90.189 Y37.251 Z-0.068
X90.197 Y37.275 Z-0.069
X90.21 Y37.3 Z-0.07
X90.417 Y37.679 Z-0.085
X90.424 Y37.691
X90.425
X90.445 Y37.712 F40.
X90.466 Y37.724
X90.487 Y37.731
X90.508 Y37.733
X90.527 Y37.73
X90.547 Y37.724
X90.567 Y37.712
X90.586 Y37.691
X90.606 Y37.66
X91.109 Y36.833
X91.122 Y36.81
X91.166 Y36.712
X91.469 Y36.027
X91.48 Y36.003
X91.487 Y35.979
X91.501 Y35.929
X91.683 Y35.252
X91.685 Y35.243
X91.689 Y35.219
X91.752 Y34.533
Y34.509
X91.739 Y34.362
X91.686 Y33.757
X91.683 Y33.739
X91.668 Y33.676
X91.506 Y33.015
X91.497 Y32.991
X90.997 Y31.715
X90.96 Y31.62
X90.776 Y31.179
X90.76 Y31.155
X90.744 Y31.14
X90.728 Y31.13
X90.704 Y31.123
X90.688 Y31.121
X90.673
X90.657 Y31.125
X90.642 Y31.13
X90.624 Y31.142
X90.606 Y31.16
X90.595 Y31.177
X90.064 Y32.11
X90.018 Y32.208
X89.665 Y32.967
X89.654 Y32.991
X89.407 Y33.799
X89.402 Y33.823
X89.332 Y34.487
X89.317 Y34.631
Y34.656
X89.332 Y34.727
X89.337 Y34.754
X89.356 Y34.852
X89.393 Y35.047
X89.412 Y35.145
X89.44 Y35.292
X89.447 Y35.317
X89.46 Y35.341
X89.832 Y36.064
X89.842 Y36.084
X89.991 Y36.516
X90.018 Y36.603
X90.189 Y37.251
X90.197 Y37.275
X90.21 Y37.3
X90.417 Y37.679
X90.425 Y37.691
X90.432 Y37.703 Z-0.08
X90.435 Y37.708 Z-0.065
G0 Z5.
X88.232 Y33.742
Z0.955
G1 Z-0.044 F40.
X88.237 Y33.743 Z-0.058 F333.
X88.251 Y33.746 Z-0.064
X88.744 Y33.841 Z-0.082
X88.793 Y33.85 Z-0.084
X88.818 Y33.851 Z-0.085
X88.842 Y33.846
Y33.845
X88.866 Y33.833 F40.
X88.889 Y33.81
X88.9 Y33.792
X88.906 Y33.774
X88.908 Y33.75
X88.905 Y33.725
X88.888 Y33.676
X88.788 Y33.383
X88.754 Y33.285
X88.533 Y32.697
X88.494 Y32.599
X88.291 Y32.159
X88.279 Y32.134
X87.815 Y31.424
X87.796 Y31.397
X87.742 Y31.326
X87.449 Y30.935
X87.43 Y30.912
X87.411 Y30.897
X86.785 Y30.443
X86.761 Y30.427
X86.002 Y30.074
X85.985 Y30.069
X85.12 Y29.805
X85.022 Y29.782
X84.042 Y29.569
X84.018 Y29.566
X83.993 Y29.57
X83.969 Y29.58
X83.944 Y29.6
X83.933 Y29.615
X83.925 Y29.631
X83.921 Y29.646
X83.919 Y29.662
X83.92 Y29.681
X83.925 Y29.701
X83.934 Y29.72
X84.631 Y31.032
X84.646 Y31.057
X84.664 Y31.081
X85.562 Y32.283
X85.581 Y32.306
X85.595 Y32.32
X86.126 Y32.795
X86.197 Y32.858
X86.211 Y32.868
X86.883 Y33.29
X86.908 Y33.305
X86.932 Y33.319
X86.981 Y33.338
X87.667 Y33.608
X87.765 Y33.647
X87.789 Y33.655
X87.814 Y33.661
X88.744 Y33.841
X88.793 Y33.85
X88.818 Y33.851
X88.842 Y33.845
X88.856 Y33.842 Z-0.08
X88.862 Y33.841 Z-0.065
G0 Z5.
X88.747 Y33.134
Z0.955
G1 Z-0.044 F40.
X88.749 Y33.139 Z-0.058 F333.
X88.754 Y33.152 Z-0.064
X88.785 Y33.236 Z-0.067
X88.797 Y33.266 Z-0.069
X88.808 Y33.285
X89.059 Y33.646 Z-0.085
X89.069 Y33.661
X89.07
X89.084 Y33.676 F40.
X89.097 Y33.686
X89.11 Y33.693
X89.123 Y33.698
X89.136 Y33.7
X89.156 Y33.701
X89.176 Y33.698
X89.196 Y33.69
X89.215 Y33.676
X89.234 Y33.654
X89.244 Y33.635
X89.616 Y32.869
X89.626 Y32.844
X89.874 Y32.159
X89.882 Y32.134
X89.888 Y32.11
X90.032 Y31.473
X90.037 Y31.449
X90.039 Y31.424
X90.085 Y30.837
X90.086 Y30.812
X90.084 Y30.788
X89.993 Y29.931
X89.99 Y29.906
X89.975 Y29.857
X89.743 Y29.098
X89.734 Y29.074
X88.996 Y27.605
X88.94 Y27.504
X88.744 Y27.149
X88.732 Y27.132
X88.713 Y27.115
X88.697 Y27.106
X88.68 Y27.101
X88.663 Y27.098
X88.646 Y27.099
X88.624 Y27.104
X88.601 Y27.115
X88.579 Y27.136
X88.567 Y27.156
X88.194 Y27.997
X88.157 Y28.09
X87.885 Y28.829
X87.878 Y28.854
X87.702 Y29.564
X87.696 Y29.588
X87.693 Y29.613
X87.631 Y30.298
X87.63 Y30.323
X87.653 Y30.739
X87.654 Y30.753
X87.658 Y30.768
X87.667 Y30.797
X87.679 Y30.837
X87.709 Y30.935
X87.798 Y31.228
X87.843 Y31.376
X87.85 Y31.397
X87.863 Y31.419
X88.316 Y32.11
X88.329 Y32.134
X88.5 Y32.501
X88.545 Y32.599
X88.785 Y33.236
X88.797 Y33.266
X88.808 Y33.285
X89.059 Y33.646
X89.07 Y33.661
X89.078 Y33.673 Z-0.08
X89.081 Y33.678 Z-0.065
G0 Z5.
X86.496 Y30.
Z0.955
G1 Z-0.044 F40.
X86.502 Z-0.058 F333.
X86.515 Y30.001 Z-0.064
X87.03 Y30.043 Z-0.082
X87.055 Y30.045 Z-0.083
X87.079 Y30.044 Z-0.084
X87.096 Y30.04 Z-0.085
X87.113 Y30.032
X87.114
X87.131 Y30.02 F40.
X87.148 Y30.
X87.159 Y29.977
X87.164 Y29.955
Y29.931
X87.157 Y29.906
X87.045 Y29.662
X87.012 Y29.592
X86.687 Y28.929
X86.662 Y28.878
X86.589 Y28.755
X86.373 Y28.389
X86.358 Y28.364
X86.342 Y28.343
X85.806 Y27.694
X85.731 Y27.605
X85.708 Y27.579
X85.641 Y27.507
X85.397 Y27.246
X85.381 Y27.232
X85.349 Y27.213
X84.695 Y26.837
X84.678 Y26.828
X84.661 Y26.822
X83.895 Y26.56
X83.871 Y26.552
X83.846 Y26.548
X82.965 Y26.378
X82.867 Y26.366
X81.887 Y26.259
X81.863 Y26.257
X81.838 Y26.261
X81.814 Y26.271
X81.789 Y26.29
X81.775 Y26.311
X81.767 Y26.332
X81.764 Y26.356
X81.766 Y26.379
X81.774 Y26.403
X81.789 Y26.426
X82.608 Y27.654
X82.626 Y27.679
X82.647 Y27.703
X83.67 Y28.824
X83.693 Y28.846
X83.736 Y28.878
X84.336 Y29.317
X84.359 Y29.333
X84.382 Y29.345
X85.025 Y29.662
X85.12 Y29.708
X85.144 Y29.718
X85.169 Y29.725
X86.006 Y29.955
X86.03 Y29.961
X86.053 Y29.964
X87.03 Y30.043
X87.055 Y30.045
X87.079 Y30.044
X87.096 Y30.04
X87.114 Y30.032
X87.127 Y30.026 Z-0.08
X87.132 Y30.024 Z-0.065
G0 Z5.
X86.912 Y29.307
Z0.955
G1 Z-0.044 F40.
X86.915 Y29.312 Z-0.058 F333.
X86.921 Y29.324 Z-0.064
X87.046 Y29.578 Z-0.074
X87.055 Y29.592 Z-0.075
X87.079 Y29.621 Z-0.076
X87.199 Y29.759 Z-0.083
X87.237 Y29.803 Z-0.085
X87.255 Y29.817
X87.256 Y29.818
X87.275 Y29.827 F40.
X87.299 Y29.832
X87.324 Y29.831
X87.348 Y29.823
X87.373 Y29.808
X87.393 Y29.784
X87.404 Y29.759
X87.436 Y29.662
X87.824 Y28.486
X87.831 Y28.462
X87.835 Y28.437
X87.971 Y27.336
X87.97 Y27.311
X87.846 Y26.283
X87.839 Y26.259
X87.519 Y25.377
X87.509 Y25.353
X87.471 Y25.291
X86.529 Y23.786
X86.491 Y23.73
X86.237 Y23.358
X86.217 Y23.335
X86.197 Y23.321
X86.173 Y23.312
X86.148 Y23.31
X86.124 Y23.314
X86.099 Y23.325
X86.078 Y23.342
X86.065 Y23.359
X86.057 Y23.377
X86.052 Y23.394
X85.991 Y23.59
X85.666 Y24.643
X85.661 Y24.667
X85.463 Y25.745
X85.459 Y25.769
X85.44 Y26.038
X85.43
X85.426 Y25.916
X85.424 Y25.891
X85.306 Y25.177
X85.301 Y25.157
X85.114 Y24.529
X85.107 Y24.51
X84.843 Y23.955
X84.836 Y23.941
X84.517 Y23.492
X84.482 Y23.444
X84.458 Y23.42
X84.042 Y23.01
X84.034 Y23.003
X83.944 Y22.938
X83.501 Y22.621
X83.483 Y22.611
X82.867 Y22.282
X82.842 Y22.271
X82.132 Y21.979
X82.108 Y21.969
X82.083 Y21.964
X82.059 Y21.965
X82.034 Y21.972
X82.01 Y21.987
X81.995 Y22.003
X81.985 Y22.018
X81.983 Y22.023
X81.976 Y22.048
X81.975 Y22.072
X81.979 Y22.097
X82.265 Y23.59
X82.271 Y23.611
X82.496 Y24.227
X82.505 Y24.251
X82.516 Y24.276
X82.78 Y24.765
X82.833 Y24.863
X82.849 Y24.887
X83.209 Y25.353
X83.259 Y25.418
X83.272 Y25.434
X83.29 Y25.451
X83.748 Y25.88
X83.814 Y25.94
X83.83 Y25.953
X84.434 Y26.373
X84.479 Y26.404
X84.501 Y26.418
X85.26 Y26.822
X85.316 Y26.851
X85.34 Y26.859
X85.365 Y26.861
X85.389 Y26.856
X85.414 Y26.844
X85.438 Y26.822
X85.452 Y26.797
X85.458 Y26.773
Y26.748
X85.442 Y26.332
X85.445
X85.518 Y27.042
X85.524 Y27.067
X85.544 Y27.115
X85.61 Y27.269
X85.67 Y27.409
X85.708 Y27.499
X85.721 Y27.531
X85.732 Y27.555
X85.742 Y27.571
X85.756 Y27.586
X86.362 Y28.307
X86.374 Y28.323
X86.648 Y28.78
X86.687 Y28.851
X87.046 Y29.578
X87.055 Y29.592
X87.079 Y29.621
X87.199 Y29.759
X87.237 Y29.803
X87.256 Y29.818
X87.3 Y29.832
X87.345 Y29.825 Z-0.086
X87.382 Y29.798
X87.404 Y29.758 Z-0.087
X87.419 Y29.714 Z-0.088
X87.433 Y29.67 Z-0.089
X87.462 Y29.583 Z-0.091
X87.549 Y29.32 Z-0.099
X87.578 Y29.233 Z-0.102
X87.607 Y29.145 Z-0.104
X87.636 Y29.057 Z-0.105
X87.665 Y28.97
X87.681 Y28.922
X87.824 Y28.486
X87.831 Y28.462
X87.835 Y28.437
X87.971 Y27.336
X87.97 Y27.311
X87.846 Y26.283
X87.839 Y26.259
X87.519 Y25.377
X87.509 Y25.353
X87.471 Y25.291
X86.529 Y23.786
X86.491 Y23.73
X86.237 Y23.358
X86.217 Y23.335
X86.197 Y23.321
X86.173 Y23.312
X86.148 Y23.31
X86.124 Y23.314
X86.099 Y23.325
X86.078 Y23.342
X86.065 Y23.359
X86.057 Y23.377
X86.052 Y23.394
X86.021 Y23.492
X85.666 Y24.643
X85.661 Y24.667
X85.463 Y25.745
X85.459 Y25.769
X85.44 Y26.038
X85.43
X85.426 Y25.916
X85.424 Y25.891
X85.306 Y25.177
X85.301 Y25.157
X85.114 Y24.529
X85.107 Y24.51
X84.856 Y23.982
X84.843 Y23.955
X84.836 Y23.941
X84.795 Y23.884
X84.5 Y23.468
X84.482 Y23.444
X84.459 Y23.42
X84.135 Y23.101
X84.042 Y23.01
X84.034 Y23.003
X83.944 Y22.938
X83.518 Y22.634
X83.501 Y22.621
X83.483 Y22.611
X82.867 Y22.282
X82.842 Y22.271
X82.132 Y21.979
X82.108 Y21.969
X82.083 Y21.964
X82.059 Y21.965
X82.034 Y21.972
X82.01 Y21.987
X81.995 Y22.003
X81.985 Y22.018
X81.983 Y22.023
X81.976 Y22.048
X81.975 Y22.072
X81.979 Y22.097
X82.265 Y23.59
X82.271 Y23.611
X82.496 Y24.227
X82.505 Y24.251
X82.516 Y24.276
X82.78 Y24.765
X82.833 Y24.863
X82.848 Y24.887
X83.208 Y25.353
X83.259 Y25.418
X83.272 Y25.434
X83.289 Y25.451
X83.748 Y25.88
X83.814 Y25.94
X83.83 Y25.953
X84.434 Y26.373
X84.479 Y26.404
X84.501 Y26.418
X85.26 Y26.822
X85.316 Y26.851
X85.34 Y26.859
X85.365 Y26.861
X85.389 Y26.856
X85.414 Y26.844
X85.438 Y26.822
X85.452 Y26.797
X85.458 Y26.773
Y26.748
X85.442 Y26.332
X85.445
X85.518 Y27.042
X85.524 Y27.067
X85.544 Y27.115
X85.61 Y27.269
X85.67 Y27.409
X85.708 Y27.499
X85.721 Y27.531
X85.732 Y27.555
X85.742 Y27.571
X85.756 Y27.586
X86.348 Y28.291
X86.367 Y28.313
X86.381 Y28.335
X86.648 Y28.78
X86.687 Y28.851
X87.046 Y29.578
X87.055 Y29.592
X87.079 Y29.621
X87.199 Y29.759
X87.237 Y29.803
X87.256 Y29.818
X87.275 Y29.827
X87.299 Y29.832
X87.324 Y29.831
X87.348 Y29.823
X87.373 Y29.808
X87.393 Y29.784
X87.404 Y29.759
X87.437 Y29.662
X87.681 Y28.922
X87.685 Y28.909 Z-0.1
X87.687 Y28.903 Z-0.085
G0 Z5.
X87.144 Y29.878
Z0.955
G1 Z-0.064 F40.
X87.141 Y29.872 Z-0.078 F333.
X87.136 Y29.86 Z-0.084
X87.045 Y29.662 Z-0.092
X87.012 Y29.592 Z-0.095
X86.877 Y29.317 Z-0.105
Y29.316
X86.687 Y28.929 F40.
X86.662 Y28.878
X86.589 Y28.755
X86.373 Y28.389
X86.359 Y28.365
X86.347 Y28.349
X85.806 Y27.694
X85.731 Y27.605
X85.708 Y27.579
X85.641 Y27.507
X85.397 Y27.246
X85.381 Y27.232
X85.349 Y27.213
X84.695 Y26.837
X84.678 Y26.828
X84.661 Y26.822
X83.895 Y26.56
X83.871 Y26.552
X83.846 Y26.547
X82.965 Y26.378
X82.867 Y26.366
X81.887 Y26.259
X81.863 Y26.257
X81.838 Y26.261
X81.814 Y26.271
X81.789 Y26.29
X81.775 Y26.311
X81.767 Y26.332
X81.764 Y26.356
X81.766 Y26.379
X81.774 Y26.403
X81.789 Y26.426
X82.608 Y27.654
X82.626 Y27.679
X82.647 Y27.703
X82.671 Y27.731
X83.65 Y28.804
X83.672 Y28.826
X83.693 Y28.846
X83.736 Y28.878
X84.271 Y29.27
X84.336 Y29.317
X84.359 Y29.333
X84.382 Y29.345
X85.024 Y29.662
X85.12 Y29.708
X85.144 Y29.718
X85.169 Y29.726
X85.904 Y29.928
X86.002 Y29.954
X86.03 Y29.961
X86.053 Y29.964
X86.981 Y30.039
X87.03 Y30.043
X87.055 Y30.045
X87.079 Y30.044
X87.096 Y30.04
X87.114 Y30.032
X87.131 Y30.02
X87.148 Y30.
X87.159 Y29.977
X87.164 Y29.955
Y29.931
X87.157 Y29.906
X87.045 Y29.662
X87.012 Y29.592
X86.877 Y29.316
X86.87 Y29.303 Z-0.1
X86.868 Y29.298 Z-0.085
G0 Z5.
X87.861 Y28.92
Z0.955
G1 Z-0.064 F40.
X87.86 Y28.925 Z-0.078 F333.
X87.857 Y28.939 Z-0.084
X87.712 Y29.523 Z-0.105
X87.711
X87.701 Y29.564 F40.
X87.696 Y29.588
X87.693 Y29.613
X87.667 Y29.9
X87.631 Y30.298
X87.63 Y30.323
X87.653 Y30.739
X87.654 Y30.753
X87.658 Y30.768
X87.667 Y30.797
X87.679 Y30.837
X87.709 Y30.935
X87.798 Y31.228
X87.843 Y31.376
X87.85 Y31.397
X87.863 Y31.419
X88.255 Y32.016
X88.316 Y32.11
X88.329 Y32.134
X88.5 Y32.501
X88.545 Y32.599
X88.785 Y33.236
X88.797 Y33.266
X88.808 Y33.285
X89.059 Y33.646
X89.07 Y33.661
X89.084 Y33.676
X89.097 Y33.686
X89.11 Y33.693
X89.123 Y33.698
X89.136 Y33.7
X89.156 Y33.701
X89.176 Y33.698
X89.196 Y33.69
X89.215 Y33.676
X89.234 Y33.654
X89.244 Y33.635
X89.616 Y32.869
X89.626 Y32.844
X89.644 Y32.795
X89.874 Y32.159
X89.882 Y32.134
X89.888 Y32.11
X89.911 Y32.012
X90.032 Y31.473
X90.037 Y31.449
X90.039 Y31.424
X90.085 Y30.837
X90.086 Y30.812
X90.084 Y30.788
X89.993 Y29.931
X89.99 Y29.906
X89.975 Y29.857
X89.743 Y29.098
X89.734 Y29.074
X88.996 Y27.605
X88.94 Y27.504
X88.744 Y27.149
X88.732 Y27.132
X88.713 Y27.115
X88.697 Y27.106
X88.68 Y27.101
X88.663 Y27.098
X88.646 Y27.099
X88.624 Y27.104
X88.601 Y27.115
X88.579 Y27.136
X88.567 Y27.156
X88.368 Y27.605
X88.194 Y27.997
X88.157 Y28.089
X87.885 Y28.829
X87.878 Y28.854
X87.711 Y29.523
X87.708 Y29.537 Z-0.1
X87.707 Y29.543 Z-0.085
G0 Z5.
X87.451 Y30.938
Z0.955
G1 Z-0.064 F40.
X87.449 Y30.935 Z-0.076 F333.
X87.445 Y30.929 Z-0.082
X87.439 Y30.923 Z-0.084
X87.43 Y30.912 Z-0.085
X87.411 Y30.897 Z-0.086
X86.955 Y30.566 Z-0.105
X86.954 Y30.565
X86.785 Y30.443 F40.
X86.761 Y30.427
X86.002 Y30.074
X85.985 Y30.069
X85.12 Y29.805
X85.022 Y29.782
X84.042 Y29.569
X84.018 Y29.566
X83.993 Y29.57
X83.969 Y29.58
X83.944 Y29.6
X83.933 Y29.615
X83.925 Y29.631
X83.921 Y29.646
X83.919 Y29.662
X83.92 Y29.681
X83.925 Y29.701
X83.934 Y29.72
X84.631 Y31.032
X84.646 Y31.057
X84.663 Y31.081
X84.699 Y31.13
X85.545 Y32.261
X85.562 Y32.283
X85.581 Y32.306
X85.595 Y32.32
X85.61 Y32.333
X86.125 Y32.795
X86.197 Y32.858
X86.211 Y32.868
X86.224 Y32.877
X86.883 Y33.29
X86.908 Y33.305
X86.932 Y33.319
X86.981 Y33.339
X87.667 Y33.609
X87.765 Y33.647
X87.789 Y33.655
X87.814 Y33.661
X88.646 Y33.823
X88.744 Y33.842
X88.793 Y33.85
X88.818 Y33.851
X88.842 Y33.845
X88.866 Y33.833
X88.889 Y33.81
X88.9 Y33.792
X88.906 Y33.774
X88.908 Y33.75
X88.905 Y33.725
X88.888 Y33.676
X88.788 Y33.383
X88.754 Y33.285
X88.533 Y32.697
X88.494 Y32.599
X88.291 Y32.159
X88.279 Y32.134
X87.815 Y31.424
X87.796 Y31.397
X87.742 Y31.326
X87.449 Y30.935
X87.43 Y30.912
X87.411 Y30.897
X87.112 Y30.68
X86.954 Y30.565
X86.943 Y30.557 Z-0.1
X86.938 Y30.554 Z-0.085
G0 Z5.
X86.683 Y33.363
Z0.955
G1 Z-0.064 F40.
X86.678 Y33.361 Z-0.078 F333.
X86.665 Y33.357 Z-0.084
X86.094 Y33.168 Z-0.105
X86.093
X85.855 Y33.089 F40.
X85.83 Y33.084
X85.806 Y33.085
X85.791 Y33.089
X85.777 Y33.095
X85.763 Y33.104
X85.745 Y33.121
X85.734 Y33.138
X85.726 Y33.162
X85.723 Y33.187
X85.727 Y33.211
X85.736 Y33.236
X86.271 Y34.558
X86.295 Y34.617
X86.316 Y34.656
X86.374 Y34.754
X87.079 Y35.934
X87.095 Y35.957
X87.111 Y35.98
X87.152 Y36.027
X87.63 Y36.555
X87.648 Y36.574
X87.667 Y36.593
X87.692 Y36.614
X88.255 Y37.056
X88.317 Y37.104
X88.335 Y37.117
X88.353 Y37.129
X88.451 Y37.18
X89.056 Y37.496
X89.136 Y37.537
X89.161 Y37.549
X89.185 Y37.557
X90.018 Y37.812
X90.116 Y37.842
X90.14 Y37.849
X90.165 Y37.852
X90.189 Y37.849
X90.214 Y37.839
X90.228 Y37.829
X90.243 Y37.814
X90.257 Y37.789
X90.264 Y37.765
Y37.74
X90.259 Y37.716
X90.165 Y37.3
X90.152 Y37.251
X89.986 Y36.614
X89.953 Y36.516
X89.819 Y36.125
X89.811 Y36.1
X89.799 Y36.076
X89.421 Y35.341
X89.366 Y35.243
X89.332 Y35.187
X89.102 Y34.803
X89.084 Y34.778
X89.057 Y34.754
X88.497 Y34.25
X88.482 Y34.236
X88.466 Y34.226
X87.765 Y33.806
X87.748 Y33.796
X87.696 Y33.774
X86.883 Y33.429
X86.785 Y33.397
X86.269 Y33.226
X86.093 Y33.168
G0 Z5.
X89.582 Y33.228
Z0.955
G1 Z-0.064 F40.
X89.58 Y33.234 Z-0.078 F333.
X89.576 Y33.247 Z-0.084
X89.407 Y33.799 Z-0.105
X89.402 Y33.823
X89.332 Y34.487 F40.
X89.317 Y34.631
Y34.656
X89.332 Y34.727
X89.337 Y34.754
X89.356 Y34.852
X89.393 Y35.047
X89.412 Y35.145
X89.44 Y35.292
X89.447 Y35.317
X89.46 Y35.341
X89.822 Y36.044
X89.832 Y36.064
X89.842 Y36.084
X89.991 Y36.516
X90.018 Y36.603
X90.189 Y37.251
X90.197 Y37.275
X90.21 Y37.3
X90.417 Y37.679
X90.425 Y37.691
X90.445 Y37.712
X90.466 Y37.724
X90.487 Y37.731
X90.508 Y37.733
X90.527 Y37.73
X90.547 Y37.724
X90.567 Y37.712
X90.586 Y37.691
X90.606 Y37.66
X91.109 Y36.833
X91.122 Y36.81
X91.166 Y36.712
X91.47 Y36.027
X91.48 Y36.003
X91.487 Y35.979
X91.501 Y35.929
X91.683 Y35.253
X91.685 Y35.243
X91.689 Y35.219
X91.752 Y34.533
Y34.509
X91.748 Y34.46
X91.686 Y33.757
X91.683 Y33.739
X91.668 Y33.676
X91.512 Y33.04
X91.506 Y33.015
X91.497 Y32.991
X90.997 Y31.715
X90.96 Y31.62
X90.776 Y31.179
X90.76 Y31.155
X90.744 Y31.14
X90.728 Y31.13
X90.704 Y31.123
X90.688 Y31.121
X90.673
X90.657 Y31.125
X90.642 Y31.13
X90.624 Y31.142
X90.606 Y31.16
X90.595 Y31.177
X90.064 Y32.11
X90.018 Y32.208
X89.665 Y32.967
X89.654 Y32.991
X89.407 Y33.799
X89.402 Y33.823
X89.399 Y33.837 Z-0.1
X89.398 Y33.843 Z-0.085
G0 Z5.
X92.399 Y35.426
Z0.955
G1 Z-0.064 F40.
X92.397 Y35.421 Z-0.078 F333.
X92.393 Y35.408 Z-0.084
X92.392 Y35.402 Z-0.085
X92.383 Y35.383
X92.369 Y35.364 Z-0.086
X92.352 Y35.35 Z-0.087
X92.335 Y35.341 Z-0.088
X92.319 Y35.336
X92.303 Y35.334 Z-0.089
X92.287
X92.271 Y35.337 Z-0.09
X92.259 Y35.341
X92.246 Y35.348 Z-0.091
X92.233 Y35.357
X92.218 Y35.373 Z-0.092
X92.207 Y35.388 Z-0.093
X91.996 Y35.681 Z-0.105
Y35.682
X91.585 Y36.255 F40.
X91.545 Y36.32
X91.095 Y37.072
X91.087 Y37.088
X90.759 Y37.863
X90.751 Y37.887
X90.606 Y38.575
X90.585 Y38.671
X90.581 Y38.695
X90.582 Y38.72
X90.611 Y39.062
X90.62 Y39.16
X90.639 Y39.356
X90.644 Y39.378
X90.653 Y39.4
X90.941 Y40.14
X90.949 Y40.162
X90.957 Y40.189
X91.059 Y40.629
X91.078 Y40.727
X91.181 Y41.388
X91.188 Y41.413
X91.368 Y41.838
X91.376 Y41.856
X91.389 Y41.873
X91.404 Y41.885
X91.418 Y41.893
X91.432 Y41.899
X91.447 Y41.902
X91.461 Y41.903
X91.476 Y41.902
X91.487 Y41.9
X91.512 Y41.89
X91.536 Y41.87
X91.585 Y41.804
X92.242 Y40.923
X92.25 Y40.91
X92.7 Y40.042
X92.712 Y40.017
X92.72 Y39.993
X92.963 Y39.181
X92.966 Y39.16
X93.041 Y38.377
X93.04 Y38.352
X93.019 Y38.181
X92.884 Y37.104
X92.879 Y37.08
X92.55 Y35.929
X92.521 Y35.831
X92.392 Y35.402
X92.383 Y35.383
X92.369 Y35.364
X92.352 Y35.35
X92.335 Y35.341
X92.319 Y35.336
X92.303 Y35.334
X92.287
X92.271 Y35.337
X92.259 Y35.341
X92.246 Y35.348
X92.233 Y35.357
X92.218 Y35.373
X92.207 Y35.388
X91.996 Y35.682
X91.988 Y35.693 Z-0.1
X91.984 Y35.698 Z-0.085
G0 Z5.
X90.188 Y38.655
Z0.955
G1 Z-0.064 F40.
X90.185 Y38.651 Z-0.078 F333.
X90.175 Y38.64 Z-0.084
X89.788 Y38.21 Z-0.105
X89.772 Y38.194
X89.771
X89.104 Y37.691 F40.
X89.088 Y37.681
X88.353 Y37.273
X88.255 Y37.221
X87.293 Y36.786
X87.275 Y36.779
X87.251 Y36.774
X87.226 Y36.775
X87.202 Y36.783
X87.177 Y36.799
X87.166 Y36.81
X87.151 Y36.835
X87.145 Y36.859
X87.144 Y36.884
X87.149 Y36.908
X87.561 Y38.341
X87.569 Y38.362
X87.575 Y38.377
X87.619 Y38.475
X88.164 Y39.65
X88.209 Y39.748
X88.229 Y39.785
X88.241 Y39.803
X88.646 Y40.358
X88.702 Y40.433
X88.721 Y40.458
X88.744 Y40.482
X89.3 Y41.021
X89.332 Y41.051
X89.357 Y41.069
X90.069 Y41.542
X90.092 Y41.556
X90.116 Y41.57
X90.204 Y41.608
X90.997 Y41.946
X91.046 Y41.966
X91.071 Y41.973
X91.095 Y41.975
X91.117 Y41.97
X91.14 Y41.96
X91.155 Y41.949
X91.17 Y41.931
X91.178 Y41.917
X91.184 Y41.902
X91.187 Y41.878
X91.186 Y41.853
X91.145 Y41.511
X91.133 Y41.413
X91.028 Y40.727
X91.007 Y40.629
X90.909 Y40.205
X90.905 Y40.189
X90.9 Y40.173
X90.606 Y39.42
X90.58 Y39.356
X90.536 Y39.258
X90.336 Y38.829
X90.327 Y38.811
X90.312 Y38.792
X89.788 Y38.21
X89.771 Y38.194
X89.761 Y38.184 Z-0.1
X89.757 Y38.18 Z-0.085
G0 Z5.
X88.889 Y40.928
Z0.955
G1 Z-0.064 F40.
X88.885 Y40.925 Z-0.078 F333.
X88.873 Y40.918 Z-0.084
X88.354 Y40.614 Z-0.105
X88.353
Y40.613 F40.
X88.328 Y40.601
X88.304 Y40.594
X88.279
X88.255 Y40.601
X88.235 Y40.611
X88.215 Y40.629
X88.2 Y40.654
X88.193 Y40.678
X88.192 Y40.703
X88.196 Y40.727
X88.414 Y42.
X88.421 Y42.025
X88.764 Y43.175
X88.793 Y43.273
X88.808 Y43.322
X88.82 Y43.347
X89.437 Y44.448
X89.492 Y44.546
X89.507 Y44.572
X89.517 Y44.585
X89.528 Y44.598
X89.92 Y45.036
X90.008 Y45.134
X90.018 Y45.145
X90.042 Y45.166
X90.609 Y45.623
X90.632 Y45.642
X90.656 Y45.661
X90.68 Y45.672
X90.704 Y45.677
X90.728 Y45.675
X90.753 Y45.668
X90.776 Y45.652
X91.078 Y45.38
X91.095 Y45.366
X91.464 Y45.182
X91.599 Y45.14
X91.613 Y45.134
X91.628 Y45.124
X91.643 Y45.109
X91.658 Y45.085
X91.665 Y45.06
X91.666 Y45.036
X91.653 Y44.938
X91.563 Y44.252
X91.557 Y44.203
X91.551 Y44.182
X91.369 Y43.567
X91.338 Y43.469
X91.306 Y43.371
X91.162 Y42.955
X91.149 Y42.93
X90.686 Y42.294
X90.669 Y42.273
X90.06 Y41.706
X90.039 Y41.69
X89.332 Y41.194
X89.234 Y41.13
X88.353 Y40.614
X88.341 Y40.607 Z-0.1
X88.336 Y40.604 Z-0.085
G0 Z5.
X91.965 Y41.578
Z0.955
G1 Z-0.064 F40.
X91.962 Y41.583 Z-0.078 F333.
X91.956 Y41.595 Z-0.084
X91.678 Y42.098 Z-0.104
X91.666 Y42.122 Z-0.105
Y42.123
X91.657 Y42.147 F40.
X91.487 Y42.673
X91.42 Y42.881
X91.412 Y42.906
X91.408 Y42.93
Y42.979
X91.407 Y43.077
X91.403 Y43.273
X91.402 Y43.371
X91.4 Y43.518
X91.402 Y43.542
X91.408 Y43.567
X91.585 Y44.173
X91.591 Y44.193
X91.594 Y44.213
X91.698 Y45.011
X91.702 Y45.036
X91.707 Y45.05
X91.715 Y45.064
X91.725 Y45.078
X91.742 Y45.092
X91.761 Y45.103
X91.781 Y45.109
X91.806 Y45.11
X91.933 Y45.098
X91.95
X92.332 Y45.15
X92.351 Y45.158
X92.712 Y45.311
X92.736 Y45.32
X92.761 Y45.322
X92.785 Y45.318
X92.81 Y45.307
X92.825 Y45.296
X92.84 Y45.279
X92.859 Y45.251
X92.872 Y45.232
X93.339 Y44.53
X93.349 Y44.514
X93.379 Y44.448
X93.675 Y43.787
X93.683 Y43.763
X93.708 Y43.665
X93.854 Y43.077
X93.86 Y43.053
X93.862 Y43.028
X93.911 Y42.392
X93.915 Y42.343
X93.911 Y42.294
X93.831 Y41.339
X93.829 Y41.315
X93.642 Y40.315
X93.554 Y39.846
X93.55 Y39.828
X93.544 Y39.811
X93.529 Y39.786
X93.512 Y39.771
X93.495 Y39.761
X93.471 Y39.753
X93.447 Y39.752
X93.422 Y39.757
X93.398 Y39.769
X93.384 Y39.779
X93.371 Y39.794
X93.251 Y39.929
X92.663 Y40.592
X92.634 Y40.629
X92.12 Y41.315
X92.096 Y41.347
X92.084 Y41.362
X92.075 Y41.378
X92.056 Y41.413
X91.678 Y42.098
X91.666 Y42.123
X91.659 Y42.135 Z-0.1
X91.656 Y42.14 Z-0.085
G0 Z5.
X92.532 Y45.292
Z0.955
G1 Z-0.064 F40.
X92.527 Y45.29 Z-0.078 F333.
X92.514 Y45.287 Z-0.084
X91.974 Y45.134 Z-0.104
X91.95 Y45.131 Z-0.105
X91.933 Y45.132
X91.683 Y45.183 F40.
X91.585 Y45.203
X91.487 Y45.224
X91.464 Y45.229
X91.454 Y45.232
X91.438 Y45.239
X91.422 Y45.25
X90.878 Y45.607
X90.856 Y45.623
X90.84 Y45.643
X90.692 Y45.864
X90.681 Y45.882
X90.518 Y46.226
X90.513 Y46.24
X90.51 Y46.255
X90.452 Y46.603
X90.448 Y46.627
X90.446 Y46.652
X90.449 Y46.676
X90.454 Y46.701
X90.529 Y47.092
X90.539 Y47.141
X90.549 Y47.166
X90.777 Y47.557
X90.793 Y47.582
X90.802 Y47.591
X90.977 Y47.778
X90.997 Y47.798
X91.011 Y47.807
X91.024 Y47.814
X91.659 Y48.104
X91.683 Y48.112
X91.781 Y48.133
X91.928 Y48.163
X91.953 Y48.165
X91.977 Y48.162
X92.075 Y48.141
X92.407 Y48.072
X92.422 Y48.068
X92.437 Y48.062
X92.467 Y48.047
X92.761 Y47.892
X92.774 Y47.884
X92.787 Y47.876
X92.957 Y47.76
X92.998 Y47.732
X93.011 Y47.719
X93.021 Y47.706
X93.32 Y47.264
X93.334 Y47.239
X93.34 Y47.215
X93.447 Y46.691
X93.451 Y46.671
X93.453 Y46.65
X93.451 Y46.629
X93.445 Y46.603
X93.326 Y46.113
X93.302 Y46.015
X93.295 Y45.995
X93.284 Y45.975
X93.237 Y45.917
X92.916 Y45.525
X92.887 Y45.491
X92.873 Y45.478
X92.859 Y45.469
X92.663 Y45.336
X92.653 Y45.33
X92.631 Y45.32
X91.974 Y45.134
X91.95 Y45.131
X91.933 Y45.132
X91.919 Y45.134 Z-0.1
X91.913 Z-0.085
G0 Z5.
X91.425 Y48.087
Z0.955
G1 Z-0.064 F40.
X91.419 Y48.085 Z-0.078 F333.
X91.406 Y48.081 Z-0.084
X91.291 Y48.043 Z-0.089
X91.267 Y48.033
X90.997 Y47.848 Z-0.101
X90.9 Y47.782 Z-0.105
X90.891 Y47.778
X90.89
X90.872 Y47.772 F40.
X90.853 Y47.771
X90.835 Y47.772
X90.816 Y47.778
X90.802 Y47.785
X90.778 Y47.804
X90.754 Y47.828
X90.312 Y48.277
X90.225 Y48.365
X90.214 Y48.379
X90.153 Y48.463
X89.805 Y48.953
X89.788 Y48.977
X89.775 Y49.002
X89.753 Y49.051
X89.724 Y49.118
X89.228 Y50.282
X89.224 Y50.296
X89.22 Y50.31
X89.199 Y50.422
X88.979 Y51.597
X88.97 Y51.646
X88.967 Y51.695
X88.884 Y52.943
X88.885 Y52.968
X88.889 Y52.987
X88.898 Y53.006
X88.919 Y53.03
X88.94 Y53.044
X88.965 Y53.052
X88.989 Y53.054
X89.014 Y53.049
X89.038 Y53.037
X89.136 Y52.965
X89.822 Y52.459
X89.92 Y52.386
X90.619 Y51.776
X90.631 Y51.764
X90.704 Y51.681
X91.175 Y51.137
X91.193 Y51.114
X91.197 Y51.107
X91.591 Y50.422
X91.604 Y50.397
X91.612 Y50.373
X91.623 Y50.324
X91.645 Y50.226
X91.712 Y49.932
X91.735 Y49.834
X91.756 Y49.736
X91.854 Y49.247
X91.857 Y49.222
X91.9 Y48.586
X91.899 Y48.561
X91.889 Y48.292
X91.887 Y48.267
X91.883 Y48.25
X91.879 Y48.241
X91.87 Y48.225
X91.855 Y48.208
X91.83 Y48.192
X91.806 Y48.185
X91.781 Y48.182
X91.683 Y48.172
X91.675 Y48.169
X91.291 Y48.043
X91.267 Y48.033
X90.997 Y47.848
X90.9 Y47.782
X90.89 Y47.778
X90.877 Y47.772 Z-0.1
X90.872 Y47.769 Z-0.085
G0 Z5.
X92.517 Y48.071
Z0.955
G1 Z-0.064 F40.
X92.512 Y48.074 Z-0.078 F333.
X92.5 Y48.08 Z-0.084
X92.467 Y48.098 Z-0.086
X92.446 Y48.105
X92.026 Y48.189 Z-0.101
X92.002 Y48.194 Z-0.102
X91.977 Y48.204 Z-0.103
X91.962 Y48.214 Z-0.104
X91.946 Y48.23 Z-0.105
X91.935 Y48.249
Y48.25
X91.929 Y48.267 F40.
X91.926 Y48.292
X91.904 Y49.1
X91.903 Y49.124
X91.899 Y49.149
X91.783 Y49.782
X91.781 Y49.797
Y49.806
X91.784 Y49.834
X91.807 Y50.03
X91.861 Y50.471
X91.865 Y50.495
X91.874 Y50.52
X92.159 Y51.175
X92.173 Y51.198
X92.569 Y51.793
X92.586 Y51.817
X92.607 Y51.842
X93.082 Y52.38
X93.153 Y52.459
X93.79 Y53.066
X93.838 Y53.111
X94.132 Y53.37
X94.157 Y53.39
X94.181 Y53.402
X94.206 Y53.406
X94.23 Y53.404
X94.246 Y53.399
X94.263 Y53.391
X94.279 Y53.379
X94.295 Y53.36
X94.306 Y53.335
X94.311 Y53.311
X94.349 Y52.87
X94.356 Y52.772
X94.444 Y51.425
X94.443 Y51.401
X94.387 Y50.618
X94.384 Y50.593
X94.379 Y50.569
X94.195 Y49.834
X94.182 Y49.785
X94.175 Y49.761
X94.165 Y49.736
X93.834 Y49.051
X93.786 Y48.953
X93.777 Y48.935
X93.767 Y48.916
X93.754 Y48.898
X93.197 Y48.169
X93.153 Y48.112
X93.121 Y48.072
X92.975 Y47.919
X92.957 Y47.902
X92.932 Y47.889
X92.908 Y47.884
X92.883 Y47.885
X92.859 Y47.892
X92.761 Y47.943
X92.467 Y48.098
X92.446 Y48.105
X92.026 Y48.189
X92.002 Y48.194
X91.977 Y48.204
X91.962 Y48.214
X91.946 Y48.23
X91.935 Y48.25
X91.928 Y48.262 Z-0.1
X91.925 Y48.267 Z-0.085
G0 Z5.
X91.684 Y51.958
Z0.955
G1 Z-0.064 F40.
Y51.953 Z-0.078 F333.
X91.685 Y51.94 Z-0.084
Y51.939
X91.686 Y51.915 Z-0.085
X91.692 Y51.485 Z-0.1
X91.691 Y51.471 Z-0.101
X91.688 Y51.458
X91.683 Y51.444 Z-0.102
X91.67 Y51.422 Z-0.103
X91.646 Y51.401 Z-0.104
X91.631 Y51.393
X91.616 Y51.388 Z-0.105
X91.601 Y51.386
X91.6
X91.585 F40.
X91.561 Y51.39
X91.538 Y51.401
X91.487 Y51.428
X90.704 Y51.864
X90.656 Y51.891
X90.631 Y51.91
X90.606 Y51.93
X90.018 Y52.415
X89.942 Y52.478
X89.92 Y52.502
X89.857 Y52.576
X89.398 Y53.126
X89.384 Y53.145
X89.372 Y53.164
X89.332 Y53.231
X89.029 Y53.751
X88.973 Y53.849
X88.955 Y53.889
X88.947 Y53.909
X88.499 Y55.22
X88.466 Y55.318
X88.457 Y55.347
X88.453 Y55.361
X88.451 Y55.375
X88.191 Y56.836
X88.188 Y56.86
X88.19 Y56.885
X88.196 Y56.903
X88.206 Y56.922
X88.23 Y56.946
X88.255 Y56.959
X88.279 Y56.964
X88.304 Y56.963
X88.328 Y56.956
X88.353 Y56.942
X89.234 Y56.424
X89.281 Y56.395
X90.038 Y55.862
X90.058 Y55.846
X90.669 Y55.272
X90.687 Y55.25
X91.15 Y54.608
X91.164 Y54.584
X91.181 Y54.535
X91.193 Y54.495
X91.213 Y54.437
X91.313 Y54.143
X91.347 Y54.045
X91.376 Y53.947
X91.58 Y53.198
X91.585 Y53.177
X91.611 Y52.968
X91.647 Y52.674
X91.654 Y52.576
X91.685 Y51.94
X91.686 Y51.915
X91.692 Y51.485
X91.691 Y51.471
X91.688 Y51.458
X91.683 Y51.444
X91.67 Y51.422
X91.646 Y51.401
X91.631 Y51.393
X91.616 Y51.388
X91.6 Y51.386
X91.586 Y51.383 Z-0.1
X91.581 Y51.382 Z-0.085
G0 Z5.
X92.31 Y51.765
Z0.955
G1 Z-0.064 F40.
X92.306 Y51.761 Z-0.078 F333.
X92.297 Y51.751 Z-0.084
X92.071 Y51.499 Z-0.096
X92.024 Y51.449 Z-0.099
X92. Y51.431 Z-0.1
X91.977 Y51.422
X91.953 Y51.419 Z-0.101
X91.928 Y51.422 Z-0.102
X91.904 Y51.431 Z-0.103
X91.879 Y51.451 Z-0.104
X91.863 Y51.475 Z-0.105
X91.861 Y51.478
Y51.479
X91.854 Y51.499 F40.
X91.728 Y51.915
X91.722 Y51.94
X91.72 Y51.964
X91.689 Y52.576
X91.683 Y52.674
X91.622 Y53.164
X91.619 Y53.189
X91.612 Y53.213
X91.585 Y53.311
X91.487 Y53.667
X91.397 Y53.996
X91.391 Y54.021
X91.39 Y54.045
X91.394 Y54.241
X91.401 Y54.706
X91.404 Y54.73
X91.412 Y54.755
X91.652 Y55.489
X91.661 Y55.514
X91.825 Y55.808
X92.043 Y56.199
X92.075 Y56.257
X92.105 Y56.297
X92.622 Y56.983
X92.663 Y57.034
X93.349 Y57.806
X93.373 Y57.833
X93.398 Y57.851
X93.422 Y57.86
X93.447 Y57.862
X93.471 Y57.859
X93.495 Y57.848
X93.519 Y57.829
X93.533 Y57.809
X93.54 Y57.789
X93.545 Y57.766
X93.638 Y57.277
X93.803 Y56.395
X93.821 Y56.297
X93.829 Y56.199
X93.905 Y55.294
X93.906 Y55.269
X93.902 Y55.22
X93.82 Y54.388
X93.816 Y54.363
X93.809 Y54.339
X93.544 Y53.529
X93.521 Y53.457
X93.512 Y53.433
X93.5 Y53.408
X93.003 Y52.576
X92.957 Y52.499
X92.944 Y52.478
X92.927 Y52.454
X92.907 Y52.429
X92.071 Y51.499
X92.024 Y51.449
X92. Y51.431
X91.977 Y51.422
X91.953 Y51.419
X91.928 Y51.422
X91.904 Y51.431
X91.879 Y51.451
X91.863 Y51.475
X91.861 Y51.479
G0 Z5.
X91.125 Y56.171
Z0.955
G1 Z-0.064 F40.
X91.126 Y56.165 Z-0.078 F333.
X91.128 Y56.152 Z-0.084
Y56.15
X91.134 Y56.101 Z-0.086
X91.183 Y55.71 Z-0.1
X91.185 Y55.685 Z-0.101
X91.182 Y55.661 Z-0.102
X91.173 Y55.636 Z-0.103
X91.154 Y55.612 Z-0.104
X91.139 Y55.6
X91.125 Y55.592 Z-0.105
X91.111 Y55.588
X91.11 Y55.587
X91.095 Y55.585 F40.
X91.071
X91.047 Y55.592
X90.997 Y55.612
X90.214 Y55.946
X90.116 Y55.988
X90.089 Y56.004
X90.018 Y56.05
X89.43 Y56.44
X89.35 Y56.493
X89.332 Y56.507
X89.244 Y56.591
X88.739 Y57.081
X88.716 Y57.105
X88.697 Y57.13
X88.661 Y57.179
X88.255 Y57.735
X88.233 Y57.766
X88.219 Y57.791
X88.206 Y57.815
X87.593 Y59.137
X87.569 Y59.194
X87.561 Y59.215
X87.177 Y60.55
X87.147 Y60.655
X87.143 Y60.679
X87.144 Y60.704
X87.148 Y60.718
X87.155 Y60.732
X87.164 Y60.746
X87.177 Y60.76
X87.202 Y60.775
X87.226 Y60.783
X87.251 Y60.784
X87.275 Y60.779
X87.299 Y60.768
X88.255 Y60.335
X88.299 Y60.312
X89.087 Y59.873
X89.112 Y59.856
X89.76 Y59.366
X89.778 Y59.352
X89.796 Y59.333
X90.322 Y58.745
X90.34 Y58.721
X90.352 Y58.696
X90.373 Y58.648
X90.41 Y58.567
X90.508 Y58.353
X90.553 Y58.256
X90.596 Y58.158
X90.9 Y57.374
X90.906 Y57.35
X91.013 Y56.885
X91.031 Y56.787
X91.128 Y56.15
X91.134 Y56.101
X91.183 Y55.71
X91.185 Y55.685
X91.182 Y55.661
X91.173 Y55.636
X91.154 Y55.612
X91.139 Y55.6
X91.125 Y55.592
X91.11 Y55.587
X91.097 Y55.583 Z-0.1
X91.091 Y55.581 Z-0.085
G0 Z5.
X91.776 Y56.032
Z0.955
G1 Z-0.064 F40.
X91.773 Y56.027 Z-0.078 F333.
X91.765 Y56.016 Z-0.084
X91.585 Y55.775 Z-0.095
X91.525 Y55.695 Z-0.098
X91.512 Y55.68 Z-0.099
X91.487 Y55.664 Z-0.1
X91.463 Y55.657 Z-0.101
X91.438 Y55.655 Z-0.102
X91.414 Y55.66 Z-0.103
X91.389 Y55.672 Z-0.104
X91.369 Y55.691 Z-0.105
X91.357 Y55.709
X91.356 Y55.71
X91.315 Y55.808 F40.
X91.192 Y56.101
X91.172 Y56.15
X91.166 Y56.175
X91.071 Y56.787
X91.055 Y56.885
X90.941 Y57.374
X90.933 Y57.399
X90.924 Y57.423
X90.636 Y58.158
X90.627 Y58.182
X90.623 Y58.207
X90.611 Y58.354
X90.606 Y58.423
X90.567 Y58.868
Y58.892
X90.578 Y58.941
X90.735 Y59.676
X90.743 Y59.7
X91.066 Y60.459
X91.077 Y60.484
X91.095 Y60.514
X91.562 Y61.291
X91.585 Y61.325
X92.192 Y62.173
X92.212 Y62.197
X92.232 Y62.212
X92.251 Y62.22
X92.271 Y62.224
X92.295
X92.32 Y62.217
X92.344 Y62.202
X92.359 Y62.187
X92.368 Y62.173
X92.369 Y62.172
X92.378 Y62.148
X92.52 Y61.683
X92.548 Y61.585
X92.865 Y60.472
X92.868 Y60.451
X93.019 Y59.235
X93.022 Y59.211
X93.024 Y59.186
X93.02 Y59.137
X92.95 Y58.403
X92.946 Y58.378
X92.939 Y58.354
X92.734 Y57.668
X92.704 Y57.57
X92.697 Y57.547
X92.687 Y57.523
X92.271 Y56.72
X92.255 Y56.689
X92.229 Y56.64
X92.193 Y56.591
X91.585 Y55.775
X91.525 Y55.695
X91.512 Y55.68
X91.487 Y55.664
X91.463 Y55.657
X91.438 Y55.655
X91.414 Y55.66
X91.389 Y55.672
X91.369 Y55.691
X91.356 Y55.71
X91.349 Y55.722 Z-0.1
X91.345 Y55.726 Z-0.085
G0 Z5.
X90.131 Y60.282
Z0.955
G1 Z-0.064 F40.
X90.132 Y60.277 Z-0.078 F333.
X90.136 Y60.264 Z-0.084
Y60.263
X90.147 Y60.214 Z-0.086
X90.214 Y59.919 Z-0.097
X90.236 Y59.823 Z-0.1
X90.237 Y59.802 Z-0.101
X90.234 Y59.782 Z-0.102
X90.227 Y59.762
X90.214 Y59.742 Z-0.103
X90.195 Y59.725 Z-0.104
X90.175 Y59.714 Z-0.105
X90.161 Y59.709
X90.16
X90.156 Y59.708 F40.
X90.136 Y59.706
X90.116 Y59.708
X90.058 Y59.725
X89.234 Y59.976
X89.136 Y60.007
X89.112 Y60.018
X89.038 Y60.056
X88.353 Y60.413
X88.328 Y60.426
X88.304 Y60.442
X88.255 Y60.479
X87.667 Y60.94
X87.636 Y60.966
X87.605 Y60.998
X87.099 Y61.557
X87.079 Y61.581
X87.059 Y61.61
X87.043 Y61.634
X86.313 Y62.858
X86.295 Y62.888
X86.277 Y62.922
X86.268 Y62.939
X86.26 Y62.956
X85.708 Y64.324
X85.706 Y64.327
X85.698 Y64.35
X85.696 Y64.373
X85.699 Y64.397
X85.708 Y64.42
X85.711 Y64.425
X85.72 Y64.438
X85.734 Y64.452
X85.758 Y64.465
X85.782 Y64.472
X85.806
X85.83 Y64.467
X86.843 Y64.131
X86.883 Y64.115
X87.71 Y63.763
X87.731 Y63.753
X88.451 Y63.318
X88.47 Y63.303
X89.038 Y62.787
X89.068 Y62.76
X89.086 Y62.736
X89.136 Y62.65
X89.245 Y62.467
X89.304 Y62.369
X89.332 Y62.321
X89.377 Y62.244
X89.384 Y62.23
X89.774 Y61.473
X89.781 Y61.459
X89.939 Y60.998
X89.969 Y60.9
X90.136 Y60.263
X90.147 Y60.214
X90.214 Y59.919
X90.236 Y59.823
X90.237 Y59.802
X90.234 Y59.782
X90.227 Y59.762
X90.214 Y59.742
X90.195 Y59.725
X90.175 Y59.714
X90.16 Y59.709
X90.147 Y59.705 Z-0.1
X90.141 Y59.703 Z-0.085
G0 Z5.
X90.782 Y60.233
Z0.955
G1 Z-0.064 F40.
X90.779 Y60.228 Z-0.078 F333.
X90.772 Y60.216 Z-0.084
X90.564 Y59.875 Z-0.098
X90.553 Y59.859 Z-0.099
X90.536 Y59.843 Z-0.1
X90.522 Y59.835
X90.508 Y59.829 Z-0.101
X90.483 Y59.824 Z-0.102
X90.459 Y59.826 Z-0.103
X90.434 Y59.833 Z-0.104
X90.41 Y59.85 Z-0.105
X90.395 Y59.867
X90.394
X90.384 Y59.885 F40.
X90.177 Y60.263
X90.165 Y60.288
X90.158 Y60.312
X90.003 Y60.9
X89.976 Y60.998
X89.812 Y61.473
X89.806 Y61.487
X89.756 Y61.585
X89.423 Y62.23
X89.417 Y62.244
X89.412 Y62.257
X89.41 Y62.271
X89.372 Y62.467
X89.288 Y62.907
X89.284 Y62.932
X89.285 Y62.956
X89.37 Y63.74
X89.375 Y63.764
X89.609 Y64.523
X89.626 Y64.576
X89.647 Y64.621
X90.018 Y65.416
X90.065 Y65.502
X90.566 Y66.384
X90.581 Y66.404
X90.593 Y66.416
X90.606 Y66.424
X90.63 Y66.434
X90.655 Y66.437
X90.679 Y66.434
X90.704 Y66.424
X90.716 Y66.416
X90.729 Y66.404
X90.743 Y66.384
X90.754 Y66.359
X90.907 Y65.992
X90.948 Y65.894
X91.465 Y64.572
X91.475 Y64.548
X91.481 Y64.523
X91.625 Y63.935
X91.649 Y63.838
X91.655 Y63.813
X91.658 Y63.789
X91.714 Y63.152
X91.722 Y63.054
X91.723 Y63.03
X91.661 Y62.344
X91.658 Y62.32
X91.646 Y62.271
X91.487 Y61.68
X91.462 Y61.585
X91.455 Y61.561
X91.445 Y61.536
X91.12 Y60.802
X91.095 Y60.748
X91.083 Y60.726
X90.564 Y59.875
X90.553 Y59.859
X90.536 Y59.843
X90.522 Y59.835
X90.508 Y59.829
X90.483 Y59.824
X90.459 Y59.826
X90.434 Y59.833
X90.41 Y59.85
X90.394 Y59.867
X90.385 Y59.878 Z-0.1
X90.381 Y59.882 Z-0.085
G0 Z5.
X88.719 Y64.286
Z0.955
G1 Z-0.064 F40.
X88.721 Y64.281 Z-0.078 F333.
X88.726 Y64.268 Z-0.084
X88.74 Y64.229 Z-0.086
X88.873 Y63.838 Z-0.1
X88.878 Y63.813 Z-0.101
X88.876 Y63.789 Z-0.102
X88.869 Y63.764 Z-0.103
X88.853 Y63.74 Z-0.104
X88.842 Y63.73
X88.818 Y63.715 Z-0.105
X88.793 Y63.707 F40.
X88.769
X88.744 Y63.711
X88.646 Y63.729
X87.863 Y63.881
X87.765 Y63.901
X87.718 Y63.917
X87.667 Y63.937
X86.924 Y64.229
X86.904 Y64.238
X86.883 Y64.25
X86.785 Y64.31
X86.197 Y64.679
X86.171 Y64.697
X86.144 Y64.719
X86.099 Y64.759
X85.573 Y65.23
X85.549 Y65.254
X85.529 Y65.277
X85.512 Y65.3
X84.701 Y66.384
X84.63 Y66.479
X84.612 Y66.506
X84.597 Y66.531
X83.908 Y67.83
X83.896 Y67.853
X83.889 Y67.877
Y67.901
X83.895 Y67.926
X83.908 Y67.95
X83.926 Y67.969
X83.944 Y67.981
X83.969 Y67.989
X83.993 Y67.991
X84.018 Y67.987
X85.022 Y67.768
X85.08 Y67.755
X85.953 Y67.487
X85.977 Y67.478
X86.736 Y67.123
X86.761 Y67.108
X87.398 Y66.642
X87.411 Y66.633
X87.424 Y66.62
X87.453 Y66.579
X87.471 Y66.555
X87.525 Y66.482
X87.67 Y66.286
X87.77 Y66.152
X87.78 Y66.137
X88.241 Y65.433
X88.255 Y65.41
X88.451 Y64.987
X88.483 Y64.915
X88.704 Y64.327
X88.74 Y64.229
X88.873 Y63.838
X88.878 Y63.813
X88.876 Y63.789
X88.869 Y63.764
X88.853 Y63.74
X88.842 Y63.73
X88.818 Y63.715
X88.806 Y63.707 Z-0.1
X88.801 Y63.704 Z-0.085
G0 Z5.
X89.389 Y64.299
Z0.955
G1 Z-0.064 F40.
X89.386 Y64.294 Z-0.078 F333.
X89.38 Y64.282 Z-0.084
X89.212 Y63.935 Z-0.098
X89.198 Y63.908 Z-0.099
X89.188 Y63.894
X89.174 Y63.88 Z-0.1
X89.155 Y63.868 Z-0.101
X89.136 Y63.861 Z-0.102
X89.112 Y63.858 Z-0.103
X89.087 Y63.86
X89.063 Y63.87 Z-0.104
X89.039 Y63.889 Z-0.105
X89.038
X89.021 Y63.912 F40.
X88.767 Y64.278
X88.755 Y64.303
X88.523 Y64.915
X88.482 Y65.013
X88.29 Y65.424
X88.28 Y65.444
X88.255 Y65.483
X87.827 Y66.137
X87.817 Y66.152
X87.809 Y66.167
X87.803 Y66.188
X87.765 Y66.314
X87.744 Y66.384
X87.667 Y66.636
X87.617 Y66.8
X87.61 Y66.824
X87.608 Y66.849
X87.598 Y67.069
X87.595 Y67.118
X87.598 Y67.167
X87.62 Y67.583
X87.624 Y67.608
X87.905 Y68.881
X87.912 Y68.905
X88.18 Y69.615
X88.223 Y69.713
X88.528 Y70.399
X88.536 Y70.414
X88.548 Y70.43
X88.573 Y70.448
X88.597 Y70.458
X88.622 Y70.46
X88.646 Y70.457
X88.663 Y70.451
X88.68 Y70.441
X88.701 Y70.42
X88.714 Y70.399
X88.94 Y69.983
X88.979 Y69.909
X89.693 Y68.489
X89.703 Y68.465
X89.95 Y67.657
X89.954 Y67.632
X90.048 Y66.751
X90.047 Y66.726
X89.999 Y66.114
X89.995 Y66.09
X89.863 Y65.502
X89.852 Y65.453
X89.846 Y65.429
X89.838 Y65.404
X89.626 Y64.817
X89.59 Y64.719
X89.581 Y64.694
X89.498 Y64.523
X89.212 Y63.935
X89.198 Y63.908
X89.188 Y63.894
X89.174 Y63.88
X89.155 Y63.868
X89.136 Y63.861
X89.112 Y63.858
X89.087 Y63.86
X89.063 Y63.87
X89.038 Y63.889
X89.027 Y63.898 Z-0.1
X89.023 Y63.901 Z-0.085
G0 Z5.
X87.588 Y67.618
Z0.955
G1 Z-0.064 F40.
Y67.612 Z-0.078 F333.
X87.587 Y67.599 Z-0.084
X87.585 Y67.559 Z-0.086
X87.58 Y67.461 Z-0.089
X87.561 Y67.094 Z-0.102
X87.557 Y67.069 Z-0.103
X87.551 Y67.055
X87.543 Y67.041 Z-0.104
X87.529 Y67.024 Z-0.105
X87.514 Y67.014
Y67.013
X87.492 Y67.003 F40.
X87.471 Y66.999
X87.446
X87.422 Y67.006
X87.397 Y67.02
X86.643 Y67.524
X86.622 Y67.54
X86.485 Y67.657
X86.002 Y68.071
X85.983 Y68.09
X85.933 Y68.146
X85.505 Y68.636
X85.487 Y68.66
X85.472 Y68.685
X85.128 Y69.238
X85.12 Y69.252
X85.091 Y69.321
X84.858 Y69.884
X84.85 Y69.909
X84.683 Y70.57
X84.678 Y70.594
X84.546 Y72.137
X84.548 Y72.161
X84.552 Y72.177
X84.56 Y72.193
X84.571 Y72.209
X84.589 Y72.225
X84.609 Y72.236
X84.63 Y72.241
X84.655 Y72.242
X84.679 Y72.237
X84.704 Y72.225
X85.392 Y71.856
X85.414 Y71.843
X86.002 Y71.448
X86.022 Y71.433
X86.197 Y71.279
X86.51 Y71.005
X86.529 Y70.986
X86.61 Y70.888
X86.909 Y70.527
X86.921 Y70.512
X86.931 Y70.496
X87.042 Y70.301
X87.221 Y69.982
X87.233 Y69.958
X87.285 Y69.811
X87.439 Y69.37
X87.445 Y69.346
X87.561 Y68.709
X87.564 Y68.685
X87.603 Y67.95
Y67.926
X87.594 Y67.755
X87.585 Y67.559
X87.58 Y67.461
X87.561 Y67.094
X87.557 Y67.069
X87.551 Y67.055
X87.543 Y67.041
X87.529 Y67.024
X87.514 Y67.013
X87.503 Y67.005 Z-0.1
X87.498 Y67.001 Z-0.085
G0 Z5.
X17.834 Y67.893
Z0.955
G1 Z-0.064 F40.
X17.839 Y67.894 Z-0.078 F333.
X17.853 Y67.897 Z-0.084
X18.262 Y67.986 Z-0.099
X18.286 Y67.99 Z-0.1
X18.311 Z-0.101
X18.328 Y67.987
X18.345 Y67.98 Z-0.102
X18.362 Y67.968 Z-0.103
X18.379 Y67.95 Z-0.104
X18.392 Y67.926 Z-0.105
X18.398 Y67.902
Y67.901
Y67.877 F40.
X18.391 Y67.853
X18.378 Y67.828
X17.689 Y66.531
X17.675 Y66.506
X17.658 Y66.482
X17.625 Y66.437
X16.762 Y65.284
X16.743 Y65.262
X16.731 Y65.247
X16.716 Y65.233
X16.156 Y64.731
X16.142 Y64.719
X16.121 Y64.701
X16.1 Y64.686
X15.47 Y64.291
X15.421 Y64.26
X15.397 Y64.246
X15.372 Y64.234
X15.362 Y64.229
X14.588 Y63.925
X14.539 Y63.907
X14.515 Y63.899
X14.49 Y63.894
X13.609 Y63.723
X13.56 Y63.714
X13.535 Y63.71
X13.511 Y63.706
X13.491 Y63.707
X13.471 Y63.713
X13.452 Y63.723
X13.432 Y63.74
X13.42 Y63.755
X13.413 Y63.771
X13.408 Y63.788
X13.406 Y63.804
X13.408 Y63.821
X13.411 Y63.838
X13.546 Y64.229
X13.564 Y64.28
X13.805 Y64.92
X13.847 Y65.013
X14.028 Y65.404
X14.039 Y65.426
X14.49 Y66.115
X14.542 Y66.188
X14.588 Y66.249
X14.837 Y66.579
X14.882 Y66.639
X14.907 Y66.66
X15.519 Y67.105
X15.543 Y67.123
X15.568 Y67.135
X16.31 Y67.48
X16.331 Y67.488
X17.206 Y67.755
X17.233 Y67.762
X18.262 Y67.986
X18.286 Y67.99
X18.311
X18.328 Y67.987
X18.345 Y67.98
X18.362 Y67.968
X18.379 Y67.95
X18.392 Y67.926
X18.398 Y67.901
X18.401 Y67.888 Z-0.1
X18.403 Y67.882 Z-0.085
G0 Z5.
X17.213 Y69.368
Z0.955
G1 Z-0.064 F40.
X17.211 Y69.363 Z-0.078 F333.
X17.206 Y69.35 Z-0.084
X17.194 Y69.321 Z-0.085
X17.174 Y69.272 Z-0.087
X17.163 Y69.248 Z-0.088
X17.148 Y69.223 Z-0.089
X16.904 Y68.831 Z-0.105
Y68.83
X16.812 Y68.683 F40.
X16.797 Y68.659
X16.781 Y68.636
X16.352 Y68.145
X16.309 Y68.097
X16.297 Y68.083
X16.284 Y68.07
X15.764 Y67.625
X15.687 Y67.559
X15.666 Y67.541
X15.641 Y67.523
X14.962 Y67.069
X14.882 Y67.016
X14.858 Y67.003
X14.833 Y66.997
X14.809 Y66.998
X14.784 Y67.005
X14.764 Y67.017
X14.744 Y67.037
X14.735 Y67.051
X14.728 Y67.069
X14.724 Y67.094
X14.7 Y67.559
X14.695 Y67.657
X14.69 Y67.755
X14.681 Y67.924
X14.68 Y67.937
X14.681 Y67.95
X14.719 Y68.685
X14.723 Y68.709
X14.839 Y69.346
X14.844 Y69.37
X15.033 Y69.909
X15.05 Y69.958
X15.062 Y69.982
X15.297 Y70.399
X15.352 Y70.496
X15.361 Y70.51
X15.372 Y70.524
X15.673 Y70.888
X15.755 Y70.986
X15.764 Y70.997
X15.863 Y71.084
X16.254 Y71.427
X16.271 Y71.441
X16.841 Y71.824
X16.878 Y71.848
X17.576 Y72.223
X17.601 Y72.236
X17.625 Y72.242
X17.65
X17.674 Y72.236
X17.699 Y72.222
X17.713 Y72.208
X17.723 Y72.195
X17.731 Y72.178
X17.736 Y72.161
X17.737 Y72.137
X17.606 Y70.594
X17.601 Y70.57
X17.46 Y70.007
X17.435 Y69.909
X17.429 Y69.89
X17.397 Y69.811
X17.194 Y69.321
X17.174 Y69.272
X17.163 Y69.248
X17.148 Y69.223
X16.904 Y68.83
X16.896 Y68.818 Z-0.1
X16.893 Y68.813 Z-0.085
G0 Z5.
X14.362 Y68.937
Z0.955
G1 Z-0.064 F40.
Y68.935 Z-0.073 F333.
X14.365 Y68.93 Z-0.081
X14.368 Y68.919 Z-0.084
X14.392 Y68.855 Z-0.087
X14.398 Y68.832 Z-0.088
X14.501 Y68.333 Z-0.105
Y68.332
X14.671 Y67.51 F40.
X14.674 Y67.485
X14.691 Y67.167
Y67.143
X14.674 Y66.824
X14.671 Y66.8
X14.663 Y66.775
X14.633 Y66.677
X14.544 Y66.384
X14.484 Y66.188
X14.476 Y66.164
X14.462 Y66.139
X14.044 Y65.502
X14.014 Y65.456
X14.001 Y65.434
X13.804 Y65.013
X13.763 Y64.915
X13.53 Y64.296
X13.522 Y64.28
X13.511 Y64.264
X13.258 Y63.901
X13.237 Y63.879
X13.217 Y63.867
X13.192 Y63.859
X13.168 Y63.858
X13.143 Y63.863
X13.119 Y63.875
X13.102 Y63.89
X13.09 Y63.905
X13.082 Y63.92
X12.711 Y64.685
X12.703 Y64.702
X12.697 Y64.719
X12.662 Y64.817
X12.45 Y65.404
X12.445 Y65.419
X12.44 Y65.434
X12.433 Y65.464
X12.335 Y65.9
X12.293 Y66.09
X12.289 Y66.114
X12.241 Y66.726
Y66.751
X12.326 Y67.559
X12.335 Y67.645
X12.338 Y67.657
X12.584 Y68.465
X12.595 Y68.489
X13.315 Y69.921
X13.36 Y70.007
X13.575 Y70.399
X13.588 Y70.419
X13.609 Y70.44
X13.633 Y70.453
X13.658 Y70.459
X13.682 Y70.458
X13.707 Y70.451
X13.72 Y70.444
X13.733 Y70.435
X13.749 Y70.417
X13.759 Y70.399
X14.107 Y69.615
X14.145 Y69.517
X14.365 Y68.93
X14.392 Y68.855
X14.398 Y68.832
X14.501 Y68.332
G0 Z5.
X11.383 Y66.006
Z0.955
G1 Z-0.064 F40.
X11.385 Y66.011 Z-0.078 F333.
X11.39 Y66.024 Z-0.084
X11.529 Y66.359 Z-0.097
X11.54 Y66.384 Z-0.098
X11.552 Y66.4 Z-0.099
X11.576 Y66.421 Z-0.1
X11.601 Y66.432 Z-0.101
X11.625 Y66.436 Z-0.102
X11.65 Y66.433
X11.666 Y66.428 Z-0.103
X11.683 Y66.419 Z-0.104
X11.703 Y66.401 Z-0.105
X11.715 Y66.385
Y66.384
X12.237 Y65.467 F40.
X12.269 Y65.404
X12.634 Y64.621
X12.657 Y64.572
X12.672 Y64.523
X12.904 Y63.764
X12.911 Y63.74
X12.923 Y63.626
X12.996 Y62.932
X12.997 Y62.907
X12.992 Y62.883
X12.987 Y62.858
X12.968 Y62.76
X12.911 Y62.467
X12.874 Y62.271
X12.868 Y62.246
X12.856 Y62.222
X12.528 Y61.585
X12.478 Y61.487
X12.468 Y61.463
X12.308 Y60.998
X12.282 Y60.9
X12.127 Y60.312
X12.12 Y60.288
X12.108 Y60.263
X11.895 Y59.876
X11.885 Y59.861
X11.87 Y59.846
X11.845 Y59.831
X11.821 Y59.825
X11.796 Y59.824
X11.772 Y59.83
X11.748 Y59.844
X11.728 Y59.863
X11.715 Y59.882
X11.201 Y60.728
X11.188 Y60.753
X11.165 Y60.802
X10.841 Y61.536
X10.831 Y61.561
X10.824 Y61.585
X10.798 Y61.683
X10.64 Y62.271
X10.627 Y62.32
X10.624 Y62.344
X10.572 Y62.919
X10.562 Y63.03
X10.563 Y63.054
X10.572 Y63.162
X10.627 Y63.789
X10.63 Y63.813
X10.635 Y63.838
X10.707 Y64.131
X10.803 Y64.523
X10.81 Y64.548
X10.819 Y64.572
X11.337 Y65.894
X11.356 Y65.94
X11.529 Y66.359
X11.54 Y66.384
X11.552 Y66.4
X11.576 Y66.421
X11.601 Y66.432
X11.625 Y66.436
X11.65 Y66.433
X11.666 Y66.428
X11.683 Y66.419
X11.703 Y66.401
X11.715 Y66.384
X11.723 Y66.372 Z-0.1
X11.727 Y66.368 Z-0.085
G0 Z5.
X13.378 Y62.911
Z0.955
G1 Z-0.064 F40.
X13.382 Y62.915 Z-0.078 F333.
X13.392 Y62.924 Z-0.084
X13.823 Y63.312 Z-0.105
X13.841 Y63.326
X14.56 Y63.757 F40.
X14.574 Y63.764
X15.372 Y64.102
X15.442 Y64.131
X16.45 Y64.464
X16.474 Y64.471
X16.499 Y64.472
X16.523 Y64.468
X16.548 Y64.455
X16.565 Y64.44
X16.576 Y64.425
X16.587 Y64.401
X16.591 Y64.376
X16.589 Y64.352
X16.581 Y64.327
X16.027 Y62.956
X16.016 Y62.932
X16.002 Y62.907
