(1001)
(T1  D=1. CR=0. - ZMIN=-0.881 - FLAT END MILL)
G0 G90 G94 G17
G21
G53 G0 Z0.

(B 1MM  FLATEND  PARALLEL)
M5
M9
T1
S12000 M3
G4 P4.
G55
G0 X51.273 Y14.342
Z15.
Z1.601
G1 Z-0.299 F200.
X51.265 Z-0.337
X51.243 Z-0.37
X51.211 Z-0.391
X51.173 Z-0.399
X50.834
X48.08
X48.058 Y14.337
X48.034 Y14.332
X48.01 Y14.339
X47.993 Y14.358
X47.986 Y14.382
X47.993 Y14.406
X48.01 Y14.424
X48.034 Y14.432
X48.058 Y14.427
X48.08 Y14.422
X53.886
X53.908 Z-0.394
X53.93 Z-0.389
X54.789
X54.812 Y14.429
X54.827 Y14.449
Y14.474
X54.812 Y14.494
X54.789 Y14.502
X54.767 Z-0.394
X54.745 Z-0.399
X47.217
X47.195 Z-0.394
X47.173 Z-0.389
X46.634
X46.61 Y14.509
X46.596 Y14.529
Y14.554
X46.61 Y14.574
X46.634 Y14.582
X46.656 Z-0.394
X46.678 Z-0.399
X55.284
X55.306 Z-0.394
X55.328 Z-0.389
X55.706
X55.729 Y14.589
X55.744 Y14.609
Y14.634
X55.729 Y14.654
X55.706 Y14.662
X55.684 Z-0.394
X55.662 Z-0.399
X46.301
X46.279 Z-0.394
X46.257 Z-0.389
X45.98
X45.957 Y14.669
X45.942 Y14.689
Y14.714
X45.957 Y14.734
X45.98 Y14.742
X46.002 Z-0.394
X46.024 Z-0.399
X55.937
X55.959 Z-0.394
X55.981 Z-0.389
X56.187
X56.21 Y14.749
X56.225 Y14.769
Y14.794
X56.21 Y14.814
X56.187 Y14.822
X56.165 Z-0.394
X56.143 Z-0.399
X45.817
X45.795 Z-0.394
X45.773 Z-0.389
X45.616
X45.593 Y14.829
X45.578 Y14.849
Y14.874
X45.593 Y14.894
X45.616 Y14.902
X45.638 Z-0.394
X45.66 Z-0.399
X56.3
X56.322 Z-0.394
X56.344 Z-0.389
X56.462
X56.486 Y14.909
X56.5 Y14.929
Y14.954
X56.486 Y14.974
X56.462 Y14.982
X56.44 Z-0.394
X56.418 Z-0.399
X45.541
X45.519 Z-0.394
X45.497 Z-0.389
X45.408
X45.385 Y14.989
X45.37 Y15.009
Y15.034
X45.385 Y15.054
X45.408 Y15.062
X45.43 Z-0.394
X45.452 Z-0.399
X56.509
X56.531 Z-0.394
X56.553 Z-0.389
X56.617
X56.641 Y15.069
X56.655 Y15.089
Y15.114
X56.641 Y15.134
X56.617 Y15.142
X56.595 Z-0.394
X56.573 Z-0.399
X45.387
X45.365 Z-0.394
X45.343 Z-0.389
X45.296
X45.272 Y15.149
X45.258 Y15.169
Y15.194
X45.272 Y15.214
X45.296 Y15.222
X45.318 Z-0.394
X45.34 Z-0.399
X56.619
X56.641 Z-0.394
X56.663 Z-0.389
X56.694
X56.717 Y15.229
X56.732 Y15.249
Y15.274
X56.717 Y15.294
X56.694 Y15.302
X56.672 Z-0.394
X56.65 Z-0.399
X45.309
X45.287 Z-0.394
X45.265 Z-0.389
X45.248
X45.224 Y15.309
X45.21 Y15.329
Y15.354
X45.224 Y15.374
X45.248 Y15.382
X45.27 Z-0.394
X45.292 Z-0.399
X56.668
X56.69 Z-0.394
X56.712 Z-0.389
X56.719
X56.743 Y15.389
X56.757 Y15.409
Y15.434
X56.743 Y15.454
X56.719 Y15.462
X56.697 Z-0.394
X56.675 Z-0.399
X45.284
X45.262 Z-0.394
X45.24 Z-0.389
X45.239
X45.215 Y15.469
X45.201 Y15.489
Y15.514
X45.215 Y15.534
X45.239 Y15.542
X45.261 Z-0.394
X45.283 Z-0.399
X56.677
X56.699 Z-0.394
X56.721 Z-0.389
X56.722
X56.746 Y15.549
X56.76 Y15.569
Y15.594
X56.746 Y15.614
X56.722 Y15.622
X56.7 Z-0.394
X56.678 Z-0.399
X45.282
X45.26 Z-0.394
X45.238 Z-0.389
X45.236
X45.212 Y15.629
X45.198 Y15.649
Y15.674
X45.212 Y15.694
X45.236 Y15.702
X45.258 Z-0.394
X45.28 Z-0.399
X56.68
X56.702 Z-0.394
X56.724 Z-0.389
X56.727
X56.75 Y15.709
X56.765 Y15.729
Y15.754
X56.75 Y15.774
X56.727 Y15.782
X56.705 Z-0.394
X56.683 Z-0.399
X52.552
X52.537 Z-0.395
X52.526 Z-0.384
X52.522 Z-0.369
G0 Z5.
X52.789 Y15.862
Z1.935
G1 Z-0.385 F200.
X52.793 Z-0.395
X52.803 Z-0.399
X56.686
X56.708 Z-0.394
X56.73 Z-0.389
X56.734
X56.757 Y15.869
X56.772 Y15.889
Y15.914
X56.757 Y15.934
X56.734 Y15.942
X56.712 Z-0.394
X56.69 Z-0.399
X54.717
X54.691 Z-0.394
X54.669 Z-0.379
X54.654 Z-0.358
X54.649 Z-0.332
G0 Z5.
X54.166
Z1.935
G1 Z-0.383 F200.
X54.161 Z-0.394
X54.149 Z-0.399
X52.967
X52.959 Z-0.396
X52.955 Z-0.387
Z-0.383
X52.961 Y15.946 Z-0.353
X52.977 Y15.957 Z-0.328
X53. Y15.973 Z-0.315
X53.026 Y15.991
X53.049 Y16.007 Z-0.328
X53.065 Y16.018 Z-0.353
X53.07 Y16.022 Z-0.383
X53.073 Z-0.393
X53.081 Z-0.399
X54.022
X54.029 Z-0.393
X54.032 Z-0.384
G0 Z5.
X54.925
Z1.935
G1 Z-0.38 F200.
X54.928 Z-0.391
X54.938 Z-0.399
X56.694
X56.716 Z-0.394
X56.738 Z-0.389
X56.743
X56.766 Y16.029
X56.781 Y16.049
Y16.074
X56.766 Y16.094
X56.743 Y16.102
X56.721 Z-0.394
X56.699 Z-0.399
X55.032
X55.027 Z-0.395
X55.025 Z-0.388
X55.029 Y16.107 Z-0.362
X55.04 Y16.122 Z-0.344
X55.056 Y16.142 Z-0.337
X55.072 Y16.162 Z-0.344
X55.083 Y16.176 Z-0.362
X55.087 Y16.182 Z-0.388
Z-0.39
X55.093 Z-0.399
X56.703
X56.725 Z-0.394
X56.747 Z-0.389
X56.757
X56.78 Y16.189
X56.795 Y16.209
Y16.234
X56.78 Y16.254
X56.757 Y16.262
X56.735 Z-0.394
X56.713 Z-0.399
X55.133
X55.127 Z-0.39
X55.125 Z-0.38
X55.124 Y16.258 Z-0.36
X55.123 Y16.255 Z-0.333
X55.126 Y16.266 Z-0.307
X55.133 Y16.288 Z-0.293
X55.141 Y16.315
X55.148 Y16.338 Z-0.307
X55.152 Y16.349 Z-0.333
X55.151 Y16.346 Z-0.36
X55.15 Y16.342 Z-0.38
X55.152 Z-0.39
X55.157 Z-0.399
X57.077
X57.099 Z-0.394
X57.121 Z-0.389
X57.476
X57.5 Z-0.391
X57.523 Y16.343 Z-0.396
X57.545 Y16.344 Z-0.405
X57.565 Y16.346 Z-0.417
X57.583 Y16.349 Z-0.432
X57.598 Y16.352 Z-0.45
X57.61 Y16.355 Z-0.47
X57.619 Y16.359 Z-0.491
X57.625 Y16.362 Z-0.514
X57.626 Y16.366 Z-0.537
Y16.397 Z-0.723
X57.625 Y16.401 Z-0.746
X57.619 Y16.405 Z-0.769
X57.61 Y16.408 Z-0.79
X57.598 Y16.412 Z-0.81
X57.583 Y16.415 Z-0.828
X57.565 Y16.417 Z-0.843
X57.545 Y16.419 Z-0.855
X57.523 Y16.421 Z-0.864
X57.5 Z-0.869
X57.476 Y16.422 Z-0.871
X57.454 Z-0.876
X57.432 Z-0.881
X57.232
X57.231 Z-0.399
X55.172
X55.165 Z-0.381
X55.164 Y16.417 Z-0.36
X55.163 Y16.413 Z-0.335
X55.165 Y16.42 Z-0.312
X55.168 Y16.438 Z-0.295
X55.173 Y16.462 Z-0.289
X55.177 Y16.485 Z-0.295
X55.181 Y16.503 Z-0.312
X55.182 Y16.511 Z-0.335
X55.181 Y16.506 Z-0.36
X55.18 Y16.502 Z-0.381
X55.188 Z-0.399
X57.241
Z-0.881
X57.762
X57.784 Z-0.876
X57.806 Z-0.871
X58.128
X58.151 Y16.509
X58.166 Y16.529
Y16.554
X58.151 Y16.574
X58.128 Y16.582
X58.106 Z-0.876
X58.084 Z-0.881
X57.25
Z-0.399
X55.203
X55.198 Z-0.39
X55.196 Z-0.38
X55.195 Y16.577 Z-0.359
X55.194 Y16.573 Z-0.335
X55.195 Y16.58 Z-0.311
X55.199 Y16.598 Z-0.294
X55.203 Y16.622 Z-0.288
X55.208 Y16.645 Z-0.294
X55.211 Y16.663 Z-0.311
X55.213 Y16.671 Z-0.335
X55.212 Y16.666 Z-0.359
X55.211 Y16.662 Z-0.38
Z-0.381
X55.218 Z-0.399
X57.257
X57.259 Z-0.881
X58.385
X58.407 Z-0.876
X58.429 Z-0.871
X58.727
X58.75 Y16.669
X58.765 Y16.689
Y16.714
X58.75 Y16.734
X58.727 Y16.742
X58.705 Z-0.876
X58.683 Z-0.881
X57.268
X57.266 Z-0.399
X55.234
X55.226 Z-0.381
X55.225 Y16.737 Z-0.36
X55.224 Y16.733 Z-0.335
X55.226 Y16.74 Z-0.312
X55.229 Y16.758 Z-0.295
X55.234 Y16.782 Z-0.289
X55.238 Y16.805 Z-0.295
X55.242 Y16.823 Z-0.312
X55.243 Y16.831 Z-0.335
X55.242 Y16.826 Z-0.36
X55.241 Y16.822 Z-0.381
X55.249 Z-0.399
X57.276
Z-0.881
X58.961
X58.983 Z-0.876
X59.005 Z-0.871
X59.283
X59.306 Y16.829
X59.321 Y16.849
Y16.874
X59.306 Y16.894
X59.283 Y16.902
X59.261 Z-0.876
X59.239 Z-0.881
X57.284
X57.283 Z-0.399
X55.264
X55.257 Z-0.381
Z-0.38
X55.256 Y16.897 Z-0.359
X55.255 Y16.893 Z-0.335
X55.256 Y16.9 Z-0.311
X55.26 Y16.918 Z-0.294
X55.264 Y16.942 Z-0.288
X55.269 Y16.965 Z-0.294
X55.272 Y16.983 Z-0.311
X55.274 Y16.991 Z-0.335
X55.273 Y16.986 Z-0.359
X55.272 Y16.982 Z-0.38
X55.274 Z-0.39
X55.28 Z-0.399
X57.29
X57.291 Z-0.881
X59.499
X59.521 Z-0.876
X59.543 Z-0.871
X59.8
X59.823 Y16.989
X59.838 Y17.009
Y17.034
X59.823 Y17.054
X59.8 Y17.062
X59.778 Z-0.876
X59.756 Z-0.881
X57.299
X57.298 Z-0.399
X55.295
X55.289 Z-0.39
X55.287 Z-0.38
X55.286 Y17.057 Z-0.359
Y17.053 Z-0.335
X55.287 Y17.06 Z-0.311
X55.29 Y17.078 Z-0.294
X55.295 Y17.102 Z-0.288
X55.299 Y17.125 Z-0.294
X55.303 Y17.143 Z-0.311
X55.304 Y17.151 Z-0.335
Y17.146 Z-0.359
X55.303 Y17.142 Z-0.38
X55.305 Z-0.39
X55.311 Z-0.399
X57.306
X57.307 Z-0.881
X60.006
X60.028 Z-0.876
X60.05 Z-0.871
X60.29
X60.313 Y17.149
X60.328 Y17.169
Y17.194
X60.313 Y17.214
X60.29 Y17.222
X60.268 Z-0.876
X60.246 Z-0.881
X57.314
X57.313 Z-0.399
X56.812
X55.326
X55.32 Z-0.39
X55.318 Z-0.38
X55.317 Y17.217 Z-0.359
X55.316 Y17.213 Z-0.335
X55.318 Y17.22 Z-0.311
X55.321 Y17.238 Z-0.294
X55.325 Y17.262 Z-0.288
X55.33 Y17.285 Z-0.294
X55.333 Y17.303 Z-0.311
X55.335 Y17.311 Z-0.335
X55.334 Y17.306 Z-0.359
X55.333 Y17.302 Z-0.38
X55.335 Z-0.39
X55.341 Z-0.399
X56.819
X57.32
X57.322 Z-0.881
X60.486
X60.508 Z-0.876
X60.53 Z-0.871
X60.757
X60.781 Y17.309
X60.795 Y17.329
Y17.354
X60.781 Y17.374
X60.757 Y17.382
X60.735 Z-0.876
X60.713 Z-0.881
X57.33
X57.329 Z-0.399
X56.827
X55.357
X55.351 Z-0.39
X55.348 Z-0.38
Y17.377 Z-0.359
X55.347 Y17.373 Z-0.334
X55.348 Y17.38 Z-0.311
X55.352 Y17.398 Z-0.294
X55.356 Y17.422 Z-0.288
X55.361 Y17.445 Z-0.294
X55.364 Y17.463 Z-0.311
X55.365 Y17.471 Z-0.334
Y17.466 Z-0.359
X55.364 Y17.462 Z-0.38
Z-0.381
X55.371 Z-0.399
X56.835
X57.336
X57.338 Z-0.881
X60.937
X60.959 Z-0.876
X60.981 Z-0.871
X61.205
X61.229 Y17.469
X61.243 Y17.489
Y17.514
X61.229 Y17.534
X61.205 Y17.542
X61.183 Z-0.876
X61.161 Z-0.881
X57.346
X57.345 Z-0.399
X56.843
X55.387
X55.381 Z-0.391
X55.379 Z-0.38
X55.378 Y17.537 Z-0.359
X55.377 Y17.533 Z-0.335
X55.379 Y17.54 Z-0.311
X55.382 Y17.558 Z-0.294
X55.387 Y17.582 Z-0.288
X55.391 Y17.605 Z-0.294
X55.395 Y17.623 Z-0.311
X55.396 Y17.631 Z-0.335
X55.395 Y17.626 Z-0.359
X55.394 Y17.622 Z-0.38
Z-0.381
X55.402 Z-0.399
X56.851
X57.353
X57.354 Z-0.881
X61.372
X61.394 Z-0.876
X61.416 Z-0.871
X61.627
X61.651 Y17.629
X61.665 Y17.649
Y17.674
X61.651 Y17.694
X61.627 Y17.702
X61.605 Z-0.876
X61.583 Z-0.881
X57.362
Z-0.399
X56.859
X55.417
X55.41 Z-0.381
Z-0.38
X55.409 Y17.697 Z-0.359
X55.408 Y17.693 Z-0.335
X55.409 Y17.7 Z-0.311
X55.413 Y17.718 Z-0.294
X55.417 Y17.742 Z-0.288
X55.422 Y17.765 Z-0.294
X55.425 Y17.783 Z-0.311
X55.427 Y17.791 Z-0.335
X55.426 Y17.786 Z-0.359
X55.425 Y17.782 Z-0.38
X55.427 Z-0.39
X55.433 Z-0.399
X56.868
X57.37
X57.371 Z-0.881
X61.793
X61.815 Z-0.876
X61.837 Z-0.871
X62.035
X62.059 Y17.789
X62.073 Y17.809
Y17.834
X62.059 Y17.854
X62.035 Y17.862
X62.013 Z-0.876
X61.991 Z-0.881
X57.379
Z-0.399
X56.876
X55.448
X55.442 Z-0.39
X55.44 Z-0.38
X55.439 Y17.857 Z-0.359
Y17.853 Z-0.334
X55.44 Y17.86 Z-0.311
X55.443 Y17.878 Z-0.294
X55.448 Y17.902 Z-0.288
X55.452 Y17.925 Z-0.294
X55.456 Y17.943 Z-0.311
X55.457 Y17.951 Z-0.334
X55.456 Y17.946 Z-0.359
X55.455 Y17.942 Z-0.38
X55.458 Z-0.39
X55.463 Z-0.399
X56.884
X56.885
X57.388
Z-0.881
X62.19
X62.212 Z-0.876
X62.234 Z-0.871
X62.433
X62.456 Y17.949
X62.471 Y17.969
Y17.994
X62.456 Y18.014
X62.433 Y18.022
X62.411 Z-0.876
X62.389 Z-0.881
X57.397
X57.395 Z-0.399
X56.893
X55.479
X55.473 Z-0.39
X55.471 Z-0.38
X55.47 Y18.017 Z-0.359
X55.469 Y18.013 Z-0.334
X55.47 Y18.02 Z-0.311
X55.474 Y18.038 Z-0.294
X55.478 Y18.062 Z-0.288
X55.483 Y18.085 Z-0.294
X55.486 Y18.103 Z-0.311
X55.488 Y18.111 Z-0.334
X55.487 Y18.106 Z-0.359
X55.486 Y18.102 Z-0.38
Z-0.381
X55.493 Z-0.399
X56.902
X57.405
Z-0.881
X62.577
X62.599 Z-0.876
X62.621 Z-0.871
X62.809
X62.832 Y18.109
X62.847 Y18.129
Y18.154
X62.832 Y18.174
X62.809 Y18.182
X62.787 Z-0.876
X62.765 Z-0.881
X57.414
X57.413 Z-0.399
X56.91
X55.509
X55.501 Z-0.381
Z-0.38
Y18.177 Z-0.359
X55.5 Y18.173 Z-0.334
X55.501 Y18.18 Z-0.311
X55.505 Y18.198 Z-0.294
X55.509 Y18.222 Z-0.288
X55.514 Y18.245 Z-0.294
X55.517 Y18.263 Z-0.311
X55.518 Y18.271 Z-0.334
Y18.266 Z-0.359
X55.517 Y18.262 Z-0.38
X55.519 Z-0.39
X55.525 Z-0.399
X56.919
X57.422
X57.423 Z-0.881
X62.952
X62.974 Z-0.876
X62.996 Z-0.871
X63.177
X63.2 Y18.269
X63.215 Y18.289
Y18.314
X63.2 Y18.334
X63.177 Y18.342
X63.155 Z-0.876
X63.133 Z-0.881
X57.432
X57.431 Z-0.399
X56.928
X55.54
X55.532 Z-0.381
Z-0.38
X55.531 Y18.337 Z-0.359
X55.53 Y18.333 Z-0.334
X55.532 Y18.34 Z-0.311
X55.535 Y18.358 Z-0.294
X55.54 Y18.382 Z-0.287
X55.544 Y18.405 Z-0.294
X55.547 Y18.423 Z-0.311
X55.549 Y18.431 Z-0.334
X55.548 Y18.426 Z-0.359
X55.547 Y18.422 Z-0.38
X55.549 Z-0.39
X55.555 Z-0.399
X56.937
X57.44
X57.441 Z-0.881
X63.311
X63.333 Z-0.876
X63.355 Z-0.871
X63.533
X63.556 Y18.429
X63.571 Y18.449
Y18.474
X63.556 Y18.494
X63.533 Y18.502
X63.511 Z-0.876
X63.489 Z-0.881
X57.45
X57.449 Z-0.399
X56.946
X55.57
X55.564 Z-0.39
X55.562 Z-0.38
Y18.497 Z-0.359
X55.561 Y18.493 Z-0.335
X55.562 Y18.5 Z-0.311
X55.566 Y18.518 Z-0.294
X55.57 Y18.542 Z-0.288
X55.575 Y18.565 Z-0.294
X55.578 Y18.583 Z-0.311
X55.579 Y18.591 Z-0.335
Y18.586 Z-0.359
X55.578 Y18.582 Z-0.38
Z-0.381
X55.585 Z-0.399
X56.955
X57.458
X57.46 Z-0.881
X63.664
X63.686 Z-0.876
X63.708 Z-0.871
X63.877
X63.9 Y18.589
X63.915 Y18.609
Y18.634
X63.9 Y18.654
X63.877 Y18.662
X63.855 Z-0.876
X63.833 Z-0.881
X57.469
X57.467 Z-0.399
X56.964
X55.601
X55.593 Z-0.381
X55.592 Y18.657 Z-0.36
X55.591 Y18.653 Z-0.336
X55.593 Y18.66 Z-0.312
X55.596 Y18.678 Z-0.295
X55.601 Y18.702 Z-0.289
X55.605 Y18.725 Z-0.295
X55.609 Y18.743 Z-0.312
X55.61 Y18.751 Z-0.336
X55.609 Y18.746 Z-0.36
X55.608 Y18.742 Z-0.381
X55.616 Z-0.399
X56.974
X57.477
X57.479 Z-0.881
X64.002
X64.024 Z-0.876
X64.046 Z-0.871
X64.215
X64.239 Y18.749
X64.253 Y18.769
Y18.794
X64.239 Y18.814
X64.215 Y18.822
X64.193 Z-0.876
X64.171 Z-0.881
X57.488
X57.486 Z-0.399
X56.983
X55.631
X55.624 Z-0.381
X55.623 Y18.817 Z-0.36
X55.622 Y18.813 Z-0.336
X55.623 Y18.82 Z-0.312
X55.627 Y18.838 Z-0.295
X55.631 Y18.862 Z-0.289
X55.636 Y18.885 Z-0.295
X55.639 Y18.903 Z-0.312
X55.641 Y18.911 Z-0.336
X55.64 Y18.906 Z-0.36
X55.639 Y18.902 Z-0.381
X55.646 Z-0.399
X56.992
X57.496
X57.498 Z-0.881
X64.334
X64.356 Z-0.876
X64.378 Z-0.871
X64.539
X64.562 Y18.909
X64.577 Y18.929
Y18.954
X64.562 Y18.974
X64.539 Y18.982
X64.517 Z-0.876
X64.495 Z-0.881
X61.313
X61.123
X57.507
X57.505 Z-0.399
X57.002
X55.662
X55.654 Z-0.381
Z-0.38
X55.653 Y18.977 Z-0.359
X55.652 Y18.973 Z-0.335
X55.654 Y18.98 Z-0.311
X55.657 Y18.998 Z-0.294
X55.662 Y19.022 Z-0.288
X55.666 Y19.045 Z-0.294
X55.67 Y19.063 Z-0.311
X55.671 Y19.071 Z-0.335
X55.67 Y19.066 Z-0.359
X55.669 Y19.062 Z-0.38
X55.671 Z-0.39
X55.677 Z-0.399
X57.011
X57.515
X57.517 Z-0.881
X60.93
X60.939 Z-0.874
X60.942 Z-0.863
G0 Z5.
X61.516
Z1.935
G1 Z-0.868 F200.
X61.52 Z-0.877
X61.529 Z-0.881
X64.656
X64.678 Z-0.876
X64.7 Z-0.871
X64.86
X64.883 Y19.069
X64.898 Y19.089
Y19.114
X64.883 Y19.134
X64.86 Y19.142
X64.838 Z-0.876
X64.816 Z-0.881
X61.643
X61.636 Z-0.876
X61.634 Z-0.868
G0 Z5.
X60.845
Z1.935
G1 Z-0.868 F200.
X60.842 Z-0.876
X60.836 Z-0.881
X57.527
X57.524 Z-0.399
X57.021
X55.693
X55.687 Z-0.39
X55.685 Z-0.38
X55.684 Y19.137 Z-0.359
X55.683 Y19.133 Z-0.334
X55.684 Y19.14 Z-0.311
X55.688 Y19.158 Z-0.294
X55.692 Y19.182 Z-0.288
X55.697 Y19.205 Z-0.294
X55.7 Y19.223 Z-0.311
X55.702 Y19.231 Z-0.334
X55.701 Y19.226 Z-0.359
X55.7 Y19.222 Z-0.38
Z-0.381
X55.707 Z-0.399
X57.03
X57.534
X57.536 Z-0.881
X60.75
X60.757 Z-0.876
X60.759 Z-0.868
X60.754 Y19.227 Z-0.838
X60.738 Y19.242 Z-0.817
X60.717 Y19.262 Z-0.809
X60.696 Y19.282 Z-0.817
X60.68 Y19.296 Z-0.838
X60.674 Y19.302 Z-0.868
X60.672 Z-0.876
X60.666 Z-0.881
X57.546
X57.543 Z-0.399
X57.04
X55.723
X55.717 Z-0.39
X55.715 Z-0.38
X55.714 Y19.297 Z-0.359
Y19.293 Z-0.335
X55.715 Y19.3 Z-0.311
X55.718 Y19.318 Z-0.294
X55.723 Y19.342 Z-0.288
X55.727 Y19.365 Z-0.294
X55.731 Y19.383 Z-0.311
X55.732 Y19.391 Z-0.335
X55.731 Y19.386 Z-0.359
Y19.382 Z-0.38
Z-0.381
X55.738 Z-0.399
X57.05
X57.553
X57.555 Z-0.88
X60.58 Z-0.881
X60.587 Z-0.876
X60.589 Z-0.867
X60.584 Y19.387 Z-0.838
X60.568 Y19.402 Z-0.817
X60.547 Y19.422 Z-0.809
X60.526 Y19.442 Z-0.817
X60.51 Y19.456 Z-0.838
X60.504 Y19.462 Z-0.867
Z-0.868
X60.502 Z-0.876
X60.495 Z-0.881
X57.565
X57.563 Z-0.399
X57.06
X57.059
X55.754
X55.748 Z-0.39
X55.746 Z-0.38
X55.745 Y19.457 Z-0.359
X55.744 Y19.453 Z-0.335
X55.746 Y19.46 Z-0.311
X55.749 Y19.478 Z-0.294
X55.754 Y19.502 Z-0.288
X55.758 Y19.525 Z-0.294
X55.761 Y19.543 Z-0.311
X55.763 Y19.551 Z-0.335
X55.762 Y19.546 Z-0.359
X55.761 Y19.542 Z-0.38
Z-0.381
X55.769 Z-0.399
X57.069
X57.573
X57.574 Z-0.881
X60.411
X60.417 Z-0.876
X60.419 Z-0.868
Z-0.867
X60.414 Y19.547 Z-0.838
X60.398 Y19.562 Z-0.817
X60.377 Y19.582 Z-0.809
X60.356 Y19.602 Z-0.817
X60.34 Y19.616 Z-0.838
X60.334 Y19.622 Z-0.867
X60.332 Z-0.876
X60.325 Z-0.881
X57.584
X57.582 Z-0.399
X57.079
X55.782
X55.775 Z-0.382
Z-0.381
Y19.617 Z-0.359
X55.774 Y19.612 Z-0.334
X55.775 Y19.619 Z-0.311
Y19.637 Z-0.293
X55.776 Y19.662 Z-0.287
Y19.686 Z-0.293
X55.777 Y19.704 Z-0.311
Y19.712 Z-0.334
Y19.707 Z-0.359
Y19.702 Z-0.381
X55.784 Z-0.399
X57.089
X57.592
X57.593 Z-0.881
X60.241
X60.247 Z-0.876
X60.249 Z-0.868
Z-0.867
X60.244 Y19.707 Z-0.838
X60.228 Y19.722 Z-0.817
X60.207 Y19.742 Z-0.809
X60.186 Y19.762 Z-0.817
X60.17 Y19.776 Z-0.838
X60.164 Y19.782 Z-0.867
X60.162 Z-0.876
X60.155 Z-0.881
X57.603
X57.602 Z-0.399
X57.099
X55.775
X55.77 Z-0.39
X55.767 Z-0.38
X55.768 Y19.777 Z-0.359
X55.769 Y19.772 Z-0.334
X55.768 Y19.78 Z-0.311
X55.765 Y19.798 Z-0.294
X55.761 Y19.822 Z-0.287
X55.757 Y19.845 Z-0.294
X55.754 Y19.863 Z-0.311
X55.753 Y19.871 Z-0.334
X55.754 Y19.866 Z-0.359
X55.755 Y19.862 Z-0.38
Z-0.381
X55.762 Z-0.399
X57.109
X57.612
X57.613 Z-0.881
X60.07
X60.077 Z-0.876
X60.079 Z-0.868
X60.074 Y19.867 Z-0.839
X60.058 Y19.882 Z-0.817
X60.037 Y19.902 Z-0.809
X60.016 Y19.922 Z-0.817
X60. Y19.936 Z-0.839
X59.994 Y19.942 Z-0.868
X59.992 Z-0.876
X59.986 Z-0.881
X57.624
X57.622 Z-0.399
X57.119
X55.737
X55.731 Z-0.39
X55.729 Z-0.379
X55.73 Y19.939 Z-0.363
X55.731 Y19.938 Z-0.336
X55.726 Y19.949 Z-0.312
X55.716 Y19.969 Z-0.298
X55.704 Y19.994
X55.694 Y20.014 Z-0.312
X55.689 Y20.026 Z-0.336
Y20.024 Z-0.363
X55.69 Y20.022 Z-0.379
Z-0.389
X55.697 Z-0.399
X57.129
X57.632
X57.634 Z-0.881
X59.9
X59.907 Z-0.876
X59.909 Z-0.868
X59.904 Y20.027 Z-0.838
X59.888 Y20.042 Z-0.817
X59.867 Y20.062 Z-0.809
X59.846 Y20.082 Z-0.817
X59.83 Y20.096 Z-0.838
X59.824 Y20.102 Z-0.868
X59.822 Z-0.876
X59.816 Z-0.881
X57.644
X57.643 Z-0.399
X57.139
X55.634
X55.629 Z-0.394
X55.626 Z-0.387
G0 Z5.
X55.524 Y20.182
Z1.935
G1 Z-0.379 F200.
X55.527 Z-0.391
X55.537 Z-0.399
X57.149
X57.15
X57.651
X57.655 Z-0.881
X59.73
X59.737 Z-0.876
X59.739 Z-0.868
X59.734 Y20.187 Z-0.838
X59.718 Y20.202 Z-0.817
X59.697 Y20.222 Z-0.809
X59.676 Y20.242 Z-0.817
X59.66 Y20.256 Z-0.838
X59.654 Y20.262 Z-0.868
X59.652 Z-0.876
X59.646 Z-0.881
X57.665
Z-0.399
X57.16
X57.122 Z-0.391
X57.089 Z-0.37
X57.067 Z-0.337
X57.06 Z-0.299
G0 Z5.
X60.483 Y21.462
Z1.935
G1 Z-0.868 F200.
X60.485 Z-0.876
X60.492 Z-0.881
X60.547
X60.555 Z-0.863
Y21.457 Z-0.841
Y21.452 Z-0.816
Y21.459 Z-0.792
Y21.477 Z-0.775
X60.554 Y21.502 Z-0.769
Y21.526 Z-0.775
X60.553 Y21.544 Z-0.792
Y21.551 Z-0.816
Y21.547 Z-0.841
Y21.542 Z-0.863
X60.546 Z-0.881
X60.407
X60.401 Z-0.876
X60.398 Z-0.868
X60.393 Y21.547 Z-0.839
X60.377 Y21.562 Z-0.817
X60.356 Y21.582 Z-0.809
X60.335 Y21.602 Z-0.817
X60.319 Y21.616 Z-0.839
X60.314 Y21.622 Z-0.868
X60.316 Z-0.876
X60.323 Z-0.881
X60.544
X60.551 Z-0.863
Y21.617 Z-0.841
X60.552 Y21.612 Z-0.817
X60.551 Y21.619 Z-0.793
Y21.637 Z-0.776
X60.55 Y21.662 Z-0.769
Y21.686 Z-0.776
X60.549 Y21.704 Z-0.793
Y21.711 Z-0.817
Y21.707 Z-0.841
X60.55 Y21.702 Z-0.863
X60.542 Z-0.881
X60.238
X60.231 Z-0.876
X60.229 Z-0.868
Z-0.867
X60.223 Y21.707 Z-0.838
X60.208 Y21.722 Z-0.817
X60.186 Y21.742 Z-0.809
X60.165 Y21.762 Z-0.817
X60.15 Y21.776 Z-0.838
X60.144 Y21.782 Z-0.867
X60.147 Z-0.876
X60.153 Z-0.881
X60.54
X60.548 Z-0.863
Y21.777 Z-0.842
Y21.772 Z-0.817
Y21.779 Z-0.793
X60.547 Y21.797 Z-0.776
Y21.822 Z-0.77
X60.546 Y21.846 Z-0.776
Y21.864 Z-0.793
Y21.871 Z-0.817
Y21.867 Z-0.842
Y21.862 Z-0.863
Z-0.864
X60.539 Z-0.881
X60.069
X60.062 Z-0.876
X60.059 Z-0.867
G0 Z5.
X60.082 Y21.942
Z1.935
G1 Z-0.859 F200.
X60.084 Z-0.871
X60.091 Z-0.881
X60.537
X60.544 Z-0.864
Y21.937 Z-0.842
Y21.932 Z-0.818
Y21.939 Z-0.794
Y21.957 Z-0.777
X60.543 Y21.982 Z-0.77
Y22.006 Z-0.777
X60.542 Y22.024 Z-0.794
Y22.031 Z-0.818
Y22.027 Z-0.842
Y22.022 Z-0.864
X60.535 Z-0.881
X60.124
X60.118 Z-0.872
X60.116 Z-0.861
X60.115 Y22.017 Z-0.841
X60.114 Y22.013 Z-0.816
X60.116 Y22.021 Z-0.793
X60.12 Y22.038 Z-0.776
X60.125 Y22.062 Z-0.77
X60.131 Y22.085 Z-0.776
X60.135 Y22.102 Z-0.793
X60.137 Y22.11 Z-0.816
X60.136 Y22.106 Z-0.841
X60.135 Y22.102 Z-0.861
Z-0.862
X60.137 Z-0.872
X60.143 Z-0.881
X60.511
X60.527 Z-0.875
X60.533 Z-0.859
G0 Z5.
X60.33 Y22.182
Z1.935
G1 Z-0.862 F200.
X60.326 Z-0.874
X60.317 Z-0.881
X60.148
X60.141 Z-0.864
Z-0.861
Y22.177 Z-0.839
X60.142 Y22.172 Z-0.815
X60.141 Y22.179 Z-0.791
X60.139 Y22.197 Z-0.774
X60.137 Y22.222 Z-0.767
X60.135 Y22.246 Z-0.774
X60.133 Y22.264 Z-0.791
Y22.271 Z-0.815
Y22.266 Z-0.839
X60.134 Y22.262 Z-0.861
X60.136 Z-0.872
X60.142 Z-0.881
X60.226
X60.232 Z-0.876
X60.234 Z-0.869
G0 Z5.
X60.082 Y22.582
Z1.935
G1 Z-0.862 F200.
X60.08 Z-0.872
X60.074 Z-0.881
X59.997
X59.99 Z-0.871
G0 Z5.
X61.706 Y19.222
Z1.935
G1 Z-0.871 F200.
X61.713 Z-0.881
X64.969
X64.991 Z-0.876
X65.013 Z-0.871
X65.167
X65.19 Y19.229
X65.205 Y19.249
Y19.274
X65.19 Y19.294
X65.167 Y19.302
X65.145 Z-0.876
X65.123 Z-0.881
X61.759
X61.752 Z-0.871
X61.75 Z-0.86
X61.749 Y19.298 Z-0.841
X61.748 Y19.295 Z-0.814
X61.752 Y19.307 Z-0.789
X61.76 Y19.329 Z-0.774
X61.77 Y19.355
X61.778 Y19.376 Z-0.789
X61.782 Y19.388 Z-0.814
X61.781 Y19.385 Z-0.841
X61.78 Y19.382 Z-0.86
Z-0.862
X61.782 Z-0.872
X61.788 Z-0.881
X65.277
X65.299 Z-0.876
X65.321 Z-0.871
X65.472
X65.495 Y19.389
X65.51 Y19.409
Y19.434
X65.495 Y19.454
X65.472 Y19.462
X65.45 Z-0.876
X65.428 Z-0.881
X61.802
X61.795 Z-0.864
Y19.457 Z-0.842
X61.794 Y19.452 Z-0.817
X61.795 Y19.459 Z-0.794
Y19.477 Z-0.776
X61.796 Y19.502 Z-0.77
X61.797 Y19.526 Z-0.776
Y19.544 Z-0.794
Y19.552 Z-0.817
Y19.547 Z-0.842
Y19.542 Z-0.864
X61.804 Z-0.881
X65.575
X65.597 Z-0.876
X65.619 Z-0.871
X65.765
X65.789 Y19.549
X65.803 Y19.569
Y19.594
X65.789 Y19.614
X65.765 Y19.622
X65.743 Z-0.876
X65.721 Z-0.881
X61.803
X61.797 Z-0.872
X61.795 Z-0.862
X61.796 Y19.617 Z-0.84
Y19.612 Z-0.816
X61.795 Y19.619 Z-0.792
Y19.637 Z-0.775
Y19.662 Z-0.769
X61.794 Y19.686 Z-0.775
Y19.704 Z-0.792
X61.793 Y19.712 Z-0.816
X61.794 Y19.707 Z-0.84
Y19.702 Z-0.862
Z-0.863
X61.801 Z-0.881
X65.868
X65.89 Z-0.876
X65.912 Z-0.871
X66.056
X66.08 Y19.709
X66.094 Y19.729
Y19.754
X66.08 Y19.774
X66.056 Y19.782
X66.034 Z-0.876
X66.012 Z-0.881
X61.799
X61.792 Z-0.863
Z-0.862
Y19.777 Z-0.84
Y19.772 Z-0.816
Y19.779 Z-0.792
Y19.797 Z-0.775
X61.791 Y19.822 Z-0.769
X61.79 Y19.846 Z-0.775
Y19.864 Z-0.792
Y19.872 Z-0.816
Y19.867 Z-0.84
Y19.862 Z-0.862
X61.792 Z-0.872
X61.798 Z-0.881
X66.153
X66.175 Z-0.876
X66.197 Z-0.871
X66.337
X66.361 Y19.869
X66.375 Y19.889
Y19.914
X66.361 Y19.934
X66.337 Y19.942
X66.315 Z-0.876
X66.293 Z-0.881
X61.796
X61.788 Z-0.863
X61.789 Y19.937 Z-0.841
Y19.932 Z-0.816
X61.788 Y19.939 Z-0.792
Y19.957 Z-0.775
Y19.982 Z-0.769
X61.787 Y20.006 Z-0.775
Y20.024 Z-0.792
X61.786 Y20.032 Z-0.816
X61.787 Y20.027 Z-0.841
Y20.022 Z-0.863
X61.794 Z-0.881
X66.434
X66.456 Z-0.876
X66.478 Z-0.871
X66.616
X66.64 Y20.029
X66.654 Y20.049
Y20.074
X66.64 Y20.094
X66.616 Y20.102
X66.594 Z-0.876
X66.572 Z-0.881
X61.792
X61.785 Z-0.864
Z-0.863
Y20.097 Z-0.841
Y20.092 Z-0.817
Y20.099 Z-0.793
Y20.117 Z-0.776
X61.784 Y20.142 Z-0.769
X61.783 Y20.166 Z-0.776
Y20.184 Z-0.793
Y20.192 Z-0.817
Y20.187 Z-0.841
Y20.182 Z-0.863
X61.791 Z-0.881
X66.707
X66.729 Z-0.876
X66.751 Z-0.871
X66.885
X66.909 Y20.189
X66.923 Y20.209
Y20.234
X66.909 Y20.254
X66.885 Y20.262
X66.863 Z-0.876
X66.841 Z-0.881
X63.866
X63.857 Z-0.877
X63.853 Z-0.868
G0 Z5.
X63.397
Z1.935
G1 Z-0.869 F200.
X63.393 Z-0.878
X63.385 Z-0.881
X61.788
X61.781 Z-0.864
Z-0.862
X61.782 Y20.257 Z-0.84
Y20.252 Z-0.816
X61.781 Y20.259 Z-0.792
Y20.277 Z-0.775
Y20.302 Z-0.769
X61.78 Y20.326 Z-0.775
Y20.344 Z-0.792
X61.779 Y20.352 Z-0.816
X61.78 Y20.347 Z-0.84
Y20.342 Z-0.862
X61.782 Z-0.872
X61.788 Z-0.881
X63.274
X63.28 Z-0.876
X63.282 Z-0.868
G0 Z5.
X64.001
Z1.935
G1 Z-0.87 F200.
X64.004 Z-0.878
X64.012 Z-0.881
X66.976
X66.998 Z-0.876
X67.02 Z-0.871
X67.154
X67.178 Y20.349
X67.192 Y20.369
Y20.394
X67.178 Y20.414
X67.154 Y20.422
X67.132 Z-0.876
X67.11 Z-0.881
X64.158
X64.15 Z-0.878
X64.147 Z-0.869
X64.152 Y20.425 Z-0.838
X64.168 Y20.433 Z-0.811
X64.192 Y20.446 Z-0.792
X64.22 Y20.462 Z-0.786
X64.248 Y20.477 Z-0.792
X64.272 Y20.49 Z-0.811
X64.287 Y20.499 Z-0.838
X64.293 Y20.502 Z-0.869
Z-0.87
X64.296 Z-0.878
X64.305 Z-0.881
X67.239
X67.261 Z-0.876
X67.283 Z-0.871
X67.412
X67.436 Y20.509
X67.45 Y20.529
Y20.554
X67.436 Y20.574
X67.412 Y20.582
X67.39 Z-0.876
X67.368 Z-0.881
X64.451
X64.443 Z-0.878
X64.439 Z-0.87
X64.445 Y20.585 Z-0.838
X64.461 Y20.593 Z-0.811
X64.484 Y20.606 Z-0.793
X64.512 Y20.622 Z-0.786
X64.54 Y20.637 Z-0.793
X64.564 Y20.65 Z-0.811
X64.58 Y20.659 Z-0.838
X64.586 Y20.662 Z-0.87
X64.589 Z-0.878
X64.597 Z-0.881
X67.497
X67.519 Z-0.876
X67.541 Z-0.871
X67.67
X67.694 Y20.669
X67.708 Y20.689
Y20.714
X67.694 Y20.734
X67.67 Y20.742
X67.648 Z-0.876
X67.626 Z-0.881
X64.743
X64.735 Z-0.878
X64.732 Z-0.87
X64.737 Y20.745 Z-0.838
X64.753 Y20.753 Z-0.811
X64.777 Y20.766 Z-0.793
X64.805 Y20.782 Z-0.786
X64.833 Y20.797 Z-0.793
X64.857 Y20.81 Z-0.811
X64.872 Y20.819 Z-0.838
X64.878 Y20.822 Z-0.87
X64.881 Z-0.878
X64.89 Z-0.881
X67.751
X67.773 Z-0.876
X67.795 Z-0.871
X67.919
X67.943 Y20.829
X67.957 Y20.849
Y20.874
X67.943 Y20.894
X67.919 Y20.902
X67.897 Z-0.876
X67.875 Z-0.881
X65.036
X65.028 Z-0.878
X65.024 Z-0.87
Z-0.869
X65.03 Y20.906 Z-0.839
X65.045 Y20.917 Z-0.816
X65.067 Y20.933 Z-0.803
X65.091 Y20.95
X65.113 Y20.967 Z-0.816
X65.128 Y20.978 Z-0.839
X65.133 Y20.982 Z-0.869
X65.136 Z-0.876
X65.142 Z-0.881
X67.999
X68.021 Z-0.876
X68.043 Z-0.871
X68.167
X68.191 Y20.989
X68.205 Y21.009
Y21.034
X68.191 Y21.054
X68.167 Y21.062
X68.145 Z-0.876
X68.123 Z-0.881
X65.208
X65.202 Z-0.872
Z-0.861
X65.201 Y21.059 Z-0.845
X65.2 Y21.058 Z-0.819
X65.206 Y21.07 Z-0.795
X65.217 Y21.09 Z-0.782
X65.229 Y21.113
X65.24 Y21.134 Z-0.795
X65.246 Y21.145 Z-0.819
X65.245 Y21.144 Z-0.845
X65.244 Y21.142 Z-0.861
X65.246 Z-0.872
X65.252 Z-0.881
X68.246
X68.268 Z-0.876
X68.29 Z-0.871
X68.409
X68.432 Y21.149
X68.447 Y21.169
Y21.194
X68.432 Y21.214
X68.409 Y21.222
X68.387 Z-0.876
X68.365 Z-0.881
X65.279
X65.272 Z-0.863
X65.271 Y21.217 Z-0.841
X65.27 Y21.212 Z-0.817
X65.271 Y21.22 Z-0.793
X65.275 Y21.238 Z-0.776
X65.279 Y21.262 Z-0.77
X65.283 Y21.285 Z-0.776
X65.286 Y21.303 Z-0.793
X65.287 Y21.311 Z-0.817
X65.286 Y21.306 Z-0.841
X65.285 Y21.302 Z-0.863
X65.287 Z-0.873
X65.293 Z-0.881
X68.484
X68.506 Z-0.876
X68.528 Z-0.871
X68.647
X68.671 Y21.309
X68.685 Y21.329
Y21.354
X68.671 Y21.374
X68.647 Y21.382
X68.625 Z-0.876
X68.603 Z-0.881
X65.897
X65.887 Z-0.877
X65.883 Z-0.867
G0 Z5.
X65.459
Z1.935
G1 Z-0.867 F200.
X65.455 Z-0.877
X65.446 Z-0.881
X65.294
X65.286 Z-0.863
G0 Z5.
X66.013 Y21.462
Z1.935
G1 Z-0.862 F200.
X66.017 Z-0.874
X66.026 Z-0.881
X68.722
X68.744 Z-0.876
X68.766 Z-0.871
X68.882
X68.906 Y21.469
X68.92 Y21.489
Y21.514
X68.906 Y21.534
X68.882 Y21.542
X68.86 Z-0.876
X68.838 Z-0.881
X66.148
X66.139 Z-0.874
X66.136 Z-0.862
X66.142 Y21.546 Z-0.83
X66.159 Y21.557 Z-0.805
X66.183 Y21.573 Z-0.791
X66.21 Y21.59
X66.235 Y21.606 Z-0.805
X66.252 Y21.618 Z-0.83
X66.258 Y21.622 Z-0.862
X66.261 Z-0.874
X66.27 Z-0.881
X68.953
X68.975 Z-0.876
X68.997 Z-0.871
X69.111
X69.135 Y21.629
X69.149 Y21.649
Y21.674
X69.135 Y21.694
X69.111 Y21.702
X69.089 Z-0.876
X69.067 Z-0.881
X66.392
X66.383 Z-0.874
X66.38 Z-0.863
Z-0.862
X66.386 Y21.706 Z-0.831
X66.403 Y21.717 Z-0.805
X66.427 Y21.733 Z-0.791
X66.454 Y21.75
X66.479 Y21.766 Z-0.805
X66.496 Y21.778 Z-0.831
X66.502 Y21.782 Z-0.862
X66.505 Z-0.874
X66.514 Z-0.881
X69.182
X69.204 Z-0.876
X69.226 Z-0.871
X69.34
X69.364 Y21.789
X69.378 Y21.809
Y21.834
X69.364 Y21.854
X69.34 Y21.862
X69.318 Z-0.876
X69.296 Z-0.881
X66.636
X66.627 Z-0.874
X66.624 Z-0.863
Z-0.862
X66.63 Y21.865 Z-0.831
X66.647 Y21.877 Z-0.805
X66.671 Y21.893 Z-0.791
X66.698 Y21.91
X66.723 Y21.926 Z-0.805
X66.74 Y21.938 Z-0.831
X66.746 Y21.942 Z-0.862
X66.749 Z-0.874
X66.759 Z-0.881
X69.407
X69.429 Z-0.876
X69.451 Z-0.871
X69.561
X69.585 Y21.949
X69.599 Y21.969
Y21.994
X69.585 Y22.014
X69.561 Y22.022
X69.539 Z-0.876
X69.517 Z-0.881
X66.88
X66.871 Z-0.874
X66.868 Z-0.863
X66.874 Y22.025 Z-0.831
X66.891 Y22.037 Z-0.805
X66.915 Y22.053 Z-0.791
X66.943 Y22.07
X66.967 Y22.086 Z-0.805
X66.984 Y22.098 Z-0.831
X66.99 Y22.102 Z-0.863
X66.993 Z-0.874
X67.002 Z-0.881
X69.628
X69.65 Z-0.876
X69.672 Z-0.871
X69.782
X69.805 Y22.109
X69.82 Y22.129
Y22.154
X69.805 Y22.174
X69.782 Y22.182
X69.76 Z-0.876
X69.738 Z-0.881
X67.115
X67.108 Z-0.876
X67.105 Z-0.867
X67.11 Y22.187 Z-0.839
X67.124 Y22.202 Z-0.819
X67.143 Y22.222 Z-0.812
X67.162 Y22.242 Z-0.819
X67.176 Y22.256 Z-0.839
X67.181 Y22.262 Z-0.867
Z-0.871
X67.188 Z-0.881
X69.847
X69.869 Z-0.876
X69.891 Z-0.871
X69.997
X70.021 Y22.269
X70.035 Y22.289
Y22.314
X70.021 Y22.334
X69.997 Y22.342
X69.975 Z-0.876
X69.953 Z-0.881
X67.236
X67.229 Z-0.871
X67.227 Z-0.86
X67.226 Y22.338 Z-0.841
X67.225 Y22.336 Z-0.814
X67.229 Y22.347 Z-0.789
X67.238 Y22.369 Z-0.775
X67.248 Y22.394
X67.256 Y22.416 Z-0.789
X67.26 Y22.427 Z-0.814
X67.259 Y22.425 Z-0.841
X67.258 Y22.422 Z-0.86
Z-0.862
X67.26 Z-0.872
X67.266 Z-0.881
X70.06
X70.082 Z-0.876
X70.104 Z-0.871
X70.21
X70.233 Y22.429
X70.248 Y22.449
Y22.474
X70.233 Y22.494
X70.21 Y22.502
X70.188 Z-0.876
X70.166 Z-0.881
X67.283
X67.277 Z-0.872
X67.275 Z-0.862
Y22.497 Z-0.84
X67.274 Y22.492 Z-0.816
X67.275 Y22.499 Z-0.792
X67.276 Y22.517 Z-0.775
X67.277 Y22.542 Z-0.768
X67.278 Y22.566 Z-0.775
Y22.584 Z-0.792
X67.279 Y22.591 Z-0.816
X67.278 Y22.586 Z-0.84
Y22.582 Z-0.862
X67.28 Z-0.872
X67.286 Z-0.881
X67.426
X67.446 Z-0.876
X67.461 Z-0.861
X67.466 Z-0.841
G0 Z5.
X67.64
Z1.935
G1 Z-0.841 F200.
X67.646 Z-0.861
X67.661 Z-0.876
X67.681 Z-0.881
X70.272
X70.294 Z-0.876
X70.316 Z-0.871
X70.421
X70.444 Y22.589
X70.459 Y22.609
Y22.634
X70.444 Y22.654
X70.421 Y22.662
X70.399 Z-0.876
X70.377 Z-0.881
X67.852
X67.843 Z-0.874
X67.84 Z-0.863
Z-0.862
X67.846 Y22.665 Z-0.831
X67.863 Y22.677 Z-0.805
X67.887 Y22.693 Z-0.791
X67.915 Y22.71
X67.939 Y22.726 Z-0.805
X67.956 Y22.738 Z-0.831
X67.962 Y22.742 Z-0.862
X67.965 Z-0.874
X67.974 Z-0.881
X70.479
X70.501 Z-0.876
X70.523 Z-0.871
X70.626
X70.649 Y22.749
X70.664 Y22.769
Y22.794
X70.649 Y22.814
X70.626 Y22.821
X70.604 Z-0.876
X70.582 Z-0.881
X68.096
X68.087 Z-0.874
X68.084 Z-0.863
X68.09 Y22.825 Z-0.831
X68.107 Y22.837 Z-0.806
X68.131 Y22.853 Z-0.791
X68.158 Y22.87
X68.183 Y22.886 Z-0.806
X68.2 Y22.898 Z-0.831
X68.206 Y22.901 Z-0.863
X68.209 Z-0.874
X68.218 Z-0.881
X70.684
X70.706 Z-0.876
X70.728 Z-0.871
X70.831
X70.855 Y22.909
X70.869 Y22.929
Y22.954
X70.855 Y22.974
X70.831 Y22.981
X70.809 Z-0.876
X70.787 Z-0.881
X68.34
X68.331 Z-0.873
X68.328 Z-0.862
X68.334 Y22.985 Z-0.83
X68.351 Y22.997 Z-0.805
X68.375 Y23.013 Z-0.791
X68.402 Y23.03
X68.427 Y23.046 Z-0.805
X68.444 Y23.058 Z-0.83
X68.45 Y23.061 Z-0.862
Z-0.863
X68.453 Z-0.874
X68.462 Z-0.881
X70.887
X70.909 Z-0.876
X70.931 Z-0.871
X71.03
X71.053 Y23.069
X71.068 Y23.089
Y23.114
X71.053 Y23.134
X71.03 Y23.141
X71.008 Z-0.876
X70.986 Z-0.881
X68.577
X68.57 Z-0.875
X68.567 Z-0.866
X68.572 Y23.147 Z-0.838
X68.587 Y23.161 Z-0.818
X68.607 Y23.181 Z-0.81
X68.626 Y23.201 Z-0.818
X68.641 Y23.216 Z-0.838
X68.646 Y23.221 Z-0.866
Z-0.871
X68.653 Z-0.881
X71.085
X71.107 Z-0.876
X71.129 Z-0.871
X71.228
X71.252 Y23.229
X71.266 Y23.249
Y23.274
X71.252 Y23.294
X71.228 Y23.301
X71.206 Z-0.876
X71.184 Z-0.881
X68.702
X68.696 Z-0.872
X68.694 Z-0.861
X68.693 Y23.298 Z-0.843
X68.692 Y23.296 Z-0.816
X68.696 Y23.307 Z-0.791
X68.705 Y23.329 Z-0.777
X68.716 Y23.354
X68.725 Y23.376 Z-0.791
X68.729 Y23.387 Z-0.816
X68.728 Y23.385 Z-0.843
X68.727 Y23.381 Z-0.861
Z-0.862
X68.729 Z-0.872
X68.735 Z-0.881
X71.283
X71.305 Z-0.876
X71.327 Z-0.871
X71.423
X71.447 Y23.389
X71.461 Y23.409
Y23.434
X71.447 Y23.454
X71.423 Y23.461
X71.401 Z-0.876
X71.379 Z-0.881
X68.752
X68.745 Z-0.863
Z-0.862
Y23.457 Z-0.84
X68.744 Y23.452 Z-0.816
X68.745 Y23.459 Z-0.792
X68.746 Y23.477 Z-0.775
X68.747 Y23.501 Z-0.769
X68.749 Y23.526 Z-0.775
X68.75 Y23.544 Z-0.792
Y23.551 Z-0.816
Y23.546 Z-0.84
X68.749 Y23.541 Z-0.862
X68.752 Z-0.872
X68.757 Z-0.881
X71.475
X71.497 Z-0.876
X71.519 Z-0.871
X71.614
X71.638 Y23.549
X71.652 Y23.569
Y23.594
X71.638 Y23.614
X71.614 Y23.621
X71.592 Z-0.876
X71.57 Z-0.881
X68.749
X68.741 Z-0.863
Z-0.862
X68.742 Y23.617 Z-0.842
X68.743 Y23.613 Z-0.818
X68.741 Y23.621 Z-0.795
X68.737 Y23.638 Z-0.778
X68.73 Y23.661 Z-0.772
X68.724 Y23.684 Z-0.778
X68.719 Y23.702 Z-0.795
X68.717 Y23.71 Z-0.818
X68.718 Y23.706 Z-0.842
X68.719 Y23.701 Z-0.862
X68.721 Z-0.872
X68.727 Z-0.881
X71.666
X71.688 Z-0.876
X71.71 Z-0.871
X71.806
X71.829 Y23.709
X71.844 Y23.729
Y23.754
X71.829 Y23.774
X71.806 Y23.781
X71.784 Z-0.876
X71.762 Z-0.881
X68.691
X68.684 Z-0.871
X68.682 Z-0.859
X68.683 Y23.78 Z-0.847
Y23.781 Z-0.821
X68.676 Y23.792 Z-0.799
X68.664 Y23.811 Z-0.786
X68.65 Y23.832
X68.639 Y23.851 Z-0.799
X68.632 Y23.862 Z-0.821
Y23.863 Z-0.847
Y23.861 Z-0.859
Z-0.86
X68.635 Z-0.871
X68.641 Z-0.881
X71.854
X71.876 Z-0.876
X71.898 Z-0.871
X71.991
X72.014 Y23.869
X72.029 Y23.889
Y23.914
X72.014 Y23.934
X71.991 Y23.941
X71.969 Z-0.876
X71.947 Z-0.881
X69.596
X69.586 Z-0.873
X69.582 Z-0.861
G0 Z5.
X69.076
Z1.935
G1 Z-0.871 F200.
X69.073 Z-0.878
X69.066 Z-0.881
X68.583
X68.577 Z-0.876
X68.575 Z-0.869
Z-0.862
X68.571 Y23.945 Z-0.835
X68.557 Y23.957 Z-0.814
X68.538 Y23.973 Z-0.802
X68.517 Y23.99
X68.498 Y24.006 Z-0.814
X68.485 Y24.017 Z-0.835
X68.48 Y24.021 Z-0.862
X68.484 Z-0.874
X68.493 Z-0.881
X68.965
X68.972 Z-0.876
X68.974 Z-0.869
G0 Z5.
X69.692
Z1.935
G1 Z-0.867 F200.
X69.695 Z-0.875
X69.702 Z-0.881
X72.039
X72.061 Z-0.876
X72.083 Z-0.871
X72.175
X72.199 Y24.029
X72.213 Y24.049
Y24.074
X72.199 Y24.094
X72.175 Y24.101
X72.153 Z-0.876
X72.131 Z-0.881
X69.801
X69.793 Z-0.875
X69.79 Z-0.866
G0 Z5.
X67.908 Y24.021
Z1.935
G1 Z-0.867 F200.
X67.904 Z-0.877
X67.894 Z-0.881
X67.646
X67.633 Z-0.878
X67.623 Z-0.868
X67.62 Z-0.855
X67.613 Y24.024 Z-0.815
X67.594 Y24.031 Z-0.781
X67.566 Y24.041 Z-0.755
X67.53 Y24.055 Z-0.741
X67.493 Y24.068
X67.458 Y24.081 Z-0.755
X67.429 Y24.092 Z-0.781
X67.41 Y24.099 Z-0.815
X67.404 Y24.101 Z-0.855
Z-0.862
X67.409 Z-0.875
X67.423 Z-0.881
X68.097
X68.306
X68.898
X68.905 Z-0.87
Z-0.859
X68.906 Z-0.851
X68.904 Y24.103 Z-0.827
X68.897 Y24.114 Z-0.806
X68.884 Y24.131 Z-0.795
X68.87 Y24.151
X68.858 Y24.169 Z-0.806
X68.85 Y24.18 Z-0.827
X68.849 Y24.182 Z-0.851
Y24.181 Z-0.859
X68.847 Z-0.871
X68.84 Z-0.881
X67.217
X67.205 Z-0.876
X67.2 Z-0.864
Z-0.863
X67.194 Y24.184 Z-0.826
X67.176 Y24.191 Z-0.793
X67.149 Y24.201 Z-0.769
X67.116 Y24.215 Z-0.756
X67.081 Y24.228
X67.048 Y24.241 Z-0.769
X67.021 Y24.252 Z-0.793
X67.003 Y24.259 Z-0.826
X66.997 Y24.261 Z-0.863
X67.002 Z-0.876
X67.015 Z-0.881
X68.802
X68.808 Z-0.872
X68.81 Z-0.862
X68.811 Y24.257 Z-0.842
X68.812 Y24.254 Z-0.814
X68.809 Y24.265 Z-0.789
X68.802 Y24.288 Z-0.774
X68.794 Y24.315
X68.787 Y24.337 Z-0.789
X68.784 Y24.349 Z-0.814
X68.785 Y24.345 Z-0.842
X68.786 Y24.341 Z-0.862
X68.784 Z-0.872
X68.778 Z-0.881
X67.019
X67.013 Z-0.872
X67.011 Z-0.861
X67.01 Y24.337 Z-0.841
X67.009 Y24.333 Z-0.817
X67.011 Y24.341 Z-0.794
X67.016 Y24.358 Z-0.777
X67.022 Y24.381 Z-0.771
X67.028 Y24.405 Z-0.777
X67.032 Y24.422 Z-0.794
X67.034 Y24.43 Z-0.817
X67.033 Y24.426 Z-0.841
X67.032 Y24.421 Z-0.861
Z-0.863
X67.039 Z-0.881
X68.769
X68.776 Z-0.864
Z-0.863
Y24.416 Z-0.841
Y24.412 Z-0.816
Y24.419 Z-0.793
X68.777 Y24.437 Z-0.775
X68.778 Y24.461 Z-0.769
Y24.486 Z-0.775
X68.779 Y24.504 Z-0.793
Y24.511 Z-0.816
Y24.506 Z-0.841
Y24.501 Z-0.863
X68.771 Z-0.881
X67.055
X67.049 Z-0.872
X67.047 Z-0.862
X67.046 Y24.497 Z-0.841
X67.045 Y24.492 Z-0.816
X67.046 Y24.5 Z-0.793
X67.05 Y24.518 Z-0.776
X67.054 Y24.541 Z-0.77
X67.058 Y24.565 Z-0.776
X67.061 Y24.583 Z-0.793
X67.063 Y24.591 Z-0.816
X67.062 Y24.586 Z-0.841
X67.061 Y24.581 Z-0.862
X67.063 Z-0.873
X67.069 Z-0.881
X68.787
X68.793 Z-0.873
X68.795 Z-0.862
Z-0.859
X68.794 Y24.578 Z-0.841
X68.793 Y24.575 Z-0.814
X68.797 Y24.587 Z-0.789
X68.806 Y24.609 Z-0.774
X68.816 Y24.634
X68.824 Y24.656 Z-0.789
X68.828 Y24.667 Z-0.814
X68.827 Y24.665 Z-0.841
X68.826 Y24.661 Z-0.859
X68.824 Z-0.871
X68.817 Z-0.881
X67.074
X67.067 Z-0.865
Z-0.864
Y24.656 Z-0.842
Y24.652 Z-0.818
Y24.659 Z-0.794
Y24.677 Z-0.777
X67.066 Y24.701 Z-0.77
X67.065 Y24.726 Z-0.777
Y24.744 Z-0.794
Y24.751 Z-0.818
Y24.746 Z-0.842
Y24.741 Z-0.864
X67.072 Z-0.881
X68.865
X68.871 Z-0.872
G0 Z5.
X68.897 Y24.821
Z1.935
G1 Z-0.871 F200.
X68.89 Z-0.881
X67.071
X67.065 Z-0.873
X67.063 Z-0.862
Y24.817 Z-0.841
X67.064 Y24.812 Z-0.816
X67.063 Y24.819 Z-0.793
X67.061 Y24.837 Z-0.775
X67.059 Y24.861 Z-0.769
X67.056 Y24.885 Z-0.775
X67.054 Y24.903 Z-0.793
X67.053 Y24.911 Z-0.816
X67.054 Y24.906 Z-0.841
Y24.901 Z-0.862
Z-0.864
X67.061 Z-0.881
X68.826
X68.833 Z-0.871
X68.828 Y24.907 Z-0.845
X68.817 Y24.921 Z-0.826
X68.801 Y24.941 Z-0.819
X68.785 Y24.961 Z-0.826
X68.773 Y24.976 Z-0.845
X68.769 Y24.981 Z-0.871
X68.761 Z-0.881
X67.042
X67.035 Z-0.865
Z-0.862
X67.036 Y24.977 Z-0.842
X67.037 Y24.973 Z-0.818
X67.035 Y24.981 Z-0.794
X67.031 Y24.998 Z-0.778
X67.025 Y25.021 Z-0.772
X67.019 Y25.045 Z-0.778
X67.014 Y25.062 Z-0.794
X67.012 Y25.07 Z-0.818
X67.014 Y25.066 Z-0.842
X67.015 Y25.061 Z-0.862
X67.017 Z-0.873
X67.022 Z-0.881
X68.697
X68.704 Z-0.87
X68.7 Y25.067 Z-0.845
X68.688 Y25.081 Z-0.826
X68.672 Y25.101 Z-0.819
X68.656 Y25.121 Z-0.826
X68.645 Y25.136 Z-0.845
X68.64 Y25.141 Z-0.87
Z-0.871
X68.634 Z-0.881
X66.998
X66.992 Z-0.872
X66.99 Z-0.861
Z-0.86
X66.991 Y25.138 Z-0.843
X66.992 Y25.136 Z-0.816
X66.987 Y25.148 Z-0.791
X66.978 Y25.169 Z-0.777
X66.967 Y25.194
X66.958 Y25.215 Z-0.791
X66.953 Y25.226 Z-0.816
X66.954 Y25.224 Z-0.843
X66.955 Y25.221 Z-0.86
X66.957 Z-0.872
X66.964 Z-0.881
X68.569
X68.576 Z-0.871
Z-0.87
X68.572 Y25.227 Z-0.845
X68.56 Y25.241 Z-0.826
X68.544 Y25.261 Z-0.819
X68.528 Y25.281 Z-0.826
X68.517 Y25.296 Z-0.845
X68.512 Y25.301 Z-0.87
X68.505 Z-0.881
X66.923
X66.916 Z-0.872
X66.914 Z-0.86
X66.915 Y25.299 Z-0.846
Z-0.819
X66.909 Y25.31 Z-0.796
X66.898 Y25.33 Z-0.783
X66.886 Y25.353
X66.875 Y25.373 Z-0.796
X66.869 Y25.384 Z-0.819
Y25.383 Z-0.846
X66.87 Y25.381 Z-0.86
Z-0.872
X66.876 Z-0.881
X67.118
X67.128 Z-0.877
X67.131 Z-0.868
G0 Z5.
X67.564
Z1.935
G1 Z-0.868 F200.
X67.568 Z-0.877
X67.577 Z-0.881
X68.441
X68.448 Z-0.87
X68.444 Y25.387 Z-0.845
X68.432 Y25.401 Z-0.826
X68.416 Y25.421 Z-0.819
X68.4 Y25.441 Z-0.826
X68.389 Y25.456 Z-0.845
X68.384 Y25.461 Z-0.87
Z-0.871
X68.377 Z-0.881
X67.695
X67.688 Z-0.875
X67.685 Z-0.866
G0 Z5.
X67.011
Z1.935
G1 Z-0.867 F200.
X67.009 Z-0.876
X67.002 Z-0.881
X66.818
X66.811 Z-0.871
Z-0.869
X66.807 Y25.467 Z-0.844
X66.795 Y25.481 Z-0.825
X66.779 Y25.501 Z-0.818
X66.763 Y25.521 Z-0.825
X66.751 Y25.536 Z-0.844
X66.747 Y25.541 Z-0.869
X66.749 Z-0.876
X66.755 Z-0.881
X66.932
X66.938 Z-0.872
G0 Z5.
X67.779
Z1.935
G1 Z-0.87 F200.
X67.782 Z-0.877
X67.787 Z-0.881
X68.313
X68.32 Z-0.871
X68.316 Y25.547 Z-0.845
X68.304 Y25.561 Z-0.826
X68.288 Y25.581 Z-0.82
X68.272 Y25.601 Z-0.826
X68.26 Y25.616 Z-0.845
X68.256 Y25.621 Z-0.871
X68.249 Z-0.881
X67.848
X67.842 Z-0.871
X67.839 Z-0.859
G0 Z5.
X66.88
Z1.935
G1 Z-0.871 F200.
X66.873 Z-0.881
X66.671
X66.665 Z-0.876
X66.662 Z-0.868
Z-0.863
X66.658 Y25.625 Z-0.835
X66.644 Y25.636 Z-0.813
X66.624 Y25.653 Z-0.801
X66.602 Y25.67
X66.582 Y25.686 Z-0.813
X66.569 Y25.697 Z-0.835
X66.564 Y25.701 Z-0.863
X66.567 Z-0.874
X66.576 Z-0.881
X66.815
X66.822 Z-0.871
Z-0.866
X66.819 Y25.705 Z-0.839
X66.808 Y25.72 Z-0.818
X66.793 Y25.741 Z-0.811
X66.777 Y25.763 Z-0.818
X66.766 Y25.778 Z-0.839
X66.764 Y25.782 Z-0.866
Y25.781 Z-0.871
X66.757 Z-0.881
X66.457
X66.449 Z-0.878
X66.446 Z-0.871
Z-0.865
X66.44 Y25.784 Z-0.829
X66.421 Y25.793 Z-0.798
X66.394 Y25.806 Z-0.778
X66.361 Y25.821 Z-0.771
X66.329 Y25.837 Z-0.778
X66.301 Y25.85 Z-0.798
X66.282 Y25.858 Z-0.829
X66.276 Y25.861 Z-0.865
X66.281 Z-0.876
X66.292 Z-0.881
X66.699
X66.706 Z-0.871
G0 Z5.
X67.88 Y25.701
Z1.935
G1 Z-0.861 F200.
X67.883 Z-0.872
X67.889 Z-0.881
X68.185
X68.192 Z-0.871
X68.188 Y25.707 Z-0.845
X68.176 Y25.721 Z-0.826
X68.16 Y25.741 Z-0.82
X68.144 Y25.761 Z-0.826
X68.132 Y25.776 Z-0.845
X68.128 Y25.781 Z-0.871
X68.121 Z-0.881
X67.913
X67.905 Z-0.863
Z-0.862
Y25.777 Z-0.841
X67.904 Y25.772 Z-0.817
X67.905 Y25.78 Z-0.793
X67.908 Y25.798 Z-0.776
X67.911 Y25.821 Z-0.77
X67.914 Y25.845 Z-0.776
X67.917 Y25.863 Z-0.793
X67.918 Y25.871 Z-0.817
X67.917 Y25.866 Z-0.841
X67.916 Y25.861 Z-0.862
X67.918 Z-0.873
X67.924 Z-0.881
X68.057
X68.062 Z-0.877
X68.064 Z-0.87
X68.06 Y25.867 Z-0.844
X68.048 Y25.881 Z-0.826
X68.032 Y25.901 Z-0.819
X68.016 Y25.921 Z-0.826
X68.004 Y25.936 Z-0.844
X68. Y25.941 Z-0.87
X67.998 Z-0.877
X67.993 Z-0.881
X67.922
X67.914 Z-0.863
G0 Z5.
X69.889 Y24.181
Z1.935
G1 Z-0.866 F200.
X69.892 Z-0.875
X69.899 Z-0.881
X72.223
X72.245 Z-0.876
X72.267 Z-0.871
X72.357
X72.381 Y24.189
X72.395 Y24.209
Y24.234
X72.381 Y24.254
X72.357 Y24.261
X72.335 Z-0.876
X72.313 Z-0.881
X69.997
X69.99 Z-0.875
X69.987 Z-0.866
X69.992 Y24.265 Z-0.838
X70.006 Y24.277 Z-0.816
X70.025 Y24.293 Z-0.804
X70.047 Y24.31
X70.067 Y24.326 Z-0.816
X70.081 Y24.337 Z-0.838
X70.086 Y24.341 Z-0.866
X70.088 Z-0.875
X70.096 Z-0.881
X72.402
X72.424 Z-0.876
X72.446 Z-0.871
X72.535
X72.559 Y24.349
X72.573 Y24.369
Y24.394
X72.559 Y24.414
X72.535 Y24.421
X72.513 Z-0.876
X72.491 Z-0.881
X70.194
X70.187 Z-0.875
X70.184 Z-0.866
X70.189 Y24.425 Z-0.838
X70.203 Y24.437 Z-0.816
X70.222 Y24.453 Z-0.804
X70.244 Y24.47
X70.264 Y24.486 Z-0.816
X70.278 Y24.497 Z-0.838
X70.282 Y24.501 Z-0.866
X70.285 Z-0.875
X70.293 Z-0.881
X72.58
X72.602 Z-0.876
X72.624 Z-0.871
X72.714
X72.737 Y24.509
X72.752 Y24.529
Y24.554
X72.737 Y24.574
X72.714 Y24.581
X72.692 Z-0.876
X72.67 Z-0.881
X70.391
X70.383 Z-0.875
X70.381 Z-0.867
Z-0.866
X70.386 Y24.585 Z-0.839
X70.399 Y24.596 Z-0.817
X70.419 Y24.613 Z-0.804
X70.441 Y24.63
X70.461 Y24.646 Z-0.817
X70.474 Y24.657 Z-0.839
X70.479 Y24.661 Z-0.866
X70.482 Z-0.875
X70.489 Z-0.881
X72.756
X72.778 Z-0.876
X72.8 Z-0.871
X72.886
X72.91 Y24.669
X72.924 Y24.689
Y24.714
X72.91 Y24.734
X72.886 Y24.741
X72.864 Z-0.876
X72.842 Z-0.881
X70.588
X70.581 Z-0.875
X70.578 Z-0.865
X70.583 Y24.745 Z-0.838
X70.596 Y24.756 Z-0.816
X70.616 Y24.773 Z-0.804
X70.638 Y24.79
X70.658 Y24.806 Z-0.816
X70.671 Y24.817 Z-0.838
X70.676 Y24.821 Z-0.865
Z-0.866
X70.679 Z-0.875
X70.686 Z-0.881
X72.929
X72.951 Z-0.876
X72.973 Z-0.871
X73.059
X73.082 Y24.829
X73.097 Y24.849
Y24.874
X73.082 Y24.894
X73.059 Y24.901
X73.037 Z-0.876
X73.015 Z-0.881
X70.763
X70.756 Z-0.871
Z-0.861
X70.755 Y24.9 Z-0.849
Z-0.823
X70.762 Y24.911 Z-0.801
X70.774 Y24.93 Z-0.788
X70.787 Y24.952
X70.799 Y24.971 Z-0.801
X70.806 Y24.983 Z-0.823
Z-0.849
X70.805 Y24.981 Z-0.861
X70.807 Z-0.872
X70.813 Z-0.881
X73.101
X73.123 Z-0.876
X73.145 Z-0.871
X73.229
X73.252 Y24.989
X73.267 Y25.009
Y25.034
X73.252 Y25.054
X73.229 Y25.061
X73.207 Z-0.876
X73.185 Z-0.881
X70.846
X70.84 Z-0.872
X70.838 Z-0.862
X70.837 Y25.057 Z-0.842
X70.836 Y25.053 Z-0.817
X70.838 Y25.06 Z-0.794
X70.842 Y25.078 Z-0.777
X70.847 Y25.101 Z-0.771
X70.853 Y25.125 Z-0.777
X70.857 Y25.142 Z-0.794
X70.859 Y25.15 Z-0.817
X70.858 Y25.146 Z-0.842
X70.857 Y25.141 Z-0.862
X70.859 Z-0.873
X70.864 Z-0.881
X73.268
X73.29 Z-0.876
X73.312 Z-0.871
X73.395
X73.419 Y25.149
X73.433 Y25.169
Y25.194
X73.419 Y25.214
X73.395 Y25.221
X73.373 Z-0.876
X73.351 Z-0.881
X70.869
X70.862 Z-0.863
Z-0.862
Y25.217 Z-0.841
X70.863 Y25.212 Z-0.816
X70.862 Y25.219 Z-0.792
X70.86 Y25.237 Z-0.775
X70.858 Y25.261 Z-0.769
X70.855 Y25.285 Z-0.775
X70.854 Y25.304 Z-0.792
X70.853 Y25.311 Z-0.816
Y25.306 Z-0.841
X70.854 Y25.301 Z-0.862
X70.856 Z-0.872
X70.862 Z-0.881
X73.435
X73.457 Z-0.876
X73.479 Z-0.871
X73.562
X73.585 Y25.309
X73.6 Y25.329
Y25.354
X73.585 Y25.374
X73.562 Y25.381
X73.54 Z-0.876
X73.518 Z-0.881
X70.841
X70.835 Z-0.872
X70.832 Z-0.861
Z-0.86
X70.834 Y25.379 Z-0.843
Y25.377 Z-0.816
X70.829 Y25.388 Z-0.792
X70.82 Y25.409 Z-0.778
X70.808 Y25.434
X70.799 Y25.455 Z-0.792
X70.793 Y25.466 Z-0.816
X70.794 Y25.464 Z-0.843
X70.796 Y25.461 Z-0.86
X70.798 Z-0.872
X70.804 Z-0.881
X73.599
X73.621 Z-0.876
X73.643 Z-0.871
X73.724
X73.747 Y25.469
X73.762 Y25.489
Y25.514
X73.747 Y25.534
X73.724 Y25.541
X73.702 Z-0.876
X73.68 Z-0.881
X70.75
X70.744 Z-0.877
X70.742 Z-0.87
X70.738 Y25.547 Z-0.844
X70.725 Y25.561 Z-0.825
X70.708 Y25.581 Z-0.818
X70.692 Y25.601 Z-0.825
X70.679 Y25.616 Z-0.844
X70.675 Y25.621 Z-0.87
X70.677 Z-0.877
X70.682 Z-0.881
X73.76
X73.782 Z-0.876
X73.804 Z-0.871
X73.885
X73.908 Y25.629
X73.923 Y25.649
Y25.674
X73.908 Y25.694
X73.885 Y25.701
X73.862 Z-0.876
X73.84 Z-0.881
X70.591
X70.582 Z-0.874
X70.578 Z-0.862
G0 Z5.
X70.295 Y25.781
Z1.935
G1 Z-0.781 F200.
X70.303 Z-0.819
X70.324 Z-0.852
X70.357 Z-0.874
X70.395 Z-0.881
X73.921
X73.959 Z-0.874
X73.992 Z-0.852
X74.013 Z-0.819
X74.021 Z-0.781
G0 Z5.
X72.387 Y28.021
Z1.935
G1 Z-0.866 F200.
X72.384 Z-0.875
X72.376 Z-0.881
X72.091
X72.083 Z-0.875
X72.08 Z-0.865
X72.075 Y28.025 Z-0.836
X72.061 Y28.036 Z-0.813
X72.039 Y28.052 Z-0.801
X72.016 Y28.07
X71.995 Y28.086 Z-0.813
X71.981 Y28.097 Z-0.836
X71.975 Y28.101 Z-0.865
Z-0.866
X71.978 Z-0.875
X71.986 Z-0.881
X72.455
X72.46 Z-0.877
X72.462 Z-0.87
Z-0.86
Z-0.855
X72.465 Y28.105 Z-0.827
X72.476 Y28.12 Z-0.807
X72.491 Y28.141 Z-0.799
X72.507 Y28.163 Z-0.807
X72.518 Y28.178 Z-0.827
X72.52 Y28.182 Z-0.855
Y28.181 Z-0.86
X72.518 Z-0.871
X72.512 Z-0.881
X71.889
X71.882 Z-0.875
X71.88 Z-0.867
X71.875 Y28.185 Z-0.841
X71.863 Y28.196 Z-0.82
X71.845 Y28.212 Z-0.808
X71.825 Y28.23
X71.807 Y28.246 Z-0.82
X71.795 Y28.257 Z-0.841
X71.791 Y28.261 Z-0.867
Z-0.868
X71.793 Z-0.876
X71.799 Z-0.881
X72.552
X72.558 Z-0.872
X72.56 Z-0.862
X72.559 Y28.258 Z-0.842
X72.558 Y28.254 Z-0.815
X72.562 Y28.266 Z-0.79
X72.569 Y28.288 Z-0.775
X72.577 Y28.315
X72.585 Y28.337 Z-0.79
X72.589 Y28.348 Z-0.815
X72.587 Y28.345 Z-0.842
X72.586 Y28.341 Z-0.862
X72.584 Z-0.872
X72.578 Z-0.881
X71.714
X71.708 Z-0.876
X71.706 Z-0.868
X71.7 Y28.347 Z-0.839
X71.685 Y28.361 Z-0.817
X71.664 Y28.381 Z-0.81
X71.643 Y28.401 Z-0.817
X71.627 Y28.416 Z-0.839
X71.622 Y28.421 Z-0.868
X71.624 Z-0.876
X71.631 Z-0.881
X72.587
X72.594 Z-0.864
Z-0.861
X72.595 Y28.417 Z-0.84
X72.596 Y28.413 Z-0.816
X72.595 Y28.42 Z-0.792
X72.591 Y28.438 Z-0.776
X72.585 Y28.461 Z-0.769
X72.58 Y28.485 Z-0.776
X72.576 Y28.502 Z-0.792
X72.574 Y28.51 Z-0.816
X72.575 Y28.506 Z-0.84
X72.576 Y28.501 Z-0.861
X72.574 Z-0.872
X72.568 Z-0.881
X71.547
X71.54 Z-0.876
X71.538 Z-0.868
X71.532 Y28.507 Z-0.839
X71.517 Y28.521 Z-0.818
X71.496 Y28.541 Z-0.81
X71.475 Y28.561 Z-0.818
X71.46 Y28.576 Z-0.839
X71.454 Y28.581 Z-0.868
X71.456 Z-0.876
X71.463 Z-0.881
X72.514
X72.521 Z-0.871
Z-0.87
Z-0.867
Z-0.864
X72.516 Y28.587 Z-0.838
X72.505 Y28.602 Z-0.82
X72.49 Y28.622 Z-0.814
X72.475 Y28.643 Z-0.821
X72.464 Y28.657 Z-0.841
X72.461 Y28.661 Z-0.867
Z-0.87
X72.459 Z-0.877
X72.453 Z-0.881
X71.378
X71.372 Z-0.876
X71.37 Z-0.868
X71.364 Y28.667 Z-0.839
X71.349 Y28.681 Z-0.818
X71.328 Y28.701 Z-0.81
X71.307 Y28.721 Z-0.818
X71.292 Y28.736 Z-0.839
X71.286 Y28.741 Z-0.868
X71.288 Z-0.876
X71.295 Z-0.881
X72.381
X72.386 Z-0.877
X72.388 Z-0.87
Z-0.869
X72.383 Y28.747 Z-0.841
X72.369 Y28.761 Z-0.82
X72.349 Y28.781 Z-0.813
X72.33 Y28.801 Z-0.82
X72.316 Y28.816 Z-0.841
X72.31 Y28.821 Z-0.869
X72.308 Z-0.876
X72.302 Z-0.881
X71.211
X71.204 Z-0.876
X71.202 Z-0.868
X71.197 Y28.827 Z-0.839
X71.181 Y28.841 Z-0.818
X71.16 Y28.861 Z-0.81
X71.139 Y28.881 Z-0.818
X71.124 Y28.896 Z-0.839
X71.118 Y28.901 Z-0.868
X71.121 Z-0.876
X71.127 Z-0.881
X72.219
X72.225 Z-0.876
X72.228 Z-0.868
X72.222 Y28.907 Z-0.839
X72.207 Y28.921 Z-0.818
X72.186 Y28.941 Z-0.81
X72.165 Y28.961 Z-0.818
X72.15 Y28.976 Z-0.839
X72.144 Y28.981 Z-0.868
X72.142 Z-0.876
X72.136 Z-0.881
X71.043
X71.037 Z-0.876
X71.034 Z-0.868
X71.029 Y28.987 Z-0.839
X71.013 Y29.001 Z-0.818
X70.992 Y29.021 Z-0.81
X70.971 Y29.041 Z-0.818
X70.956 Y29.056 Z-0.839
X70.95 Y29.061 Z-0.868
X70.953 Z-0.876
X70.959 Z-0.881
X72.052
X72.058 Z-0.876
X72.061 Z-0.868
Z-0.867
X72.055 Y29.067 Z-0.838
X72.04 Y29.081 Z-0.817
X72.019 Y29.101 Z-0.81
X71.998 Y29.121 Z-0.817
X71.983 Y29.136 Z-0.838
X71.977 Y29.141 Z-0.867
X71.974 Z-0.876
X71.968 Z-0.881
X70.875
X70.869 Z-0.876
X70.866 Z-0.869
Z-0.861
X70.865 Y29.139 Z-0.844
X70.864 Y29.137 Z-0.817
X70.87 Y29.148 Z-0.793
X70.88 Y29.169 Z-0.779
X70.892 Y29.193
X70.902 Y29.214 Z-0.793
X70.907 Y29.225 Z-0.817
X70.906 Y29.224 Z-0.844
X70.905 Y29.221 Z-0.861
X70.907 Z-0.872
X70.913 Z-0.881
X71.884
X71.891 Z-0.876
X71.893 Z-0.868
X71.888 Y29.227 Z-0.839
X71.872 Y29.241 Z-0.818
X71.851 Y29.261 Z-0.81
X71.83 Y29.281 Z-0.818
X71.815 Y29.296 Z-0.839
X71.809 Y29.301 Z-0.868
X71.807 Z-0.876
X71.8 Z-0.881
X70.945
X70.939 Z-0.872
X70.937 Z-0.862
X70.936 Y29.297 Z-0.841
X70.935 Y29.293 Z-0.817
X70.937 Y29.3 Z-0.793
X70.941 Y29.318 Z-0.776
X70.946 Y29.341 Z-0.77
X70.951 Y29.365 Z-0.776
X70.955 Y29.382 Z-0.793
X70.956 Y29.39 Z-0.817
X70.955 Y29.386 Z-0.841
X70.954 Y29.381 Z-0.862
Z-0.863
X70.962 Z-0.881
X71.717
X71.723 Z-0.876
X71.726 Z-0.869
Z-0.867
X71.72 Y29.387 Z-0.838
X71.705 Y29.401 Z-0.817
X71.684 Y29.421 Z-0.81
X71.663 Y29.441 Z-0.817
X71.648 Y29.456 Z-0.838
X71.642 Y29.461 Z-0.867
X71.639 Z-0.876
X71.633 Z-0.881
X70.966
X70.96 Z-0.872
X70.958 Z-0.862
X70.959 Y29.456 Z-0.84
Y29.452 Z-0.816
Y29.459 Z-0.792
X70.957 Y29.477 Z-0.775
X70.954 Y29.501 Z-0.769
X70.951 Y29.525 Z-0.775
X70.949 Y29.543 Z-0.792
X70.948 Y29.551 Z-0.816
X70.949 Y29.546 Z-0.84
X70.95 Y29.541 Z-0.862
Z-0.863
X70.957 Z-0.881
X71.55
X71.556 Z-0.876
X71.558 Z-0.869
Z-0.868
X71.553 Y29.547 Z-0.839
X71.537 Y29.561 Z-0.818
X71.516 Y29.581 Z-0.81
X71.495 Y29.601 Z-0.818
X71.48 Y29.616 Z-0.839
X71.475 Y29.621 Z-0.868
X71.472 Z-0.876
X71.466 Z-0.881
X71.246
X71.232 Z-0.875
X71.225 Z-0.86
G0 Z5.
X70.312 Y25.781
Z1.935
G1 Z-0.781 F200.
X70.305 Z-0.819
X70.283 Z-0.852
X70.25 Z-0.874
X70.212 Z-0.881
X69.991
X69.984 Z-0.87
X69.979 Y25.787 Z-0.845
X69.968 Y25.801 Z-0.826
X69.952 Y25.821 Z-0.819
X69.936 Y25.841 Z-0.826
X69.924 Y25.856 Z-0.845
X69.92 Y25.861 Z-0.87
Z-0.871
X69.927 Z-0.881
X74.
X74.022 Z-0.876
X74.044 Z-0.871
X74.122
X74.145 Y25.869
X74.16 Y25.889
Y25.914
X74.145 Y25.934
X74.122 Y25.941
X74.1 Z-0.876
X74.078 Z-0.881
X69.863
X69.858 Z-0.877
X69.856 Z-0.87
X69.851 Y25.947 Z-0.844
X69.84 Y25.961 Z-0.826
X69.824 Y25.981 Z-0.819
X69.808 Y26.001 Z-0.826
X69.796 Y26.016 Z-0.844
X69.792 Y26.021 Z-0.87
X69.799 Z-0.881
X74.155
X74.177 Z-0.876
X74.199 Z-0.871
X74.277
X74.301 Y26.029
X74.315 Y26.049
Y26.074
X74.301 Y26.094
X74.277 Y26.101
X74.255 Z-0.876
X74.233 Z-0.881
X69.735
X69.728 Z-0.871
X69.724 Y26.107 Z-0.845
X69.712 Y26.121 Z-0.826
X69.696 Y26.141 Z-0.819
X69.68 Y26.161 Z-0.826
X69.668 Y26.176 Z-0.845
X69.664 Y26.181 Z-0.871
X69.671 Z-0.881
X74.311
X74.333 Z-0.876
X74.355 Z-0.871
X74.431
X74.455 Y26.189
X74.469 Y26.209
Y26.234
X74.455 Y26.254
X74.431 Y26.261
X74.409 Z-0.876
X74.387 Z-0.881
X69.607
X69.6 Z-0.87
X69.596 Y26.267 Z-0.845
X69.584 Y26.281 Z-0.826
X69.568 Y26.301 Z-0.819
X69.552 Y26.321 Z-0.826
X69.54 Y26.336 Z-0.845
X69.536 Y26.341 Z-0.87
X69.543 Z-0.881
X74.461
X74.483 Z-0.876
X74.505 Z-0.871
X74.579
X74.602 Y26.349
X74.617 Y26.369
Y26.394
X74.602 Y26.414
X74.579 Y26.421
X74.557 Z-0.876
X74.535 Z-0.881
X69.479
X69.472 Z-0.87
X69.468 Y26.427 Z-0.845
X69.456 Y26.441 Z-0.826
X69.44 Y26.461 Z-0.819
X69.424 Y26.481 Z-0.826
X69.413 Y26.496 Z-0.845
X69.408 Y26.501 Z-0.87
X69.41 Z-0.877
X69.416 Z-0.881
X74.609
X74.631 Z-0.876
X74.653 Z-0.871
X74.726
X74.75 Y26.509
X74.764 Y26.529
Y26.554
X74.75 Y26.574
X74.726 Y26.581
X74.704 Z-0.876
X74.682 Z-0.881
X72.145
X71.947
X69.352
X69.346 Z-0.877
X69.344 Z-0.87
X69.34 Y26.587 Z-0.844
X69.328 Y26.601 Z-0.826
X69.312 Y26.621 Z-0.819
X69.296 Y26.641 Z-0.826
X69.285 Y26.656 Z-0.844
X69.28 Y26.661 Z-0.87
Z-0.871
X69.287 Z-0.881
X71.581
X71.593 Z-0.876
X71.599 Z-0.863
X71.593 Y26.664 Z-0.827
X71.576 Y26.671 Z-0.796
X71.551 Y26.681 Z-0.773
X71.519 Y26.694 Z-0.76
X71.486 Y26.708
X71.455 Y26.721 Z-0.773
X71.429 Y26.732 Z-0.796
X71.412 Y26.739 Z-0.827
X71.406 Y26.741 Z-0.863
Z-0.87
X71.403 Z-0.878
X71.395 Z-0.881
X69.223
X69.216 Z-0.871
Z-0.87
X69.212 Y26.747 Z-0.845
X69.2 Y26.761 Z-0.826
X69.185 Y26.781 Z-0.819
X69.169 Y26.801 Z-0.826
X69.157 Y26.816 Z-0.845
X69.153 Y26.821 Z-0.87
X69.16 Z-0.881
X71.259
X71.265 Z-0.877
X71.267 Z-0.87
Z-0.866
X71.261 Y26.825 Z-0.835
X71.244 Y26.836 Z-0.81
X71.22 Y26.852 Z-0.796
X71.194 Y26.87
X71.17 Y26.886 Z-0.81
X71.154 Y26.897 Z-0.835
X71.148 Y26.901 Z-0.866
X71.145 Z-0.875
X71.138 Z-0.881
X69.096
X69.089 Z-0.871
G0 Z5.
X69.541 Y26.981
Z1.935
G1 Z-0.87 F200.
X69.544 Z-0.878
X69.552 Z-0.881
X71.036
X71.043 Z-0.876
X71.046 Z-0.867
X71.041 Y26.985 Z-0.841
X71.028 Y26.996 Z-0.819
X71.009 Y27.012 Z-0.807
X70.989 Y27.03
X70.97 Y27.046 Z-0.819
X70.957 Y27.057 Z-0.841
X70.953 Y27.061 Z-0.867
X70.95 Z-0.876
X70.943 Z-0.881
X69.661
X69.654 Z-0.875
X69.651 Z-0.867
X69.655 Y27.065 Z-0.841
X69.668 Y27.076 Z-0.82
X69.686 Y27.092 Z-0.808
X69.705 Y27.11
X69.723 Y27.126 Z-0.82
X69.736 Y27.137 Z-0.841
X69.74 Y27.141 Z-0.867
Z-0.87
X69.747 Z-0.881
X70.854
X70.86 Z-0.876
X70.863 Z-0.868
X70.857 Y27.147 Z-0.839
X70.842 Y27.161 Z-0.817
X70.821 Y27.181 Z-0.81
X70.8 Y27.201 Z-0.817
X70.785 Y27.216 Z-0.839
X70.779 Y27.221 Z-0.868
X70.777 Z-0.876
X70.77 Z-0.881
X69.805
X69.798 Z-0.871
X69.796 Z-0.859
X69.795 Y27.219 Z-0.843
X69.794 Y27.217 Z-0.816
X69.799 Y27.228 Z-0.792
X69.809 Y27.249 Z-0.778
X69.821 Y27.273
X69.831 Y27.294 Z-0.792
X69.836 Y27.305 Z-0.816
X69.835 Y27.304 Z-0.843
X69.834 Y27.301 Z-0.859
Z-0.861
X69.836 Z-0.872
X69.842 Z-0.881
X70.687
X70.693 Z-0.876
X70.695 Z-0.868
X70.69 Y27.307 Z-0.839
X70.674 Y27.321 Z-0.818
X70.653 Y27.341 Z-0.81
X70.632 Y27.361 Z-0.818
X70.617 Y27.376 Z-0.839
X70.611 Y27.381 Z-0.868
X70.609 Z-0.876
X70.603 Z-0.881
X69.865
X69.859 Z-0.873
X69.857 Z-0.862
X69.856 Y27.376 Z-0.841
Y27.372 Z-0.816
X69.857 Y27.379 Z-0.793
X69.859 Y27.397 Z-0.776
X69.861 Y27.421 Z-0.769
X69.864 Y27.445 Z-0.776
X69.866 Y27.463 Z-0.793
X69.867 Y27.471 Z-0.816
X69.866 Y27.466 Z-0.841
Y27.461 Z-0.862
Z-0.863
X69.874 Z-0.881
X70.519
X70.525 Z-0.876
X70.528 Z-0.868
X70.522 Y27.467 Z-0.839
X70.507 Y27.481 Z-0.817
X70.486 Y27.501 Z-0.81
X70.465 Y27.521 Z-0.817
X70.449 Y27.536 Z-0.839
X70.444 Y27.541 Z-0.868
X70.441 Z-0.876
X70.435 Z-0.881
X69.869
X69.862 Z-0.863
Z-0.862
X69.863 Y27.537 Z-0.841
X69.864 Y27.533 Z-0.817
X69.862 Y27.54 Z-0.794
X69.858 Y27.558 Z-0.777
X69.853 Y27.581 Z-0.771
X69.848 Y27.605 Z-0.777
X69.845 Y27.622 Z-0.794
X69.843 Y27.63 Z-0.817
X69.844 Y27.626 Z-0.841
X69.845 Y27.621 Z-0.862
X69.847 Z-0.872
X69.853 Z-0.881
X70.352
X70.358 Z-0.876
X70.36 Z-0.869
Z-0.868
X70.354 Y27.627 Z-0.839
X70.339 Y27.641 Z-0.818
X70.318 Y27.661 Z-0.81
X70.297 Y27.681 Z-0.818
X70.282 Y27.696 Z-0.839
X70.276 Y27.701 Z-0.868
X70.274 Z-0.876
X70.267 Z-0.881
X69.821
X69.815 Z-0.872
X69.813 Z-0.861
X69.814 Y27.7 Z-0.848
Z-0.822
X69.807 Y27.711 Z-0.799
X69.796 Y27.73 Z-0.786
X69.783 Y27.753
X69.772 Y27.772 Z-0.799
X69.765 Y27.783 Z-0.822
Z-0.848
X69.766 Y27.781 Z-0.861
Z-0.871
X69.773 Z-0.881
X70.184
X70.19 Z-0.876
X70.192 Z-0.868
X70.187 Y27.787 Z-0.839
X70.171 Y27.801 Z-0.817
X70.15 Y27.821 Z-0.81
X70.13 Y27.841 Z-0.817
X70.114 Y27.856 Z-0.839
X70.109 Y27.861 Z-0.868
X70.106 Z-0.876
X70.1 Z-0.881
X69.705
X69.698 Z-0.871
Z-0.869
X69.693 Y27.867 Z-0.843
X69.68 Y27.881 Z-0.823
X69.663 Y27.901 Z-0.816
X69.645 Y27.921 Z-0.823
X69.632 Y27.936 Z-0.843
X69.628 Y27.941 Z-0.869
X69.63 Z-0.876
X69.636 Z-0.881
X70.016
X70.022 Z-0.876
X70.025 Z-0.868
X70.019 Y27.947 Z-0.839
X70.004 Y27.961 Z-0.818
X69.983 Y27.981 Z-0.81
X69.962 Y28.001 Z-0.818
X69.947 Y28.016 Z-0.839
X69.941 Y28.021 Z-0.868
Z-0.869
X69.939 Z-0.876
X69.933 Z-0.881
X69.774
X69.765 Z-0.877
X69.76 Z-0.867
G0 Z5.
X72.495 Y26.661
Z1.935
G1 Z-0.863 F200.
X72.501 Z-0.876
X72.514 Z-0.881
X74.756
X74.778 Z-0.876
X74.8 Z-0.871
X74.874
X74.897 Y26.669
X74.912 Y26.689
Y26.714
X74.897 Y26.734
X74.874 Y26.741
X74.852 Z-0.876
X74.83 Z-0.881
X72.697
X72.689 Z-0.878
X72.686 Z-0.87
Z-0.863
X72.691 Y26.744 Z-0.832
X72.706 Y26.753 Z-0.806
X72.729 Y26.766 Z-0.788
X72.756 Y26.781 Z-0.782
X72.783 Y26.797 Z-0.788
X72.805 Y26.81 Z-0.806
X72.82 Y26.818 Z-0.832
X72.826 Y26.821 Z-0.863
X72.829 Z-0.874
X72.838 Z-0.881
X74.903
X74.925 Z-0.876
X74.947 Z-0.871
X75.021
X75.045 Y26.829
X75.059 Y26.849
Y26.874
X75.045 Y26.894
X75.021 Y26.901
X74.999 Z-0.876
X74.977 Z-0.881
X72.954
X72.945 Z-0.874
X72.942 Z-0.864
X72.947 Y26.905 Z-0.835
X72.962 Y26.916 Z-0.812
X72.983 Y26.932 Z-0.8
X73.006 Y26.95
X73.027 Y26.966 Z-0.812
X73.041 Y26.977 Z-0.835
X73.047 Y26.981 Z-0.864
Z-0.869
X73.049 Z-0.876
X73.055 Z-0.881
X75.051
X75.073 Z-0.876
X75.095 Z-0.871
X75.169
X75.192 Y26.989
X75.207 Y27.009
Y27.034
X75.192 Y27.054
X75.169 Y27.061
X75.147 Z-0.876
X75.125 Z-0.881
X73.149
X73.142 Z-0.876
X73.14 Z-0.867
X73.145 Y27.067 Z-0.839
X73.16 Y27.081 Z-0.818
X73.18 Y27.101 Z-0.81
X73.201 Y27.121 Z-0.818
X73.216 Y27.136 Z-0.839
X73.221 Y27.141 Z-0.867
Z-0.868
X73.224 Z-0.876
X73.23 Z-0.881
X75.194
X75.216 Z-0.876
X75.238 Z-0.871
X75.306
X75.33 Y27.149
X75.344 Y27.169
Y27.194
X75.33 Y27.214
X75.306 Y27.221
X75.284 Z-0.876
X75.262 Z-0.881
X73.309
X73.303 Z-0.876
X73.301 Z-0.869
X73.306 Y27.227 Z-0.843
X73.318 Y27.241 Z-0.824
X73.336 Y27.261 Z-0.816
X73.353 Y27.281 Z-0.824
X73.366 Y27.296 Z-0.843
X73.37 Y27.301 Z-0.869
Z-0.87
X73.377 Z-0.881
X75.331
X75.353 Z-0.876
X75.375 Z-0.871
X75.444
X75.467 Y27.309
X75.482 Y27.329
Y27.354
X75.467 Y27.374
X75.444 Y27.381
X75.422 Z-0.876
X75.4 Z-0.881
X73.445
X73.438 Z-0.871
Z-0.863
Z-0.856
X73.44 Y27.383 Z-0.832
X73.448 Y27.394 Z-0.812
X73.46 Y27.411 Z-0.801
X73.474 Y27.431
X73.486 Y27.449 Z-0.812
X73.494 Y27.46 Z-0.832
X73.496 Y27.462 Z-0.856
X73.495 Y27.461 Z-0.863
X73.503 Z-0.881
X75.468
X75.49 Z-0.876
X75.512 Z-0.871
X75.581
X75.604 Y27.469
X75.619 Y27.489
Y27.514
X75.604 Y27.534
X75.581 Y27.541
X75.559 Z-0.876
X75.537 Z-0.881
X73.559
X73.553 Z-0.872
Z-0.863
X73.552 Y27.54 Z-0.849
Y27.539 Z-0.823
X73.558 Y27.55 Z-0.8
X73.569 Y27.57 Z-0.787
X73.582 Y27.593
X73.593 Y27.612 Z-0.8
X73.6 Y27.624 Z-0.823
X73.599 Y27.623 Z-0.849
X73.598 Y27.621 Z-0.863
X73.606 Z-0.881
X75.605
X75.627 Z-0.876
X75.649 Z-0.871
X75.718
X75.741 Y27.629
X75.756 Y27.649
Y27.674
X75.741 Y27.694
X75.718 Y27.701
X75.696 Z-0.876
X75.674 Z-0.881
X73.651
X73.645 Z-0.872
X73.643 Z-0.861
X73.642 Y27.699 Z-0.844
X73.641 Y27.697 Z-0.817
X73.646 Y27.708 Z-0.793
X73.656 Y27.729 Z-0.779
X73.668 Y27.753
X73.677 Y27.774 Z-0.793
X73.683 Y27.786 Z-0.817
X73.682 Y27.784 Z-0.844
X73.681 Y27.781 Z-0.861
Z-0.863
X73.688 Z-0.881
X75.743
X75.765 Z-0.876
X75.787 Z-0.871
X75.855
X75.879 Y27.789
X75.893 Y27.809
Y27.834
X75.879 Y27.854
X75.855 Y27.861
X75.833 Z-0.876
X75.811 Z-0.881
X73.723
X73.715 Z-0.863
Z-0.862
X73.714 Y27.858 Z-0.843
X73.713 Y27.855 Z-0.815
X73.717 Y27.866 Z-0.79
X73.725 Y27.888 Z-0.776
X73.734 Y27.914
X73.742 Y27.936 Z-0.79
X73.746 Y27.948 Z-0.815
X73.745 Y27.945 Z-0.843
X73.744 Y27.941 Z-0.862
X73.746 Z-0.872
X73.752 Z-0.881
X75.877
X75.899 Z-0.876
X75.921 Z-0.871
X75.985
X76.008 Y27.949
X76.023 Y27.969
Y27.994
X76.008 Y28.014
X75.985 Y28.021
X75.963 Z-0.876
X75.941 Z-0.881
X73.775
X73.768 Z-0.863
X73.767 Y28.017 Z-0.842
X73.766 Y28.013 Z-0.818
X73.767 Y28.021 Z-0.795
X73.772 Y28.038 Z-0.778
X73.778 Y28.061 Z-0.772
X73.784 Y28.084 Z-0.778
X73.788 Y28.102 Z-0.795
X73.79 Y28.11 Z-0.818
X73.789 Y28.106 Z-0.842
X73.788 Y28.101 Z-0.863
X73.795 Z-0.881
X76.004
X76.026 Z-0.876
X76.048 Z-0.871
X76.112
X76.136 Y28.109
X76.15 Y28.129
Y28.154
X76.136 Y28.174
X76.112 Y28.181
X76.09 Z-0.876
X76.068 Z-0.881
X73.809
X73.801 Z-0.863
X73.8 Y28.177 Z-0.841
Y28.172 Z-0.817
X73.801 Y28.179 Z-0.793
X73.803 Y28.197 Z-0.776
X73.807 Y28.221 Z-0.77
X73.81 Y28.245 Z-0.776
X73.813 Y28.263 Z-0.793
X73.814 Y28.271 Z-0.817
X73.813 Y28.266 Z-0.841
Y28.261 Z-0.863
X73.82 Z-0.881
X76.132
X76.154 Z-0.876
X76.176 Z-0.871
X76.239
X76.263 Y28.269
X76.277 Y28.289
Y28.314
X76.263 Y28.334
X76.239 Y28.341
X76.217 Z-0.876
X76.195 Z-0.881
X73.823
X73.816 Z-0.864
Z-0.863
Y28.336 Z-0.841
Y28.331 Z-0.816
Y28.339 Z-0.793
X73.817 Y28.357 Z-0.775
Y28.381 Z-0.769
X73.818 Y28.405 Z-0.775
X73.819 Y28.424 Z-0.793
Y28.431 Z-0.816
Y28.426 Z-0.841
Y28.421 Z-0.863
X73.826 Z-0.881
X76.259
X76.281 Z-0.876
X76.303 Z-0.871
X76.367
X76.39 Y28.429
X76.405 Y28.449
Y28.474
X76.39 Y28.494
X76.367 Y28.501
X76.345 Z-0.876
X76.323 Z-0.881
X73.821
X73.813 Z-0.863
X73.814 Y28.496 Z-0.841
Y28.492 Z-0.817
X73.813 Y28.499 Z-0.793
X73.812 Y28.517 Z-0.776
X73.809 Y28.541 Z-0.769
X73.807 Y28.565 Z-0.776
X73.806 Y28.583 Z-0.793
X73.805 Y28.591 Z-0.817
Y28.586 Z-0.841
X73.806 Y28.581 Z-0.863
X73.813 Z-0.881
X76.386
X76.408 Z-0.876
X76.43 Z-0.871
X76.494
X76.518 Y28.589
X76.532 Y28.609
Y28.634
X76.518 Y28.654
X76.494 Y28.661
X76.472 Z-0.876
X76.45 Z-0.881
X73.799
X73.792 Z-0.863
X73.793 Y28.657 Z-0.842
X73.794 Y28.653 Z-0.817
X73.792 Y28.66 Z-0.794
X73.788 Y28.678 Z-0.777
X73.783 Y28.701 Z-0.771
X73.778 Y28.725 Z-0.777
X73.774 Y28.742 Z-0.794
X73.773 Y28.75 Z-0.817
Y28.746 Z-0.842
X73.774 Y28.741 Z-0.863
X73.776 Z-0.873
X73.782 Z-0.881
X76.512
X76.534 Z-0.876
X76.556 Z-0.871
X76.615
X76.639 Y28.749
X76.653 Y28.769
Y28.794
X76.639 Y28.814
X76.615 Y28.821
X76.593 Z-0.876
X76.571 Z-0.881
X73.759
X73.752 Z-0.864
Z-0.862
X73.753 Y28.818 Z-0.842
X73.754 Y28.815 Z-0.815
X73.75 Y28.826 Z-0.79
X73.743 Y28.848 Z-0.775
X73.733 Y28.874
X73.726 Y28.897 Z-0.79
X73.722 Y28.908 Z-0.815
X73.723 Y28.905 Z-0.842
X73.724 Y28.901 Z-0.862
X73.726 Z-0.872
X73.732 Z-0.881
X76.63
X76.652 Z-0.876
X76.674 Z-0.871
X76.733
X76.756 Y28.909
X76.771 Y28.929
Y28.954
X76.756 Y28.974
X76.733 Y28.981
X76.711 Z-0.876
X76.689 Z-0.881
X73.697
X73.691 Z-0.867
X73.693 Y28.979 Z-0.851
Y28.977 Z-0.824
X73.688 Y28.989 Z-0.801
X73.678 Y29.009 Z-0.787
X73.666 Y29.033
X73.656 Y29.054 Z-0.801
X73.65 Y29.065 Z-0.824
X73.651 Y29.064 Z-0.851
X73.652 Y29.061 Z-0.867
Z-0.87
X73.657 Z-0.881
X76.748
X76.77 Z-0.876
X76.792 Z-0.871
X76.851
X76.874 Y29.069
X76.889 Y29.089
Y29.114
X76.874 Y29.134
X76.851 Y29.141
X76.828 Z-0.876
X76.806 Z-0.881
X73.616
X73.61 Z-0.867
Z-0.859
X73.611 Y29.14 Z-0.847
Z-0.821
X73.604 Y29.151 Z-0.799
X73.592 Y29.17 Z-0.786
X73.579 Y29.192
X73.567 Y29.211 Z-0.799
X73.56 Y29.222 Z-0.821
Y29.223 Z-0.847
X73.561 Y29.221 Z-0.859
X73.564 Z-0.871
X73.57 Z-0.881
X76.865
X76.887 Z-0.876
X76.909 Z-0.871
X76.968
X76.992 Y29.229
X77.006 Y29.249
Y29.274
X76.992 Y29.294
X76.968 Y29.301
X76.946 Z-0.876
X76.924 Z-0.881
X73.512
X73.506 Z-0.866
Z-0.862
Z-0.86
Z-0.858
X73.502 Y29.307 Z-0.833
X73.491 Y29.322 Z-0.814
X73.475 Y29.342 Z-0.808
X73.46 Y29.362 Z-0.815
X73.449 Y29.377 Z-0.834
X73.446 Y29.381 Z-0.86
Z-0.862
X73.448 Z-0.872
X73.454 Z-0.881
X76.983
X77.005 Z-0.876
X77.027 Z-0.871
X77.086
X77.109 Y29.389
X77.124 Y29.409
Y29.434
X77.109 Y29.454
X77.086 Y29.461
X77.064 Z-0.876
X77.042 Z-0.881
X75.161
X75.153 Z-0.878
X75.15 Z-0.87
G0 Z5.
X74.657
Z1.935
G1 Z-0.87 F200.
X74.654 Z-0.878
X74.646 Z-0.881
X73.389
X73.383 Z-0.876
X73.381 Z-0.869
X73.376 Y29.467 Z-0.841
X73.362 Y29.481 Z-0.821
X73.343 Y29.501 Z-0.814
X73.324 Y29.521 Z-0.821
X73.31 Y29.536 Z-0.841
X73.305 Y29.541 Z-0.869
Z-0.87
X73.307 Z-0.877
X73.313 Z-0.881
X74.527
X74.536 Z-0.874
X74.539 Z-0.863
G0 Z5.
X75.256
Z1.935
G1 Z-0.868 F200.
X75.258 Z-0.876
X75.265 Z-0.881
X77.1
X77.122 Z-0.876
X77.144 Z-0.871
X77.199
X77.223 Y29.549
X77.237 Y29.569
Y29.594
X77.223 Y29.614
X77.199 Y29.621
X77.177 Z-0.876
X77.155 Z-0.881
X75.33
X75.323 Z-0.871
G0 Z5.
X74.423
Z1.935
G1 Z-0.863 F200.
X74.42 Z-0.874
X74.411 Z-0.881
X73.237
X73.231 Z-0.876
X73.229 Z-0.868
X73.223 Y29.627 Z-0.839
X73.208 Y29.641 Z-0.818
X73.187 Y29.661 Z-0.81
X73.166 Y29.681 Z-0.818
X73.15 Y29.696 Z-0.839
X73.145 Y29.701 Z-0.868
Z-0.869
X73.147 Z-0.876
X73.153 Z-0.881
X74.296
X74.304 Z-0.874
X74.307 Z-0.864
Z-0.863
X74.302 Y29.705 Z-0.832
X74.285 Y29.716 Z-0.808
X74.262 Y29.732 Z-0.794
X74.236 Y29.75
X74.213 Y29.766 Z-0.808
X74.197 Y29.777 Z-0.832
X74.191 Y29.781 Z-0.863
X74.188 Z-0.874
X74.179 Z-0.881
X73.07
X73.063 Z-0.876
X73.061 Z-0.868
X73.055 Y29.787 Z-0.839
X73.04 Y29.801 Z-0.818
X73.019 Y29.821 Z-0.81
X72.998 Y29.841 Z-0.818
X72.983 Y29.856 Z-0.839
X72.977 Y29.861 Z-0.868
X72.979 Z-0.876
X72.986 Z-0.881
X74.063
X74.072 Z-0.874
X74.075 Z-0.863
X74.07 Y29.865 Z-0.832
X74.053 Y29.876 Z-0.808
X74.03 Y29.892 Z-0.794
X74.004 Y29.91
X73.981 Y29.926 Z-0.808
X73.965 Y29.937 Z-0.832
X73.959 Y29.941 Z-0.863
X73.956 Z-0.874
X73.947 Z-0.881
X72.902
X72.896 Z-0.876
X72.893 Z-0.868
X72.888 Y29.947 Z-0.839
X72.872 Y29.961 Z-0.818
X72.851 Y29.981 Z-0.81
X72.83 Y30.001 Z-0.818
X72.815 Y30.016 Z-0.839
X72.809 Y30.021 Z-0.868
Z-0.869
X72.812 Z-0.876
X72.818 Z-0.881
X73.831
X73.84 Z-0.874
X73.843 Z-0.863
X73.838 Y30.025 Z-0.832
X73.822 Y30.036 Z-0.808
X73.798 Y30.052 Z-0.794
X73.773 Y30.07
X73.749 Y30.086 Z-0.808
X73.733 Y30.097 Z-0.832
X73.728 Y30.101 Z-0.863
Z-0.865
X73.725 Z-0.875
X73.717 Z-0.881
X72.734
X72.728 Z-0.876
X72.726 Z-0.868
X72.72 Y30.107 Z-0.839
X72.705 Y30.121 Z-0.818
X72.684 Y30.141 Z-0.81
X72.663 Y30.161 Z-0.818
X72.647 Y30.176 Z-0.839
X72.642 Y30.181 Z-0.868
X72.644 Z-0.876
X72.65 Z-0.881
X73.634
X73.639 Z-0.877
X73.641 Z-0.87
Z-0.859
X73.642 Y30.18 Z-0.849
X73.641 Y30.181 Z-0.824
X73.634 Y30.192 Z-0.802
X73.622 Y30.211 Z-0.79
X73.608 Y30.232
X73.596 Y30.25 Z-0.802
X73.589 Y30.261 Z-0.824
X73.588 Y30.262 Z-0.849
X73.589 Y30.261 Z-0.859
X73.587 Z-0.871
X73.58 Z-0.881
X72.566
X72.56 Z-0.876
X72.558 Z-0.868
X72.552 Y30.267 Z-0.839
X72.537 Y30.281 Z-0.818
X72.516 Y30.301 Z-0.81
X72.495 Y30.321 Z-0.818
X72.48 Y30.336 Z-0.839
X72.474 Y30.341 Z-0.868
X72.476 Z-0.876
X72.483 Z-0.881
X73.545
X73.551 Z-0.872
X73.553 Z-0.862
X73.554 Y30.337 Z-0.842
X73.555 Y30.333 Z-0.817
X73.553 Y30.341 Z-0.794
X73.549 Y30.358 Z-0.777
X73.543 Y30.381 Z-0.771
X73.537 Y30.404 Z-0.777
X73.532 Y30.422 Z-0.794
X73.53 Y30.43 Z-0.817
X73.531 Y30.425 Z-0.842
X73.532 Y30.421 Z-0.862
X73.53 Z-0.872
X73.524 Z-0.881
X72.399
X72.393 Z-0.876
X72.39 Z-0.868
X72.384 Y30.427 Z-0.839
X72.369 Y30.441 Z-0.818
X72.348 Y30.461 Z-0.81
X72.327 Y30.481 Z-0.818
X72.312 Y30.496 Z-0.839
X72.306 Y30.501 Z-0.868
X72.309 Z-0.876
X72.315 Z-0.881
X73.518
X73.525 Z-0.864
Z-0.863
Y30.496 Z-0.841
Y30.491 Z-0.816
Y30.499 Z-0.793
X73.526 Y30.517 Z-0.775
X73.528 Y30.541 Z-0.769
X73.53 Y30.565 Z-0.775
X73.531 Y30.583 Z-0.793
X73.532 Y30.591 Z-0.816
X73.531 Y30.586 Z-0.841
Y30.581 Z-0.863
X73.523 Z-0.881
X72.231
X72.225 Z-0.876
X72.222 Z-0.868
Z-0.86
X72.221 Y30.578 Z-0.842
X72.22 Y30.576 Z-0.815
X72.225 Y30.587 Z-0.791
X72.234 Y30.609 Z-0.776
X72.245 Y30.634
X72.254 Y30.655 Z-0.791
X72.258 Y30.667 Z-0.815
X72.257 Y30.664 Z-0.842
X72.256 Y30.661 Z-0.86
X72.258 Z-0.872
X72.265 Z-0.881
X72.977
X72.995 Z-0.874
X73.003 Z-0.855
G0 Z5.
X72.772 Y30.741
Z1.935
G1 Z-0.867 F200.
X72.768 Z-0.877
X72.759 Z-0.881
X72.297
X72.291 Z-0.872
X72.289 Z-0.861
X72.288 Y30.737 Z-0.841
X72.287 Y30.733 Z-0.816
X72.289 Y30.74 Z-0.793
X72.293 Y30.758 Z-0.776
X72.298 Y30.781 Z-0.77
X72.303 Y30.805 Z-0.776
X72.307 Y30.822 Z-0.793
X72.309 Y30.83 Z-0.816
X72.308 Y30.826 Z-0.841
X72.307 Y30.821 Z-0.861
Z-0.863
X72.315 Z-0.881
X72.621
X72.63 Z-0.873
X72.634 Z-0.862
X72.628 Y30.825 Z-0.832
X72.613 Y30.836 Z-0.809
X72.592 Y30.852 Z-0.796
X72.567 Y30.87
X72.546 Y30.886 Z-0.809
X72.531 Y30.897 Z-0.832
X72.525 Y30.901 Z-0.862
Z-0.866
X72.523 Z-0.875
X72.515 Z-0.881
X72.319
X72.312 Z-0.863
Z-0.862
Y30.896 Z-0.841
X72.313 Y30.892 Z-0.816
X72.312 Y30.899 Z-0.792
X72.31 Y30.917 Z-0.775
X72.308 Y30.941 Z-0.769
X72.305 Y30.965 Z-0.775
X72.303 Y30.983 Z-0.792
X72.302 Y30.991 Z-0.816
X72.303 Y30.986 Z-0.841
Y30.981 Z-0.862
X72.305 Z-0.872
X72.311 Z-0.881
X72.428
X72.435 Z-0.876
X72.437 Z-0.868
X72.432 Y30.987 Z-0.841
X72.419 Y31.001 Z-0.821
X72.4 Y31.021 Z-0.814
X72.382 Y31.041 Z-0.821
X72.368 Y31.056 Z-0.841
X72.363 Y31.061 Z-0.868
Z-0.871
X72.357 Z-0.881
X72.29
X72.284 Z-0.872
X72.282 Z-0.861
G0 Z5.
X74.434 Y30.981
Z1.935
G1 Z-0.868 F200.
X74.437 Z-0.877
X74.447 Z-0.881
X74.738
X74.746 Z-0.874
X74.75 Z-0.864
X74.755 Y30.985 Z-0.836
X74.768 Y30.996 Z-0.814
X74.788 Y31.012 Z-0.802
X74.81 Y31.03
X74.83 Y31.046 Z-0.814
X74.844 Y31.057 Z-0.836
X74.849 Y31.061 Z-0.864
Z-0.869
X74.846 Z-0.876
X74.84 Z-0.881
X74.604
X74.595 Z-0.877
X74.591 Z-0.869
Z-0.867
X74.597 Y31.064 Z-0.831
X74.615 Y31.073 Z-0.801
X74.642 Y31.086 Z-0.781
X74.674 Y31.101 Z-0.774
X74.706 Y31.117 Z-0.781
X74.733 Y31.129 Z-0.801
X74.751 Y31.138 Z-0.831
X74.757 Y31.141 Z-0.867
X74.762 Z-0.877
X74.772 Z-0.881
X74.903
X74.909 Z-0.871
X74.912 Z-0.859
G0 Z5.
X75.375 Y29.701
Z1.935
G1 Z-0.859 F200.
X75.378 Z-0.871
X75.384 Z-0.881
X77.21
X77.232 Z-0.876
X77.254 Z-0.871
X77.31
X77.333 Y29.709
X77.348 Y29.729
Y29.754
X77.333 Y29.774
X77.31 Y29.781
X77.288 Z-0.876
X77.266 Z-0.881
X75.425
X75.419 Z-0.872
X75.417 Z-0.862
X75.416 Y29.777 Z-0.842
X75.415 Y29.774 Z-0.815
X75.418 Y29.786 Z-0.79
X75.426 Y29.808 Z-0.775
X75.434 Y29.835
X75.441 Y29.857 Z-0.79
X75.445 Y29.868 Z-0.815
X75.444 Y29.865 Z-0.842
X75.442 Y29.861 Z-0.862
X75.444 Z-0.873
X75.45 Z-0.881
X77.321
X77.343 Z-0.876
X77.365 Z-0.871
X77.42
X77.443 Y29.869
X77.458 Y29.889
Y29.914
X77.443 Y29.934
X77.42 Y29.941
X77.398 Z-0.876
X77.376 Z-0.881
X75.462
X75.454 Z-0.863
G0 Z5.
X75.456 Y30.021
Z1.935
G1 Z-0.865 F200.
X75.459 Z-0.875
X75.466 Z-0.881
X77.428
X77.45 Z-0.876
X77.472 Z-0.871
X77.525
X77.549 Y30.029
X77.563 Y30.049
Y30.074
X77.549 Y30.094
X77.525 Y30.101
X77.503 Z-0.876
X77.481 Z-0.881
X75.57
X75.564 Z-0.876
X75.561 Z-0.867
X75.566 Y30.105 Z-0.841
X75.578 Y30.116 Z-0.82
X75.596 Y30.132 Z-0.809
X75.617 Y30.15
X75.635 Y30.166 Z-0.82
X75.647 Y30.177 Z-0.841
X75.652 Y30.181 Z-0.867
X75.654 Z-0.876
X75.661 Z-0.881
X77.534
X77.556 Z-0.876
X77.578 Z-0.871
X77.631
X77.654 Y30.189
X77.669 Y30.209
Y30.234
X77.654 Y30.254
X77.631 Y30.261
X77.609 Z-0.876
X77.587 Z-0.881
X75.737
X75.73 Z-0.872
Z-0.87
X75.735 Y30.267 Z-0.844
X75.748 Y30.281 Z-0.824
X75.766 Y30.301 Z-0.817
X75.784 Y30.321 Z-0.824
X75.797 Y30.336 Z-0.844
X75.802 Y30.341 Z-0.87
X75.809 Z-0.881
X77.639
X77.661 Z-0.876
X77.683 Z-0.871
X77.733
X77.757 Y30.349
X77.771 Y30.369
X77.772 Y30.394
X77.757 Y30.414
X77.733 Y30.421
X77.711 Z-0.876
X77.689 Z-0.881
X75.868
X75.862 Z-0.871
X75.859 Z-0.859
Z-0.858
Z-0.853
Z-0.847
X75.863 Y30.427 Z-0.821
X75.874 Y30.442 Z-0.803
X75.89 Y30.464 Z-0.797
X75.905 Y30.484 Z-0.806
X75.915 Y30.498 Z-0.826
X75.917 Y30.501 Z-0.853
Z-0.858
X75.919 Z-0.871
X75.926 Z-0.881
X77.74
X77.762 Z-0.876
X77.784 Z-0.871
X77.834
X77.858 Y30.509
X77.872 Y30.529
Y30.554
X77.858 Y30.574
X77.834 Y30.581
X77.812 Z-0.876
X77.79 Z-0.881
X75.976
X75.97 Z-0.872
Z-0.86
X75.969 Y30.579 Z-0.844
X75.968 Y30.578 Z-0.818
X75.974 Y30.589 Z-0.794
X75.984 Y30.609 Z-0.781
X75.997 Y30.633
X76.007 Y30.653 Z-0.794
X76.013 Y30.664 Z-0.818
X76.012 Y30.663 Z-0.844
X76.011 Y30.661 Z-0.86
X76.014 Z-0.871
X76.02 Z-0.881
X77.84
X77.862 Z-0.876
X77.884 Z-0.871
X77.934
X77.958 Y30.669
X77.972 Y30.689
Y30.714
X77.958 Y30.734
X77.934 Y30.741
X77.912 Z-0.876
X77.89 Z-0.881
X76.06
X76.054 Z-0.872
X76.051 Z-0.861
X76.05 Y30.738 Z-0.843
X76.049 Y30.735 Z-0.815
X76.054 Y30.747 Z-0.791
X76.062 Y30.768 Z-0.776
X76.072 Y30.794
X76.081 Y30.816 Z-0.791
X76.085 Y30.827 Z-0.815
X76.084 Y30.824 Z-0.843
X76.083 Y30.821 Z-0.861
Z-0.863
X76.09 Z-0.881
X77.938
X77.96 Z-0.876
X77.982 Z-0.871
X78.03
X78.053 Y30.829
X78.068 Y30.849
Y30.874
X78.053 Y30.894
X78.03 Y30.901
X78.008 Z-0.876
X77.986 Z-0.881
X76.118
X76.111 Z-0.864
X76.109 Y30.898 Z-0.844
X76.108 Y30.895 Z-0.817
X76.112 Y30.906 Z-0.792
X76.12 Y30.928 Z-0.777
X76.129 Y30.954
X76.137 Y30.976 Z-0.792
X76.14 Y30.988 Z-0.817
X76.139 Y30.985 Z-0.844
X76.138 Y30.981 Z-0.864
Z-0.866
X76.144 Z-0.881
X78.034
X78.056 Z-0.876
X78.078 Z-0.871
X78.126
X78.149 Y30.989
X78.164 Y31.009
Y31.034
X78.149 Y31.054
X78.126 Y31.061
X78.104 Z-0.876
X78.082 Z-0.881
X76.166
X76.158 Z-0.863
X76.157 Y31.056 Z-0.841
Y31.052 Z-0.817
X76.158 Y31.059 Z-0.793
X76.16 Y31.077 Z-0.776
X76.164 Y31.101 Z-0.77
X76.168 Y31.125 Z-0.776
X76.17 Y31.143 Z-0.793
X76.172 Y31.151 Z-0.817
X76.171 Y31.146 Z-0.841
X76.17 Y31.141 Z-0.863
Z-0.864
X76.177 Z-0.881
X78.128
X78.15 Z-0.876
X78.172 Z-0.871
X78.218
X78.241 Y31.149
X78.256 Y31.169
Y31.194
X78.241 Y31.214
X78.218 Y31.221
X78.196 Z-0.876
X78.174 Z-0.881
X76.188
X76.182 Z-0.868
Z-0.862
Y31.216 Z-0.841
X76.181 Y31.212 Z-0.816
X76.182 Y31.219 Z-0.793
X76.184 Y31.237 Z-0.776
X76.186 Y31.261 Z-0.769
X76.189 Y31.285 Z-0.776
X76.19 Y31.303 Z-0.793
X76.191 Y31.311 Z-0.816
Y31.306 Z-0.841
X76.19 Y31.301 Z-0.862
X76.192 Z-0.873
X76.198 Z-0.881
X78.219
X78.241 Z-0.876
X78.263 Z-0.871
X78.308
X78.332 Y31.309
X78.346 Y31.329
Y31.354
X78.332 Y31.374
X78.308 Y31.381
X78.286 Z-0.876
X78.264 Z-0.881
X76.197
X76.19 Z-0.864
Y31.376 Z-0.842
Y31.371 Z-0.817
Y31.379 Z-0.793
X76.189 Y31.397 Z-0.776
X76.188 Y31.421 Z-0.77
X76.187 Y31.445 Z-0.776
X76.186 Y31.463 Z-0.793
X76.185 Y31.471 Z-0.817
X76.186 Y31.466 Z-0.842
Y31.461 Z-0.864
Z-0.866
X76.192 Z-0.881
X78.31
X78.332 Z-0.876
X78.354 Z-0.871
X78.397
X78.421 Y31.469
X78.435 Y31.489
Y31.514
X78.421 Y31.534
X78.397 Y31.541
X78.375 Z-0.876
X78.353 Z-0.881
X76.187
X76.181 Z-0.868
Z-0.863
X76.182 Y31.536 Z-0.842
X76.183 Y31.532 Z-0.817
X76.182 Y31.539 Z-0.794
X76.179 Y31.557 Z-0.777
X76.175 Y31.581 Z-0.771
X76.172 Y31.605 Z-0.777
X76.169 Y31.623 Z-0.794
X76.168 Y31.631 Z-0.818
X76.169 Y31.626 Z-0.842
Y31.621 Z-0.863
X76.177 Z-0.881
X78.396
X78.418 Z-0.876
X78.44 Z-0.871
X78.483
X78.506 Y31.629
X78.521 Y31.649
Y31.674
X78.506 Y31.694
X78.483 Y31.701
X78.461 Z-0.876
X78.439 Z-0.881
X76.156
X76.149 Z-0.864
X76.15 Y31.697 Z-0.844
X76.151 Y31.693 Z-0.819
X76.149 Y31.701 Z-0.796
X76.145 Y31.718 Z-0.779
X76.139 Y31.741 Z-0.773
X76.133 Y31.764 Z-0.779
X76.128 Y31.782 Z-0.796
X76.126 Y31.789 Z-0.819
X76.127 Y31.785 Z-0.844
X76.128 Y31.781 Z-0.864
Z-0.866
X76.135 Z-0.881
X78.481
X78.503 Z-0.876
X78.525 Z-0.871
X78.568
X78.592 Y31.789
X78.606 Y31.809
Y31.834
X78.592 Y31.854
X78.568 Y31.861
X78.546 Z-0.876
X78.524 Z-0.881
X76.112
X76.106 Z-0.872
X76.103 Z-0.861
X76.105 Y31.858 Z-0.844
X76.106 Y31.857 Z-0.817
X76.1 Y31.868 Z-0.792
X76.091 Y31.889 Z-0.778
X76.08 Y31.914
X76.07 Y31.935 Z-0.792
X76.065 Y31.946 Z-0.817
X76.066 Y31.944 Z-0.844
X76.067 Y31.941 Z-0.861
X76.069 Z-0.872
X76.075 Z-0.881
X78.565
X78.587 Z-0.876
X78.609 Z-0.871
X78.649
X78.672 Y31.949
X78.687 Y31.969
Y31.994
X78.672 Y32.014
X78.649 Y32.021
X78.627 Z-0.876
X78.605 Z-0.881
X76.035
X76.029 Z-0.873
X76.027 Z-0.863
Z-0.859
X76.028 Y32.019 Z-0.844
X76.029 Y32.018 Z-0.818
X76.023 Y32.029 Z-0.794
X76.012 Y32.049 Z-0.781
X76. Y32.073
X75.989 Y32.093 Z-0.794
X75.983 Y32.104 Z-0.818
X75.984 Y32.103 Z-0.844
X75.985 Y32.101 Z-0.859
X75.987 Z-0.871
X75.994 Z-0.881
X78.645
X78.667 Z-0.876
X78.689 Z-0.871
X78.729
X78.752 Y32.109
X78.767 Y32.129
Y32.154
X78.752 Y32.174
X78.729 Y32.181
X78.707 Z-0.876
X78.685 Z-0.881
X75.937
X75.93 Z-0.871
X75.926 Y32.187 Z-0.845
X75.914 Y32.201 Z-0.827
X75.899 Y32.221 Z-0.82
X75.883 Y32.241 Z-0.827
X75.872 Y32.256 Z-0.845
X75.867 Y32.261 Z-0.871
X75.874 Z-0.881
X78.724
X78.746 Z-0.876
X78.768 Z-0.871
X78.806
X78.829 Y32.269
X78.844 Y32.289
Y32.314
X78.829 Y32.334
X78.806 Y32.341
X78.784 Z-0.876
X78.762 Z-0.881
X75.807
X75.8 Z-0.876
X75.798 Z-0.868
Z-0.866
X75.793 Y32.345 Z-0.84
X75.781 Y32.356 Z-0.819
X75.762 Y32.372 Z-0.807
X75.741 Y32.39
X75.723 Y32.406 Z-0.819
X75.71 Y32.417 Z-0.84
X75.705 Y32.421 Z-0.866
X75.708 Z-0.875
X75.715 Z-0.881
X78.799
X78.821 Z-0.876
X78.843 Z-0.871
X78.88
X78.904 Y32.429
X78.918 Y32.449
Y32.474
X78.904 Y32.494
X78.88 Y32.501
X78.858 Z-0.876
X78.836 Z-0.881
X75.619
X75.611 Z-0.875
X75.608 Z-0.865
X75.602 Y32.505 Z-0.833
X75.585 Y32.516 Z-0.807
X75.559 Y32.532 Z-0.792
X75.531 Y32.55
X75.506 Y32.566 Z-0.807
X75.488 Y32.577 Z-0.833
X75.482 Y32.581 Z-0.865
Z-0.87
X75.485 Z-0.878
X75.493 Z-0.881
X78.874
X78.896 Z-0.876
X78.918 Z-0.871
X78.947
X78.971 Y32.589
X78.985 Y32.609
Y32.634
X78.971 Y32.654
X78.947 Y32.661
X78.925 Z-0.876
X78.903 Z-0.881
X75.312
X75.298 Z-0.877
X75.288 Z-0.867
X75.284 Z-0.852
G0 Z5.
X74.635 Y32.741
Z1.935
G1 Z-0.862 F200.
X74.637 Z-0.872
X74.643 Z-0.881
X78.914
X78.936 Z-0.876
X78.958 Z-0.871
X78.982 Y32.749
X78.996 Y32.769
Y32.794
X78.982 Y32.814
X78.958 Y32.821
X78.952
X78.93 Z-0.876
X78.908 Z-0.881
X74.621
X74.615 Z-0.872
X74.613 Z-0.862
Z-0.86
X74.614 Y32.819 Z-0.844
X74.615 Y32.817 Z-0.817
X74.61 Y32.828 Z-0.793
X74.6 Y32.849 Z-0.779
X74.588 Y32.873
X74.578 Y32.894 Z-0.793
X74.573 Y32.905 Z-0.817
X74.574 Y32.904 Z-0.844
X74.575 Y32.901 Z-0.86
X74.577 Z-0.872
X74.584 Z-0.881
X78.884
X78.906 Z-0.876
X78.928 Z-0.871
X78.952 Y32.909
X78.967 Y32.929
Y32.954
X78.952 Y32.974
X78.928 Y32.981
X78.883
X78.861 Z-0.876
X78.839 Z-0.881
X74.527
X74.522 Z-0.877
X74.52 Z-0.87
Z-0.864
X74.515 Y32.985 Z-0.838
X74.503 Y32.996 Z-0.817
X74.484 Y33.012 Z-0.805
X74.464 Y33.03
X74.446 Y33.046 Z-0.817
X74.433 Y33.057 Z-0.838
X74.428 Y33.061 Z-0.864
X74.432 Z-0.874
X74.44 Z-0.881
X78.759
X78.781 Z-0.876
X78.803 Z-0.871
X78.826 Y33.069
X78.841 Y33.089
Y33.113
X78.826 Y33.133
X78.803 Y33.141
X78.665
X78.643 Z-0.876
X78.62 Z-0.881
X74.325
X74.316 Z-0.874
X74.313 Z-0.863
X74.307 Y33.145 Z-0.833
X74.291 Y33.156 Z-0.808
X74.268 Y33.172 Z-0.795
X74.242 Y33.19
X74.219 Y33.206 Z-0.808
X74.203 Y33.217 Z-0.833
X74.197 Y33.221 Z-0.863
Z-0.864
X74.2 Z-0.874
X74.209 Z-0.881
X78.476
X78.498 Z-0.876
X78.52 Z-0.871
X78.544 Y33.229
X78.558 Y33.249
Y33.273
X78.544 Y33.293
X78.52 Y33.301
X78.376
X78.354 Z-0.876
X78.332 Z-0.881
X74.093
X74.085 Z-0.874
X74.082 Z-0.863
X74.076 Y33.305 Z-0.832
X74.06 Y33.316 Z-0.808
X74.037 Y33.332 Z-0.794
X74.011 Y33.35
X73.988 Y33.366 Z-0.808
X73.972 Y33.377 Z-0.832
X73.966 Y33.381 Z-0.863
X73.969 Z-0.874
X73.978 Z-0.881
X78.188
X78.21 Z-0.876
X78.232 Z-0.871
X78.255 Y33.389
X78.27 Y33.409
Y33.433
X78.255 Y33.453
X78.232 Y33.461
X78.087
X78.065 Z-0.876
X78.043 Z-0.881
X73.862
X73.854 Z-0.874
X73.85 Z-0.863
G0 Z5.
X65.126 Y21.862
Z1.935
G1 Z-0.864 F200.
X65.119 Z-0.881
X64.998
X64.99 Z-0.878
X64.987 Z-0.87
Z-0.863
X64.994 Y21.865 Z-0.829
X65.013 Y21.877 Z-0.801
X65.04 Y21.893 Z-0.786
X65.071 Y21.91
X65.098 Y21.926 Z-0.801
X65.118 Y21.938 Z-0.829
X65.124 Y21.942 Z-0.863
X65.117 Z-0.881
X64.544
X64.538 Z-0.871
X64.535 Z-0.86
X64.537 Y21.94 Z-0.845
Y21.939 Z-0.818
X64.531 Y21.95 Z-0.795
X64.52 Y21.97 Z-0.782
X64.508 Y21.993
X64.497 Y22.013 Z-0.795
X64.491 Y22.024 Z-0.818
Z-0.845
X64.493 Y22.022 Z-0.86
X64.495 Z-0.872
X64.501 Z-0.881
X65.128
X65.136 Z-0.863
Z-0.862
X65.135 Y22.018 Z-0.842
X65.134 Y22.014 Z-0.815
X65.137 Y22.026 Z-0.79
X65.144 Y22.048 Z-0.775
X65.153 Y22.075
X65.16 Y22.097 Z-0.79
X65.163 Y22.109 Z-0.815
X65.162 Y22.105 Z-0.842
X65.161 Y22.102 Z-0.862
X65.159 Z-0.872
X65.153 Z-0.881
X64.459
X64.452 Z-0.871
X64.45 Z-0.859
X64.451 Y22.099 Z-0.844
Z-0.817
X64.445 Y22.11 Z-0.794
X64.434 Y22.13 Z-0.781
X64.422 Y22.153
X64.411 Y22.173 Z-0.794
X64.405 Y22.184 Z-0.817
X64.406 Z-0.844
X64.407 Y22.182 Z-0.859
X64.409 Z-0.871
X64.416 Z-0.881
X65.194
X65.2 Z-0.872
Z-0.868
X65.204 Y22.187 Z-0.843
X65.216 Y22.202 Z-0.824
X65.232 Y22.222 Z-0.817
X65.248 Y22.242 Z-0.824
X65.259 Y22.256 Z-0.843
X65.264 Y22.262 Z-0.868
X65.261 Z-0.876
X65.255 Z-0.881
X64.373
X64.366 Z-0.871
X64.364 Z-0.86
X64.365 Y22.259 Z-0.845
Z-0.818
X64.359 Y22.27 Z-0.795
X64.349 Y22.29 Z-0.782
X64.336 Y22.313
X64.325 Y22.333 Z-0.795
X64.319 Y22.344 Z-0.818
X64.32 Z-0.845
X64.321 Y22.342 Z-0.86
X64.323 Z-0.871
X64.33 Z-0.881
X65.264
X65.271 Z-0.871
X65.273 Z-0.858
Y22.341 Z-0.85
X65.272 Y22.342 Z-0.825
X65.265 Y22.353 Z-0.804
X65.253 Y22.371 Z-0.793
X65.239 Y22.392
X65.226 Y22.41 Z-0.804
X65.219 Y22.421 Z-0.825
X65.218 Y22.422 Z-0.85
Z-0.858
Z-0.872
X65.212 Z-0.881
X64.287
X64.28 Z-0.872
X64.278 Z-0.86
X64.279 Y22.419 Z-0.845
Z-0.819
X64.273 Y22.43 Z-0.796
X64.263 Y22.45 Z-0.782
X64.25 Y22.473
X64.239 Y22.493 Z-0.796
X64.233 Y22.504 Z-0.819
X64.234 Z-0.845
X64.235 Y22.502 Z-0.86
Z-0.861
X64.237 Z-0.872
X64.243 Z-0.881
X65.16
X65.167 Z-0.872
Y22.5 Z-0.861
Y22.501 Z-0.835
X65.16 Y22.512 Z-0.814
X65.148 Y22.531 Z-0.801
X65.134 Y22.552
X65.122 Y22.571 Z-0.814
X65.115 Y22.582 Z-0.835
X65.114 Y22.583 Z-0.861
X65.115 Y22.582 Z-0.872
X65.109 Z-0.881
X64.201
X64.194 Z-0.871
X64.192 Z-0.859
X64.193 Y22.579 Z-0.844
X64.194 Z-0.817
X64.188 Y22.59 Z-0.794
X64.177 Y22.61 Z-0.781
X64.164 Y22.633
X64.154 Y22.653 Z-0.794
X64.148 Y22.664 Z-0.817
Z-0.844
X64.149 Y22.662 Z-0.859
Z-0.86
X64.151 Z-0.872
X64.158 Z-0.881
X65.058
X65.064 Z-0.871
X65.067 Z-0.859
Y22.66 Z-0.848
Y22.661 Z-0.822
X65.06 Y22.672 Z-0.801
X65.048 Y22.691 Z-0.788
X65.034 Y22.712
X65.022 Y22.731 Z-0.801
X65.015 Y22.742 Z-0.822
Y22.743 Z-0.848
Y22.742 Z-0.859
X65.013 Z-0.871
X65.006 Z-0.881
X64.115
X64.108 Z-0.872
X64.106 Z-0.861
Z-0.86
X64.107 Y22.739 Z-0.845
X64.108 Z-0.819
X64.102 Y22.75 Z-0.795
X64.091 Y22.77 Z-0.782
X64.078 Y22.793
X64.068 Y22.813 Z-0.795
X64.062 Y22.824 Z-0.819
Z-0.845
X64.063 Y22.821 Z-0.86
X64.065 Z-0.871
X64.072 Z-0.881
X64.955
X64.961 Z-0.871
X64.964 Z-0.859
Z-0.858
Y22.82 Z-0.847
Y22.821 Z-0.822
X64.957 Y22.832 Z-0.801
X64.945 Y22.851 Z-0.788
X64.931 Y22.872
X64.919 Y22.891 Z-0.801
X64.912 Y22.902 Z-0.822
Y22.903 Z-0.847
Y22.901 Z-0.858
X64.91 Z-0.871
X64.903 Z-0.881
X64.029
X64.023 Z-0.871
X64.02 Z-0.859
X64.021 Y22.899 Z-0.844
X64.022 Z-0.818
X64.016 Y22.91 Z-0.794
X64.005 Y22.93 Z-0.781
X63.993 Y22.953
X63.982 Y22.973 Z-0.794
X63.976 Y22.984 Z-0.818
Z-0.844
X63.977 Y22.981 Z-0.859
X63.98 Z-0.871
X63.986 Z-0.881
X64.851
X64.857 Z-0.872
Z-0.859
X64.858 Y22.98 Z-0.847
Z-0.821
X64.852 Y22.991 Z-0.798
X64.84 Y23.01 Z-0.786
X64.827 Y23.033
X64.815 Y23.052 Z-0.798
X64.808 Y23.063 Z-0.821
Z-0.847
X64.809 Y23.061 Z-0.859
X64.807 Z-0.871
X64.8 Z-0.881
X63.943
X63.937 Z-0.872
X63.934 Z-0.86
Z-0.859
X63.935 Y23.059 Z-0.844
X63.936 Z-0.817
X63.93 Y23.07 Z-0.794
X63.919 Y23.09 Z-0.781
X63.907 Y23.113
X63.896 Y23.133 Z-0.794
X63.89 Y23.144 Z-0.817
Z-0.844
X63.891 Y23.141 Z-0.859
X63.894 Z-0.871
X63.901 Z-0.881
X64.748
X64.755 Z-0.871
X64.758 Z-0.859
Z-0.85
X64.757 Y23.142 Z-0.826
X64.749 Y23.153 Z-0.805
X64.737 Y23.171 Z-0.793
X64.723 Y23.192
X64.711 Y23.21 Z-0.805
X64.703 Y23.221 Z-0.826
X64.702 Y23.222 Z-0.85
X64.703 Y23.221 Z-0.859
Z-0.871
X64.696 Z-0.881
X63.857
X63.851 Z-0.871
X63.849 Z-0.86
Z-0.859
X63.85 Y23.219 Z-0.844
Z-0.818
X63.844 Y23.23 Z-0.795
X63.833 Y23.25 Z-0.781
X63.821 Y23.273
X63.81 Y23.293 Z-0.795
X63.804 Y23.304 Z-0.818
Z-0.844
X63.806 Y23.301 Z-0.859
X63.808 Z-0.871
X63.815 Z-0.881
X64.645
X64.651 Z-0.872
Z-0.859
X64.652 Y23.3 Z-0.846
Z-0.82
X64.645 Y23.311 Z-0.798
X64.634 Y23.33 Z-0.785
X64.621 Y23.353
X64.609 Y23.372 Z-0.798
X64.602 Y23.383 Z-0.82
Z-0.846
X64.603 Y23.381 Z-0.859
X64.601 Z-0.871
X64.594 Z-0.881
X63.772
X63.765 Z-0.871
X63.763 Z-0.859
X63.764 Y23.379 Z-0.844
Z-0.818
X63.758 Y23.39 Z-0.795
X63.747 Y23.41 Z-0.781
X63.735 Y23.433
X63.724 Y23.453 Z-0.795
X63.718 Y23.464 Z-0.818
X63.719 Z-0.844
X63.72 Y23.461 Z-0.859
Z-0.86
X63.722 Z-0.871
X63.729 Z-0.881
X64.542
X64.549 Z-0.871
X64.551 Z-0.859
X64.552 Y23.46 Z-0.848
Y23.461 Z-0.822
X64.545 Y23.472 Z-0.801
X64.533 Y23.491 Z-0.788
X64.519 Y23.512
X64.507 Y23.531 Z-0.801
X64.5 Y23.542 Z-0.822
X64.499 Z-0.848
X64.5 Y23.541 Z-0.859
X64.498 Z-0.871
X64.491 Z-0.881
X63.686
X63.679 Z-0.871
X63.677 Z-0.859
G0 Z5.
X63.662 Y23.621
Z1.935
G1 Z-0.865 F200.
X63.665 Z-0.875
X63.673 Z-0.881
X64.439
X64.446 Z-0.871
X64.448 Z-0.859
X64.449 Z-0.851
X64.448 Y23.622 Z-0.826
X64.44 Y23.633 Z-0.805
X64.428 Y23.651 Z-0.793
X64.414 Y23.672
X64.402 Y23.69 Z-0.805
X64.394 Y23.701 Z-0.826
X64.393 Y23.702 Z-0.851
X64.394 Y23.701 Z-0.859
Z-0.872
X64.387 Z-0.881
X63.752
X63.744 Z-0.87
Z-0.859
Y23.7 Z-0.847
Y23.701 Z-0.822
X63.751 Y23.712 Z-0.8
X63.763 Y23.731 Z-0.787
X63.776 Y23.752
X63.788 Y23.771 Z-0.8
X63.795 Y23.782 Z-0.822
Y23.783 Z-0.847
X63.794 Y23.781 Z-0.859
X63.797 Z-0.871
X63.804 Z-0.881
X64.336
X64.343 Z-0.871
X64.345 Z-0.859
X64.346 Z-0.85
X64.345 Y23.782 Z-0.825
X64.337 Y23.793 Z-0.805
X64.325 Y23.811 Z-0.793
X64.311 Y23.832
X64.299 Y23.85 Z-0.805
X64.291 Y23.861 Z-0.825
X64.29 Y23.862 Z-0.85
X64.291 Y23.861 Z-0.859
Z-0.871
X64.284 Z-0.881
X63.836
X63.829 Z-0.863
G0 Z5.
X63.215 Y20.422
Z1.935
G1 Z-0.859 F200.
X63.212 Z-0.871
X63.205 Z-0.881
X61.785
X61.778 Z-0.864
Z-0.863
Y20.417 Z-0.842
Y20.412 Z-0.817
Y20.419 Z-0.793
Y20.437 Z-0.776
X61.777 Y20.462 Z-0.77
Y20.486 Z-0.776
X61.776 Y20.504 Z-0.793
Y20.511 Z-0.817
Y20.507 Z-0.842
Y20.502 Z-0.863
X61.784 Z-0.881
X63.158
X63.165 Z-0.872
X63.167 Z-0.86
X63.168 Y20.499 Z-0.845
X63.169 Y20.498 Z-0.818
X63.163 Y20.51 Z-0.795
X63.152 Y20.53 Z-0.781
X63.14 Y20.553
X63.129 Y20.574 Z-0.795
X63.124 Y20.585 Z-0.818
Y20.584 Z-0.845
X63.125 Y20.582 Z-0.86
Z-0.861
X63.123 Z-0.872
X63.117 Z-0.881
X61.782
X61.774 Z-0.863
X61.775 Y20.577 Z-0.841
Y20.572 Z-0.817
X61.774 Y20.579 Z-0.793
Y20.597 Z-0.776
Y20.622 Z-0.769
X61.773 Y20.646 Z-0.776
Y20.664 Z-0.793
X61.772 Y20.671 Z-0.817
X61.773 Y20.667 Z-0.841
Y20.662 Z-0.863
X61.78 Z-0.881
X63.089
X63.097 Z-0.863
X63.098 Y20.657 Z-0.842
X63.099 Y20.652 Z-0.817
X63.097 Y20.66 Z-0.794
X63.094 Y20.678 Z-0.777
X63.09 Y20.702 Z-0.77
X63.086 Y20.725 Z-0.777
X63.083 Y20.743 Z-0.794
X63.081 Y20.751 Z-0.817
X63.082 Y20.746 Z-0.842
X63.083 Y20.742 Z-0.863
X63.076 Z-0.881
X61.779
X61.771 Z-0.863
Y20.737 Z-0.841
Y20.732 Z-0.816
Y20.739 Z-0.793
Y20.757 Z-0.775
X61.77 Y20.782 Z-0.769
Y20.806 Z-0.775
X61.769 Y20.824 Z-0.793
Y20.831 Z-0.816
Y20.827 Z-0.841
Y20.822 Z-0.863
Z-0.864
X61.776 Z-0.881
X63.074
X63.08 Z-0.873
X63.082 Z-0.862
X63.081 Y20.817 Z-0.841
Y20.812 Z-0.817
X63.082 Y20.82 Z-0.793
X63.085 Y20.838 Z-0.776
X63.088 Y20.862 Z-0.77
X63.092 Y20.885 Z-0.776
X63.094 Y20.903 Z-0.793
X63.096 Y20.911 Z-0.817
X63.095 Y20.906 Z-0.841
X63.094 Y20.902 Z-0.862
Z-0.863
X63.086 Z-0.881
X61.775
X61.767 Z-0.863
X61.768 Y20.897 Z-0.841
Y20.892 Z-0.817
X61.767 Y20.899 Z-0.793
Y20.917 Z-0.776
Y20.942 Z-0.769
X61.766 Y20.966 Z-0.776
Y20.984 Z-0.793
X61.765 Y20.991 Z-0.817
X61.766 Y20.987 Z-0.841
Y20.982 Z-0.863
X61.773 Z-0.881
X63.112
X63.118 Z-0.872
X63.12 Z-0.861
X63.119 Y20.979 Z-0.845
X63.118 Y20.978 Z-0.818
X63.124 Y20.989 Z-0.795
X63.134 Y21.01 Z-0.781
X63.146 Y21.034
X63.156 Y21.054 Z-0.795
X63.162 Y21.065 Z-0.818
X63.161 Y21.064 Z-0.845
X63.16 Y21.062 Z-0.861
Z-0.872
X63.154 Z-0.881
X61.772
X61.766 Z-0.872
X61.764 Z-0.862
Y21.057 Z-0.84
Y21.052 Z-0.816
Y21.059 Z-0.792
Y21.077 Z-0.775
X61.763 Y21.102 Z-0.769
Y21.126 Z-0.775
X61.762 Y21.144 Z-0.792
Y21.151 Z-0.816
Y21.147 Z-0.84
Y21.142 Z-0.862
Z-0.864
X61.769 Z-0.881
X63.217
X63.223 Z-0.876
X63.225 Z-0.869
Z-0.859
Y21.141 Z-0.85
X63.226 Y21.142 Z-0.825
X63.233 Y21.153 Z-0.804
X63.245 Y21.171 Z-0.792
X63.259 Y21.192
X63.271 Y21.21 Z-0.804
X63.279 Y21.221 Z-0.825
X63.28 Y21.222 Z-0.85
X63.279 Z-0.859
X63.277 Z-0.871
X63.27 Z-0.881
X61.768
X61.76 Z-0.863
X61.761 Y21.217 Z-0.841
Y21.212 Z-0.817
X61.76 Y21.219 Z-0.793
Y21.237 Z-0.776
Y21.262 Z-0.77
X61.759 Y21.286 Z-0.776
Y21.304 Z-0.793
X61.758 Y21.311 Z-0.817
X61.759 Y21.307 Z-0.841
Y21.302 Z-0.863
Z-0.864
X61.766 Z-0.881
X63.228
X63.234 Z-0.871
X63.237 Z-0.86
X63.238 Y21.3 Z-0.845
Y21.299 Z-0.818
X63.232 Y21.31 Z-0.795
X63.221 Y21.33 Z-0.782
X63.209 Y21.353
X63.198 Y21.373 Z-0.795
X63.192 Y21.384 Z-0.818
X63.193 Z-0.845
X63.194 Y21.382 Z-0.86
Z-0.861
X63.192 Z-0.872
X63.185 Z-0.881
X61.764
X61.757 Z-0.863
Y21.377 Z-0.841
Y21.372 Z-0.816
Y21.379 Z-0.792
Y21.397 Z-0.775
X61.756 Y21.422 Z-0.769
Y21.446 Z-0.775
X61.755 Y21.464 Z-0.792
Y21.471 Z-0.816
Y21.467 Z-0.841
Y21.462 Z-0.863
X61.763 Z-0.881
X63.142
X63.149 Z-0.871
X63.151 Z-0.86
Z-0.859
X63.152 Y21.459 Z-0.844
X63.153 Z-0.817
X63.147 Y21.47 Z-0.794
X63.136 Y21.49 Z-0.781
X63.123 Y21.513
X63.113 Y21.533 Z-0.794
X63.107 Y21.544 Z-0.817
Z-0.844
X63.108 Y21.542 Z-0.859
X63.106 Z-0.871
X63.099 Z-0.881
X61.761
X61.753 Z-0.863
X61.754 Y21.537 Z-0.841
Y21.532 Z-0.816
X61.753 Y21.539 Z-0.792
Y21.557 Z-0.775
Y21.582 Z-0.769
X61.752 Y21.606 Z-0.775
Y21.624 Z-0.792
X61.751 Y21.631 Z-0.816
X61.752 Y21.627 Z-0.841
Y21.622 Z-0.863
X61.759 Z-0.881
X63.057
X63.063 Z-0.871
X63.065 Z-0.86
X63.067 Y21.619 Z-0.845
Z-0.818
X63.061 Y21.63 Z-0.795
X63.05 Y21.65 Z-0.781
X63.038 Y21.673
X63.027 Y21.693 Z-0.795
X63.021 Y21.704 Z-0.818
X63.022 Z-0.845
X63.023 Y21.702 Z-0.86
Z-0.861
X63.021 Z-0.872
X63.014 Z-0.881
X61.757
X61.75 Z-0.863
Y21.697 Z-0.842
Y21.692 Z-0.817
Y21.699 Z-0.793
Y21.717 Z-0.776
X61.749 Y21.742 Z-0.77
Y21.766 Z-0.776
X61.748 Y21.784 Z-0.793
Y21.791 Z-0.817
Y21.787 Z-0.842
Y21.782 Z-0.863
Z-0.864
X61.755 Z-0.881
X62.971
X62.978 Z-0.872
X62.98 Z-0.86
X62.981 Y21.779 Z-0.845
Z-0.818
X62.976 Y21.79 Z-0.795
X62.965 Y21.81 Z-0.782
X62.952 Y21.833
X62.942 Y21.853 Z-0.795
X62.936 Y21.864 Z-0.818
Z-0.845
X62.937 Y21.862 Z-0.86
X62.935 Z-0.871
X62.928 Z-0.881
X61.754
X61.748 Z-0.872
X61.746 Z-0.862
X61.747 Y21.857 Z-0.84
Y21.852 Z-0.816
X61.746 Y21.859 Z-0.792
Y21.877 Z-0.775
Y21.902 Z-0.769
X61.745 Y21.926 Z-0.775
Y21.944 Z-0.792
X61.744 Y21.951 Z-0.816
X61.745 Y21.947 Z-0.84
Y21.942 Z-0.862
Z-0.864
X61.752 Z-0.881
X62.886
X62.892 Z-0.872
X62.894 Z-0.861
Z-0.86
X62.895 Y21.939 Z-0.845
X62.896 Z-0.819
X62.89 Y21.95 Z-0.795
X62.879 Y21.97 Z-0.782
X62.867 Y21.993
X62.856 Y22.013 Z-0.795
X62.85 Y22.024 Z-0.819
Z-0.845
X62.852 Y22.022 Z-0.86
X62.849 Z-0.872
X62.843 Z-0.881
X61.751
X61.745 Z-0.872
X61.743 Z-0.862
Y22.017 Z-0.84
Y22.012 Z-0.816
Y22.019 Z-0.792
Y22.037 Z-0.775
X61.742 Y22.062 Z-0.768
Y22.086 Z-0.775
X61.741 Y22.104 Z-0.792
Y22.111 Z-0.816
Y22.107 Z-0.84
Y22.102 Z-0.862
X61.743 Z-0.873
X61.749 Z-0.881
X62.8
X62.806 Z-0.871
X62.809 Z-0.86
X62.81 Y22.099 Z-0.844
Z-0.818
X62.804 Y22.11 Z-0.795
X62.794 Y22.13 Z-0.781
X62.781 Y22.153
X62.77 Y22.173 Z-0.795
X62.764 Y22.184 Z-0.818
X62.765 Z-0.844
X62.766 Y22.182 Z-0.86
X62.764 Z-0.871
X62.757 Z-0.881
X61.747
X61.739 Z-0.863
X61.74 Y22.177 Z-0.841
Y22.172 Z-0.817
X61.739 Y22.179 Z-0.793
Y22.197 Z-0.776
Y22.222 Z-0.769
X61.738 Y22.246 Z-0.776
Y22.264 Z-0.793
X61.737 Y22.271 Z-0.817
X61.738 Y22.267 Z-0.841
Y22.262 Z-0.863
X61.745 Z-0.881
X62.714
X62.721 Z-0.871
X62.723 Z-0.859
X62.724 Y22.259 Z-0.844
X62.725 Z-0.817
X62.719 Y22.27 Z-0.794
X62.708 Y22.29 Z-0.78
X62.696 Y22.313
X62.685 Y22.333 Z-0.794
X62.679 Y22.344 Z-0.817
Z-0.844
X62.68 Y22.342 Z-0.859
X62.678 Z-0.871
X62.671 Z-0.881
X61.744
X61.738 Z-0.873
X61.736 Z-0.862
Y22.337 Z-0.841
Y22.332 Z-0.816
Y22.339 Z-0.792
Y22.357 Z-0.775
X61.737 Y22.382 Z-0.769
Y22.406 Z-0.775
Y22.424 Z-0.792
Y22.431 Z-0.816
Y22.427 Z-0.841
Y22.422 Z-0.862
X61.739 Z-0.873
X61.745 Z-0.881
X62.629
X62.635 Z-0.872
X62.638 Z-0.86
X62.639 Y22.419 Z-0.845
Z-0.819
X62.633 Y22.43 Z-0.795
X62.623 Y22.45 Z-0.782
X62.61 Y22.473
X62.599 Y22.493 Z-0.795
X62.593 Y22.504 Z-0.819
X62.594 Z-0.845
X62.595 Y22.502 Z-0.86
X62.593 Z-0.871
X62.586 Z-0.881
X61.745
X61.738 Z-0.863
X61.737 Y22.499 Z-0.847
X61.736 Y22.498 Z-0.82
X61.742 Y22.509 Z-0.796
X61.752 Y22.53 Z-0.783
X61.764 Y22.553
X61.774 Y22.574 Z-0.796
X61.779 Y22.585 Z-0.82
Y22.584 Z-0.847
X61.778 Y22.582 Z-0.863
Z-0.865
X61.781 Z-0.875
X61.789 Z-0.881
X62.543
X62.55 Z-0.871
X62.552 Z-0.86
Z-0.859
X62.553 Y22.579 Z-0.844
X62.554 Z-0.818
X62.548 Y22.59 Z-0.795
X62.537 Y22.61 Z-0.781
X62.524 Y22.633
X62.514 Y22.653 Z-0.795
X62.508 Y22.664 Z-0.818
Z-0.844
X62.509 Y22.662 Z-0.859
X62.507 Z-0.871
X62.5 Z-0.881
X61.872
X61.867 Z-0.877
X61.865 Z-0.87
Z-0.859
X61.864 Y22.661 Z-0.849
X61.865 Y22.662 Z-0.824
X61.872 Y22.673 Z-0.803
X61.884 Y22.691 Z-0.791
X61.898 Y22.712
X61.91 Y22.73 Z-0.803
X61.917 Y22.741 Z-0.824
X61.918 Y22.742 Z-0.849
Z-0.859
X61.92 Z-0.871
X61.927 Z-0.881
X62.457
X62.464 Z-0.871
X62.467 Z-0.859
X62.468 Y22.739 Z-0.844
Z-0.817
X62.462 Y22.75 Z-0.794
X62.451 Y22.77 Z-0.781
X62.439 Y22.793
X62.428 Y22.813 Z-0.794
X62.422 Y22.824 Z-0.817
X62.423 Z-0.844
X62.424 Y22.821 Z-0.859
Z-0.861
X62.422 Z-0.872
X62.415 Z-0.881
X61.962
X61.956 Z-0.872
X61.954 Z-0.861
G0 Z5.
X53.09 Y19.782
Z1.935
G1 Z-0.378 F200.
X53.088 Z-0.389
X53.081 Z-0.399
X52.955
X52.946 Z-0.392
X52.942 Z-0.381
X52.937 Y19.786 Z-0.35
X52.92 Y19.797 Z-0.325
X52.896 Y19.813 Z-0.311
X52.87 Y19.831
X52.846 Y19.847 Z-0.325
X52.83 Y19.858 Z-0.35
X52.824 Y19.862 Z-0.381
Z-0.388
X52.827 Z-0.396
X52.835 Z-0.399
X53.135
X53.141 Z-0.395
X53.143 Z-0.388
Z-0.382
X53.147 Y19.866 Z-0.356
X53.16 Y19.877 Z-0.336
X53.177 Y19.893 Z-0.324
X53.197 Y19.911
X53.214 Y19.927 Z-0.336
X53.226 Y19.938 Z-0.356
X53.231 Y19.942 Z-0.382
X53.227 Z-0.392
X53.219 Z-0.399
X52.647
X52.635 Z-0.394
X52.63 Z-0.381
G0 Z5.
X51.301 Y19.782
Z1.935
G1 Z-0.382 F200.
X51.298 Z-0.392
X51.29 Z-0.399
X51.179
X51.173 Z-0.394
X51.171 Z-0.387
X51.165 Y19.786 Z-0.358
X51.15 Y19.797 Z-0.334
X51.129 Y19.813 Z-0.322
X51.105 Y19.831
X51.084 Y19.847 Z-0.334
X51.069 Y19.858 Z-0.358
X51.064 Y19.862 Z-0.387
Z-0.388
X51.067 Z-0.396
X51.074 Z-0.399
X51.433
X51.444 Z-0.395
X51.448 Z-0.385
G0 Z5.
X51.652 Y19.942
Z1.935
G1 Z-0.369 F200.
X51.648 Z-0.384
X51.637 Z-0.395
X51.622 Z-0.399
X50.496
X50.458 Z-0.391
X50.426 Z-0.37
X50.404 Z-0.337
X50.396 Z-0.299
G0 Z5.
X48.665 Y19.782
Z1.935
G1 Z-0.389 F200.
X48.659 Z-0.399
X48.552
X48.546 Z-0.39
X48.544 Z-0.38
Z-0.378
X48.545 Y19.779 Z-0.36
X48.546 Y19.777 Z-0.333
X48.541 Y19.788 Z-0.309
X48.532 Y19.809 Z-0.295
X48.521 Y19.834
X48.511 Y19.855 Z-0.309
X48.507 Y19.866 Z-0.333
Y19.864 Z-0.36
X48.509 Y19.862 Z-0.378
X48.511 Z-0.389
X48.518 Z-0.399
X48.731
X48.738 Z-0.394
X48.74 Z-0.385
G0 Z5.
X48.866 Y19.942
Z1.935
G1 Z-0.385 F200.
X48.862 Z-0.395
X48.852 Z-0.399
X48.465
X48.46 Z-0.395
X48.458 Z-0.388
G0 Z5.
X49.268 Y15.782
Z1.935
G1 Z-0.374 F200.
X49.261 Z-0.392
X49.243 Z-0.399
X45.277
X45.239 Z-0.391
X45.207 Z-0.37
X45.185 Z-0.337
X45.177 Z-0.299
G0 Z5.
X49.879
Z1.935
G1 Z-0.38 F200.
X49.885 Z-0.394
X49.899 Z-0.399
X51.778
X51.8 Z-0.393
X51.816 Z-0.377
X51.821 Z-0.355
G0 Z5.
X51.556 Y15.862
Z1.935
G1 Z-0.381 F200.
X51.55 Z-0.394
X51.537 Z-0.399
X50.033
X50.026 Z-0.393
X50.023 Z-0.384
G0 Z5.
X49.104
Z1.935
G1 Z-0.383 F200.
X49.101 Z-0.393
X49.093 Z-0.399
X45.274
X45.252 Z-0.394
X45.23 Z-0.389
X45.227
X45.203 Y15.869
X45.189 Y15.889
Y15.914
X45.203 Y15.934
X45.227 Y15.942
X45.249 Z-0.394
X45.271 Z-0.399
X47.568
X47.593 Z-0.392
X47.611 Z-0.374
X47.618 Z-0.349
X47.611 Y15.943 Z-0.324
X47.593 Y15.945 Z-0.306
X47.568 Y15.948 Z-0.299
X47.017 Y16.016
X46.992 Y16.019 Z-0.306
X46.974 Y16.021 Z-0.324
X46.967 Y16.022 Z-0.349
X46.961 Z-0.374
X46.942 Z-0.392
X46.917 Z-0.399
X45.267
X45.245 Z-0.394
X45.223 Z-0.389
X45.219
X45.195 Y16.029
X45.181 Y16.049
Y16.074
X45.195 Y16.094
X45.219 Y16.102
X45.241 Z-0.394
X45.263 Z-0.399
X46.591
X46.599 Z-0.396
X46.602 Z-0.388
Z-0.387
X46.597 Y16.106 Z-0.357
X46.582 Y16.117 Z-0.334
X46.56 Y16.133 Z-0.321
X46.536 Y16.151
X46.515 Y16.167 Z-0.334
X46.5 Y16.178 Z-0.357
X46.494 Y16.182 Z-0.387
X46.492 Z-0.394
X46.486 Z-0.399
X45.258
X45.236 Z-0.394
X45.214 Z-0.389
X45.205
X45.182 Y16.189
X45.167 Y16.209
Y16.234
X45.182 Y16.254
X45.205 Y16.262
X45.227 Z-0.394
X45.249 Z-0.399
X46.42
X46.427 Z-0.389
X46.429 Z-0.377
X46.43 Y16.26 Z-0.363
Y16.259 Z-0.336
X46.424 Y16.27 Z-0.313
X46.413 Y16.29 Z-0.3
X46.4 Y16.313
X46.389 Y16.333 Z-0.313
X46.383 Y16.344 Z-0.336
Z-0.363
X46.384 Y16.342 Z-0.377
Z-0.379
X46.382 Z-0.39
X46.376 Z-0.399
X44.885
X44.863 Z-0.394
X44.841 Z-0.389
X44.485
X44.462 Z-0.391
X44.439 Y16.343 Z-0.396
X44.417 Y16.344 Z-0.405
X44.397 Y16.346 Z-0.417
X44.379 Y16.349 Z-0.432
X44.364 Y16.352 Z-0.45
X44.352 Y16.355 Z-0.47
X44.343 Y16.359 Z-0.491
X44.337 Y16.362 Z-0.514
X44.335 Y16.366 Z-0.537
Y16.397 Z-0.723
X44.337 Y16.401 Z-0.746
X44.343 Y16.405 Z-0.769
X44.352 Y16.408 Z-0.79
X44.364 Y16.412 Z-0.81
X44.379 Y16.415 Z-0.828
X44.397 Y16.417 Z-0.843
X44.417 Y16.419 Z-0.855
X44.439 Y16.421 Z-0.864
X44.462 Z-0.869
X44.485 Y16.422 Z-0.871
X44.507 Z-0.876
X44.529 Z-0.881
X44.744
X44.745 Z-0.399
X46.349
