(1001)
(T1  D=1. CR=0. - ZMIN=-0.881 - FLAT END MILL)
G0 G90 G94 G17
G21
G53 G0 Z0.

(C 1MM  FLATEND  PARALLEL)
M5
M9
T1
S12000 M3
G4 P4.
G55
G0 X53.295 Y3.315
Z15.
Z1.935
G1 Z-0.867 F200.
Z-0.871
X53.294 Z-0.881
X48.667
Z-0.871
X48.665 Y3.316 Z-0.848
X48.66 Z-0.825
X48.651 Z-0.803
X48.638 Y3.317 Z-0.783
X48.623 Y3.318 Z-0.765
X48.605 Y3.319 Z-0.75
X48.585 Y3.321 Z-0.737
X48.564 Y3.322 Z-0.728
X48.541 Y3.324 Z-0.723
X48.517 Y3.325 Z-0.721
X47.602 Y3.386
X47.578 Y3.387 Z-0.723
X47.555 Y3.389 Z-0.728
X47.534 Y3.39 Z-0.737
X47.514 Y3.391 Z-0.75
X47.496 Y3.392 Z-0.765
X47.48 Y3.394 Z-0.783
X47.468 Z-0.803
X47.459 Y3.395 Z-0.825
X47.454 Z-0.848
X47.452 Z-0.871
Z-0.881
X54.51
Z-0.871
G0 Z5.
X55.412 Y3.475
Z1.935
G1 Z-0.871 F200.
X55.411 Z-0.881
X46.549
Z-0.871
X46.458 Y3.484
X46.004 Y3.535
X45.913 Y3.545
X45.822 Y3.555
Z-0.881
X56.139
Z-0.871
X56.304 Y3.574
X56.551 Y3.603
X56.633 Y3.613
X56.797 Y3.635
Z-0.881
X45.165
Z-0.871
X44.877 Y3.675
X44.806 Y3.685
X44.59 Y3.715
Z-0.881
X57.371
X57.372 Z-0.871
X57.641 Y3.753
X57.775 Y3.774
X57.909 Y3.795
Z-0.881
X44.053
Z-0.871
X43.809 Y3.835
X43.688 Y3.855
X43.566 Y3.875
Z-0.881
X58.393
X58.396 Z-0.871
X58.75 Y3.935
X58.867 Y3.955
X58.866 Z-0.881
X43.094
Z-0.871
X42.776 Y4.015
X42.67 Y4.035
Z-0.881
X59.293
Z-0.871
X59.396 Y4.055
X59.706 Y4.115
X59.703 Z-0.881
X42.256
Z-0.871
X42.157 Y4.134
X42.059 Y4.154
X41.96 Y4.174
X41.862 Y4.195
Z-0.881
X60.099
X60.1 Z-0.871
X60.379 Y4.255
X60.471 Y4.275
Z-0.881
X41.49
Z-0.871
X41.127 Y4.355
Z-0.881
X47.868
X47.871 Z-0.871
X47.802 Y4.39
X47.74 Y4.435
X47.737 Z-0.881
X40.78
Z-0.871
X40.697 Y4.455
X40.531 Y4.495
X40.448 Y4.515
X40.449 Z-0.881
X47.664
Z-0.871
X47.614 Y4.595
X47.611 Z-0.881
X45.456
Z-0.871
X45.553 Y4.61
X45.65 Y4.628
X45.745 Y4.651
X45.84 Y4.675
Z-0.881
X47.582
X47.583 Z-0.871
X47.566 Y4.755
Z-0.881
X46.068
Z-0.871
X46.156 Y4.795
X46.244 Y4.835
Z-0.881
X47.563
Z-0.871
X47.564 Y4.915
X47.563 Z-0.881
X46.386
Z-0.871
X46.449 Y4.953
X46.509 Y4.995
Z-0.881
X47.564
X47.566 Z-0.871
X47.577 Y5.075
X47.576 Z-0.881
X46.619
Z-0.871
X46.711 Y5.155
Z-0.881
X47.6
X47.603 Z-0.871
X47.644 Y5.235
X47.643 Z-0.881
X46.799
Z-0.871
X46.873 Y5.315
Z-0.881
X47.706
X47.708 Z-0.871
X47.809 Y5.395
X47.808 Z-0.881
X46.943
Z-0.871
X47.003 Y5.475
Z-0.881
X48.285
X48.288 Z-0.871
X48.33 Y5.555
X48.329 Z-0.881
X47.061
Z-0.871
X47.11 Y5.635
Z-0.881
X48.334
Z-0.871
X48.336 Y5.715
X48.334 Z-0.881
X47.155
Z-0.871
X47.197 Y5.795
Z-0.881
X48.336
Z-0.871
X48.337 Y5.875
X48.334 Z-0.881
X47.232
Z-0.871
X47.266 Y5.955
Z-0.881
X48.335
X48.337 Z-0.871
Y6.035
X48.335 Z-0.881
X47.294
Z-0.871
X47.318 Y6.115
Z-0.881
X48.335
X48.338 Z-0.871
Y6.195
X48.336 Z-0.881
X47.342
Z-0.871
X47.359 Y6.275
Z-0.881
X48.336
X48.338 Z-0.871
Y6.355
X48.336 Z-0.881
X47.374
Z-0.871
X47.388 Y6.435
Z-0.881
X48.339
Z-0.871
Y6.515
Z-0.881
X47.396
Z-0.871
X47.404 Y6.595
Z-0.881
X48.339
Z-0.871
X48.34 Y6.675
Z-0.881
X47.407
Z-0.871
Y6.755
Z-0.881
X48.34
Z-0.871
Y6.835
Z-0.881
X47.405
Z-0.871
X47.398 Y6.915
Z-0.881
X48.34
X48.341 Z-0.871
Y6.995
Z-0.881
X47.389
Z-0.871
X47.375 Y7.075
Z-0.881
X48.341
Z-0.871
Y7.155
Z-0.881
X47.358
Z-0.871
X47.338 Y7.235
Z-0.881
X48.338
X48.342 Z-0.871
Y7.315
X48.34 Z-0.881
X47.314
Z-0.871
X47.286 Y7.395
Z-0.881
X48.341
X48.342 Z-0.871
X48.343 Y7.475
X48.341 Z-0.881
X47.254
Z-0.871
X47.218 Y7.555
Z-0.881
X48.341
X48.343 Z-0.871
Y7.635
X48.341 Z-0.881
X47.178
Z-0.871
X47.134 Y7.715
Z-0.881
X48.341
X48.344 Z-0.871
Y7.795
Z-0.881
X47.084
Z-0.871
X47.031 Y7.875
Z-0.881
X48.341
X48.344 Z-0.871
Y7.955
Z-0.881
X46.972
Z-0.871
X46.905 Y8.035
Z-0.881
X48.344
X48.345 Z-0.871
Y8.115
X48.343 Z-0.881
X46.839
Z-0.871
X46.768 Y8.195
Z-0.881
X48.343
X48.345 Z-0.871
X48.346 Y8.275
Z-0.881
X47.028
Z-0.871
X47.099 Y8.31
X47.165 Y8.355
Z-0.881
X48.346
Z-0.871
Y8.435
Z-0.881
X47.243
Z-0.871
X47.294 Y8.515
Z-0.881
X48.346
X48.347 Z-0.871
Y8.595
X48.346 Z-0.881
X47.326
Z-0.871
X47.343 Y8.675
Z-0.881
X48.347
Z-0.871
X48.348 Y8.755
X48.347 Z-0.881
X47.354
Z-0.871
X47.366 Y8.835
Z-0.881
X48.348
Z-0.871
Y8.915
Z-0.881
X47.377
Z-0.871
X47.388 Y8.995
Z-0.881
X48.348
Z-0.871
X48.349 Y9.075
X48.348 Z-0.881
X47.399
Z-0.871
X47.41 Y9.155
Z-0.881
X48.348
X48.349 Z-0.871
Y9.235
Z-0.881
X47.421
Z-0.871
X47.432 Y9.315
Z-0.881
X48.349
X48.35 Z-0.871
Y9.395
Z-0.881
X47.443
Z-0.871
X47.454 Y9.475
Z-0.881
X48.347
X48.349 Z-0.871
X48.346 Y9.555
Z-0.881
X47.465
Z-0.871
X47.476 Y9.635
Z-0.881
X48.041
X48.042 Z-0.871
X47.922 Y9.661
X47.811 Y9.715
X47.809 Z-0.881
X47.487
Z-0.871
X47.498 Y9.795
Z-0.881
X47.716
X47.717 Z-0.871
X47.657 Y9.875
Z-0.881
X47.509
Z-0.871
X47.52 Y9.955
Z-0.881
X47.616
X47.618 Z-0.871
X47.595 Y10.035
X47.594 Z-0.881
X47.531
Z-0.871
X47.586 Y10.433
X47.596 Y10.513
X47.594 Y10.594
X47.578 Y10.675
Z-0.881
X47.774
X47.777 Z-0.871
X47.847 Y10.722
X47.924 Y10.755
X47.923 Z-0.881
X47.548
Z-0.871
G0 Z5.
X46.203 Y8.755
Z1.935
G1 Z-0.866 F200.
Z-0.871
Z-0.881
X46.113
Z-0.871
X46.004 Y8.835
Z-0.881
X46.2
Z-0.871
X46.194 Y8.915
X46.193 Z-0.881
X45.891
Z-0.871
X45.776 Y8.995
Z-0.881
X46.181
Z-0.871
X46.164 Y9.075
X46.161 Z-0.881
X45.662
Z-0.871
X45.547 Y9.155
Z-0.881
X46.141
Z-0.871
X46.113 Y9.235
X46.112 Z-0.881
X45.436
Z-0.871
X45.328 Y9.315
Z-0.881
X46.078
X46.079 Z-0.871
X46.039 Y9.395
X46.038 Z-0.881
X45.227
Z-0.871
X45.131 Y9.475
Z-0.881
X45.991
X45.994 Z-0.871
X45.94 Y9.555
Z-0.881
X45.049
Z-0.871
X44.973 Y9.635
Z-0.881
X45.878
Z-0.871
X45.804 Y9.715
Z-0.881
X44.92
Z-0.871
X44.899 Y9.795
Z-0.881
X45.712
Z-0.871
X45.654 Y9.838
X45.593 Y9.875
Z-0.881
X44.922
Z-0.871
X44.983 Y9.926
X45.058 Y9.955
Z-0.881
X45.384
X45.387 Z-0.871
G0 Z5.
X45.111 Y5.875
Z1.935
G1 Z-0.871 F200.
X45.11 Z-0.881
X44.881
Z-0.871
X44.75 Y5.906
X44.624 Y5.955
Z-0.881
X45.318
X45.319 Z-0.871
X45.396 Y6.035
X45.394 Z-0.881
X44.483
Z-0.871
X44.38 Y6.115
Z-0.881
X45.416
Z-0.871
X45.41 Y6.195
Z-0.881
X44.296
Z-0.871
X44.225 Y6.275
Z-0.881
X45.376
X45.379 Z-0.871
X45.328 Y6.355
Z-0.881
X44.165
Z-0.871
X44.113 Y6.435
Z-0.881
X45.256
Z-0.871
X45.179 Y6.515
X45.178 Z-0.881
X44.066
Z-0.871
X44.024 Y6.595
Z-0.881
X45.088
Z-0.871
X44.992 Y6.675
X44.991 Z-0.881
X43.989
Z-0.871
X43.957 Y6.755
Z-0.881
X44.887
Z-0.871
X44.778 Y6.835
Z-0.881
X43.929
Z-0.871
X43.906 Y6.915
Z-0.881
X44.666
Z-0.871
X44.553 Y6.995
X44.552 Z-0.881
X43.886
Z-0.871
X43.87 Y7.075
Z-0.881
X44.439
X44.441 Z-0.871
X44.328 Y7.155
Z-0.881
X43.858
Z-0.871
X43.849 Y7.235
Z-0.881
X44.22
Z-0.871
X44.112 Y7.315
X44.111 Z-0.881
X43.844
Z-0.871
X43.841 Y7.395
Z-0.881
X44.011
Z-0.871
X43.914 Y7.475
X43.913 Z-0.881
X43.833
Z-0.871
G0 Z5.
X44.785 Y4.595
Z1.935
G1 Z-0.87 F200.
Z-0.871
Z-0.881
X40.124
Z-0.871
X39.964 Y4.635
X39.885 Y4.654
X39.805 Y4.675
Z-0.881
X44.378
Z-0.871
X44.255 Y4.715
X44.133 Y4.755
X44.132 Z-0.881
X39.507
Z-0.871
X39.359 Y4.795
X39.285 Y4.815
X39.211 Y4.835
Z-0.881
X43.951
X43.952 Z-0.871
X43.869 Y4.874
X43.787 Y4.915
Z-0.881
X43.319
Z-0.871
X43.24 Y4.876
X43.161 Y4.853
X43.082 Y4.843
X43.003 Y4.846
X42.924 Y4.856
X42.844 Y4.866
X42.765 Y4.884
X42.686 Y4.915
X42.683 Z-0.881
X38.918
Z-0.871
X38.848 Y4.935
X38.778 Y4.954
X38.709 Y4.975
X38.639 Y4.995
Z-0.881
X42.571
Z-0.871
X42.677 Y4.92
X42.783 Y4.878
X42.889 Y4.86
X42.995 Y4.847
X43.101 Y4.844
X43.207 Y4.865
X43.313 Y4.912
X43.419 Y4.995
Z-0.881
X43.644
X43.645 Z-0.871
G0 Z5.
X42.502 Y5.075
Z1.935
G1 Z-0.863 F200.
Z-0.871
X42.5 Z-0.881
X38.368
Z-0.871
X38.233 Y5.115
X38.1 Y5.155
Z-0.881
X42.456
Z-0.871
X42.428 Y5.235
X42.427 Z-0.881
X37.834
Z-0.871
X37.706 Y5.274
X37.579 Y5.315
Z-0.881
X42.412
X42.414 Z-0.871
X42.413 Y5.395
X42.411 Z-0.881
X37.331
Z-0.871
X37.208 Y5.435
X37.085 Y5.475
Z-0.881
X42.423
Z-0.871
X42.434 Y5.555
Z-0.881
X36.842
Z-0.871
X36.722 Y5.595
X36.603 Y5.635
Z-0.881
X40.002
Z-0.871
X40.074 Y5.615
X40.145 Y5.595
X40.217 Y5.576
X40.288 Y5.566
X40.359 Y5.567
X40.431 Y5.578
X40.502 Y5.6
X40.574 Y5.635
Z-0.881
X42.444
X42.445 Z-0.871
X42.456 Y5.715
X42.455 Z-0.881
X40.676
Z-0.871
G0 Z5.
X39.722
Z1.935
G1 Z-0.871 F200.
X39.718 Z-0.881
X36.375
Z-0.871
X36.261 Y5.755
X36.147 Y5.795
Z-0.881
X39.441
Z-0.871
X39.371 Y5.815
X39.231 Y5.855
X39.161 Y5.875
Z-0.881
X35.922
Z-0.871
X35.697 Y5.955
Z-0.881
X38.881
Z-0.871
X38.811 Y5.975
X38.6 Y6.035
X38.597 Z-0.881
X35.483
Z-0.871
X35.272 Y6.115
Z-0.881
X38.32
Z-0.871
X38.25 Y6.135
X38.04 Y6.195
X38.039 Z-0.881
X35.061
Z-0.871
X34.957 Y6.235
X34.853 Y6.275
Z-0.881
X37.758
X37.759 Z-0.871
X37.479 Y6.355
X37.478 Z-0.881
X34.645
Z-0.871
X34.546 Y6.395
X34.447 Y6.435
Z-0.881
X37.299
X37.3 Z-0.871
X37.211 Y6.515
Z-0.881
X34.25
Z-0.871
X34.152 Y6.555
X34.054 Y6.595
Z-0.881
X37.154
Z-0.871
X37.117 Y6.675
X37.11 Z-0.881
X33.861
Z-0.871
X33.667 Y6.755
Z-0.881
X37.094
X37.096 Z-0.871
X37.088 Y6.835
X37.086 Z-0.881
X33.48
Z-0.871
X33.388 Y6.875
X33.297 Y6.915
Z-0.881
X37.09
X37.093 Z-0.871
X37.111 Y6.995
X37.108 Z-0.881
X33.114
Z-0.871
X33.023 Y7.035
X32.932 Y7.075
Z-0.881
X37.133
Z-0.871
X37.157 Y7.155
X37.155 Z-0.881
X32.751
Z-0.871
X32.661 Y7.195
X32.571 Y7.235
Z-0.881
X37.191
X37.194 Z-0.871
X37.251 Y7.315
X37.248 Z-0.881
X32.399
Z-0.871
X32.228 Y7.395
Z-0.881
X37.338
X37.34 Z-0.871
X37.427 Y7.445
X37.523 Y7.475
X37.52 Z-0.881
X32.057
Z-0.871
G0 Z5.
X37.732
Z1.935
G1 Z-0.871 F200.
Z-0.881
X38.038
X38.039 Z-0.871
X38.065 Y7.555
X38.063 Z-0.881
X31.887
Z-0.871
X31.718 Y7.635
Z-0.881
X33.988
X33.99 Z-0.871
X34.109 Y7.59
X34.228 Y7.576
X34.347 Y7.59
X34.467 Y7.635
Z-0.881
X38.086
X38.088 Z-0.871
X38.111 Y7.715
X38.108 Z-0.881
X34.576
Z-0.871
X34.481 Y7.643
X34.385 Y7.601
X34.29 Y7.579
X34.195 Y7.577
X34.099 Y7.593
X34.004 Y7.629
X33.813 Y7.715
X33.811 Z-0.881
X31.55
Z-0.871
X31.389 Y7.795
Z-0.881
X33.636
X33.637 Z-0.871
X33.549 Y7.835
X33.461 Y7.875
Z-0.881
X31.229
Z-0.871
X31.148 Y7.915
X31.068 Y7.955
Z-0.881
X33.281
X33.285 Z-0.871
X33.108 Y8.035
Z-0.881
X30.908
Z-0.871
X30.749 Y8.115
Z-0.881
X32.929
X32.932 Z-0.871
X32.756 Y8.195
X32.753 Z-0.881
X30.59
Z-0.871
X30.514 Y8.235
X30.439 Y8.275
Z-0.881
X32.579
X32.58 Z-0.871
X32.403 Y8.355
X32.401 Z-0.881
X30.288
Z-0.871
X30.212 Y8.395
X30.136 Y8.435
X30.137 Z-0.881
X32.226
X32.227 Z-0.871
X32.051 Y8.515
X32.049 Z-0.881
X29.986
Z-0.871
X29.911 Y8.555
X29.836 Y8.595
Z-0.881
X31.873
X31.875 Z-0.871
X31.699 Y8.675
X31.697 Z-0.881
X29.686
Z-0.871
X29.613 Y8.715
X29.54 Y8.755
Z-0.881
X31.522
Z-0.871
X31.441 Y8.792
X31.362 Y8.835
X31.361 Z-0.881
X29.398
Z-0.871
X29.255 Y8.915
Z-0.881
X31.269
X31.27 Z-0.871
X31.211 Y8.995
Z-0.881
X29.112
Z-0.871
X29.041 Y9.035
X28.971 Y9.075
Z-0.881
X31.171
X31.173 Z-0.871
X31.15 Y9.155
X31.148 Z-0.881
X28.829
Z-0.871
X28.687 Y9.235
Z-0.881
X31.14
X31.141 Z-0.871
X31.145 Y9.315
X31.144 Z-0.881
X28.552
Z-0.871
X28.417 Y9.395
Z-0.881
X31.16
X31.163 Z-0.871
X31.194 Y9.475
Z-0.881
X28.282
Z-0.871
X28.215 Y9.515
X28.148 Y9.555
Z-0.881
X31.231
Z-0.871
X31.27 Y9.635
Z-0.881
X28.014
Z-0.871
X27.947 Y9.675
X27.88 Y9.715
Z-0.881
X31.326
X31.327 Z-0.871
X31.416 Y9.795
X31.414 Z-0.881
X27.746
Z-0.871
X27.682 Y9.835
X27.618 Y9.875
Z-0.881
X29.398
X29.399 Z-0.871
G0 Z5.
X32.019 Y9.795
Z1.935
G1 Z-0.871 F200.
Z-0.881
X32.172
X32.174 Z-0.871
X32.213 Y9.875
Z-0.881
X31.808
Z-0.871
X31.704 Y9.886
X31.599 Y9.875
Z-0.881
X29.75
Z-0.871
X29.823 Y9.91
X29.889 Y9.955
Z-0.881
X32.25
Z-0.871
X32.251 Z-0.867
G0 Z5.
X29.25
Z1.935
G1 Z-0.871 F200.
X29.247 Z-0.881
X27.49
Z-0.871
X27.426 Y9.995
X27.363 Y10.035
Z-0.881
X29.117
X29.118 Z-0.871
X29.225 Y9.971
X29.331 Y9.907
X29.437 Y9.863
X29.543 Y9.844
X29.649 Y9.849
X29.756 Y9.878
X29.862 Y9.934
X29.915 Y9.977
X29.968 Y10.035
Z-0.881
X32.286
Z-0.871
X32.322 Y10.115
Z-0.881
X30.02
Z-0.871
X30.068 Y10.195
Z-0.881
X32.357
X32.358 Z-0.871
X32.394 Y10.275
X32.393 Z-0.881
X30.11
Z-0.871
X30.136 Y10.355
Z-0.881
X32.428
X32.429 Z-0.871
X32.465 Y10.435
X32.464 Z-0.881
X30.149
Z-0.871
X30.148 Y10.515
Z-0.881
X32.5
X32.501 Z-0.871
X32.536 Y10.595
Z-0.881
X30.134
Z-0.871
X30.106 Y10.675
Z-0.881
X32.572
Z-0.871
X32.608 Y10.755
X32.607 Z-0.881
X30.061
Z-0.871
X29.992 Y10.835
Z-0.881
X32.643
Z-0.871
X32.679 Y10.915
X32.678 Z-0.881
X29.882
Z-0.871
X29.821 Y10.954
X29.762 Y10.995
Z-0.881
X32.714
X32.715 Z-0.871
X32.75 Y11.075
Z-0.881
X29.705
Z-0.871
X29.747 Y11.155
Z-0.881
X32.785
X32.786 Z-0.871
X32.822 Y11.235
Z-0.881
X29.793
Z-0.871
X29.84 Y11.315
Z-0.881
X32.856
X32.857 Z-0.871
X32.893 Y11.395
X32.892 Z-0.881
X29.888
Z-0.871
X29.936 Y11.475
Z-0.881
X32.929
Z-0.871
X32.964 Y11.555
X32.963 Z-0.881
X29.983
Z-0.871
X30.031 Y11.635
Z-0.881
X33.
Z-0.871
X33.036 Y11.715
X33.035 Z-0.881
X30.079
Z-0.871
X30.126 Y11.795
Z-0.881
X33.07
X33.071 Z-0.871
X33.107 Y11.875
X33.106 Z-0.881
X30.174
Z-0.871
X30.222 Y11.955
Z-0.881
X33.142
X33.143 Z-0.871
X33.178 Y12.035
X33.177 Z-0.881
X30.269
Z-0.871
X30.317 Y12.115
Z-0.881
X33.213
X33.214 Z-0.871
X33.25 Y12.195
X33.249 Z-0.881
X30.365
Z-0.871
X30.412 Y12.275
Z-0.881
X33.284
X33.285 Z-0.871
X33.321 Y12.355
X33.32 Z-0.881
X30.46
Z-0.871
X30.508 Y12.435
Z-0.881
X33.357
Z-0.871
X33.392 Y12.515
X33.39 Z-0.881
X30.555
Z-0.871
X30.603 Y12.595
Z-0.881
X33.427
X33.428 Z-0.871
X33.464 Y12.675
X33.463 Z-0.881
X30.651
Z-0.871
X30.698 Y12.755
Z-0.881
X32.368
X32.371 Z-0.871
X32.48 Y12.743
X32.59 Y12.755
Z-0.881
X33.497
X33.499 Z-0.871
X33.535 Y12.835
Z-0.881
X32.77
Z-0.871
X32.694 Y12.791
X32.619 Y12.763
X32.544 Y12.747
X32.469 Y12.743
X32.393 Y12.751
X32.318 Y12.77
X32.243 Y12.802
X32.168 Y12.835
X32.165 Z-0.881
X30.746
Z-0.871
X30.794 Y12.915
Z-0.881
X32.027
X32.031 Z-0.871
X32.134 Y12.85
X32.237 Y12.804
X32.341 Y12.763
X32.444 Y12.744
X32.548 Y12.748
X32.651 Y12.773
X32.754 Y12.825
X32.858 Y12.915
Z-0.881
X33.571
Z-0.871
X33.606 Y12.995
Z-0.881
X32.921
Z-0.871
X32.985 Y13.075
Z-0.881
X33.641
X33.642 Z-0.871
X33.678 Y13.155
X33.676 Z-0.881
X33.053
Z-0.871
X33.128 Y13.235
Z-0.881
X33.712
X33.713 Z-0.871
X33.749 Y13.315
X33.747 Z-0.881
X33.213
Z-0.871
X33.32 Y13.395
Z-0.881
X33.732
X33.734 Z-0.871
G0 Z5.
X31.952 Y12.995
Z1.935
G1 Z-0.871 F200.
X31.951 Z-0.881
X30.842
Z-0.871
X30.889 Y13.075
Z-0.881
X31.898
X31.901 Z-0.871
X31.868 Y13.155
X31.867 Z-0.881
X30.937
Z-0.871
X30.985 Y13.235
Z-0.881
X31.85
Z-0.871
X31.846 Y13.315
Z-0.881
X31.032
Z-0.871
X31.08 Y13.395
Z-0.881
X31.853
X31.854 Z-0.871
X31.876 Y13.475
X31.874 Z-0.881
X31.128
Z-0.871
X31.175 Y13.555
Z-0.881
X31.91
X31.911 Z-0.871
X31.946 Y13.635
Z-0.881
X31.223
Z-0.871
X31.271 Y13.715
Z-0.881
X31.982
Z-0.871
X32.018 Y13.795
X32.017 Z-0.881
X31.318
Z-0.871
X31.366 Y13.875
Z-0.881
X32.053
Z-0.871
X32.089 Y13.955
X32.086 Z-0.881
X31.414
Z-0.871
X31.462 Y14.035
Z-0.881
X32.121
X32.125 Z-0.871
X32.16 Y14.115
Z-0.881
X31.509
Z-0.871
X31.557 Y14.195
Z-0.881
X32.193
X32.196 Z-0.871
X32.232 Y14.275
X32.229 Z-0.881
X31.605
Z-0.871
X31.652 Y14.355
Z-0.881
X32.265
X32.267 Z-0.871
G0 Z5.
X32.101 Y14.435
Z1.935
G1 Z-0.871 F200.
X32.099 Z-0.881
X31.701
Z-0.871
X31.751 Y14.515
Z-0.881
X31.954
Z-0.871
Z-0.87
G0 Z5.
X28.987 Y10.115
Z1.935
G1 Z-0.871 F200.
X28.985 Z-0.881
X27.235
Z-0.871
X27.172 Y10.155
X27.108 Y10.195
Z-0.881
X28.855
Z-0.871
X28.723 Y10.275
X28.722 Z-0.881
X26.981
Z-0.871
X26.918 Y10.315
X26.854 Y10.355
Z-0.881
X28.591
Z-0.871
X28.46 Y10.435
X28.457 Z-0.881
X26.731
Z-0.871
X26.67 Y10.475
X26.61 Y10.515
Z-0.881
X28.326
X28.328 Z-0.871
X28.196 Y10.595
Z-0.881
X26.489
Z-0.871
X26.429 Y10.635
X26.369 Y10.675
Z-0.881
X28.062
X28.065 Z-0.871
X27.933 Y10.755
X27.931 Z-0.881
X26.248
Z-0.871
X26.188 Y10.795
X26.127 Y10.835
Z-0.881
X27.801
Z-0.871
X27.669 Y10.915
X27.667 Z-0.881
X26.007
Z-0.871
X25.887 Y10.995
Z-0.881
X27.536
X27.538 Z-0.871
X27.406 Y11.075
X27.405 Z-0.881
X25.772
Z-0.871
X25.658 Y11.155
Z-0.881
X27.273
X27.274 Z-0.871
X27.142 Y11.235
X27.141 Z-0.881
X25.543
Z-0.871
X25.428 Y11.315
Z-0.881
X27.01
X27.011 Z-0.871
X26.945 Y11.355
X26.879 Y11.395
X26.876 Z-0.881
X25.314
Z-0.871
X25.2 Y11.475
Z-0.881
X26.781
Z-0.871
X26.719 Y11.555
Z-0.881
X25.085
Z-0.871
X24.972 Y11.635
Z-0.881
X26.678
X26.679 Z-0.871
X26.654 Y11.715
Z-0.881
X24.863
Z-0.871
X24.754 Y11.795
Z-0.881
X26.643
X26.644 Z-0.871
X26.647 Y11.875
X26.646 Z-0.881
X24.645
Z-0.871
X24.537 Y11.955
Z-0.881
X26.66
X26.662 Z-0.871
X26.692 Y12.035
X26.691 Z-0.881
X24.428
Z-0.871
X24.319 Y12.115
Z-0.881
X26.737
Z-0.871
X26.785 Y12.195
X26.782 Z-0.881
X24.21
Z-0.871
X24.102 Y12.275
Z-0.881
X26.839
X26.841 Z-0.871
X26.944 Y12.365
X27.046 Y12.417
X27.148 Y12.443
X27.25 Y12.447
X27.352 Y12.43
X27.455 Y12.389
X27.557 Y12.33
X27.659 Y12.275
Z-0.881
X27.719
X27.721 Z-0.871
X27.774 Y12.355
X27.773 Z-0.881
X27.513
Z-0.871
X27.44 Y12.396
X27.367 Y12.425
X27.294 Y12.442
X27.221 Y12.448
X27.148 Y12.443
X27.075 Y12.427
X27.002 Y12.398
X26.929 Y12.355
X26.928 Z-0.881
X23.998
Z-0.871
X23.895 Y12.435
Z-0.881
X27.108
Z-0.871
X27.219 Y12.448
X27.33 Y12.435
Z-0.881
X27.821
X27.824 Z-0.871
X27.872 Y12.515
X27.869 Z-0.881
X23.792
Z-0.871
X23.688 Y12.595
Z-0.881
X27.919
Z-0.871
X27.967 Y12.675
X27.964 Z-0.881
X23.585
Z-0.871
X23.482 Y12.755
Z-0.881
X28.012
X28.015 Z-0.871
X28.063 Y12.835
X28.06 Z-0.881
X23.378
Z-0.871
X23.275 Y12.915
Z-0.881
X28.107
X28.11 Z-0.871
X28.158 Y12.995
X28.155 Z-0.881
X23.174
Z-0.871
X23.076 Y13.075
Z-0.881
X28.203
X28.206 Z-0.871
X28.254 Y13.155
X28.25 Z-0.881
X24.919
Z-0.871
X24.793 Y13.104
X24.668 Y13.088
X24.543 Y13.104
X24.417 Y13.155
X24.416 Z-0.881
X22.978
Z-0.871
X22.879 Y13.235
Z-0.881
X24.306
X24.307 Z-0.871
X24.396 Y13.168
X24.486 Y13.122
X24.575 Y13.097
X24.665 Y13.088
X24.754 Y13.095
X24.844 Y13.12
X24.933 Y13.164
X25.023 Y13.235
Z-0.881
X28.301
Z-0.871
X28.349 Y13.315
X28.346 Z-0.881
X25.089
Z-0.871
G0 Z5.
X24.203
Z1.935
G1 Z-0.871 F200.
X24.2 Z-0.881
X22.781
Z-0.871
X22.683 Y13.395
Z-0.881
X24.097
X24.1 Z-0.871
X23.996 Y13.475
X23.995 Z-0.881
X22.584
Z-0.871
X22.486 Y13.555
Z-0.881
X23.891
X23.893 Z-0.871
X23.79 Y13.635
X23.786 Z-0.881
X22.388
Z-0.871
X22.294 Y13.715
Z-0.881
X23.685
X23.686 Z-0.871
X23.583 Y13.795
X23.582 Z-0.881
X22.2
Z-0.871
X22.106 Y13.875
Z-0.881
X23.478
X23.479 Z-0.871
X23.376 Y13.955
X23.373 Z-0.881
X22.013
Z-0.871
X21.919 Y14.035
Z-0.881
X23.271
X23.273 Z-0.871
X23.169 Y14.115
X23.166 Z-0.881
X21.826
Z-0.871
X21.732 Y14.195
Z-0.881
X23.063
X23.066 Z-0.871
X22.962 Y14.275
X22.961 Z-0.881
X21.638
Z-0.871
X21.545 Y14.355
Z-0.881
X22.856
X22.859 Z-0.871
X22.756 Y14.435
X22.755 Z-0.881
X21.456
Z-0.871
X21.366 Y14.515
Z-0.881
X22.652
Z-0.871
X22.549 Y14.595
X22.548 Z-0.881
X21.277
Z-0.871
X21.188 Y14.675
Z-0.881
X22.445
Z-0.871
X22.342 Y14.755
Z-0.881
X21.099
Z-0.871
X21.01 Y14.835
Z-0.881
X22.235
X22.239 Z-0.871
X22.135 Y14.915
X22.132 Z-0.881
X20.921
Z-0.871
X20.831 Y14.995
Z-0.881
X22.053
X22.056 Z-0.871
X22.005 Y15.075
X22.004 Z-0.881
X20.742
Z-0.871
X20.657 Y15.155
Z-0.881
X21.971
X21.972 Z-0.871
X21.954 Y15.235
X21.953 Z-0.881
X20.572
Z-0.871
X20.486 Y15.315
Z-0.881
X21.948
X21.949 Z-0.871
X21.957 Y15.395
X21.954 Z-0.881
X20.401
Z-0.871
X20.316 Y15.475
Z-0.881
X21.978
X21.979 Z-0.871
X22.016 Y15.555
X22.015 Z-0.881
X20.232
Z-0.871
X20.147 Y15.635
Z-0.881
X22.071
X22.072 Z-0.871
X22.133 Y15.715
Z-0.881
X20.062
Z-0.871
G0 Z5.
X22.988
Z1.935
G1 Z-0.871 F200.
Z-0.881
X23.095
Z-0.871
X23.16 Y15.795
X23.159 Z-0.881
X22.875
Z-0.871
X22.792 Y15.854
X22.708 Y15.893
X22.624 Y15.915
X22.54 Y15.923
X22.456 Y15.916
X22.373 Y15.894
X22.289 Y15.856
X22.205 Y15.795
X22.202 Z-0.881
X19.977
Z-0.871
X19.894 Y15.875
Z-0.881
X22.324
X22.326 Z-0.871
X22.432 Y15.911
X22.538 Y15.923
X22.645 Y15.911
X22.751 Y15.875
Z-0.881
X23.219
X23.222 Z-0.871
X23.282 Y15.955
Z-0.881
X19.813
Z-0.871
X19.732 Y16.035
Z-0.881
X23.343
Z-0.871
X23.404 Y16.115
X23.401 Z-0.881
X19.65
Z-0.871
X19.57 Y16.195
Z-0.881
X23.462
X23.465 Z-0.871
X23.525 Y16.275
Z-0.881
X19.489
Z-0.871
X19.408 Y16.355
Z-0.881
X23.584
X23.586 Z-0.871
X23.647 Y16.435
X23.646 Z-0.881
X19.327
Z-0.871
X19.246 Y16.515
Z-0.881
X23.707
X23.708 Z-0.871
X23.768 Y16.595
Z-0.881
X19.165
Z-0.871
X19.087 Y16.675
Z-0.881
X23.829
Z-0.871
X23.89 Y16.755
X23.889 Z-0.881
X19.01
Z-0.871
X18.933 Y16.835
Z-0.881
X23.95
X23.951 Z-0.871
X24.011 Y16.915
Z-0.881
X18.855
Z-0.871
X18.778 Y16.995
Z-0.881
X24.072
Z-0.871
X24.133 Y17.075
Z-0.881
X18.701
Z-0.871
X18.624 Y17.155
Z-0.881
X24.193
X24.194 Z-0.871
X24.254 Y17.235
Z-0.881
X18.547
Z-0.871
X18.47 Y17.315
Z-0.881
X24.315
Z-0.871
X24.376 Y17.395
X24.374 Z-0.881
X18.393
Z-0.871
X18.319 Y17.475
Z-0.881
X24.437
Z-0.871
X24.497 Y17.555
X24.496 Z-0.881
X18.245
Z-0.871
X18.172 Y17.635
Z-0.881
X24.556
X24.558 Z-0.871
X24.619 Y17.715
X24.618 Z-0.881
X18.098
Z-0.871
X18.024 Y17.795
Z-0.881
X24.679
X24.68 Z-0.871
X24.74 Y17.875
X24.738 Z-0.881
X17.951
Z-0.871
X17.878 Y17.955
Z-0.881
X24.799
X24.801 Z-0.871
X24.862 Y18.035
X24.86 Z-0.881
X17.804
Z-0.871
X17.731 Y18.115
Z-0.881
X24.922
X24.923 Z-0.871
X24.983 Y18.195
X24.98 Z-0.881
X17.658
Z-0.871
X17.587 Y18.275
Z-0.881
X25.044
Z-0.871
X25.105 Y18.355
X25.104 Z-0.881
X17.516
Z-0.871
X17.446 Y18.435
Z-0.881
X25.164
X25.166 Z-0.871
X25.226 Y18.515
X25.223 Z-0.881
X17.376
Z-0.871
X17.305 Y18.595
Z-0.881
X25.287
Z-0.871
X25.348 Y18.675
Z-0.881
X17.236
Z-0.871
X17.166 Y18.755
Z-0.881
X25.408
Z-0.871
X25.467 Y18.835
X25.466 Z-0.881
X17.096
Z-0.871
X17.026 Y18.915
Z-0.881
X25.52
X25.522 Z-0.871
X25.507 Y18.995
X25.505 Z-0.881
X16.956
Z-0.871
X16.888 Y19.075
Z-0.881
X25.412
X25.415 Z-0.871
X25.317 Y19.155
X25.316 Z-0.881
X16.821
Z-0.871
X16.754 Y19.235
Z-0.881
X25.243
X25.246 Z-0.871
X25.2 Y19.315
X25.198 Z-0.881
X16.687
Z-0.871
X16.62 Y19.395
Z-0.881
X25.17
X25.171 Z-0.871
X25.156 Y19.475
X25.155 Z-0.881
X16.553
Z-0.871
X16.487 Y19.555
Z-0.881
X25.151
X25.154 Z-0.871
X25.165 Y19.635
X25.164 Z-0.881
X16.42
Z-0.871
X16.354 Y19.715
Z-0.881
X25.187
X25.191 Z-0.871
X25.232 Y19.795
X25.231 Z-0.881
X16.287
Z-0.871
X16.221 Y19.875
Z-0.881
X25.291
Z-0.871
G0 Z5.
X26.49 Y16.435
Z1.935
G1 Z-0.871 F200.
Z-0.881
X26.638
Z-0.871
X26.705 Y16.471
X26.767 Y16.515
Z-0.881
X26.551
Z-0.871
X26.612 Y16.595
Z-0.881
X26.854
Z-0.871
X26.931 Y16.675
X26.928 Z-0.881
X26.672
Z-0.871
X26.733 Y16.755
Z-0.881
X26.996
X26.998 Z-0.871
X27.059 Y16.835
X27.058 Z-0.881
X26.794
Z-0.871
X26.855 Y16.915
Z-0.881
X27.113
X27.114 Z-0.871
X27.158 Y16.995
Z-0.881
X26.916
Z-0.871
X26.976 Y17.075
Z-0.881
X27.198
Z-0.871
X27.226 Y17.155
X27.225 Z-0.881
X27.037
Z-0.871
X27.098 Y17.235
Z-0.881
X27.238
X27.24 Z-0.871
X27.236 Y17.315
Z-0.881
X27.159
Z-0.871
G0 Z5.
X28.397 Y13.395
Z1.935
G1 Z-0.87 F200.
Z-0.871
Z-0.881
X25.15
Z-0.871
X25.201 Y13.475
Z-0.881
X28.444
X28.445 Z-0.871
X28.492 Y13.555
Z-0.881
X25.234
Z-0.871
X25.253 Y13.635
Z-0.881
X28.54
Z-0.871
X28.588 Y13.715
Z-0.881
X25.258
Z-0.871
X25.25 Y13.795
Z-0.881
X28.635
X28.636 Z-0.871
X28.683 Y13.875
Z-0.881
X25.228
Z-0.871
X25.191 Y13.955
Z-0.881
X28.731
Z-0.871
X28.779 Y14.035
X28.778 Z-0.881
X25.134
Z-0.871
X25.046 Y14.115
Z-0.881
X28.826
X28.827 Z-0.871
X28.874 Y14.195
Z-0.881
X24.949
Z-0.871
X24.865 Y14.275
Z-0.881
X28.921
X28.922 Z-0.871
X28.97 Y14.355
X28.969 Z-0.881
X24.914
Z-0.871
X24.972 Y14.435
Z-0.881
X29.014
X29.017 Z-0.871
X29.065 Y14.515
Z-0.881
X25.031
Z-0.871
X25.092 Y14.595
Z-0.881
X29.111
X29.113 Z-0.871
X29.161 Y14.675
Z-0.881
X27.867
Z-0.871
X27.993 Y14.712
X28.116 Y14.755
Z-0.881
X29.207
X29.209 Z-0.871
X29.256 Y14.835
Z-0.881
X28.286
Z-0.871
X28.352 Y14.874
X28.417 Y14.915
Z-0.881
X29.302
X29.304 Z-0.871
X29.352 Y14.995
Z-0.881
X28.531
Z-0.871
X28.627 Y15.075
Z-0.881
X29.399
Z-0.871
X29.447 Y15.155
X29.445 Z-0.881
X28.711
Z-0.871
X28.785 Y15.235
Z-0.881
X29.495
Z-0.871
X29.543 Y15.315
X29.541 Z-0.881
X28.852
Z-0.871
X28.913 Y15.395
Z-0.881
X29.59
Z-0.871
X29.638 Y15.475
Z-0.881
X28.967
Z-0.871
X29.019 Y15.555
Z-0.881
X29.684
X29.686 Z-0.871
X29.732 Y15.635
X29.73 Z-0.881
X29.061
Z-0.871
X29.103 Y15.715
Z-0.881
X29.776
Z-0.871
X29.817 Y15.795
X29.815 Z-0.881
X29.137
Z-0.871
X29.166 Y15.875
Z-0.881
X29.714
Z-0.871
X29.652 Y15.916
X29.59 Y15.955
X29.589 Z-0.881
X29.195
Z-0.871
X29.215 Y16.035
Z-0.881
X29.493
X29.494 Z-0.871
X29.433 Y16.115
X29.431 Z-0.881
X29.233
Z-0.871
X29.249 Y16.195
Z-0.881
X29.391
X29.394 Z-0.871
X29.37 Y16.275
X29.369 Z-0.881
X29.257
Z-0.871
X29.264 Y16.355
Z-0.881
X29.36
Z-0.871
X29.364 Y16.436
X29.38 Y16.515
X29.377 Z-0.881
X29.265
Z-0.871
X29.262 Y16.595
Z-0.881
X29.409
X29.411 Z-0.871
X29.456 Y16.675
X29.455 Z-0.881
X29.254
Z-0.871
X29.241 Y16.755
Z-0.881
X29.502
X29.503 Z-0.871
G0 Z5.
X26.976 Y14.675
Z1.935
G1 Z-0.871 F200.
X26.973 Z-0.881
X25.152
Z-0.871
X25.213 Y14.755
Z-0.881
X26.688
X26.689 Z-0.871
X26.582 Y14.793
X26.477 Y14.835
Z-0.881
X25.274
Z-0.871
X25.335 Y14.915
Z-0.881
X26.301
Z-0.871
X26.224 Y14.954
X26.148 Y14.995
X26.147 Z-0.881
X25.396
Z-0.871
X25.457 Y15.075
Z-0.881
X26.005
X26.006 Z-0.871
X25.879 Y15.155
Z-0.881
X25.518
Z-0.871
X25.578 Y15.235
Z-0.881
X25.757
Z-0.871
G0 Z5.
X34.644 Y7.795
Z1.935
G1 Z-0.871 F200.
Z-0.881
X38.13
X38.133 Z-0.871
X38.156 Y7.875
X38.153 Z-0.881
X34.688
Z-0.871
X34.724 Y7.955
Z-0.881
X38.175
X38.178 Z-0.871
X38.2 Y8.035
X38.197 Z-0.881
X34.759
Z-0.871
X34.782 Y8.115
Z-0.881
X38.22
X38.223 Z-0.871
X38.245 Y8.195
X38.242 Z-0.881
X34.791
Z-0.871
X34.787 Y8.275
Z-0.881
X38.264
X38.267 Z-0.871
X38.29 Y8.355
X38.287 Z-0.881
X34.77
Z-0.871
X34.738 Y8.435
Z-0.881
X38.309
X38.312 Z-0.871
X38.334 Y8.515
Z-0.881
X34.688
Z-0.871
X34.611 Y8.595
Z-0.881
X38.354
X38.357 Z-0.871
X38.379 Y8.675
Z-0.881
X34.48
Z-0.871
X34.4 Y8.714
X34.321 Y8.755
Z-0.881
X38.401
Z-0.871
X38.424 Y8.835
X38.421 Z-0.881
X34.28
Z-0.871
X34.311 Y8.915
Z-0.881
X38.446
Z-0.871
X38.469 Y8.995
X38.466 Z-0.881
X34.345
Z-0.871
X34.381 Y9.075
Z-0.881
X38.491
Z-0.871
X38.513 Y9.155
X38.51 Z-0.881
X34.416
Z-0.871
X34.452 Y9.235
Z-0.881
X38.533
X38.536 Z-0.871
X38.558 Y9.315
Z-0.881
X34.487
Z-0.871
X34.523 Y9.395
Z-0.881
X38.577
X38.58 Z-0.871
X38.603 Y9.475
X38.601 Z-0.881
X34.559
Z-0.871
X34.594 Y9.555
Z-0.881
X38.622
X38.625 Z-0.871
X38.647 Y9.635
X38.644 Z-0.881
X34.63
Z-0.871
X34.666 Y9.715
Z-0.881
X38.67
Z-0.871
X38.692 Y9.795
Z-0.881
X34.701
Z-0.871
X34.737 Y9.875
Z-0.881
X38.711
X38.715 Z-0.871
X38.737 Y9.955
X38.736 Z-0.881
X34.773
Z-0.871
X34.808 Y10.035
Z-0.881
X38.759
Z-0.871
X38.782 Y10.115
X38.778 Z-0.881
X34.844
Z-0.871
X34.88 Y10.195
Z-0.881
X38.801
X38.804 Z-0.871
X38.826 Y10.275
Z-0.881
X34.915
Z-0.871
X34.951 Y10.355
Z-0.881
X38.849
Z-0.871
X38.871 Y10.435
Z-0.881
X37.97
Z-0.871
X37.834 Y10.416
X37.697 Y10.435
Z-0.881
X34.987
Z-0.871
X35.022 Y10.515
Z-0.881
X37.456
X37.458 Z-0.871
X37.542 Y10.48
X37.626 Y10.456
X37.711 Y10.432
X37.795 Y10.418
X37.879
X37.964 Y10.434
X38.048 Y10.465
X38.132 Y10.515
Z-0.881
X38.893
X38.894 Z-0.871
X38.905 Y10.555 Z-0.876
X38.916 Y10.595 Z-0.881
X38.217
Z-0.871
G0 Z5.
X37.347
Z1.935
G1 Z-0.871 F200.
X37.346 Z-0.881
X35.058
Z-0.871
X35.094 Y10.675
Z-0.881
X37.277
X37.279 Z-0.871
X37.234 Y10.755
Z-0.881
X35.129
Z-0.871
X35.165 Y10.835
Z-0.881
X36.572
X36.574 Z-0.871
X36.671 Y10.805
X36.769 Y10.796
X36.867 Y10.805
X36.964 Y10.835
Z-0.881
X37.205
X37.207 Z-0.871
X37.193 Y10.915
X37.191 Z-0.881
X37.094
Z-0.871
X37.007 Y10.856
X36.92 Y10.819
X36.833 Y10.8
X36.746 Y10.796
X36.659 Y10.808
X36.572 Y10.836
X36.485 Y10.875
X36.398 Y10.915
X36.396 Z-0.881
X35.201
Z-0.871
X35.236 Y10.995
Z-0.881
X36.286
X36.288 Z-0.871
X36.221 Y11.075
X36.217 Z-0.881
X35.272
Z-0.871
X35.308 Y11.155
Z-0.881
X36.176
Z-0.871
X36.149 Y11.235
X36.147 Z-0.881
X35.343
Z-0.871
X35.379 Y11.315
Z-0.881
X36.133
X36.136 Z-0.871
Y11.395
Z-0.881
X35.415
Z-0.871
X35.45 Y11.475
Z-0.881
X36.148
Z-0.871
X36.162 Y11.555
X36.159 Z-0.881
X35.486
Z-0.871
X35.522 Y11.635
Z-0.881
X36.172
X36.175 Z-0.871
X36.185 Y11.715
Z-0.881
X35.557
Z-0.871
X35.593 Y11.795
Z-0.881
X36.191
X36.193 Z-0.871
X36.199 Y11.875
X36.197 Z-0.881
X35.629
Z-0.871
X35.664 Y11.955
Z-0.881
X36.199
X36.2 Z-0.871
X36.195 Y12.035
Z-0.881
X35.7
Z-0.871
X35.736 Y12.115
Z-0.881
X36.18
X36.183 Z-0.871
X36.158 Y12.195
Z-0.881
X35.771
Z-0.871
X35.807 Y12.275
Z-0.881
X36.103
X36.104 Z-0.871
X35.999 Y12.355
X35.996 Z-0.881
X35.843
Z-0.871
G0 Z5.
X38.272 Y10.675
Z1.935
G1 Z-0.871 F200.
Z-0.881
X38.937
X38.938 Z-0.871
X38.949 Y10.715 Z-0.876
X38.96 Y10.755 Z-0.881
X38.317
Z-0.871
X38.364 Y10.835
Z-0.881
X38.982
X38.983 Z-0.871
X38.994 Y10.875 Z-0.876
X39.005 Y10.915 Z-0.881
X38.415
Z-0.871
X38.47 Y10.995
Z-0.881
X39.027
X39.05 Y11.075
X38.531
Z-0.871
X38.603 Y11.155
Z-0.881
X39.072
X39.084 Y11.195 Z-0.876
X39.095 Y11.235 Z-0.871
X39.092 Z-0.881
X38.701
Z-0.871
G0 Z5.
X40.739 Y5.795
Z1.935
G1 Z-0.871 F200.
Z-0.881
X42.467
Z-0.871
X42.478 Y5.875
Z-0.881
X40.781
Z-0.871
X40.807 Y5.955
Z-0.881
X42.489
Z-0.871
X42.5 Y6.035
Z-0.881
X40.829
Z-0.871
X40.85 Y6.115
Z-0.881
X42.511
Z-0.871
X42.522 Y6.195
X42.519 Z-0.881
X40.859
Z-0.871
X40.855 Y6.275
Z-0.881
X42.533
Z-0.871
X42.545 Y6.355
X42.542 Z-0.881
X40.838
Z-0.871
X40.806 Y6.435
Z-0.881
X42.556
Z-0.871
X42.567 Y6.515
X42.565 Z-0.881
X40.755
Z-0.871
X40.678 Y6.595
Z-0.881
X42.575
X42.578 Z-0.871
X42.589 Y6.675
Z-0.881
X40.542
Z-0.871
X40.421 Y6.714
X40.3 Y6.755
Z-0.881
X42.6
Z-0.871
X42.611 Y6.835
Z-0.881
X40.26
Z-0.871
X40.279 Y6.915
Z-0.881
X42.622
Z-0.871
X42.633 Y6.995
Z-0.881
X40.3
Z-0.871
X40.322 Y7.075
Z-0.881
X42.643
X42.644 Z-0.871
X42.655 Y7.155
Z-0.881
X40.344
Z-0.871
X40.367 Y7.235
Z-0.881
X42.666
Z-0.871
X42.677 Y7.315
Z-0.881
X40.389
Z-0.871
X40.411 Y7.395
Z-0.881
X42.686
X42.689 Z-0.871
X42.7 Y7.475
X42.698 Z-0.881
X40.434
Z-0.871
X40.456 Y7.555
Z-0.881
X42.717
X42.718 Z-0.871
X42.751 Y7.635
X42.748 Z-0.881
X40.478
Z-0.871
X40.501 Y7.715
Z-0.881
X42.799
X42.802 Z-0.871
X42.882 Y7.795
X42.88 Z-0.881
X40.523
Z-0.871
X40.545 Y7.875
Z-0.881
X43.022
X43.024 Z-0.871
G0 Z5.
X43.435 Y7.955
Z1.935
G1 Z-0.87 F200.
Z-0.871
X43.434 Z-0.881
X40.568
Z-0.871
X40.59 Y8.035
Z-0.881
X43.368
X43.369 Z-0.871
X43.312 Y8.115
Z-0.881
X40.612
Z-0.871
X40.635 Y8.195
Z-0.881
X43.257
X43.26 Z-0.871
X43.213 Y8.275
X43.212 Z-0.881
X40.657
Z-0.871
X40.68 Y8.355
Z-0.881
X43.169
Z-0.871
X43.131 Y8.435
X43.127 Z-0.881
X40.702
Z-0.871
X40.724 Y8.515
Z-0.881
X43.095
X43.096 Z-0.871
X43.066 Y8.595
Z-0.881
X40.746
Z-0.871
X40.769 Y8.675
Z-0.881
X43.04
Z-0.871
X43.017 Y8.755
Z-0.881
X40.791
Z-0.871
X40.813 Y8.835
Z-0.881
X42.999
Z-0.871
X42.983 Y8.915
X42.982 Z-0.881
X40.836
Z-0.871
X40.858 Y8.995
Z-0.881
X42.97
X42.971 Z-0.871
X42.963 Y9.075
Z-0.881
X40.881
Z-0.871
X40.903 Y9.155
Z-0.881
X42.19
X42.191 Z-0.871
X42.275 Y9.135
X42.358 Y9.127
X42.441 Y9.134
X42.525 Y9.155
Z-0.881
X42.957
X42.958 Z-0.871
X42.957 Y9.235
Z-0.881
X42.67
Z-0.871
X42.582 Y9.18
X42.494 Y9.146
X42.406 Y9.129
X42.318
X42.231 Y9.144
X42.143 Y9.169
X42.055 Y9.195
X41.967 Y9.235
X41.966 Z-0.881
X40.925
Z-0.871
X40.947 Y9.315
Z-0.881
X41.861
X41.863 Z-0.871
G0 Z5.
X42.75
Z1.935
G1 Z-0.871 F200.
Z-0.881
X42.956
X42.957 Z-0.871
X42.962 Y9.395
Z-0.881
X42.802
Z-0.871
X42.836 Y9.475
Z-0.881
X42.97
Z-0.871
X42.979 Y9.555
X42.978 Z-0.881
X42.859
Z-0.871
X42.881 Y9.635
Z-0.881
X42.994
Z-0.871
X43.009 Y9.715
X43.008 Z-0.881
X42.903
Z-0.871
X42.926 Y9.795
Z-0.881
X43.03
Z-0.871
X43.053 Y9.875
X43.052 Z-0.881
X42.948
Z-0.871
X42.971 Y9.955
Z-0.881
X43.081
Z-0.871
X43.111 Y10.035
Z-0.881
X42.993
Z-0.871
X43.015 Y10.115
Z-0.881
X43.146
Z-0.871
X43.186 Y10.195
X43.185 Z-0.881
X43.038
Z-0.871
X43.06 Y10.275
Z-0.881
X43.228
X43.229 Z-0.871
X43.279 Y10.355
Z-0.881
X43.083
Z-0.871
X43.105 Y10.435
Z-0.881
X43.333
Z-0.871
X43.394 Y10.515
X43.393 Z-0.881
X43.128
Z-0.871
X43.15 Y10.595
Z-0.881
X43.461
X43.462 Z-0.871
X43.535 Y10.675
Z-0.881
X43.172
Z-0.871
X43.195 Y10.755
Z-0.881
X43.621
Z-0.871
X43.715 Y10.835
X43.714 Z-0.881
X43.217
Z-0.871
X43.24 Y10.915
Z-0.881
X43.82
Z-0.871
X43.882 Y10.955
X43.945 Y10.995
X43.941 Z-0.881
X43.255
Z-0.871
X43.257 Y11.075
Z-0.881
X44.092
Z-0.871
X44.181 Y11.117
X44.272 Y11.155
X44.271 Z-0.881
X43.247
Z-0.871
X43.222 Y11.235
Z-0.881
X44.525
Z-0.871
Z-0.87
G0 Z5.
X41.798 Y9.395
Z1.935
G1 Z-0.871 F200.
X41.797 Z-0.881
X40.97
Z-0.871
X40.992 Y9.475
Z-0.881
X41.755
X41.756 Z-0.871
X41.73 Y9.555
X41.729 Z-0.881
X41.014
Z-0.871
X41.037 Y9.635
Z-0.881
X41.715
X41.718 Z-0.871
Y9.715
X41.717 Z-0.881
X41.059
Z-0.871
X41.081 Y9.795
Z-0.881
X41.72
X41.721 Z-0.871
X41.722 Y9.875
Z-0.881
X41.104
Z-0.871
X41.115 Y9.915 Z-0.876
X41.126 Y9.955 Z-0.881
X41.72
Z-0.871
X41.717 Y10.035
X41.715 Z-0.881
X41.148
Z-0.871
X41.171 Y10.115
Z-0.881
X41.71
X41.711 Z-0.871
X41.7 Y10.195
X41.698 Z-0.881
X41.193
X41.216 Y10.275
X41.683
Z-0.871
X41.659 Y10.355
X41.657 Z-0.881
X41.238
Z-0.871
X41.26 Y10.435
Z-0.881
X41.618
Z-0.871
X41.535 Y10.515
X41.531 Z-0.881
X41.282
Z-0.871
G0 Z5.
X50.609 Y8.435
Z1.935
G1 Z-0.871 F200.
Z-0.881
X50.792
Z-0.871
X50.894 Y8.515
Z-0.881
X50.609
Z-0.871
Y8.595
Z-0.881
X50.945
X50.946 Z-0.871
X50.974 Y8.675
X50.973 Z-0.881
X50.609
Z-0.871
X50.61 Y8.755
Z-0.881
X50.989
Z-0.871
X50.997 Y8.835
X50.994 Z-0.881
X50.61
Z-0.871
Y8.915
Z-0.881
X50.998
Z-0.871
X50.988 Y8.995
X50.985 Z-0.881
X50.611
Z-0.871
Y9.075
Z-0.881
X50.969
X50.97 Z-0.871
X50.945 Y9.155
Z-0.881
X50.611
Z-0.871
Y9.235
Z-0.881
X50.902
Z-0.871
X50.833 Y9.315
Z-0.881
X50.612
Z-0.871
Y9.395
Z-0.881
X50.702
Z-0.871
G0 Z5.
X50.711 Y5.635
Z1.935
G1 Z-0.871 F200.
X50.707 Z-0.881
X50.596
Z-0.871
Y5.715
Z-0.881
X50.915
Z-0.871
X51.012 Y5.795
Z-0.881
X50.597
Z-0.871
Y5.875
Z-0.881
X51.073
X51.075 Z-0.871
X51.116 Y5.955
Z-0.881
X50.597
Z-0.871
X50.598 Y6.035
Z-0.881
X51.145
X51.146 Z-0.871
X51.163 Y6.115
Z-0.881
X50.598
Z-0.871
Y6.195
Z-0.881
X51.17
Z-0.871
X51.176 Y6.275
Z-0.881
X50.599
Z-0.871
Y6.355
Z-0.881
X51.172
X51.173 Z-0.871
X51.162 Y6.435
Z-0.881
X50.599
Z-0.871
X50.6 Y6.515
Z-0.881
X51.141
X51.148 Z-0.871
X51.124 Y6.595
Z-0.881
X50.6
Z-0.871
Y6.675
Z-0.881
X51.089
X51.09 Z-0.871
X51.039 Y6.755
X51.036 Z-0.881
X50.601
Z-0.871
Y6.835
Z-0.881
X50.956
X50.96 Z-0.871
X50.893 Y6.88
X50.822 Y6.915
X50.82 Z-0.881
X50.601
Z-0.871
G0 Z5.
X51.51 Y4.355
Z1.935
G1 Z-0.871 F200.
Z-0.881
X60.832
X60.835 Z-0.871
X60.922 Y4.375
X61.009 Y4.394
X61.182 Y4.435
Z-0.881
X51.919
Z-0.871
X52.055 Y4.471
X52.189 Y4.515
Z-0.881
X61.512
X61.514 Z-0.871
X61.838 Y4.595
X61.835 Z-0.881
X52.396
Z-0.871
X52.482 Y4.634
X52.567 Y4.675
Z-0.881
X55.97
Z-0.871
X55.84 Y4.712
X55.712 Y4.755
Z-0.881
X52.707
Z-0.871
X52.768 Y4.794
X52.827 Y4.835
Z-0.881
X55.53
Z-0.871
X55.458 Y4.874
X55.387 Y4.915
Z-0.881
X52.935
Z-0.871
X53.026 Y4.995
Z-0.881
X55.263
X55.265 Z-0.871
X55.164 Y5.075
Z-0.881
X53.11
Z-0.871
X53.182 Y5.155
Z-0.881
X55.073
Z-0.871
X54.996 Y5.235
Z-0.881
X53.249
Z-0.871
X53.308 Y5.315
Z-0.881
X54.921
X54.922 Z-0.871
X54.862 Y5.395
Z-0.881
X53.359
Z-0.871
X53.406 Y5.475
Z-0.881
X54.801
X54.802 Z-0.871
X54.752 Y5.555
Z-0.881
X53.447
Z-0.871
X53.483 Y5.635
Z-0.881
X54.705
Z-0.871
X54.661 Y5.715
X54.66 Z-0.881
X53.512
Z-0.871
X53.541 Y5.795
Z-0.881
X54.624
Z-0.871
X54.588 Y5.875
Z-0.881
X53.562
Z-0.871
X53.581 Y5.955
Z-0.881
X54.555
Z-0.871
X54.528 Y6.035
Z-0.881
X53.596
Z-0.871
X53.606 Y6.115
Z-0.881
X54.498
X54.501 Z-0.871
X54.477 Y6.195
Z-0.881
X53.611
Z-0.871
X53.615 Y6.275
Z-0.881
X54.457
X54.458 Z-0.871
X54.438 Y6.355
Z-0.881
X53.612
Z-0.871
X53.609 Y6.435
Z-0.881
X54.421
Z-0.871
X54.407 Y6.515
Z-0.881
X53.602
Z-0.871
X53.591 Y6.595
Z-0.881
X54.393
Z-0.871
X54.381 Y6.675
X54.38 Z-0.881
X53.577
Z-0.871
X53.558 Y6.755
Z-0.881
X54.367
X54.369 Z-0.871
X54.358 Y6.835
X54.356 Z-0.881
X53.537
Z-0.871
X53.51 Y6.915
Z-0.881
X54.344
X54.346 Z-0.871
X54.334 Y6.995
X54.333 Z-0.881
X53.478
Z-0.871
X53.443 Y7.075
Z-0.881
X54.321
X54.323 Z-0.871
X54.311 Y7.155
X54.31 Z-0.881
X53.4
Z-0.871
X53.353 Y7.235
Z-0.881
X54.298
X54.3 Z-0.871
X54.288 Y7.315
X54.287 Z-0.881
X53.297
Z-0.871
X53.236 Y7.395
Z-0.881
X54.275
X54.276 Z-0.871
X54.265 Y7.475
X54.264 Z-0.881
X53.164
Z-0.871
X53.085 Y7.555
Z-0.881
X54.252
X54.253 Z-0.871
X54.242 Y7.635
X54.241 Z-0.881
X52.993
Z-0.871
X52.886 Y7.715
Z-0.881
X54.23
Z-0.871
X54.219 Y7.795
X54.218 Z-0.881
X52.879
Z-0.871
X52.955 Y7.875
Z-0.881
X54.206
X54.207 Z-0.871
X54.195 Y7.955
Z-0.881
X53.023
Z-0.871
X53.082 Y8.035
Z-0.881
X54.183
X54.184 Z-0.871
X54.172 Y8.115
Z-0.881
X53.132
Z-0.871
X53.176 Y8.195
Z-0.881
X54.16
X54.161 Z-0.871
X54.149 Y8.275
Z-0.881
X53.214
Z-0.871
X53.246 Y8.355
Z-0.881
X54.137
Z-0.871
X54.126 Y8.435
Z-0.881
X53.273
Z-0.871
X53.295 Y8.515
Z-0.881
X54.114
Z-0.871
X54.103 Y8.595
X54.099 Z-0.881
X53.312
Z-0.871
X53.325 Y8.675
Z-0.881
X54.088
X54.091 Z-0.871
X54.08 Y8.755
X54.076 Z-0.881
X53.335
Z-0.871
X53.339 Y8.835
Z-0.881
X54.065
X54.068 Z-0.871
X54.056 Y8.915
Z-0.881
X53.342
Z-0.871
X53.34 Y8.995
Z-0.881
X54.042
X54.045 Z-0.871
X54.033 Y9.075
X54.03 Z-0.881
X53.335
Z-0.871
X53.326 Y9.155
Z-0.881
X54.019
X54.022 Z-0.871
X54.01 Y9.235
X54.007 Z-0.881
X53.313
Z-0.871
X53.297 Y9.315
Z-0.881
X53.998
Z-0.871
X53.987 Y9.395
X53.986 Z-0.881
X53.275
Z-0.871
X53.252 Y9.475
Z-0.881
X53.974
Z-0.871
X53.96 Y9.555
Z-0.881
X53.222
Z-0.871
X53.189 Y9.635
Z-0.881
X53.486
X53.487 Z-0.871
X53.558 Y9.622
X53.628 Y9.62
X53.699 Y9.626
X53.77 Y9.635
Z-0.881
X53.943
X53.944 Z-0.871
X53.865 Y9.644
X53.785 Y9.637
X53.704 Y9.627
X53.624 Y9.619
X53.545 Y9.624
X53.467 Y9.641
X53.392 Y9.671
X53.318 Y9.715
X53.316 Z-0.881
X53.15
Z-0.871
X53.106 Y9.795
Z-0.881
X53.23
X53.231 Z-0.871
X53.176 Y9.875
X53.175 Z-0.881
X53.055
Z-0.871
X52.999 Y9.955
Z-0.881
X53.137
X53.14 Z-0.871
X53.119 Y10.035
X53.118 Z-0.881
X52.933
Z-0.871
X52.862 Y10.115
Z-0.881
X53.107
Z-0.871
X53.096 Y10.195
X53.094 Z-0.881
X52.775
Z-0.871
X52.682 Y10.275
Z-0.881
X53.089
X53.091 Z-0.871
X53.098 Y10.355
X53.097 Z-0.881
X52.569
Z-0.871
X52.505 Y10.397
X52.439 Y10.435
Z-0.881
X53.119
X53.12 Z-0.871
X53.157 Y10.515
X53.156 Z-0.881
X52.282
Z-0.871
X52.182 Y10.558
X52.08 Y10.595
Z-0.881
X53.211
X53.214 Z-0.871
X53.302 Y10.675
X53.301 Z-0.881
X51.807
Z-0.871
X51.675 Y10.703
X51.542 Y10.725
X51.408 Y10.742
X51.273 Y10.755
Z-0.881
X53.482
X53.484 Z-0.871
X53.618 Y10.776
X54.021 Y10.835
Z-0.881
X47.501
Z-0.871
X47.428 Y10.915
Z-0.881
X54.563
X54.566 Z-0.871
G0 Z5.
X57.003 Y6.115
Z1.935
G1 Z-0.871 F200.
Z-0.881
X57.511
X57.513 Z-0.871
X57.625 Y6.148
X57.731 Y6.195
X57.73 Z-0.881
X56.882
Z-0.871
X56.827 Y6.275
Z-0.881
X57.843
X57.845 Z-0.871
X57.921 Y6.355
X57.92 Z-0.881
X56.787
Z-0.871
X56.76 Y6.435
Z-0.881
X57.975
Z-0.871
X58.016 Y6.515
Z-0.881
X56.735
Z-0.871
X56.72 Y6.595
Z-0.881
X58.047
Z-0.871
X58.072 Y6.675
X58.07 Z-0.881
X56.704
Z-0.871
X56.692 Y6.755
Z-0.881
X58.089
Z-0.871
X58.102 Y6.835
X58.099 Z-0.881
X56.68
Z-0.871
X56.669 Y6.915
Z-0.881
X58.107
Z-0.871
X58.11 Y6.995
Z-0.881
X56.657
Z-0.871
X56.646 Y7.075
Z-0.881
X58.112
X58.113 Z-0.871
X58.11 Y7.155
X58.109 Z-0.881
X56.634
Z-0.871
X56.623 Y7.235
Z-0.881
X58.103
Z-0.871
X58.097 Y7.315
X58.096 Z-0.881
X56.611
Z-0.871
X56.6 Y7.395
Z-0.881
X58.084
X58.088 Z-0.871
X58.076 Y7.475
X58.075 Z-0.881
X56.588
Z-0.871
X56.577 Y7.555
Z-0.881
X58.062
X58.065 Z-0.871
X58.053 Y7.635
X58.051 Z-0.881
X56.565
Z-0.871
X56.554 Y7.715
Z-0.881
X58.039
X58.041 Z-0.871
X58.03 Y7.795
X58.028 Z-0.881
X56.542
Z-0.871
X56.531 Y7.875
Z-0.881
X58.016
X58.018 Z-0.871
X58.007 Y7.955
X58.004 Z-0.881
X56.519
Z-0.871
X56.508 Y8.035
Z-0.881
X57.995
Z-0.871
X57.984 Y8.115
X57.981 Z-0.881
X56.496
Z-0.871
X56.485 Y8.195
Z-0.881
X57.969
X57.972 Z-0.871
X57.961 Y8.275
X57.958 Z-0.881
X56.473
Z-0.871
X56.462 Y8.355
Z-0.881
X57.949
Z-0.871
X57.938 Y8.435
X57.935 Z-0.881
X56.45
Z-0.871
X56.439 Y8.515
Z-0.881
X57.923
X57.926 Z-0.871
X57.915 Y8.595
X57.911 Z-0.881
X56.427
Z-0.871
X56.416 Y8.675
Z-0.881
X57.9
X57.903 Z-0.871
X57.891 Y8.755
Z-0.881
X56.404
Z-0.871
X56.393 Y8.835
Z-0.881
X57.88
Z-0.871
X57.868 Y8.915
Z-0.881
X56.381
Z-0.871
X56.37 Y8.995
Z-0.881
X57.856
X57.857 Z-0.871
X57.845 Y9.075
Z-0.881
X56.358
Z-0.871
X56.347 Y9.155
Z-0.881
X57.833
X57.834 Z-0.871
X57.822 Y9.235
X57.821 Z-0.881
X56.335
Z-0.871
X56.324 Y9.315
Z-0.881
X57.81
X57.811 Z-0.871
X57.799 Y9.395
X57.798 Z-0.881
X56.312
Z-0.871
X56.301 Y9.475
Z-0.881
X57.787
X57.788 Z-0.871
X57.776 Y9.555
Z-0.881
X56.289
Z-0.871
X56.278 Y9.635
Z-0.881
X57.763
X57.765 Z-0.871
X57.753 Y9.715
X57.752 Z-0.881
X56.266
Z-0.871
X56.255 Y9.795
Z-0.881
X57.741
Z-0.871
X57.728 Y9.875
Z-0.881
X56.247
Z-0.871
X56.24 Y9.955
Z-0.881
X57.713
X57.716 Z-0.871
X57.7 Y10.035
Z-0.881
X56.481
Z-0.871
X56.593 Y10.063
X56.696 Y10.115
Z-0.881
X57.681
X57.683 Z-0.871
X57.569 Y10.189
X57.44 Y10.176
X57.313 Y10.17
X57.191 Y10.195
X57.189 Z-0.881
X56.789
Z-0.871
X56.849 Y10.275
Z-0.881
X57.043
Z-0.871
X56.962 Y10.355
Z-0.881
X56.887
Z-0.871
G0 Z5.
X56.864 Y10.995
Z1.935
G1 Z-0.871 F200.
X56.863 Z-0.881
X56.787
Z-0.871
X56.704 Y11.075
Z-0.881
X56.9
X56.903 Z-0.871
G0 Z5.
X62.638 Y9.875
Z1.935
G1 Z-0.871 F200.
Z-0.881
X62.686
Z-0.871
X62.771 Y9.913
X62.854 Y9.955
X62.853 Z-0.881
X62.613
Z-0.871
X62.589 Y10.035
Z-0.881
X62.973
X62.975 Z-0.871
X63.054 Y10.115
Z-0.881
X62.564
Z-0.871
X62.539 Y10.195
Z-0.881
X63.101
Z-0.871
X63.123 Y10.275
Z-0.881
X62.514
Z-0.871
X62.489 Y10.355
Z-0.881
X63.13
Z-0.871
X63.126 Y10.435
X63.125 Z-0.881
X62.465
Z-0.871
X62.44 Y10.515
Z-0.881
X63.112
Z-0.871
X63.093 Y10.595
X63.092 Z-0.881
X62.415
Z-0.871
X62.39 Y10.675
Z-0.881
X63.073
Z-0.871
X63.045 Y10.755
X63.043 Z-0.881
X62.365
Z-0.871
X62.341 Y10.835
Z-0.881
X63.013
X63.016 Z-0.871
X62.979 Y10.915
X62.977 Z-0.881
X62.316
Z-0.871
X62.291 Y10.995
Z-0.881
X62.937
X62.938 Z-0.871
X62.886 Y11.075
X62.884 Z-0.881
X62.266
Z-0.871
X62.241 Y11.155
Z-0.881
X62.81
Z-0.871
G0 Z5.
X62.156 Y4.675
Z1.935
G1 Z-0.869 F200.
Z-0.871
Z-0.881
X57.39
Z-0.871
X57.474 Y4.693
X57.558 Y4.712
X57.642 Y4.733
X57.725 Y4.755
Z-0.881
X62.456
Z-0.871
X62.53 Y4.775
X62.603 Y4.795
X62.751 Y4.835
X62.75 Z-0.881
X57.966
Z-0.871
X58.062 Y4.874
X58.156 Y4.915
Z-0.881
X63.043
Z-0.871
X63.113 Y4.935
X63.183 Y4.954
X63.323 Y4.995
Z-0.881
X58.312
Z-0.871
X58.382 Y5.035
X58.451 Y5.075
Z-0.881
X63.595
Z-0.871
X63.729 Y5.115
X63.862 Y5.155
X63.861 Z-0.881
X58.566
Z-0.871
X58.672 Y5.235
Z-0.881
X64.126
X64.128 Z-0.871
X64.255 Y5.275
X64.382 Y5.315
Z-0.881
X58.763
Z-0.871
X58.845 Y5.395
Z-0.881
X64.631
Z-0.871
X64.754 Y5.435
X64.876 Y5.475
X64.874 Z-0.881
X61.293
Z-0.871
X61.199 Y5.466
X61.105 Y5.475
X61.102 Z-0.881
X58.92
Z-0.871
X58.984 Y5.555
Z-0.881
X60.912
X60.914 Z-0.871
X60.995 Y5.51
X61.075 Y5.482
X61.156 Y5.468
X61.236
X61.316 Y5.48
X61.397 Y5.505
X61.477 Y5.53
X61.558 Y5.555
Z-0.881
X65.12
Z-0.871
X65.239 Y5.594
X65.357 Y5.635
Z-0.881
X61.811
Z-0.871
X61.938 Y5.675
X62.064 Y5.715
Z-0.881
X65.586
X65.587 Z-0.871
X65.701 Y5.755
X65.815 Y5.795
X65.812 Z-0.881
X62.318
Z-0.871
X62.444 Y5.835
X62.571 Y5.875
Z-0.881
X66.038
X66.039 Z-0.871
X66.264 Y5.955
X66.263 Z-0.881
X62.824
Z-0.871
X62.951 Y5.995
X63.078 Y6.035
Z-0.881
X66.478
Z-0.871
X66.584 Y6.075
X66.69 Y6.115
Z-0.881
X63.331
Z-0.871
X63.458 Y6.155
X63.585 Y6.195
Z-0.881
X66.9
Z-0.871
X67.109 Y6.275
X67.108 Z-0.881
X63.838
Z-0.871
X63.959 Y6.314
X64.078 Y6.355
Z-0.881
X67.313
X67.317 Z-0.871
X67.415 Y6.395
X67.514 Y6.435
Z-0.881
X64.201
Z-0.871
X64.274 Y6.515
Z-0.881
X67.711
Z-0.871
X67.809 Y6.555
X67.907 Y6.595
Z-0.881
X64.321
Z-0.871
X64.351 Y6.675
Z-0.881
X68.1
X68.101 Z-0.871
X68.294 Y6.755
X68.292 Z-0.881
X65.36
Z-0.871
X65.257 Y6.725
X65.154 Y6.713
X65.051 Y6.723
X64.948 Y6.755
X64.946 Z-0.881
X64.366
Z-0.871
X64.369 Y6.835
Z-0.881
X64.82
Z-0.871
X64.92 Y6.769
X65.019 Y6.731
X65.118 Y6.714
X65.217 Y6.718
X65.316 Y6.741
X65.613 Y6.835
Z-0.881
X68.481
Z-0.871
X68.665 Y6.915
X68.664 Z-0.881
X65.867
Z-0.871
X66.12 Y6.995
Z-0.881
X68.848
Z-0.871
X68.939 Y7.035
X69.03 Y7.075
X69.027 Z-0.881
X66.373
Z-0.871
X66.627 Y7.155
Z-0.881
X69.208
X69.21 Z-0.871
X69.3 Y7.195
X69.389 Y7.235
Z-0.881
X66.88
Z-0.871
X66.973 Y7.268
X67.058 Y7.315
Z-0.881
X69.561
X69.562 Z-0.871
X69.733 Y7.395
Z-0.881
X67.148
Z-0.871
X67.206 Y7.475
Z-0.881
X69.904
X69.905 Z-0.871
X70.074 Y7.555
X70.072 Z-0.881
X67.243
Z-0.871
X67.265 Y7.635
Z-0.881
X70.242
X70.244 Z-0.871
X70.327 Y7.675
X70.41 Y7.715
Z-0.881
X67.273
Z-0.871
X67.268 Y7.795
Z-0.881
X70.571
X70.572 Z-0.871
X70.652 Y7.835
X70.733 Y7.875
Z-0.881
X67.25
Z-0.871
X67.225 Y7.955
Z-0.881
X70.894
Z-0.871
X70.974 Y7.995
X71.053 Y8.035
Z-0.881
X67.2
Z-0.871
X67.164 Y8.115
Z-0.881
X71.213
Z-0.871
X71.292 Y8.155
X71.37 Y8.195
Z-0.881
X67.107
Z-0.871
X67.019 Y8.275
Z-0.881
X71.521
X71.522 Z-0.871
X71.598 Y8.315
X71.674 Y8.355
Z-0.881
X66.841
Z-0.871
X66.729 Y8.368
X66.618 Y8.355
X66.615 Z-0.881
X66.505
Z-0.871
X66.389 Y8.435
Z-0.881
X71.825
Z-0.871
X71.901 Y8.475
X71.976 Y8.515
X71.974 Z-0.881
X66.285
Z-0.871
X66.179 Y8.595
Z-0.881
X68.796
Z-0.871
X68.679 Y8.61
X68.562 Y8.625
X68.447 Y8.649
X68.333 Y8.675
X68.332 Z-0.881
X66.074
Z-0.871
X65.968 Y8.755
Z-0.881
X68.064
Z-0.871
X67.958 Y8.792
X67.853 Y8.835
Z-0.881
X65.862
Z-0.871
X65.757 Y8.915
Z-0.881
X67.681
Z-0.871
X67.606 Y8.952
X67.534 Y8.995
Z-0.881
X65.651
Z-0.871
X65.546 Y9.075
Z-0.881
X67.401
Z-0.871
X67.34 Y9.113
X67.282 Y9.155
Z-0.881
X65.44
Z-0.871
X65.335 Y9.235
Z-0.881
X67.176
Z-0.871
X67.073 Y9.315
Z-0.881
X65.229
Z-0.871
X65.124 Y9.395
Z-0.881
X66.986
Z-0.871
X66.901 Y9.475
Z-0.881
X65.018
Z-0.871
X64.913 Y9.555
Z-0.881
X66.819
X66.82 Z-0.871
X66.75 Y9.635
Z-0.881
X64.896
Z-0.871
X64.969 Y9.715
Z-0.881
X66.681
Z-0.871
X66.614 Y9.795
X66.612 Z-0.881
X65.032
Z-0.871
X65.088 Y9.875
Z-0.881
X66.557
Z-0.871
X66.501 Y9.955
Z-0.881
X65.144
Z-0.871
X65.188 Y10.035
Z-0.881
X66.442
X66.445 Z-0.871
X66.397 Y10.115
Z-0.881
X65.226
Z-0.871
X65.262 Y10.195
Z-0.881
X66.352
Z-0.871
X66.307 Y10.275
Z-0.881
X65.289
Z-0.871
X65.316 Y10.355
Z-0.881
X66.262
X66.263 Z-0.871
X66.227 Y10.435
Z-0.881
X65.337
Z-0.871
X65.354 Y10.515
Z-0.881
X66.191
Z-0.871
X66.156 Y10.595
Z-0.881
X65.37
Z-0.871
X65.378 Y10.675
Z-0.881
X66.12
X66.122 Z-0.871
X66.094 Y10.755
Z-0.881
X65.384
Z-0.871
X65.388 Y10.835
Z-0.881
X66.067
X66.068 Z-0.871
X66.041 Y10.915
Z-0.881
X65.383
Z-0.871
X65.377 Y10.995
Z-0.881
X66.015
Z-0.871
X65.996 Y11.075
X65.995 Z-0.881
X65.369
Z-0.871
X65.354 Y11.155
Z-0.881
X65.977
X65.978 Z-0.871
X65.96 Y11.235
Z-0.881
X65.338
Z-0.871
X65.32 Y11.315
Z-0.881
X65.939
X65.942 Z-0.871
X65.929 Y11.395
Z-0.881
X65.296
Z-0.871
X65.272 Y11.475
Z-0.881
X65.92
Z-0.871
X65.91 Y11.555
Z-0.881
X65.242
Z-0.871
X65.209 Y11.635
Z-0.881
X65.9
X65.901 Z-0.871
X65.895 Y11.715
X65.894 Z-0.881
X65.175
Z-0.871
X65.131 Y11.795
Z-0.881
X65.893
Z-0.871
X65.892 Y11.875
Z-0.881
X65.084
Z-0.871
X65.036 Y11.955
Z-0.881
X65.89
Z-0.871
X65.891 Y12.035
Z-0.881
X64.976
Z-0.871
X64.912 Y12.115
Z-0.881
X65.897
Z-0.871
X65.904 Y12.195
Z-0.881
X64.843
Z-0.871
X64.756 Y12.275
Z-0.881
X65.911
Z-0.871
X65.919 Y12.355
Z-0.881
X64.667
Z-0.871
X64.61 Y12.397
X64.55 Y12.435
Z-0.881
X65.932
Z-0.871
X65.948 Y12.515
X65.947 Z-0.881
X64.425
Z-0.871
X64.336 Y12.556
X64.246 Y12.595
Z-0.881
X65.963
Z-0.871
X65.978 Y12.675
Z-0.881
X63.993
Z-0.871
G0 Z5.
X64.358 Y6.915
Z1.935
G1 Z-0.871 F200.
Z-0.881
X64.715
X64.717 Z-0.871
X64.613 Y6.995
Z-0.881
X64.336
Z-0.871
X64.312 Y7.075
Z-0.881
X64.507
X64.51 Z-0.871
X64.406 Y7.155
Z-0.881
X64.283
Z-0.871
X64.238 Y7.235
Z-0.881
X64.303
Z-0.871
X64.199 Y7.315
X64.096 Y7.395
Z-0.881
X64.055
Z-0.871
X63.933 Y7.439
X63.811 Y7.45
X63.689 Y7.431
X63.567 Y7.395
Z-0.881
X63.414
Z-0.871
X63.384 Y7.475
Z-0.881
X63.989
X63.992 Z-0.871
X63.889 Y7.555
X63.888 Z-0.881
X63.358
Z-0.871
X63.333 Y7.635
Z-0.881
X63.785
Z-0.871
X63.681 Y7.715
Z-0.881
X63.308
Z-0.871
X63.283 Y7.795
Z-0.881
X63.578
Z-0.871
X63.474 Y7.875
X63.473 Z-0.881
X63.258
Z-0.871
X63.233 Y7.955
Z-0.881
X63.371
Z-0.871
X63.267 Y8.035
Z-0.881
X63.208
Z-0.871
G0 Z5.
X60.824 Y5.635
Z1.935
G1 Z-0.871 F200.
X60.823 Z-0.881
X59.046
Z-0.871
X59.1 Y5.715
Z-0.881
X60.766
X60.767 Z-0.871
X60.729 Y5.795
X60.728 Z-0.881
X59.147
Z-0.871
X59.193 Y5.875
Z-0.881
X60.701
X60.704 Z-0.871
X60.68 Y5.955
X60.678 Z-0.881
X59.232
Z-0.871
X59.265 Y6.035
Z-0.881
X60.661
X60.662 Z-0.871
X60.657 Y6.115
X60.656 Z-0.881
X59.299
Z-0.871
X59.327 Y6.195
Z-0.881
X60.662
X60.664 Z-0.871
X60.686 Y6.275
X60.683 Z-0.881
X59.35
Z-0.871
X59.374 Y6.355
Z-0.881
X60.722
X60.723 Z-0.871
X60.779 Y6.435
X60.776 Z-0.881
X59.393
Z-0.871
X59.408 Y6.515
Z-0.881
X60.866
X60.868 Z-0.871
X60.95 Y6.563
X61.039 Y6.595
Z-0.881
X59.423
Z-0.871
X59.434 Y6.675
Z-0.881
X61.242
X61.243 Z-0.871
X61.232 Y6.755
Z-0.881
X59.442
Z-0.871
X59.449 Y6.835
Z-0.881
X61.21
X61.212 Z-0.871
X61.188 Y6.915
Z-0.881
X59.453
Z-0.871
X59.455 Y6.995
Z-0.881
X61.164
Z-0.871
X61.14 Y7.075
Z-0.881
X59.455
Z-0.871
X59.454 Y7.155
Z-0.881
X61.115
Z-0.871
X61.09 Y7.235
Z-0.881
X59.45
Z-0.871
X59.444 Y7.315
Z-0.881
X61.063
X61.065 Z-0.871
X61.04 Y7.395
X61.038 Z-0.881
X59.438
Z-0.871
X59.429 Y7.475
Z-0.881
X61.012
X61.015 Z-0.871
X60.991 Y7.555
X60.989 Z-0.881
X59.419
Z-0.871
X59.408 Y7.635
Z-0.881
X60.966
Z-0.871
X60.941 Y7.715
X60.939 Z-0.881
X59.396
Z-0.871
X59.385 Y7.795
Z-0.881
X60.914
X60.916 Z-0.871
X60.891 Y7.875
X60.889 Z-0.881
X59.373
Z-0.871
X59.361 Y7.955
Z-0.881
X60.864
X60.867 Z-0.871
X60.842 Y8.035
Z-0.881
X59.35
Z-0.871
X59.338 Y8.115
Z-0.881
X60.817
Z-0.871
X60.792 Y8.195
X60.79 Z-0.881
X59.326
Z-0.871
X59.315 Y8.275
Z-0.881
X60.767
Z-0.871
X60.742 Y8.355
Z-0.881
X59.303
Z-0.871
X59.292 Y8.435
Z-0.881
X60.715
X60.718 Z-0.871
X60.693 Y8.515
Z-0.881
X59.28
Z-0.871
X59.268 Y8.595
Z-0.881
X60.668
Z-0.871
X60.643 Y8.675
X60.642 Z-0.881
X59.257
Z-0.871
X59.245 Y8.755
Z-0.881
X60.618
Z-0.871
X60.593 Y8.835
X60.592 Z-0.881
X59.233
Z-0.871
X59.222 Y8.915
Z-0.881
X60.568
X60.569 Z-0.871
X60.544 Y8.995
X60.541 Z-0.881
X59.21
Z-0.871
X59.198 Y9.075
Z-0.881
X60.518
X60.519 Z-0.871
X60.494 Y9.155
Z-0.881
X59.187
Z-0.871
X59.175 Y9.235
Z-0.881
X60.467
X60.469 Z-0.871
X60.445 Y9.315
X60.444 Z-0.881
X59.163
Z-0.871
X59.152 Y9.395
Z-0.881
X60.417
X60.42 Z-0.871
X60.395 Y9.475
X60.393 Z-0.881
X59.14
Z-0.871
X59.128 Y9.555
Z-0.881
X60.37
Z-0.871
X60.345 Y9.635
X60.343 Z-0.881
X59.117
Z-0.871
X59.105 Y9.715
Z-0.881
X60.317
X60.32 Z-0.871
X60.296 Y9.795
X60.295 Z-0.881
X59.094
Z-0.871
X59.082 Y9.875
Z-0.881
X60.271
Z-0.871
X60.246 Y9.955
X60.245 Z-0.881
X59.07
Z-0.871
X59.059 Y10.035
Z-0.881
X60.22
X60.221 Z-0.871
X60.196 Y10.115
X60.195 Z-0.881
X59.049
Z-0.871
X59.039 Y10.195
Z-0.881
X60.17
X60.171 Z-0.871
X60.147 Y10.275
X60.145 Z-0.881
X59.032
Z-0.871
X59.028 Y10.355
Z-0.881
X60.121
X60.122 Z-0.871
X60.096 Y10.435
Z-0.881
X59.176
Z-0.871
X59.246 Y10.447
X59.315 Y10.461
X59.382 Y10.483
X59.446 Y10.515
Z-0.881
X60.068
X60.07 Z-0.871
X60.04 Y10.595
X60.039 Z-0.881
X59.886
Z-0.871
G0 Z5.
X69.447 Y8.595
Z1.935
G1 Z-0.871 F200.
Z-0.881
X72.124
X72.126 Z-0.871
X72.276 Y8.675
X72.273 Z-0.881
X69.937
Z-0.871
X70.01 Y8.695
X70.158 Y8.733
X70.231 Y8.755
Z-0.881
X72.42
Z-0.871
X72.492 Y8.795
X72.563 Y8.835
Z-0.881
X70.453
Z-0.871
X70.55 Y8.872
X70.645 Y8.915
Z-0.881
X72.706
Z-0.871
X72.778 Y8.955
X72.849 Y8.995
X72.847 Z-0.881
X70.818
Z-0.871
X70.898 Y9.034
X70.977 Y9.075
Z-0.881
X72.989
X72.991 Z-0.871
X73.062 Y9.115
X73.133 Y9.155
X73.132 Z-0.881
X71.125
Z-0.871
X71.197 Y9.195
X71.269 Y9.235
Z-0.881
X73.274
Z-0.871
X73.341 Y9.275
X73.409 Y9.315
Z-0.881
X71.405
Z-0.871
X71.471 Y9.355
X71.538 Y9.395
Z-0.881
X73.537
X73.544 Z-0.871
X73.611 Y9.435
X73.679 Y9.475
Z-0.881
X71.661
Z-0.871
X71.722 Y9.515
X71.782 Y9.555
Z-0.881
X73.814
Z-0.871
X73.881 Y9.595
X73.948 Y9.635
Z-0.881
X71.897
Z-0.871
X72.005 Y9.715
Z-0.881
X74.08
X74.082 Z-0.871
X74.149 Y9.755
X74.215 Y9.795
Z-0.881
X72.112
Z-0.871
X72.208 Y9.875
Z-0.881
X74.342
X74.343 Z-0.871
X74.471 Y9.955
Z-0.881
X72.301
Z-0.871
X72.393 Y10.035
Z-0.881
X74.598
X74.599 Z-0.871
X74.663 Y10.075
X74.727 Y10.115
Z-0.881
X72.474
Z-0.871
X72.551 Y10.195
Z-0.881
X74.85
X74.854 Z-0.871
X74.98 Y10.275
Z-0.881
X72.627
Z-0.871
X72.699 Y10.355
Z-0.881
X75.107
Z-0.871
X75.169 Y10.395
X75.23 Y10.435
Z-0.881
X72.762
Z-0.871
X72.822 Y10.515
Z-0.881
X75.35
X75.351 Z-0.871
X75.411 Y10.555
X75.472 Y10.595
X75.47 Z-0.881
X72.876
Z-0.871
X72.928 Y10.675
Z-0.881
X75.59
X75.593 Z-0.871
X75.653 Y10.715
X75.714 Y10.755
X75.712 Z-0.881
X72.963
Z-0.871
X72.983 Y10.835
Z-0.881
X75.834
Z-0.871
X75.954 Y10.915
X75.952 Z-0.881
X72.989
Z-0.871
X72.982 Y10.995
Z-0.881
X76.074
Z-0.871
X76.189 Y11.075
X76.188 Z-0.881
X72.962
Z-0.871
X72.928 Y11.155
Z-0.881
X74.116
X74.117 Z-0.871
X74.22 Y11.122
X74.323 Y11.111
X74.427 Y11.122
X74.53 Y11.155
Z-0.881
X76.303
X76.304 Z-0.871
X76.418 Y11.235
Z-0.881
X74.656
Z-0.871
X74.573 Y11.178
X74.491 Y11.14
X74.408 Y11.118
X74.325 Y11.111
X74.242 Y11.117
X74.159 Y11.139
X74.076 Y11.176
X73.993 Y11.235
Z-0.881
X72.888
Z-0.871
X72.848 Y11.315
Z-0.881
X73.919
X73.92 Z-0.871
G0 Z5.
X74.763
Z1.935
G1 Z-0.871 F200.
Z-0.881
X76.533
Z-0.871
X76.648 Y11.395
Z-0.881
X74.87
Z-0.871
X74.978 Y11.475
Z-0.881
X76.762
Z-0.871
X76.876 Y11.555
Z-0.881
X75.085
Z-0.871
X75.192 Y11.635
Z-0.881
X76.988
X76.989 Z-0.871
X77.098 Y11.715
X77.097 Z-0.881
X75.299
Z-0.871
X75.406 Y11.795
Z-0.881
X77.207
Z-0.871
X77.316 Y11.875
Z-0.881
X75.513
Z-0.871
X75.62 Y11.955
Z-0.881
X77.425
Z-0.871
X77.534 Y12.035
X77.531 Z-0.881
X75.727
Z-0.871
X75.834 Y12.115
Z-0.881
X77.642
Z-0.871
X77.751 Y12.195
X77.75 Z-0.881
X75.941
Z-0.871
X76.048 Y12.275
Z-0.881
X77.858
X77.859 Z-0.871
X77.962 Y12.355
X77.961 Z-0.881
X76.155
Z-0.871
X76.262 Y12.435
Z-0.881
X78.065
X78.066 Z-0.871
X78.17 Y12.515
X78.169 Z-0.881
X76.369
Z-0.871
X76.476 Y12.595
Z-0.881
X78.266
X78.273 Z-0.871
X78.377 Y12.675
X78.374 Z-0.881
X76.584
Z-0.871
X76.691 Y12.755
Z-0.881
X78.478
X78.48 Z-0.871
X78.584 Y12.835
X78.581 Z-0.881
X76.798
Z-0.871
X76.905 Y12.915
Z-0.881
X78.685
X78.687 Z-0.871
X78.786 Y12.995
Z-0.881
X76.989
Z-0.871
X77.096 Y13.075
Z-0.881
X78.885
Z-0.871
X78.984 Y13.155
X78.983 Z-0.881
X77.223
Z-0.871
X77.33 Y13.235
Z-0.881
X79.082
Z-0.871
X79.181 Y13.315
Z-0.881
X77.438
Z-0.871
X77.545 Y13.395
Z-0.881
X79.279
Z-0.871
X79.378 Y13.475
X79.377 Z-0.881
X77.652
Z-0.871
X77.759 Y13.555
Z-0.881
X79.474
X79.476 Z-0.871
X79.574 Y13.635
X79.573 Z-0.881
X77.866
Z-0.871
X77.974 Y13.715
Z-0.881
X79.667
X79.668 Z-0.871
X79.761 Y13.795
Z-0.881
X78.081
Z-0.871
X78.188 Y13.875
Z-0.881
X79.853
X79.855 Z-0.871
X79.949 Y13.955
X79.948 Z-0.881
X78.295
Z-0.871
X78.402 Y14.035
Z-0.881
X80.041
X80.043 Z-0.871
X80.136 Y14.115
Z-0.881
X78.509
Z-0.871
X78.617 Y14.195
Z-0.881
X80.23
Z-0.871
X80.324 Y14.275
Z-0.881
X78.724
Z-0.871
X78.831 Y14.355
Z-0.881
X80.416
X80.417 Z-0.871
X80.506 Y14.435
Z-0.881
X78.938
Z-0.871
X79.045 Y14.515
Z-0.881
X80.594
X80.595 Z-0.871
X80.684 Y14.595
Z-0.881
X79.153
Z-0.871
X79.26 Y14.675
Z-0.881
X80.771
X80.774 Z-0.871
X80.863 Y14.755
Z-0.881
X79.367
Z-0.871
X79.474 Y14.835
Z-0.881
X80.951
X80.952 Z-0.871
X81.042 Y14.915
X81.04 Z-0.881
X79.559
Z-0.871
X79.613 Y14.995
Z-0.881
X81.13
X81.131 Z-0.871
X81.22 Y15.075
Z-0.881
X79.648
Z-0.871
X79.668 Y15.155
Z-0.881
X81.304
X81.305 Z-0.871
X81.39 Y15.235
X81.388 Z-0.881
X79.675
Z-0.871
X79.668 Y15.315
Z-0.881
X81.468
X81.475 Z-0.871
X81.56 Y15.395
Z-0.881
X79.649
Z-0.871
X79.614 Y15.475
Z-0.881
X81.645
Z-0.871
X81.73 Y15.555
X81.729 Z-0.881
X79.56
Z-0.871
X79.502 Y15.635
Z-0.881
X81.814
X81.815 Z-0.871
X81.9 Y15.715
Z-0.881
X79.434
Z-0.871
X79.346 Y15.783
X79.259 Y15.825
X79.171 Y15.848
X79.083 Y15.855
X78.995 Y15.846
X78.908 Y15.821
X78.82 Y15.777
X78.732 Y15.715
X78.73 Z-0.881
X78.489
Z-0.871
X78.428 Y15.795
Z-0.881
X78.849
X78.851 Z-0.871
X78.969 Y15.841
X79.088 Y15.855
X79.206 Y15.841
X79.324 Y15.795
Z-0.881
X81.984
X81.985 Z-0.871
X82.068 Y15.875
X82.065 Z-0.881
X78.369
Z-0.871
X78.31 Y15.955
Z-0.881
X82.149
Z-0.871
X82.23 Y16.035
X82.229 Z-0.881
X78.252
Z-0.871
X78.193 Y16.115
Z-0.881
X82.31
X82.311 Z-0.871
X82.392 Y16.195
Z-0.881
X78.134
Z-0.871
X78.076 Y16.275
Z-0.881
X82.473
Z-0.871
X82.554 Y16.355
Z-0.881
X78.017
Z-0.871
X77.958 Y16.435
Z-0.881
X82.628
X82.635 Z-0.871
X82.716 Y16.515
Z-0.881
X77.9
Z-0.871
X77.841 Y16.595
Z-0.881
X82.795
X82.797 Z-0.871
X82.874 Y16.675
X82.873 Z-0.881
X77.782
Z-0.871
X77.724 Y16.755
Z-0.881
X82.95
X82.952 Z-0.871
X83.029 Y16.835
X83.026 Z-0.881
X77.665
Z-0.871
X77.606 Y16.915
Z-0.881
X83.105
X83.106 Z-0.871
X83.184 Y16.995
X83.183 Z-0.881
X77.548
Z-0.871
X77.489 Y17.075
Z-0.881
X83.26
X83.261 Z-0.871
X83.338 Y17.155
Z-0.881
X77.43
Z-0.871
X77.372 Y17.235
Z-0.881
X83.414
X83.415 Z-0.871
X83.492 Y17.315
Z-0.881
X77.313
Z-0.871
X77.254 Y17.395
Z-0.881
X83.568
X83.569 Z-0.871
X83.642 Y17.475
Z-0.881
X77.196
Z-0.871
X77.137 Y17.555
Z-0.881
X83.715
X83.716 Z-0.871
X83.79 Y17.635
X83.788 Z-0.881
X77.078
Z-0.871
X77.02 Y17.715
Z-0.881
X83.861
X83.864 Z-0.871
X83.937 Y17.795
Z-0.881
X76.961
Z-0.871
X76.902 Y17.875
Z-0.881
X84.01
X84.011 Z-0.871
X84.084 Y17.955
X84.083 Z-0.881
X76.844
Z-0.871
X76.785 Y18.035
Z-0.881
X84.157
X84.158 Z-0.871
X84.231 Y18.115
Z-0.881
X76.726
Z-0.871
X76.668 Y18.195
Z-0.881
X84.304
Z-0.871
X84.375 Y18.275
X84.374 Z-0.881
X76.609
Z-0.871
X76.55 Y18.355
Z-0.881
X84.445
Z-0.871
X84.515 Y18.435
X84.514 Z-0.881
X76.492
Z-0.871
X76.433 Y18.515
Z-0.881
X84.586
Z-0.871
X84.656 Y18.595
X84.655 Z-0.881
X76.374
Z-0.871
X76.316 Y18.675
Z-0.881
X84.726
Z-0.871
X84.796 Y18.755
X84.795 Z-0.881
X76.258
Z-0.871
X76.203 Y18.835
Z-0.881
X84.865
X84.866 Z-0.871
X84.936 Y18.915
X84.935 Z-0.881
X76.151
Z-0.871
X76.199 Y18.995
Z-0.881
X85.005
X85.006 Z-0.871
X85.074 Y19.075
X85.072 Z-0.881
X76.296
Z-0.871
X76.393 Y19.155
Z-0.881
X85.139
X85.141 Z-0.871
X85.208 Y19.235
X85.207 Z-0.881
X76.458
Z-0.871
X76.5 Y19.315
Z-0.881
X85.272
X85.275 Z-0.871
X85.342 Y19.395
X85.338 Z-0.881
X76.526
Z-0.871
X76.538 Y19.475
Z-0.881
X85.408
Z-0.871
X85.475 Y19.555
X85.474 Z-0.881
X76.537
Z-0.871
X76.523 Y19.635
Z-0.881
X85.541
Z-0.871
X85.608 Y19.715
X85.607 Z-0.881
X76.495
Z-0.871
X76.449 Y19.795
Z-0.881
X85.674
X85.675 Z-0.871
X85.741 Y19.875
Z-0.881
X76.393
Z-0.871
G0 Z5.
X74.446 Y16.035
Z1.935
G1 Z-0.871 F200.
X74.444 Z-0.881
X74.272
Z-0.871
X74.214 Y16.115
Z-0.881
X74.553
Z-0.871
X74.66 Y16.195
X74.658 Z-0.881
X74.155
Z-0.871
X74.096 Y16.275
Z-0.881
X74.767
Z-0.871
X74.874 Y16.355
X74.872 Z-0.881
X74.038
Z-0.871
X73.979 Y16.435
Z-0.881
X74.981
Z-0.871
X75.042 Y16.515
X75.041 Z-0.881
X73.921
Z-0.871
X73.862 Y16.595
Z-0.881
X74.98
X74.983 Z-0.871
X74.924 Y16.675
X74.922 Z-0.881
X73.803
Z-0.871
X73.745 Y16.755
Z-0.881
X74.865
Z-0.871
X74.807 Y16.835
Z-0.881
X73.687
Z-0.871
X73.631 Y16.915
Z-0.881
X74.748
Z-0.871
X74.689 Y16.995
X74.687 Z-0.881
X73.579
Z-0.871
X73.628 Y17.075
Z-0.881
X74.628
X74.63 Z-0.871
X74.572 Y17.155
Z-0.881
X73.726
Z-0.871
X73.823 Y17.235
Z-0.881
X74.513
Z-0.871
X74.454 Y17.315
X74.452 Z-0.881
X73.888
Z-0.871
X73.969 Y17.351
X74.045 Y17.395
Z-0.881
X74.395
Z-0.871
X74.333 Y17.475
Z-0.881
X74.158
Z-0.871
G0 Z5.
X75.983 Y13.715
Z1.935
G1 Z-0.871 F200.
Z-0.881
X76.039
Z-0.871
X76.1 Y13.754
X76.16 Y13.795
Z-0.881
X75.918
Z-0.871
X75.857 Y13.875
Z-0.881
X76.278
Z-0.871
X76.349 Y13.907
X76.408 Y13.955
X76.405 Z-0.881
X75.798
Z-0.871
X75.739 Y14.035
Z-0.881
X76.481
X76.484 Z-0.871
X76.587 Y14.115
Z-0.881
X75.68
Z-0.871
X75.622 Y14.195
Z-0.881
X76.68
Z-0.871
X76.675 Y14.275
X76.673 Z-0.881
X75.563
Z-0.871
X75.504 Y14.355
Z-0.881
X76.623
Z-0.871
X76.566 Y14.435
X76.563 Z-0.881
X75.446
Z-0.871
X75.387 Y14.515
Z-0.881
X76.506
X76.508 Z-0.871
X76.449 Y14.595
Z-0.881
X75.328
Z-0.871
X75.27 Y14.675
Z-0.881
X76.389
X76.39 Z-0.871
X76.331 Y14.755
X76.328 Z-0.881
X75.211
Z-0.871
X75.152 Y14.835
Z-0.881
X76.272
X76.273 Z-0.871
X76.214 Y14.915
X76.212 Z-0.881
X75.21
Z-0.871
X75.317 Y14.995
Z-0.881
X76.154
X76.155 Z-0.871
X76.097 Y15.075
X76.096 Z-0.881
X75.424
Z-0.871
X75.531 Y15.155
Z-0.881
X76.035
X76.038 Z-0.871
X75.979 Y15.235
X75.976 Z-0.881
X75.637
Z-0.871
X75.744 Y15.315
Z-0.881
X75.919
X75.92 Z-0.871
G0 Z5.
X73.862 Y11.395
Z1.935
G1 Z-0.871 F200.
X73.859 Z-0.881
X72.808
Z-0.871
X72.768 Y11.475
Z-0.881
X73.805
X73.806 Z-0.871
X73.768 Y11.555
X73.767 Z-0.881
X72.728
Z-0.871
X72.689 Y11.635
Z-0.881
X73.742
X73.745 Z-0.871
X73.737 Y11.715
X73.733 Z-0.881
X72.649
Z-0.871
X72.609 Y11.795
Z-0.881
X73.738
X73.741 Z-0.871
X73.758 Y11.875
X73.756 Z-0.881
X72.569
Z-0.871
X72.529 Y11.955
Z-0.881
X73.788
X73.79 Z-0.871
X73.84 Y12.035
Z-0.881
X72.489
Z-0.871
X72.45 Y12.115
Z-0.881
X73.916
X73.918 Z-0.871
X74.02 Y12.195
Z-0.881
X72.412
Z-0.871
X72.376 Y12.275
Z-0.881
X74.112
Z-0.871
X74.105 Y12.355
X74.104 Z-0.881
X72.427
Z-0.871
X72.495 Y12.392
X72.561 Y12.435
Z-0.881
X74.051
X74.052 Z-0.871
X73.995 Y12.515
Z-0.881
X72.643
Z-0.871
X72.696 Y12.595
Z-0.881
X73.933
X73.936 Z-0.871
X73.878 Y12.675
X73.876 Z-0.881
X72.73
Z-0.871
X72.749 Y12.755
Z-0.881
X73.816
X73.819 Z-0.871
X73.76 Y12.835
X73.759 Z-0.881
X72.754
Z-0.871
X72.747 Y12.915
Z-0.881
X73.699
X73.702 Z-0.871
X73.643 Y12.995
X73.642 Z-0.881
X72.726
Z-0.871
X72.691 Y13.075
Z-0.881
X73.582
X73.584 Z-0.871
X73.526 Y13.155
X73.525 Z-0.881
X72.651
Z-0.871
X72.607 Y13.235
Z-0.881
X73.467
Z-0.871
Z-0.87
G0 Z5.
X69.914 Y10.115
Z1.935
G1 Z-0.871 F200.
Z-0.881
X69.811
Z-0.871
X69.809 Y10.116 Z-0.848
X69.804 Y10.117 Z-0.825
X69.795 Y10.119 Z-0.803
X69.783 Y10.123 Z-0.783
X69.769 Y10.127 Z-0.765
X69.751 Y10.131 Z-0.75
X69.732 Y10.136 Z-0.737
X69.711 Y10.142 Z-0.728
X69.689 Y10.148 Z-0.723
X69.666 Y10.154 Z-0.721
X69.653 Y10.157
X69.63 Y10.163 Z-0.723
X69.608 Y10.169 Z-0.728
X69.587 Y10.174 Z-0.737
X69.567 Y10.18 Z-0.75
X69.55 Y10.184 Z-0.765
X69.535 Y10.188 Z-0.783
X69.523 Y10.191 Z-0.803
X69.515 Y10.193 Z-0.825
X69.509 Y10.195 Z-0.848
X69.508 Z-0.871
Z-0.881
X70.27
Z-0.871
X70.356 Y10.234
X70.44 Y10.275
Z-0.881
X69.363
Z-0.871
X69.253 Y10.355
Z-0.881
X70.576
X70.579 Z-0.871
X70.693 Y10.435
Z-0.881
X69.16
Z-0.871
X69.077 Y10.515
Z-0.881
X70.717
X70.719 Z-0.871
X70.679 Y10.595
Z-0.881
X69.005
Z-0.871
X68.937 Y10.675
Z-0.881
X70.639
Z-0.871
X70.599 Y10.755
Z-0.881
X68.875
Z-0.871
X68.815 Y10.835
Z-0.881
X70.556
X70.559 Z-0.871
X70.519 Y10.915
X70.518 Z-0.881
X68.76
Z-0.871
X68.707 Y10.995
Z-0.881
X70.477
X70.479 Z-0.871
X70.438 Y11.075
X70.436 Z-0.881
X68.658
Z-0.871
X68.609 Y11.155
Z-0.881
X69.665
Z-0.871
X69.766 Y11.123
X69.866 Y11.113
X69.966 Y11.123
X70.067 Y11.155
Z-0.881
X70.395
X70.397 Z-0.871
X70.352 Y11.235
Z-0.881
X70.237
Z-0.871
X70.15 Y11.195
X70.063 Y11.154
X69.975 Y11.125
X69.888 Y11.114
X69.801 Y11.118
X69.713 Y11.137
X69.626 Y11.175
X69.539 Y11.235
X69.538 Z-0.881
X68.566
Z-0.871
X68.523 Y11.315
Z-0.881
X69.464
Z-0.871
X69.416 Y11.395
X69.414 Z-0.881
X68.479
Z-0.871
X68.436 Y11.475
Z-0.881
X69.374
X69.376 Z-0.871
X69.338 Y11.555
Z-0.881
X68.397
Z-0.871
X68.361 Y11.635
Z-0.881
X69.311
X69.313 Z-0.871
X69.302 Y11.715
X69.299 Z-0.881
X68.325
Z-0.871
X68.289 Y11.795
Z-0.881
X69.3
X69.303 Z-0.871
X69.318 Y11.875
X69.315 Z-0.881
X68.253
Z-0.871
X68.223 Y11.955
Z-0.881
X69.347
Z-0.871
X69.393 Y12.035
Z-0.881
X68.193
Z-0.871
X68.166 Y12.115
Z-0.881
X69.462
X69.464 Z-0.871
X69.521 Y12.16
X69.583 Y12.195
X69.582 Z-0.881
X68.14
Z-0.871
X68.117 Y12.275
Z-0.881
X69.738
X69.739 Z-0.871
X69.896 Y12.355
X69.894 Z-0.881
X68.096
Z-0.871
X68.076 Y12.435
Z-0.881
X70.052
X70.053 Z-0.871
X70.21 Y12.515
X70.209 Z-0.881
X68.061
Z-0.871
X68.045 Y12.595
Z-0.881
X70.364
X70.367 Z-0.871
X70.524 Y12.675
X70.522 Z-0.881
X68.035
Z-0.871
X68.026 Y12.755
Z-0.881
X70.677
X70.681 Z-0.871
X70.838 Y12.835
X70.837 Z-0.881
X68.02
Z-0.871
X68.018 Y12.915
Z-0.881
X70.994
X70.995 Z-0.871
X71.151 Y12.995
Z-0.881
X68.02
Z-0.871
X68.025 Y13.075
Z-0.881
X71.307
X71.308 Z-0.871
X71.465 Y13.155
Z-0.881
X68.036
Z-0.871
X68.051 Y13.235
Z-0.881
X71.619
X71.622 Z-0.871
X71.7 Y13.275
X71.779 Y13.315
Z-0.881
X68.073
Z-0.871
X68.1 Y13.395
Z-0.881
X70.639
X70.64 Z-0.871
G0 Z5.
X72.542 Y13.315
Z1.935
G1 Z-0.871 F200.
Z-0.881
X73.408
Z-0.871
X73.35 Y13.395
X73.347 Z-0.881
X72.438
Z-0.871
X72.313 Y13.447
X72.187 Y13.463
X72.061 Y13.446
X71.936 Y13.395
X71.932 Z-0.881
X71.125
Z-0.871
X71.203 Y13.434
X71.279 Y13.475
Z-0.881
X73.29
X73.291 Z-0.871
G0 Z5.
X70.532
Z1.935
G1 Z-0.871 F200.
X70.531 Z-0.881
X68.139
Z-0.871
X68.186 Y13.555
Z-0.881
X70.444
X70.446 Z-0.871
X70.352 Y13.635
X70.351 Z-0.881
X68.245
Z-0.871
X68.322 Y13.715
Z-0.881
X70.245
X70.246 Z-0.871
X70.187 Y13.757
X70.125 Y13.795
Z-0.881
X68.419
Z-0.871
X68.48 Y13.837
X68.543 Y13.875
Z-0.881
X69.982
X69.983 Z-0.871
X69.894 Y13.917
X69.803 Y13.955
X69.802 Z-0.881
X68.7
Z-0.871
X68.825 Y14.001
X68.954 Y14.035
Z-0.881
X69.527
Z-0.871
G0 Z5.
X71.377 Y13.555
Z1.935
G1 Z-0.871 F200.
Z-0.881
X73.23
X73.232 Z-0.871
X73.174 Y13.635
X73.173 Z-0.881
X71.439
Z-0.871
X71.479 Y13.715
Z-0.881
X73.115
Z-0.871
X73.056 Y13.795
X73.053 Z-0.881
X71.503
Z-0.871
X71.514 Y13.875
Z-0.881
X72.996
X72.998 Z-0.871
X72.939 Y13.955
X72.937 Z-0.881
X71.511
Z-0.871
X71.495 Y14.035
Z-0.881
X72.878
X72.88 Z-0.871
X72.822 Y14.115
X72.819 Z-0.881
X71.465
Z-0.871
X71.425 Y14.195
Z-0.881
X72.761
X72.763 Z-0.871
X72.704 Y14.275
X72.702 Z-0.881
X71.385
Z-0.871
X71.345 Y14.355
Z-0.881
X72.643
X72.646 Z-0.871
X72.587 Y14.435
X72.585 Z-0.881
X71.305
Z-0.871
X71.265 Y14.515
Z-0.881
X72.526
X72.528 Z-0.871
X72.47 Y14.595
Z-0.881
X71.225
Z-0.871
X71.185 Y14.675
Z-0.881
X72.409
X72.411 Z-0.871
X72.353 Y14.755
X72.35 Z-0.881
X71.145
Z-0.871
X71.105 Y14.835
Z-0.881
X72.291
X72.294 Z-0.871
X72.235 Y14.915
X72.233 Z-0.881
X71.064
Z-0.871
X71.024 Y14.995
Z-0.881
X72.175
X72.177 Z-0.871
X72.118 Y15.075
X72.115 Z-0.881
X70.984
Z-0.871
X70.944 Y15.155
Z-0.881
X72.058
X72.059 Z-0.871
X72. Y15.235
Z-0.881
X70.904
Z-0.871
X70.864 Y15.315
Z-0.881
X71.94
X71.942 Z-0.871
X71.883 Y15.395
Z-0.881
X71.287
Z-0.871
X71.188 Y15.385
X71.089 Y15.395
X71.086 Z-0.881
X70.824
Z-0.871
X70.784 Y15.475
Z-0.881
X70.901
X70.902 Z-0.871
X70.973 Y15.434
X71.045 Y15.406
X71.117 Y15.39
X71.188 Y15.385
X71.26 Y15.39
X71.331 Y15.406
X71.403 Y15.434
X71.474 Y15.475
Z-0.881
X71.823
Z-0.871
X71.762 Y15.555
X71.761 Z-0.881
X71.586
Z-0.871
X71.473 Y15.475
X71.363 Y15.417
X71.255 Y15.39
X71.149 Y15.387
X71.046 Y15.406
X70.945 Y15.449
X70.846 Y15.52
X70.798 Y15.572
X70.752 Y15.635
Z-0.881
X70.704
Z-0.871
G0 Z5.
X46.597 Y10.915
Z1.935
G1 Z-0.871 F200.
X46.594 Z-0.881
X46.413
Z-0.871
X46.346 Y10.956
X46.279 Y10.995
Z-0.881
X46.7
X46.702 Z-0.871
X46.777 Y11.03
X46.853 Y11.052
X46.928 Y11.061
X47.003 Y11.059
X47.079 Y11.048
X47.154 Y11.038
X47.23 Y11.023
X47.305 Y10.995
Z-0.881
X55.108
X55.11 Z-0.871
X55.655 Y11.075
Z-0.881
X46.118
Z-0.871
X46.024 Y11.121
X45.925 Y11.155
Z-0.881
X56.199
Z-0.871
X56.287 Y11.168
X56.376 Y11.179
X56.464 Y11.175
X56.552 Y11.155
Z-0.881
X56.96
X56.963 Z-0.871
X57.058 Y11.235
X57.055 Z-0.881
X45.663
Z-0.871
G0 Z5.
X43.181 Y11.315
Z1.935
G1 Z-0.871 F200.
Z-0.881
X57.284
X57.287 Z-0.871
X57.832 Y11.395
Z-0.881
X43.119
Z-0.871
X43.02 Y11.475
Z-0.881
X58.377
Z-0.871
X58.65 Y11.515
X58.923 Y11.555
X58.922 Z-0.881
X42.808
Z-0.871
X42.597 Y11.615
X42.526 Y11.635
Z-0.881
X59.374
X59.375 Z-0.871
X59.494 Y11.677
X59.614 Y11.715
X59.613 Z-0.881
X42.245
Z-0.871
X42.105 Y11.755
X41.964 Y11.795
Z-0.881
X59.867
Z-0.871
X59.994 Y11.835
X60.12 Y11.875
X60.117 Z-0.881
X41.683
Z-0.871
X41.612 Y11.895
X41.402 Y11.955
Z-0.881
X60.371
X60.373 Z-0.871
X60.626 Y12.035
X60.625 Z-0.881
X41.12
Z-0.871
X41.05 Y12.055
X40.91 Y12.095
X40.839 Y12.115
Z-0.881
X60.878
X60.879 Z-0.871
X61.005 Y12.155
X61.132 Y12.195
Z-0.881
X40.558
Z-0.871
X40.347 Y12.255
X40.277 Y12.275
Z-0.881
X61.382
X61.385 Z-0.871
X61.511 Y12.315
X61.638 Y12.355
X61.637 Z-0.881
X39.996
Z-0.871
X39.785 Y12.415
X39.714 Y12.435
Z-0.881
X61.888
X61.891 Z-0.871
X62.143 Y12.515
X62.141 Z-0.881
X53.28
X53.258 Z-0.876
X53.236 Z-0.871
X53.212 Y12.523
X53.198 Y12.543
Y12.568
X53.212 Y12.588
X53.236 Y12.595
X54.265
X54.287 Z-0.876
X54.309 Z-0.881
X62.419
Z-0.871
X62.508 Y12.618
X62.598 Y12.639
X62.688 Y12.657
X62.779 Y12.675
Z-0.881
X55.075
X55.053 Z-0.876
X55.031 Z-0.871
X55.007 Y12.683
X54.993 Y12.703
Y12.728
X55.007 Y12.748
X55.031 Y12.755
X55.676
X55.698 Z-0.876
X55.72 Z-0.881
X66.
Z-0.871
X66.024 Y12.835
X66.023 Z-0.881
X56.301
X56.279 Z-0.876
X56.257 Z-0.871
X56.234 Y12.843
X56.219 Y12.863
Y12.888
X56.234 Y12.908
X56.257 Y12.915
X56.751
X56.773 Z-0.876
X56.795 Z-0.881
X66.047
Z-0.871
X66.071 Y12.995
Z-0.881
X57.269
X57.247 Z-0.876
X57.225 Z-0.871
X57.202 Y13.003
X57.187 Y13.023
Y13.048
X57.202 Y13.068
X57.225 Y13.075
X57.651
X57.673 Z-0.876
X57.695 Z-0.881
X66.101
X66.102 Z-0.871
X66.134 Y13.155
Z-0.881
X58.109
X58.087 Z-0.876
X58.065 Z-0.871
X58.041 Y13.163
X58.027 Y13.183
Y13.208
X58.041 Y13.228
X58.065 Y13.235
X58.439
X58.461 Z-0.876
X58.483 Z-0.881
X66.167
Z-0.871
X66.2 Y13.315
Z-0.881
X58.857
X58.835 Z-0.876
X58.813 Z-0.871
X58.789 Y13.323
X58.775 Y13.343
Y13.368
X58.789 Y13.388
X58.813 Y13.395
X59.149
X59.171 Z-0.876
X59.193 Z-0.881
X66.24
X66.241 Z-0.871
X66.283 Y13.475
Z-0.881
X59.526
X59.504 Z-0.876
X59.482 Z-0.871
X59.459 Y13.483
X59.444 Y13.503
Y13.528
X59.459 Y13.548
X59.482 Y13.555
X59.805
X59.827 Z-0.876
X59.849 Z-0.881
X66.325
Z-0.871
X66.369 Y13.635
Z-0.881
X60.148
X60.126 Z-0.876
X60.104 Z-0.871
X60.081 Y13.643
X60.066 Y13.663
Y13.688
X60.081 Y13.708
X60.104 Y13.715
X60.404
X60.426 Z-0.876
X60.448 Z-0.881
X66.422
Z-0.871
X66.475 Y13.795
Z-0.881
X60.734
X60.712 Z-0.876
X60.69 Z-0.871
X60.667 Y13.803
X60.652 Y13.823
Y13.848
X60.667 Y13.868
X60.69 Y13.875
X60.963
X60.985 Z-0.876
X61.007 Z-0.881
X66.528
Z-0.871
X66.588 Y13.955
Z-0.881
X61.279
X61.257 Z-0.876
X61.235 Z-0.871
X61.211 Y13.963
X61.197 Y13.983
Y14.008
X61.211 Y14.028
X61.235 Y14.035
X61.499
X61.521 Z-0.876
X61.543 Z-0.881
X66.653
Z-0.871
X66.718 Y14.115
Z-0.881
X61.792
X61.77 Z-0.876
X61.748 Z-0.871
X61.724 Y14.123
X61.71 Y14.143
Y14.168
X61.724 Y14.188
X61.748 Y14.195
X61.996
X62.018 Z-0.876
X62.04 Z-0.881
X66.783
X66.787 Z-0.871
X66.865 Y14.275
Z-0.881
X62.289
X62.267 Z-0.876
X62.245 Z-0.871
X62.222 Y14.283
X62.207 Y14.303
Y14.328
X62.222 Y14.348
X62.245 Y14.355
X62.475
X62.497 Z-0.876
X62.519 Z-0.881
X66.944
Z-0.871
X67.027 Y14.435
X67.025 Z-0.881
X62.748
X62.726 Z-0.876
X62.704 Z-0.871
X62.681 Y14.443
X62.666 Y14.463
Y14.488
X62.681 Y14.508
X62.704 Y14.515
X62.933
X62.955 Z-0.876
X62.977 Z-0.881
X67.122
Z-0.871
X67.218 Y14.595
X67.217 Z-0.881
X63.201
X63.179 Z-0.876
X63.157 Z-0.871
X63.133 Y14.603
X63.119 Y14.623
Y14.648
X63.133 Y14.668
X63.157 Y14.675
X63.369
X63.391 Z-0.876
X63.413 Z-0.881
X67.323
Z-0.871
X67.438 Y14.755
Z-0.881
X63.625
X63.603 Z-0.876
X63.581 Z-0.871
X63.557 Y14.763
X63.543 Y14.783
Y14.808
X63.557 Y14.828
X63.581 Y14.835
X63.792
X63.814 Z-0.876
X63.836 Z-0.881
X67.556
Z-0.871
X67.626 Y14.875
X67.697 Y14.915
Z-0.881
X64.043
X64.021 Z-0.876
X63.999 Z-0.871
X63.975 Y14.923
X63.96 Y14.943
Y14.968
X63.975 Y14.988
X63.999 Y14.995
X64.195
X64.217 Z-0.876
X64.239 Z-0.881
X67.835
X67.838 Z-0.871
X67.921 Y15.035
X68.003 Y15.075
X68. Z-0.881
X64.436
X64.414 Z-0.876
X64.392 Z-0.871
X64.368 Y15.083
X64.354 Y15.103
Y15.128
X64.368 Y15.148
X64.392 Y15.155
X64.589
X64.611 Z-0.876
X64.633 Z-0.881
X68.179
X68.18 Z-0.871
X68.281 Y15.197
X68.384 Y15.235
X68.382 Z-0.881
X64.827
X64.805 Z-0.876
X64.783 Z-0.871
X64.759 Y15.243
X64.745 Y15.263
Y15.288
X64.759 Y15.308
X64.783 Y15.315
X64.966
X64.988 Z-0.876
X65.01 Z-0.881
X68.626
Z-0.871
X68.713 Y15.339
X68.802 Y15.361
X68.89 Y15.38
X68.979 Y15.395
X68.978 Z-0.881
X65.194
X65.172 Z-0.876
X65.15 Z-0.871
X65.126 Y15.403
X65.112 Y15.423
Y15.448
X65.126 Y15.468
X65.15 Y15.475
X65.333
X65.355 Z-0.876
X65.377 Z-0.881
X69.523
X69.524 Z-0.871
X69.522 Y15.555
Z-0.881
X65.561
X65.539 Z-0.876
X65.517 Z-0.871
X65.493 Y15.563
X65.478 Y15.583
Y15.608
X65.493 Y15.628
X65.517 Y15.635
X65.691
X65.713 Z-0.876
X65.735 Z-0.881
X69.528
X69.53 Z-0.871
X69.551 Y15.715
Z-0.881
X65.906
X65.884 Z-0.876
X65.862 Z-0.871
X65.839 Y15.723
X65.824 Y15.743
Y15.768
X65.839 Y15.788
X65.862 Y15.795
X66.034
X66.056 Z-0.876
X66.078 Z-0.881
X69.586
X69.587 Z-0.871
X69.643 Y15.875
X69.641 Z-0.881
X66.25
X66.212 Z-0.874
X66.179 Z-0.852
X66.157 Z-0.819
X66.15 Z-0.781
G0 Z5.
X70.582
Z1.935
G1 Z-0.871 F200.
Z-0.881
X70.617
X70.619 Z-0.871
X70.605 Y15.955
X70.603 Z-0.881
X70.522
Z-0.871
X70.423 Y16.038
X70.324 Y16.087
X70.225 Y16.111
X70.126 Y16.115
X70.027 Y16.1
X69.928 Y16.062
X69.829 Y16.012
X69.73 Y15.955
X69.729 Z-0.881
X66.42
X66.398 Z-0.876
X66.376 Z-0.871
X66.353 Y15.963
X66.338 Y15.983
Y16.008
X66.353 Y16.028
X66.376 Y16.035
X66.537
X66.559 Z-0.876
X66.581 Z-0.881
X69.873
X69.875 Z-0.871
X69.944 Y16.07
X70.013 Y16.096
X70.151 Y16.116
X70.289 Y16.098
X70.358 Y16.073
X70.427 Y16.035
Z-0.881
X70.601
X70.603 Z-0.871
X70.615 Y16.115
X70.614 Z-0.881
X70.185
Z-0.871
X70.124
X70.123 Z-0.881
X66.742
X66.72 Z-0.876
X66.698 Z-0.871
X66.675 Y16.123
X66.66 Y16.143
Y16.168
X66.675 Y16.188
X66.698 Y16.195
X66.859
X66.881 Z-0.876
X66.903 Z-0.881
X70.638
X70.64 Z-0.871
X70.682 Y16.275
Z-0.881
X67.064
X67.042 Z-0.876
X67.02 Z-0.871
X66.997 Y16.283
X66.982 Y16.303
Y16.328
X66.997 Y16.348
X67.02 Y16.355
X67.18
X67.202 Z-0.876
X67.224 Z-0.881
X70.743
X70.746 Z-0.871
X70.843 Y16.435
X70.841 Z-0.881
X67.375
X67.353 Z-0.876
X67.331 Z-0.871
X67.308 Y16.443
X67.293 Y16.463
Y16.488
X67.308 Y16.508
X67.331 Y16.515
X67.483
X67.505 Z-0.876
X67.527 Z-0.881
X70.95
Z-0.871
X71.058 Y16.595
X71.056 Z-0.881
X67.678
X67.656 Z-0.876
X67.634 Z-0.871
X67.611 Y16.603
X67.596 Y16.623
Y16.648
X67.611 Y16.668
X67.634 Y16.675
X67.786
X67.808 Z-0.876
X67.83 Z-0.881
X71.165
Z-0.871
X71.272 Y16.755
X71.27 Z-0.881
X67.981
X67.959 Z-0.876
X67.937 Z-0.871
X67.914 Y16.763
X67.899 Y16.783
Y16.808
X67.914 Y16.828
X67.937 Y16.835
X68.08
X68.102 Z-0.876
X68.124 Z-0.881
X71.376
X71.379 Z-0.871
X71.486 Y16.915
X71.484 Z-0.881
X68.267
X68.245 Z-0.876
X68.223 Z-0.871
X68.199 Y16.923
X68.185 Y16.943
Y16.968
X68.199 Y16.988
X68.223 Y16.995
X68.366
X68.388 Z-0.876
X68.41 Z-0.881
X71.592
X71.593 Z-0.871
X71.7 Y17.075
X71.697 Z-0.881
X68.552
X68.53 Z-0.876
X68.508 Z-0.871
X68.485 Y17.083
X68.47 Y17.103
Y17.128
X68.485 Y17.148
X68.508 Y17.155
X68.651
X68.673 Z-0.876
X68.695 Z-0.881
X71.805
X71.807 Z-0.871
X71.914 Y17.235
X71.913 Z-0.881
X68.833
X68.811 Z-0.876
X68.789 Z-0.871
X68.766 Y17.243
X68.751 Y17.263
Y17.288
X68.766 Y17.308
X68.789 Y17.315
X68.924
X68.946 Z-0.876
X68.968 Z-0.881
X72.018
X72.021 Z-0.871
X72.128 Y17.395
Z-0.881
X69.103
X69.081 Z-0.876
X69.059 Z-0.871
X69.035 Y17.403
X69.021 Y17.423
Y17.448
X69.035 Y17.468
X69.059 Y17.475
X69.194
X69.216 Z-0.876
X69.238 Z-0.881
X72.233
X72.236 Z-0.871
X72.343 Y17.555
X72.342 Z-0.881
X69.373
X69.351 Z-0.876
X69.329 Z-0.871
X69.305 Y17.563
X69.291 Y17.583
Y17.608
X69.305 Y17.628
X69.329 Y17.635
X69.463
X69.485 Z-0.876
X69.507 Z-0.881
X72.45
Z-0.871
X72.557 Y17.715
X72.556 Z-0.881
X69.635
X69.613 Z-0.876
X69.591 Z-0.871
X69.568 Y17.723
X69.553 Y17.743
Y17.768
X69.568 Y17.788
X69.591 Y17.795
X69.719
X69.741 Z-0.876
X69.763 Z-0.881
X72.661
X72.664 Z-0.871
X72.771 Y17.875
X72.77 Z-0.881
X69.89
X69.868 Z-0.876
X69.846 Z-0.871
X69.823 Y17.883
X69.808 Y17.903
Y17.928
X69.823 Y17.948
X69.846 Y17.955
X69.974
X69.996 Z-0.876
X70.018 Z-0.881
X72.875
X72.878 Z-0.871
X72.985 Y18.035
X72.984 Z-0.881
X70.146
X70.124 Z-0.876
X70.102 Z-0.871
X70.078 Y18.043
X70.064 Y18.063
Y18.088
X70.078 Y18.108
X70.102 Y18.115
X70.229
X70.251 Z-0.876
X70.273 Z-0.881
X73.09
X73.092 Z-0.871
X73.169 Y18.16
X73.251 Y18.195
X73.25 Z-0.881
X70.393
X70.371 Z-0.876
X70.349 Z-0.871
X70.326 Y18.203
X70.311 Y18.223
Y18.248
X70.326 Y18.268
X70.349 Y18.275
X70.47
X70.492 Z-0.876
X70.514 Z-0.881
X73.314
X73.316 Z-0.871
X73.413 Y18.355
Z-0.881
X70.635
X70.613 Z-0.876
X70.591 Z-0.871
X70.568 Y18.363
X70.553 Y18.383
Y18.408
X70.568 Y18.428
X70.591 Y18.435
X70.712
X70.734 Z-0.876
X70.756 Z-0.881
X73.52
Z-0.871
X73.628 Y18.515
Z-0.881
X70.877
X70.855 Z-0.876
X70.833 Z-0.871
X70.809 Y18.523
X70.795 Y18.543
Y18.568
X70.809 Y18.588
X70.833 Y18.595
X70.954
X70.976 Z-0.876
X70.998 Z-0.881
X73.735
Z-0.871
X73.842 Y18.675
Z-0.881
X71.112
X71.09 Z-0.876
X71.068 Z-0.871
X71.045 Y18.683
X71.03 Y18.703
Y18.728
X71.045 Y18.748
X71.068 Y18.755
X71.183
X71.205 Z-0.876
X71.227 Z-0.881
X73.949
Z-0.871
X74.056 Y18.835
Z-0.881
X71.341
X71.319 Z-0.876
X71.297 Z-0.871
X71.274 Y18.843
X71.259 Y18.863
Y18.888
X71.274 Y18.908
X71.297 Y18.915
X71.412
X71.434 Z-0.876
X71.456 Z-0.881
X74.163
X74.164 Z-0.871
X74.271 Y18.995
Z-0.881
X71.571
X71.549 Z-0.876
X71.527 Z-0.871
X71.503 Y19.003
X71.489 Y19.023
Y19.048
X71.503 Y19.068
X71.527 Y19.075
X71.641
X71.663 Z-0.876
X71.685 Z-0.881
X74.378
Z-0.871
X74.485 Y19.155
X74.482 Z-0.881
X71.796
X71.774 Z-0.876
X71.752 Z-0.871
X71.728 Y19.163
X71.714 Y19.183
Y19.208
X71.728 Y19.228
X71.752 Y19.235
X71.861
X71.883 Z-0.876
X71.905 Z-0.881
X74.592
Z-0.871
X74.699 Y19.315
Z-0.881
X72.014
X71.992 Z-0.876
X71.97 Z-0.871
X71.946 Y19.323
X71.932 Y19.343
Y19.368
X71.946 Y19.388
X71.97 Y19.395
X72.079
X72.101 Z-0.876
X72.123 Z-0.881
X74.807
Z-0.871
X74.914 Y19.475
X74.911 Z-0.881
X72.231
X72.209 Z-0.876
X72.187 Z-0.871
X72.164 Y19.483
X72.149 Y19.503
Y19.528
X72.164 Y19.548
X72.187 Y19.555
X72.296
X72.318 Z-0.876
X72.34 Z-0.881
X75.021
Z-0.871
X75.128 Y19.635
Z-0.881
X72.448
X72.426 Z-0.876
X72.404 Z-0.871
X72.381 Y19.643
X72.366 Y19.663
Y19.688
X72.381 Y19.708
X72.404 Y19.715
X72.508
X72.53 Z-0.876
X72.552 Z-0.881
X75.235
Z-0.871
X75.343 Y19.795
X75.342 Z-0.881
X72.655
X72.633 Z-0.876
X72.611 Z-0.871
X72.588 Y19.803
X72.573 Y19.823
Y19.848
X72.588 Y19.868
X72.611 Y19.875
X72.715
X72.737 Z-0.876
X72.759 Z-0.881
X75.45
Z-0.871
X75.557 Y19.955
Z-0.881
X72.862
X72.824 Z-0.874
X72.791 Z-0.852
X72.77 Z-0.819
X72.762 Z-0.781
G0 Z5.
X76.333
Z1.935
G1 Z-0.871 F200.
Z-0.881
X85.804
X85.805 Z-0.871
X85.868 Y20.035
X85.866 Z-0.881
X76.245
Z-0.871
X76.172 Y20.078
X76.1 Y20.107
X76.027 Y20.123
X75.955 Y20.128
X75.882 Y20.123
X75.81 Y20.107
X75.737 Y20.078
X75.664 Y20.035
Z-0.881
X72.965
X72.943 Z-0.876
X72.921 Z-0.871
X72.898 Y20.043
X72.883 Y20.063
Y20.088
X72.898 Y20.108
X72.921 Y20.115
X73.025
X73.047 Z-0.876
X73.069 Z-0.881
X75.842
Z-0.871
X75.955 Y20.128
X76.067 Y20.115
Z-0.881
X85.932
Z-0.871
X85.996 Y20.195
X85.994 Z-0.881
X73.17
X73.148 Z-0.876
X73.126 Z-0.871
X73.103 Y20.203
X73.088 Y20.223
Y20.248
X73.103 Y20.268
X73.126 Y20.275
X73.225
X73.247 Z-0.876
X73.269 Z-0.881
X86.06
Z-0.871
X86.123 Y20.355
X86.122 Z-0.881
X73.367
X73.345 Z-0.876
X73.323 Z-0.871
X73.299 Y20.363
X73.285 Y20.383
Y20.408
X73.299 Y20.428
X73.323 Y20.435
X73.421
X73.443 Z-0.876
X73.465 Z-0.881
X86.186
X86.187 Z-0.871
X86.25 Y20.515
Z-0.881
X73.564
X73.542 Z-0.876
X73.52 Z-0.871
X73.496 Y20.523
X73.482 Y20.543
Y20.568
X73.496 Y20.588
X73.52 Y20.595
X73.618
X73.64 Z-0.876
X73.662 Z-0.881
X86.313
Z-0.871
X86.377 Y20.675
X86.376 Z-0.881
X73.76
X73.738 Z-0.876
X73.716 Z-0.871
X73.693 Y20.683
X73.678 Y20.703
Y20.728
X73.693 Y20.748
X73.716 Y20.755
X73.813
X73.835 Z-0.876
X73.857 Z-0.881
X86.439
Z-0.871
X86.5 Y20.835
Z-0.881
X73.95
X73.928 Z-0.876
X73.906 Z-0.871
X73.883 Y20.843
X73.868 Y20.863
Y20.888
X73.883 Y20.908
X73.906 Y20.915
X74.
X74.022 Z-0.876
X74.044 Z-0.881
X86.558
X86.561 Z-0.871
X86.621 Y20.995
X86.618 Z-0.881
X74.137
X74.115 Z-0.876
X74.093 Z-0.871
X74.07 Y21.003
X74.055 Y21.023
Y21.048
X74.07 Y21.068
X74.093 Y21.075
X74.187
X74.209 Z-0.876
X74.231 Z-0.881
X86.682
Z-0.871
X86.743 Y21.155
X86.742 Z-0.881
X74.325
X74.303 Z-0.876
X74.281 Z-0.871
X74.257 Y21.163
X74.243 Y21.183
Y21.208
X74.257 Y21.228
X74.281 Y21.235
X74.374
X74.396 Z-0.876
X74.418 Z-0.881
X86.803
Z-0.871
X86.863 Y21.315
Z-0.881
X74.511
X74.489 Z-0.876
X74.467 Z-0.871
X74.443 Y21.323
X74.429 Y21.343
Y21.368
X74.443 Y21.388
X74.467 Y21.395
X74.556
X74.578 Z-0.876
X74.6 Z-0.881
X86.923
Z-0.871
X86.984 Y21.475
X86.983 Z-0.881
X74.689
X74.667 Z-0.876
X74.645 Z-0.871
X74.621 Y21.483
X74.607 Y21.503
Y21.528
X74.621 Y21.548
X74.645 Y21.555
X74.734
X74.756 Z-0.876
X74.778 Z-0.881
X87.042
X87.044 Z-0.871
X87.103 Y21.635
X87.101 Z-0.881
X82.354
Z-0.871
X82.286 Y21.609
X82.219 Y21.585
X82.085 Y21.564
X81.951 Y21.579
X81.883 Y21.601
X81.816 Y21.635
X81.815 Z-0.881
X74.867
X74.845 Z-0.876
X74.823 Z-0.871
X74.8 Y21.643
X74.785 Y21.663
Y21.688
X74.8 Y21.708
X74.823 Y21.715
X74.912
X74.934 Z-0.876
X74.956 Z-0.881
X81.712
X81.716 Z-0.871
X81.821 Y21.632
X81.927 Y21.586
X82.033 Y21.565
X82.138 Y21.567
X82.244 Y21.593
X82.35 Y21.634
X82.455 Y21.674
X82.561 Y21.715
Z-0.881
X87.159
X87.161 Z-0.871
X87.219 Y21.795
X87.217 Z-0.881
X82.754
Z-0.871
X82.846 Y21.835
X82.937 Y21.875
Z-0.881
X87.274
X87.277 Z-0.871
X87.334 Y21.955
Z-0.881
X83.108
Z-0.871
X83.189 Y21.995
X83.27 Y22.035
Z-0.881
X87.392
Z-0.871
X87.449 Y22.115
Z-0.881
X83.423
Z-0.871
X83.493 Y22.155
X83.563 Y22.195
Z-0.881
X87.506
X87.507 Z-0.871
X87.564 Y22.275
Z-0.881
X83.702
Z-0.871
X83.763 Y22.315
X83.824 Y22.355
Z-0.881
X87.621
Z-0.871
X87.678 Y22.435
X87.675 Z-0.881
X83.946
Z-0.871
X84.058 Y22.515
Z-0.881
X87.733
X87.735 Z-0.871
X87.79 Y22.595
X87.787 Z-0.881
X84.162
Z-0.871
X84.266 Y22.675
Z-0.881
X87.842
X87.845 Z-0.871
X87.9 Y22.755
Z-0.881
X84.358
Z-0.871
X84.446 Y22.835
Z-0.881
X87.954
X87.955 Z-0.871
X88.01 Y22.915
Z-0.881
X86.223
Z-0.871
X86.152 Y22.91
X86.08 Y22.915
X86.076 Z-0.881
X84.534
Z-0.871
X84.611 Y22.995
Z-0.881
X85.87
X85.872 Z-0.871
X85.942 Y22.956
X86.012 Y22.93
X86.152 Y22.91
X86.291 Y22.93
X86.361 Y22.956
X86.431 Y22.995
Z-0.881
X88.063
X88.064 Z-0.871
X88.119 Y23.075
X88.118 Z-0.881
X86.523
Z-0.871
G0 Z5.
X85.78
Z1.935
G1 Z-0.871 F200.
X85.778 Z-0.881
X84.686
Z-0.871
X84.761 Y23.155
Z-0.881
X85.718
X85.721 Z-0.871
G0 Z5.
X86.583
Z1.935
G1 Z-0.87 F200.
Z-0.871
Z-0.881
X88.173
Z-0.871
X88.227 Y23.235
Z-0.881
X86.638
G0 Z5.
X85.683
Z1.935
G1 Z-0.871 F200.
Z-0.881
X84.827
Z-0.871
X84.89 Y23.315
Z-0.881
X85.653
X85.656 Z-0.871
X85.629 Y23.395
Z-0.881
X84.953
Z-0.871
X85.011 Y23.475
Z-0.881
X85.601
X85.602 Z-0.871
X85.574 Y23.555
Z-0.881
X85.063
Z-0.871
X85.115 Y23.635
Z-0.881
X85.548
Z-0.871
X85.522 Y23.715
Z-0.881
X85.167
Z-0.871
X85.212 Y23.795
Z-0.881
X85.496
Z-0.871
X85.471 Y23.875
Z-0.881
X85.254
Z-0.871
X85.297 Y23.955
Z-0.881
X85.443
X85.446 Z-0.871
G0 Z5.
X86.692 Y23.315
Z1.935
G1 Z-0.871 F200.
Z-0.881
X88.281
X88.282 Z-0.871
X88.336 Y23.395
Z-0.881
X86.747
Z-0.871
X86.775 Y23.435 Z-0.876
X86.802 Y23.475 Z-0.881
X88.387
X88.388 Z-0.871
X88.441 Y23.555
X88.439 Z-0.881
X86.857
Z-0.871
X86.913 Y23.635
Z-0.881
X88.492
X88.493 Z-0.871
X88.545 Y23.715
X88.543 Z-0.881
X86.969
Z-0.871
X87.026 Y23.795
Z-0.881
X88.597
Z-0.871
X88.649 Y23.875
Z-0.881
X87.082
Z-0.871
X87.137 Y23.955
Z-0.881
X88.7
X88.701 Z-0.871
X88.752 Y24.035
Z-0.881
X87.191
Z-0.871
X87.245 Y24.115
Z-0.881
X88.804
Z-0.871
X88.855 Y24.195
Z-0.881
X87.298
Z-0.871
X87.352 Y24.275
Z-0.881
X88.906
X88.907 Z-0.871
X88.958 Y24.355
X88.957 Z-0.881
X87.404
Z-0.871
X87.453 Y24.435
Z-0.881
X89.006
X89.007 Z-0.871
X89.057 Y24.515
X89.055 Z-0.881
X87.502
Z-0.871
X87.55 Y24.595
Z-0.881
X89.105
X89.106 Z-0.871
X89.156 Y24.675
X89.154 Z-0.881
X87.599
Z-0.871
X87.647 Y24.755
Z-0.881
X89.205
Z-0.871
X89.254 Y24.835
X89.253 Z-0.881
X87.689
Z-0.871
X87.731 Y24.915
Z-0.881
X89.303
Z-0.871
X89.352 Y24.995
X89.351 Z-0.881
X87.773
Z-0.871
X87.815 Y25.075
Z-0.881
X89.4
X89.401 Z-0.871
X89.45 Y25.155
X89.449 Z-0.881
X87.857
Z-0.871
X87.895 Y25.235
Z-0.881
X89.498
X89.499 Z-0.871
X89.546 Y25.315
Z-0.881
X87.931
Z-0.871
X87.967 Y25.395
Z-0.881
X89.593
Z-0.871
X89.64 Y25.475
Z-0.881
X88.
Z-0.871
X88.032 Y25.555
Z-0.881
X89.687
Z-0.871
X89.734 Y25.635
X89.727 Z-0.881
X88.064
Z-0.871
X88.092 Y25.715
Z-0.881
X89.78
Z-0.871
X89.827 Y25.795
X89.826 Z-0.881
X88.119
Z-0.871
X88.146 Y25.875
Z-0.881
X89.873
Z-0.871
X89.919 Y25.955
Z-0.881
X88.171
Z-0.871
X88.193 Y26.035
Z-0.881
X89.965
Z-0.871
X90.012 Y26.115
X90.011 Z-0.881
X88.215
Z-0.871
X88.236 Y26.195
Z-0.881
X90.058
Z-0.871
X90.103 Y26.275
Z-0.881
X88.254
Z-0.871
X88.271 Y26.355
Z-0.881
X90.147
Z-0.871
X90.191 Y26.435
Z-0.881
X88.288
Z-0.871
X88.302 Y26.515
Z-0.881
X90.235
X90.236 Z-0.871
X90.28 Y26.595
Z-0.881
X88.314
Z-0.871
X88.327 Y26.675
Z-0.881
X90.324
Z-0.871
X90.368 Y26.755
Z-0.881
X88.889
Z-0.871
X88.773 Y26.712
X88.657 Y26.698
X88.542 Y26.712
X88.426 Y26.755
X88.424 Z-0.881
X88.337
Z-0.871
X88.421 Y26.758
X88.51 Y26.721
X88.596 Y26.702
X88.681 Y26.699
X88.764 Y26.71
X88.845 Y26.735
X88.924 Y26.775
X89.001 Y26.835
Z-0.881
X90.411
X90.412 Z-0.871
X90.455 Y26.915
Z-0.881
X89.07
Z-0.871
X89.116 Y26.995
Z-0.881
X90.499
Z-0.871
X90.543 Y27.075
X90.542 Z-0.881
X89.161
Z-0.871
X89.205 Y27.155
Z-0.881
X90.586
Z-0.871
X90.629 Y27.235
X90.628 Z-0.881
X89.249
Z-0.871
X89.293 Y27.315
Z-0.881
X90.67
X90.671 Z-0.871
X90.712 Y27.395
X90.706 Z-0.881
X89.337 Z-0.878
Z-0.871
X89.381 Y27.475
Z-0.881
X90.754
Z-0.871
X90.796 Y27.555
X90.795 Z-0.881
X89.425
Z-0.871
X89.469 Y27.635
Z-0.881
X90.836
X90.838 Z-0.871
X90.879 Y27.715
Z-0.881
X89.512
Z-0.871
X89.556 Y27.795
Z-0.881
X90.92
Z-0.871
X90.962 Y27.875
X90.961 Z-0.881
X89.6
Z-0.871
X89.643 Y27.955
Z-0.881
X91.002
X91.003 Z-0.871
X91.044 Y28.035
Z-0.881
X89.687
Z-0.871
X89.731 Y28.115
Z-0.881
X91.084
X91.085 Z-0.871
X91.125 Y28.195
Z-0.881
X89.771
Z-0.871
X89.811 Y28.275
Z-0.881
X91.164
X91.165 Z-0.871
X91.204 Y28.355
X91.203 Z-0.881
X89.85
Z-0.871
X89.89 Y28.435
Z-0.881
X91.242
X91.244 Z-0.871
X91.283 Y28.515
X91.281 Z-0.881
X89.929
Z-0.871
X89.964 Y28.595
Z-0.881
X91.32
X91.323 Z-0.871
X91.362 Y28.675
X91.361 Z-0.881
X89.998
Z-0.871
X90.033 Y28.755
Z-0.881
X91.4
Z-0.871
X91.439 Y28.835
Z-0.881
X90.067
Z-0.871
X90.102 Y28.915
Z-0.881
X91.477
X91.478 Z-0.871
X91.517 Y28.995
X91.516 Z-0.881
X90.131
Z-0.871
X90.16 Y29.075
Z-0.881
X91.555
Z-0.871
X91.594 Y29.155
Z-0.881
X90.188
Z-0.871
X90.216 Y29.235
Z-0.881
X91.631
Z-0.871
X91.668 Y29.315
Z-0.881
X90.244
Z-0.871
X90.27 Y29.395
Z-0.881
X91.705
Z-0.871
X91.742 Y29.475
Z-0.881
X90.291
Z-0.871
X90.312 Y29.555
Z-0.881
X91.779
Z-0.871
X91.816 Y29.635
Z-0.881
X90.333
Z-0.871
X90.353 Y29.715
Z-0.881
X91.852
X91.853 Z-0.871
X91.889 Y29.795
X91.888 Z-0.881
X90.374
Z-0.871
X90.391 Y29.875
Z-0.881
X91.922
X91.925 Z-0.871
X91.962 Y29.955
X91.961 Z-0.881
X90.406
Z-0.871
X90.421 Y30.035
Z-0.881
X91.997
X91.998 Z-0.871
X92.034 Y30.115
Z-0.881
X90.433
Z-0.871
X90.444 Y30.195
Z-0.881
X92.067
X92.07 Z-0.871
X92.104 Y30.275
X92.102 Z-0.881
X90.455
Z-0.871
X90.463 Y30.355
Z-0.881
X92.139
Z-0.871
X92.174 Y30.435
Z-0.881
X90.469
Z-0.871
X90.476 Y30.515
Z-0.881
X92.209
Z-0.871
X92.243 Y30.595
Z-0.881
X90.48
Z-0.871
X90.483 Y30.675
Z-0.881
X92.278
Z-0.871
X92.312 Y30.755
X92.311 Z-0.881
X90.867
Z-0.871
X90.938 Y30.79
X91.003 Y30.835
Z-0.881
X92.345
X92.346 Z-0.871
X92.38 Y30.915
X92.379 Z-0.881
X91.081
Z-0.871
X91.131 Y30.995
Z-0.881
X92.414
Z-0.871
X92.448 Y31.075
X92.447 Z-0.881
X91.166
Z-0.871
X91.2 Y31.155
Z-0.881
X92.481
X92.482 Z-0.871
X92.514 Y31.235
Z-0.881
X91.233
Z-0.871
X91.267 Y31.315
Z-0.881
X92.547
Z-0.871
X92.579 Y31.395
X92.578 Z-0.881
X91.3
Z-0.871
X91.333 Y31.475
Z-0.881
X92.611
X92.612 Z-0.871
X92.644 Y31.555
Z-0.881
X91.366
Z-0.871
X91.4 Y31.635
Z-0.881
X92.677
Z-0.871
X92.709 Y31.715
X92.708 Z-0.881
X91.434
Z-0.871
X91.468 Y31.795
Z-0.881
X92.74
X92.741 Z-0.871
X92.772 Y31.875
X92.771 Z-0.881
X91.502
Z-0.871
X91.536 Y31.955
Z-0.881
X92.803
X92.804 Z-0.871
X92.836 Y32.035
X92.835 Z-0.881
X91.569
Z-0.871
X91.603 Y32.115
Z-0.881
X92.867
Z-0.871
X92.899 Y32.195
Z-0.881
X91.636
Z-0.871
X91.667 Y32.275
Z-0.881
X92.926
X92.929 Z-0.871
X92.959 Y32.355
X92.956 Z-0.881
X91.698
Z-0.871
X91.728 Y32.435
Z-0.881
X92.986
X92.99 Z-0.871
X93.02 Y32.515
X93.019 Z-0.881
X91.759
Z-0.871
X91.787 Y32.595
Z-0.881
X93.049
X93.05 Z-0.871
X93.08 Y32.675
X93.079 Z-0.881
X91.814
Z-0.871
X91.841 Y32.755
Z-0.881
X93.11
Z-0.871
X93.139 Y32.835
Z-0.881
X91.868
Z-0.871
X91.894 Y32.915
Z-0.881
X93.169
Z-0.871
X93.198 Y32.995
Z-0.881
X91.916
Z-0.871
X91.939 Y33.075
Z-0.881
X93.228
Z-0.871
X93.257 Y33.155
Z-0.881
X91.961
Z-0.871
X91.983 Y33.235
Z-0.881
X93.285
X93.287 Z-0.871
X93.315 Y33.315
X93.313 Z-0.881
X92.004
Z-0.871
X92.02 Y33.395
Z-0.881
X93.341
X93.343 Z-0.871
X93.371 Y33.475
X93.37 Z-0.881
X92.037
Z-0.871
X92.054 Y33.555
Z-0.881
X93.398
X93.399 Z-0.871
X93.427 Y33.635
X93.426 Z-0.881
X92.07
Z-0.871
X92.085 Y33.715
Z-0.881
X93.453
X93.455 Z-0.871
X93.482 Y33.795
Z-0.881
X92.095
Z-0.871
X92.106 Y33.875
Z-0.881
X93.509
Z-0.871
X93.537 Y33.955
Z-0.881
X92.116
Z-0.871
X92.126 Y34.035
Z-0.881
X93.564
Z-0.871
X93.591 Y34.115
Z-0.881
X92.135
Z-0.871
X92.139 Y34.195
Z-0.881
X93.618
Z-0.871
X93.646 Y34.275
Z-0.881
X92.142
Z-0.871
X92.146 Y34.355
Z-0.881
X93.67
X93.672 Z-0.871
X93.697 Y34.435
X93.696 Z-0.881
X92.149
Z-0.871
X92.152 Y34.515
Z-0.881
X93.721
X93.723 Z-0.871
X93.749 Y34.595
Z-0.881
X92.15
Z-0.871
X92.148 Y34.675
Z-0.881
X93.772
X93.775 Z-0.871
X93.801 Y34.755
X93.797 Z-0.881
X92.146
Z-0.871
X92.14 Y34.835
Z-0.881
X93.819
X93.826 Z-0.871
X93.851 Y34.915
Z-0.881
X92.134
Z-0.871
X92.234 Y34.938
X92.339 Y34.936
X92.44 Y34.955
X92.537 Y34.995
Z-0.881
X93.876
Z-0.871
X93.901 Y35.075
Z-0.881
X92.645
Z-0.871
X92.712 Y35.155
Z-0.881
X93.926
Z-0.871
X93.952 Y35.235
X93.951 Z-0.881
X92.756
Z-0.871
X92.783 Y35.315
Z-0.881
X93.976
X93.977 Z-0.871
X94.001 Y35.395
X93.997 Z-0.881
X92.808
Z-0.871
X92.832 Y35.475
Z-0.881
X94.021
X94.024 Z-0.871
X94.048 Y35.555
X94.045 Z-0.881
X92.856
X92.868 Y35.595 Z-0.876
X92.88 Y35.635 Z-0.871
Z-0.881
X94.069
X94.072 Z-0.871
X94.095 Y35.715
X94.093 Z-0.881
X92.905
X92.916 Y35.755 Z-0.876
X92.929 Y35.795 Z-0.871
Z-0.881
X94.116
X94.119 Z-0.871
X94.143 Y35.875
X94.142 Z-0.881
X92.953
Z-0.871
X92.978 Y35.955
Z-0.881
X94.165
Z-0.871
X94.188 Y36.035
Z-0.881
X93.002
Z-0.871
X93.027 Y36.115
Z-0.881
X94.211
Z-0.871
X94.234 Y36.195
Z-0.881
X93.051
Z-0.871
X93.076 Y36.275
Z-0.881
X94.257
Z-0.871
X94.28 Y36.355
Z-0.881
X93.1
Z-0.871
X93.122 Y36.435
Z-0.881
X94.3
X94.303 Z-0.871
X94.324 Y36.515
X94.322 Z-0.881
X93.143
Z-0.871
X93.165 Y36.595
Z-0.881
X94.346
Z-0.871
X94.367 Y36.675
X94.364 Z-0.881
X93.186
Z-0.871
X93.207 Y36.755
Z-0.881
X94.386
X94.389 Z-0.871
X94.41 Y36.835
Z-0.881
X93.228
Z-0.871
X93.249 Y36.915
Z-0.881
X94.431
X94.432 Z-0.871
X94.453 Y36.995
X94.452 Z-0.881
X93.27
Z-0.871
X93.288 Y37.075
Z-0.881
X94.474
Z-0.871
X94.495 Y37.155
Z-0.881
X93.304
Z-0.871
X93.321 Y37.235
Z-0.881
X94.515
X94.516 Z-0.871
X94.536 Y37.315
Z-0.881
X93.338
Z-0.871
X93.351 Y37.395
Z-0.881
X94.557
Z-0.871
X94.578 Y37.475
Z-0.881
X93.364
Z-0.871
X93.377 Y37.555
Z-0.881
X94.598
Z-0.871
X94.617 Y37.635
X94.614 Z-0.881
X93.389
Z-0.871
X93.399 Y37.715
Z-0.881
X94.634
X94.636 Z-0.871
X94.656 Y37.795
X94.653 Z-0.881
X93.407
Z-0.871
X93.415 Y37.875
Z-0.881
X94.673
X94.675 Z-0.871
X94.695 Y37.955
X94.692 Z-0.881
X93.423
Z-0.871
X93.43 Y38.035
Z-0.881
X94.711
X94.714 Z-0.871
X94.733 Y38.115
Z-0.881
X93.433
Z-0.871
X93.436 Y38.195
Z-0.881
X94.751
X94.752 Z-0.871
X94.77 Y38.275
X94.769 Z-0.881
X93.438
Z-0.871
X93.441 Y38.355
Z-0.881
X94.789
Z-0.871
X94.808 Y38.435
Z-0.881
X93.439
Z-0.871
X93.435 Y38.515
Z-0.881
X94.826
Z-0.871
X94.845 Y38.595
X94.843 Z-0.881
X93.431
Z-0.871
X93.428 Y38.675
Z-0.881
X94.861
X94.862 Z-0.871
X94.88 Y38.755
X94.878 Z-0.881
X93.424
Z-0.871
X93.418 Y38.835
Z-0.881
X94.895
X94.897 Z-0.871
X94.914 Y38.915
X94.912 Z-0.881
X93.408
Z-0.871
X93.399 Y38.995
Z-0.881
X94.929
X94.932 Z-0.871
X94.949 Y39.075
X94.946 Z-0.881
X93.387
Z-0.871
X93.373 Y39.155
Z-0.881
X94.966
Z-0.871
X94.983 Y39.235
X94.982 Z-0.881
X93.36
Z-0.871
X93.343 Y39.315
Z-0.881
X94.999
Z-0.871
X95.016 Y39.395
Z-0.881
X93.657
Z-0.871
X93.722 Y39.43
X93.782 Y39.475
Z-0.881
X95.033
Z-0.871
X95.05 Y39.555
X95.049 Z-0.881
X93.856
Z-0.871
X93.904 Y39.635
Z-0.881
X95.066
Z-0.871
X95.082 Y39.715
X95.08 Z-0.881
X93.934
Z-0.871
X93.951 Y39.795
Z-0.881
X95.095
X95.097 Z-0.871
X95.113 Y39.875
X95.111 Z-0.881
X93.966
Z-0.871
X93.982 Y39.955
Z-0.881
X95.126
X95.128 Z-0.871
X95.143 Y40.035
X95.142 Z-0.881
X93.997
Z-0.871
X94.012 Y40.115
Z-0.881
X95.158
Z-0.871
X95.173 Y40.195
Z-0.881
X94.027
Z-0.871
X94.042 Y40.275
Z-0.881
X95.188
X95.189 Z-0.871
X95.203 Y40.355
X95.202 Z-0.881
X94.058
Z-0.871
X94.074 Y40.435
Z-0.881
X95.217
X95.218 Z-0.871
X95.233 Y40.515
X95.232 Z-0.881
X94.09
Z-0.871
X94.106 Y40.595
Z-0.881
X95.247
Z-0.871
X95.262 Y40.675
X95.261 Z-0.881
X94.122
Z-0.871
X94.138 Y40.755
Z-0.881
X95.276
X95.277 Z-0.871
X95.29 Y40.835
Z-0.881
X94.152
Z-0.871
X94.165 Y40.915
Z-0.881
X95.303
Z-0.871
X95.316 Y40.995
Z-0.881
X94.179
Z-0.871
X94.193 Y41.075
Z-0.881
X95.33
Z-0.871
X95.343 Y41.155
Z-0.881
X94.207
Z-0.871
X94.221 Y41.235
Z-0.881
X95.356
Z-0.871
X95.369 Y41.315
X95.368 Z-0.881
X94.232
Z-0.871
X94.242 Y41.395
Z-0.881
X95.382
Z-0.871
X95.394 Y41.475
Z-0.881
X94.251
Z-0.871
X94.261 Y41.555
Z-0.881
X95.407
Z-0.871
X95.42 Y41.635
Z-0.881
X94.271
Z-0.871
X94.281 Y41.715
Z-0.881
X95.432
X95.433 Z-0.871
X95.445 Y41.795
Z-0.881
X94.29
Z-0.871
X94.295 Y41.875
Z-0.881
X95.458
Z-0.871
X95.469 Y41.955
X95.466 Z-0.881
X94.301
Z-0.871
X94.306 Y42.035
Z-0.881
X95.477
X95.48 Z-0.871
X95.491 Y42.115
X95.489 Z-0.881
X94.309
Z-0.871
X94.311 Y42.195
Z-0.881
X95.5
X95.503 Z-0.871
X95.514 Y42.275
Z-0.881
X94.313
Z-0.871
X94.314 Y42.355
Z-0.881
X95.523
X95.525 Z-0.871
X95.536 Y42.435
X95.535 Z-0.881
X94.312
Z-0.871
X94.309 Y42.515
Z-0.881
X95.547
Z-0.871
X95.558 Y42.595
X95.557 Z-0.881
X94.306
Z-0.871
X94.303 Y42.675
Z-0.881
X95.568
Z-0.871
X95.579 Y42.755
Z-0.881
X94.298
Z-0.871
X94.289 Y42.835
Z-0.881
X95.589
X95.59 Z-0.871
X95.6 Y42.915
X95.599 Z-0.881
X94.28
Z-0.871
X94.27 Y42.995
Z-0.881
X95.61
X95.611 Z-0.871
X95.62 Y43.075
X95.619 Z-0.881
X94.26
Z-0.871
X94.248 Y43.155
Z-0.881
X95.626
X95.629 Z-0.871
X95.638 Y43.235
Z-0.881
