(1001)
(T1  D=2. CR=0. - ZMIN=-1.342 - FLAT END MILL)
G0 G90 G94 G17
G21
G53 G0 Z0.

(2MM  FLATEND  POCKET )
M5
M9
T1
S12000 M3
G4 P4.
G55
G0 X58.73 Y71.85
Z15.
Z-0.182
G1 Z-0.978 F17.
X58.728 Y71.865 Z-1.054
X58.721 Y71.907 Z-1.119
X58.708 Y71.97 Z-1.162
X58.687 Y72.042 Z-1.178
G3 X56.885 Y71.439 Z-1.218 I-0.901 J-0.302
X58.687 Y72.042 Z-1.258 I0.901 J0.302
X56.885 Y71.439 Z-1.298 I-0.901 J-0.302
X58.225 Y70.898 Z-1.32 I0.901 J0.302
X58.549 Y72.306 Z-1.342 I-0.439 J0.842
G1 X58.482 Y72.4 F200.
X58.472 Y72.407
X58.461
X58.452 Y72.399
G2 X58.31 Y72.179 I-3.208 J1.918
G1 X58.307 Y72.167
X58.312 Y72.157
X58.324 Y72.152
X58.635
X58.646 Y72.157
X58.651 Y72.167
X58.648 Y72.179
X58.549 Y72.306
X58.537 Y72.332
X58.536 Y72.36
X58.546 Y72.388
X58.556 Y72.414
X58.555 Y72.443
X58.543 Y72.469
X58.476 Y72.571
X58.467 Y72.578
X58.455
X58.446 Y72.57
G2 X58.132 Y72.089 I-3.202 J1.748
G1 X58.128 Y72.077
X58.134 Y72.067
X58.145 Y72.062
X58.778
X58.794 Y72.066
X58.804 Y72.078
X58.808 Y72.094
X58.806 Y72.118
X58.803 Y72.131
X58.796 Y72.142
G2 X58.543 Y72.469 I2.757 J2.388
G1 X58.532 Y72.496
Y72.524
X58.543 Y72.551
X58.554 Y72.578
Y72.606
X58.543 Y72.633
X58.47 Y72.754
X58.461 Y72.762
X58.448
X58.439 Y72.753
G2 X57.942 Y71.998 I-3.195 J1.564
G1 X57.938 Y71.987
X57.943 Y71.977
X57.954 Y71.972
X58.875
X58.891 Y71.976
X58.901 Y71.988
X58.905 Y72.004
X58.896 Y72.124
X58.886 Y72.165
X58.863 Y72.202
G2 X58.543 Y72.633 I2.69 J2.328
G1 X58.533 Y72.66
X58.534 Y72.689
X58.546 Y72.715
X58.558 Y72.741
X58.559 Y72.769
X58.55 Y72.797
X58.46 Y72.963
X58.452 Y72.969
X58.443
X58.436 Y72.962
G2 X57.85 Y72.03 I-3.192 J1.355
G1 X57.837 Y72.009
X57.832 Y71.986
X57.827 Y71.914
X57.83 Y71.898
X57.841 Y71.886
X57.856 Y71.882
X58.972
X58.988 Y71.886
X58.998 Y71.898
X59.002 Y71.914
X58.984 Y72.145
X58.977 Y72.183
X58.962 Y72.219
X58.94 Y72.25
G2 X58.55 Y72.797 I2.613 J2.28
G1 X58.541 Y72.824
X58.543 Y72.852
X58.555 Y72.878
X58.568 Y72.904
X58.571 Y72.932
X58.563 Y72.96
G2 X58.452 Y73.191 I2.99 J1.571
G1 X58.445 Y73.198
X58.435 Y73.197
X58.428 Y73.19
G2 X57.786 Y72.093 I-3.184 J1.128
G1 X57.763 Y72.061
X57.749 Y72.025
X57.742 Y71.987
X57.73 Y71.824
X57.733 Y71.808
X57.744 Y71.796
X57.759 Y71.792
X59.069
X59.085 Y71.796
X59.095 Y71.808
X59.099 Y71.824
X59.072 Y72.184
X59.065 Y72.221
X59.05 Y72.256
X59.028 Y72.287
G2 X58.563 Y72.96 I2.525 J2.243
G1 X58.554 Y72.987
X58.558 Y73.016
X58.571 Y73.041
X58.585 Y73.066
X58.589 Y73.095
X58.582 Y73.122
G2 X58.443 Y73.463 I2.971 J1.408
G1 X58.436 Y73.47
X58.425
X58.419 Y73.462
G2 X57.699 Y72.131 I-3.174 J0.856
G1 X57.676 Y72.099
X57.661 Y72.063
X57.654 Y72.024
X57.633 Y71.734
X57.637 Y71.718
X57.647 Y71.706
X57.663 Y71.702
X59.166
X59.182 Y71.706
X59.192 Y71.718
X59.196 Y71.734
X59.159 Y72.222
X59.152 Y72.259
X59.137 Y72.294
X59.115 Y72.324
G2 X58.582 Y73.122 I2.438 J2.206
G1 X58.575 Y73.15
X58.579 Y73.179
X58.594 Y73.203
X58.609 Y73.228
X58.614 Y73.256
X58.608 Y73.284
G2 X58.427 Y73.856 I2.945 J1.246
G1 X58.408 Y73.855
Y73.849
G2 X57.603 Y72.158 I-3.162 J0.468
G1 X57.578 Y72.12
X57.568 Y72.077
X57.537 Y71.644
X57.54 Y71.628
X57.551 Y71.616
X57.566 Y71.612
X59.263
X59.279 Y71.616
X59.289 Y71.628
X59.293 Y71.644
X59.246 Y72.262
X59.239 Y72.298
X59.225 Y72.332
X59.203 Y72.362
G2 X58.608 Y73.284 I2.35 J2.168
G1 X58.602 Y73.312
X58.608 Y73.339
X58.623 Y73.363
X58.639 Y73.386
X58.645 Y73.414
X58.64 Y73.442
G2 X58.473 Y74.086 I2.931 J1.106
G1 X58.449 Y74.265
X58.425 Y74.444
X58.404
G3 X58.364 Y74.153 I19. J-2.812
G2 X58.323 Y73.862 I-19.041 J2.52
X57.516 Y72.197 I-3.054 J0.452
G1 X57.491 Y72.159
X57.48 Y72.115
X57.44 Y71.554
X57.443 Y71.538
X57.454 Y71.526
X57.469 Y71.522
X59.36
X59.376 Y71.526
X59.386 Y71.538
X59.39 Y71.554
X59.333 Y72.302
X59.327 Y72.338
X59.312 Y72.371
X59.29 Y72.4
G2 X58.64 Y73.442 I2.281 J2.147
G1 X58.635 Y73.47
X58.642 Y73.498
X58.659 Y73.521
X58.676 Y73.545
X58.683 Y73.572
X58.679 Y73.601
G2 X58.562 Y74.099 I2.891 J0.946
G1 X58.427 Y75.067
X58.406
X58.234 Y73.875
G2 X57.429 Y72.236 I-2.965 J0.439
G1 X57.404 Y72.198
X57.393 Y72.153
X57.343 Y71.464
X57.347 Y71.448
X57.357 Y71.436
X57.373 Y71.432
X59.457
X59.473 Y71.436
X59.483 Y71.448
X59.487 Y71.464
X59.421 Y72.342
X59.414 Y72.378
X59.399 Y72.41
X59.377 Y72.439
G2 X58.679 Y73.601 I2.193 J2.108
G1 X58.664 Y73.636 Z-1.335
X58.643 Y73.667 Z-1.327
X58.62 Y73.69 Z-1.305
X58.594 Y73.71 Z-1.284
X58.555 Y73.728 Z-1.219
X58.54 Y73.733 Z-1.142
G0 Z5.
X58.684 Y77.762
Z-0.978
G1 X58.671 Y77.769 Z-1.054 F17.
X58.633 Y77.789 Z-1.119
X58.575 Y77.815 Z-1.162
X58.504 Y77.842 Z-1.178
G3 X57.918 Y76.034 Z-1.218 I-0.293 J-0.904
X58.504 Y77.842 Z-1.258 I0.293 J0.904
X57.918 Y76.034 Z-1.298 I-0.293 J-0.904
X58.504 Y77.842 Z-1.338 I0.293 J0.904
X58.211 Y77.888 Z-1.342 I-0.293 J-0.904
G1 X58.105 F200.
X58.094 Y77.884
X58.088 Y77.873
X58.091 Y77.861
X58.204 Y77.692
X58.214 Y77.685
X58.227 Y77.686
X58.236 Y77.695
X58.316 Y77.86
X58.318 Y77.873
X58.311 Y77.884
X58.299 Y77.888
X58.211
X58.183 Y77.894
X58.159 Y77.909
X58.143 Y77.933
X58.127 Y77.957
X58.104 Y77.972
X58.076 Y77.978
X57.936
X57.925 Y77.974
X57.919 Y77.963
X57.922 Y77.951
X58.184 Y77.566
X58.204 Y77.534
X58.223 Y77.502
X58.233 Y77.494
X58.245 Y77.496
X58.253 Y77.505
G2 X58.468 Y77.951 I3.06 J-1.203
G1 X58.47 Y77.963
X58.464 Y77.974
X58.452 Y77.978
X58.076
X58.048 Y77.984
X58.024 Y77.999
X58.008 Y78.023
X57.992 Y78.047
X57.969 Y78.062
X57.941 Y78.068
X57.764
X57.752 Y78.064
X57.747 Y78.053
X57.75 Y78.041
X57.998 Y77.684
G2 X58.245 Y77.29 I-3.85 J-2.683
G1 X58.254 Y77.283
X58.265 Y77.284
X58.273 Y77.293
G2 X58.629 Y78.041 I3.04 J-0.991
G1 X58.632 Y78.053
X58.626 Y78.064
X58.615 Y78.068
X57.941
X57.913 Y78.073
X57.889 Y78.089
X57.873 Y78.113
X57.857 Y78.137
X57.833 Y78.152
X57.806 Y78.158
X57.591
X57.58 Y78.153
X57.574 Y78.143
X57.577 Y78.131
X57.961 Y77.581
G2 X58.27 Y77.044 I-2.955 J-2.059
G1 X58.278 Y77.036
X58.289 Y77.038
X58.295 Y77.046
G2 X58.801 Y78.132 I3.017 J-0.744
G1 X58.804 Y78.143
X58.798 Y78.154
X58.787 Y78.158
X57.806
X57.778 Y78.163
X57.754 Y78.179
X57.738 Y78.203
X57.722 Y78.227
X57.698 Y78.242
X57.67 Y78.248
X57.414
X57.403 Y78.243
X57.398 Y78.233
X57.401 Y78.221
G2 X57.715 Y77.783 I-7.294 J-5.553
G1 X57.961 Y77.416
G2 X58.153 Y77.084 I-2.296 J-1.543
X58.3 Y76.731 I-2.989 J-1.456
G1 X58.324 Y76.733
X58.337 Y76.819
X58.351 Y76.906
G2 X58.587 Y77.603 I2.889 J-0.589
X58.985 Y78.222 I2.785 J-1.351
G1 X58.989 Y78.233
X58.983 Y78.244
X58.973 Y78.248
X57.67
X57.643 Y78.253
X57.619 Y78.269
X57.603 Y78.293
X57.587 Y78.316
X57.563 Y78.332
X57.535 Y78.338
X57.223
X57.212 Y78.333
X57.208 Y78.323
X57.211 Y78.312
G2 X57.563 Y77.85 I-3.428 J-2.975
G3 X57.887 Y77.366 I90.725 J60.293
G2 X58.354 Y75.301 I-2.433 J-1.636
G1 X58.145 Y73.888
G2 X57.342 Y72.276 I-2.878 J0.426
G1 X57.323 Y72.251
X57.311 Y72.223
X57.305 Y72.193
X57.247 Y71.373
X57.25 Y71.358
X57.26 Y71.346
X57.275 Y71.342
X59.555
X59.57 Y71.346
X59.581 Y71.358
X59.584 Y71.373
X59.508 Y72.383
X59.501 Y72.418
X59.486 Y72.45
X59.465 Y72.478
G2 X58.651 Y74.112 I2.105 J2.068
G1 X58.402 Y75.839
G2 X59.186 Y78.313 I2.952 J0.426
G1 X59.19 Y78.324
X59.185 Y78.334
X59.175 Y78.338
X57.535
X57.508 Y78.343
X57.486 Y78.358
X57.47 Y78.381
X57.455 Y78.404
X57.432 Y78.419
X57.405 Y78.425
X57.022
X57.012 Y78.42
X57.007 Y78.41
X57.012 Y78.399
G2 X57.428 Y77.893 I-2.42 J-2.413
G1 X57.814 Y77.318
G2 X58.268 Y75.314 I-2.361 J-1.587
G1 X58.059 Y73.901
G2 X57.259 Y72.315 I-2.792 J0.413
G1 X57.24 Y72.29
X57.227 Y72.261
X57.221 Y72.23
X57.153 Y71.287
X57.157 Y71.271
X57.167 Y71.259
X57.183 Y71.255
X59.648
X59.663 Y71.259
X59.674 Y71.271
X59.677 Y71.287
X59.592 Y72.42
X59.585 Y72.456
X59.57 Y72.489
X59.548 Y72.518
X59.537 Y72.528
X59.527 Y72.538
G2 X58.735 Y74.135 I2.039 J2.005
G1 X58.488 Y75.852
G2 X59.305 Y78.317 I2.875 J0.415
G1 X59.349 Y78.358
X59.394 Y78.4
X59.398 Y78.411
X59.394 Y78.421
X59.384 Y78.426
X57.405 Y78.425
X57.377 Y78.43
X57.353 Y78.446
X57.337 Y78.47
X57.322 Y78.493
X57.298 Y78.509
X57.27 Y78.515
X56.8 Y78.514
X56.791 Y78.511
X56.787 Y78.501
X56.791 Y78.492
X56.867 Y78.419
X56.944 Y78.346
G2 X57.237 Y78.002 I-1.954 J-1.962
X57.496 Y77.631 I-11.385 J-8.199
G1 X57.74 Y77.267
G2 X58.179 Y75.327 I-2.286 J-1.537
G1 X57.97 Y73.914
G2 X57.188 Y72.37 I-2.705 J0.4
G1 X57.182 Y72.365
X57.176 Y72.36
X57.154 Y72.332
X57.14 Y72.299
X57.133 Y72.264
X57.057 Y71.197
X57.06 Y71.181
X57.071 Y71.169
X57.086 Y71.165
X59.745
X59.761 Y71.169
X59.771 Y71.181
X59.774 Y71.197
X59.68 Y72.46
X59.673 Y72.496
X59.658 Y72.529
X59.635 Y72.557
X59.613 Y72.579
X59.59 Y72.6
G2 X58.825 Y74.145 I1.972 J1.939
G1 X58.577 Y75.864
G2 X59.368 Y78.253 I2.788 J0.402
G1 X59.49 Y78.372
X59.612 Y78.49
X59.616 Y78.501
X59.612 Y78.511
X59.601 Y78.516
X57.27 Y78.515
X57.242 Y78.52
X57.218 Y78.536
X57.202 Y78.56
X57.186 Y78.583
X57.163 Y78.599
X57.135 Y78.605
X56.721 Y78.604
X56.705 Y78.6
X56.693 Y78.588
X56.689 Y78.572
Y78.498
X56.695 Y78.469
X56.711 Y78.445
X56.796 Y78.363
X56.881 Y78.282
G2 X57.168 Y77.944 I-1.901 J-1.909
X57.421 Y77.58 I-11.645 J-8.363
G1 X57.665 Y77.217
G2 X58.09 Y75.34 I-2.212 J-1.487
G1 X57.881 Y73.927
G2 X57.125 Y72.433 I-2.622 J0.388
G1 X57.107 Y72.416
X57.089 Y72.4
X57.067 Y72.372
X57.052 Y72.339
X57.045 Y72.304
X56.96 Y71.107
X56.963 Y71.091
X56.974 Y71.079
X56.989 Y71.075
X59.842
X59.858 Y71.079
X59.868 Y71.091
X59.871 Y71.107
X59.767 Y72.5
X59.76 Y72.535
X59.745 Y72.568
X59.723 Y72.597
X59.688 Y72.63
X59.654 Y72.663
G2 X58.915 Y74.15 I1.905 J1.873
G1 X58.666 Y75.877
G2 X59.431 Y78.19 I2.699 J0.389
G1 X59.563 Y78.317
X59.694 Y78.445
X59.71 Y78.469
X59.716 Y78.498
Y78.574
X59.712 Y78.59
X59.7 Y78.601
X59.684 Y78.606
X57.135 Y78.605
X57.107 Y78.61
X57.083 Y78.626
X57.067 Y78.65
X57.051 Y78.673
X57.028 Y78.689
X57. Y78.695
X56.631 Y78.694
X56.615 Y78.69
X56.603 Y78.678
X56.599 Y78.662
Y78.481
X56.603 Y78.449
X56.615 Y78.419
X56.635 Y78.393
X56.726 Y78.306
X56.817 Y78.218
G2 X57.099 Y77.887 I-1.848 J-1.856
X57.346 Y77.53 I-11.948 J-8.556
G1 X57.59 Y77.167
G2 X58.001 Y75.353 I-2.137 J-1.437
G1 X57.792 Y73.941
G2 X57.062 Y72.496 I-2.538 J0.376
G1 X57.032 Y72.468
X57.002 Y72.44
X56.98 Y72.412
X56.965 Y72.379
X56.958 Y72.344
X56.864 Y71.017
X56.867 Y71.001
X56.878 Y70.989
X56.893 Y70.985
X59.939
X59.955 Y70.989
X59.965 Y71.001
X59.968 Y71.017
X59.854 Y72.539
X59.847 Y72.575
X59.832 Y72.608
X59.81 Y72.636
X59.764 Y72.681
X59.717 Y72.725
G2 X59.004 Y74.163 I1.838 J1.807
G1 X58.755 Y75.89
G2 X59.495 Y78.126 I2.61 J0.376
G1 X59.632 Y78.26
X59.77 Y78.393
X59.789 Y78.419
X59.802 Y78.449
X59.806 Y78.481
Y78.664
X59.801 Y78.68
X59.79 Y78.691
X59.774 Y78.696
X57. Y78.695
X56.972 Y78.7
X56.948 Y78.716
X56.932 Y78.74
X56.916 Y78.763
X56.893 Y78.779
X56.865 Y78.785
X56.541 Y78.784
X56.525 Y78.78
X56.513 Y78.768
X56.509 Y78.752
Y78.443
X56.513 Y78.411
X56.525 Y78.381
X56.545 Y78.356
X56.649 Y78.255
X56.754 Y78.154
G2 X57.029 Y77.83 I-1.795 J-1.803
X57.272 Y77.48 I-12.305 J-8.786
G1 X57.516 Y77.117
G2 X57.912 Y75.367 I-2.062 J-1.387
G1 X57.703 Y73.954
G2 X56.999 Y72.559 I-2.454 J0.363
G1 X56.957 Y72.519
X56.914 Y72.48
X56.892 Y72.452
X56.877 Y72.419
X56.871 Y72.384
X56.767 Y70.927
X56.77 Y70.911
X56.781 Y70.899
X56.796 Y70.895
X60.036
X60.052 Y70.9
X60.062 Y70.911
X60.065 Y70.927
X59.941 Y72.579
X59.934 Y72.614
X59.92 Y72.647
X59.897 Y72.676
X59.839 Y72.732
X59.781 Y72.788
G2 X59.093 Y74.175 I1.772 J1.742
G1 X58.844 Y75.903
G2 X59.558 Y78.062 I2.521 J0.364
G1 X59.709 Y78.209
X59.86 Y78.356
X59.879 Y78.382
X59.892 Y78.412
X59.896 Y78.444
Y78.754
X59.891 Y78.77
X59.88 Y78.781
X59.864 Y78.786
X56.865 Y78.785
X56.837 Y78.79
X56.813 Y78.806
X56.797 Y78.829
X56.781 Y78.853
X56.758 Y78.869
X56.73 Y78.874
X56.45
X56.434 Y78.87
X56.423 Y78.858
X56.419 Y78.842
Y78.406
X56.423 Y78.374
X56.436 Y78.344
X56.455 Y78.318
X56.722 Y78.052
G2 X56.965 Y77.763 I-1.491 J-1.498
X57.441 Y77.067 I-38.11 J-26.557
X57.823 Y75.38 I-1.988 J-1.336
G1 X57.614 Y73.967
G2 X56.936 Y72.622 I-2.369 J0.351
G1 X56.881 Y72.571
X56.827 Y72.519
X56.805 Y72.492
X56.79 Y72.459
X56.783 Y72.424
X56.67 Y70.837
X56.673 Y70.821
X56.684 Y70.809
X56.7 Y70.805
X60.133
X60.149 Y70.81
X60.159 Y70.821
X60.162 Y70.837
X60.029 Y72.618
X60.022 Y72.654
X60.007 Y72.687
X59.985 Y72.716
X59.915 Y72.783
X59.845 Y72.851
G2 X59.182 Y74.188 I1.708 J1.679
G1 X58.933 Y75.916
G2 X59.622 Y77.998 I2.432 J0.351
G1 X59.786 Y78.159
X59.95 Y78.319
X59.97 Y78.344
X59.982 Y78.374
X59.986 Y78.406
Y78.844
X59.981 Y78.86
X59.97 Y78.872
X59.954 Y78.876
X56.73 Y78.874
X56.702 Y78.88
X56.678 Y78.896
X56.662 Y78.919
X56.646 Y78.943
X56.623 Y78.959
X56.595 Y78.964
X56.36
X56.344 Y78.96
X56.333 Y78.948
X56.328 Y78.932
X56.329 Y78.368
X56.333 Y78.336
X56.346 Y78.306
X56.365 Y78.281
G3 X56.641 Y78.008 I44.968 J45.165
G2 X56.891 Y77.711 I-1.472 J-1.497
X57.366 Y77.016 I-38.036 J-26.506
X57.734 Y75.393 I-1.913 J-1.286
G1 X57.525 Y73.98
G2 X56.873 Y72.686 I-2.28 J0.337
G1 X56.806 Y72.623
X56.739 Y72.559
X56.717 Y72.531
X56.703 Y72.499
X56.696 Y72.464
X56.574 Y70.747
X56.577 Y70.731
X56.588 Y70.719
X56.603 Y70.715
X60.23
X60.246 Y70.72
X60.256 Y70.731
X60.259 Y70.747
X60.116 Y72.658
X60.109 Y72.694
X60.094 Y72.727
X60.072 Y72.755
X59.991 Y72.835
X59.909 Y72.914
G2 X59.271 Y74.201 I1.644 J1.616
G1 X59.022 Y75.929
G2 X59.116 Y77.01 I2.356 J0.34
X59.685 Y77.935 I2.214 J-0.726
G1 X59.863 Y78.108
X60.04 Y78.281
X60.06 Y78.307
X60.072 Y78.337
X60.076 Y78.369
X60.075 Y78.934
X60.071 Y78.95
X60.059 Y78.962
X60.043 Y78.966
X56.595 Y78.964
X56.567 Y78.97
X56.543 Y78.986
X56.527 Y79.009
X56.511 Y79.033
X56.488 Y79.049
X56.46 Y79.054
X56.27
X56.254 Y79.05
X56.243 Y79.038
X56.238 Y79.022
X56.239 Y78.331
X56.243 Y78.299
X56.256 Y78.269
X56.275 Y78.243
G3 X56.56 Y77.964 I23.582 J23.685
G2 X56.818 Y77.66 I-1.458 J-1.5
X57.292 Y76.966 I-37.963 J-26.455
X57.645 Y75.406 I-1.838 J-1.236
G1 X57.436 Y73.993
G2 X56.809 Y72.75 I-2.191 J0.324
G1 X56.73 Y72.674
X56.652 Y72.599
X56.63 Y72.571
X56.615 Y72.539
X56.609 Y72.504
X56.477 Y70.657
X56.48 Y70.641
X56.491 Y70.629
X56.506 Y70.625
X60.327
X60.343 Y70.63
X60.353 Y70.641
X60.356 Y70.657
X60.203 Y72.698
X60.196 Y72.733
X60.181 Y72.766
X60.159 Y72.795
X60.066 Y72.886
X59.973 Y72.977
G2 X59.36 Y74.214 I1.579 J1.553
G1 X59.111 Y75.942
G2 X59.202 Y76.982 I2.267 J0.327
X59.749 Y77.871 I2.128 J-0.697
X59.939 Y78.057 I11.158 J-11.196
G3 X60.13 Y78.244 I-10.968 J11.382
G1 X60.15 Y78.27
X60.162 Y78.3
X60.166 Y78.332
X60.165 Y79.024
X60.161 Y79.04
X60.149 Y79.052
X60.133 Y79.056
X56.46 Y79.054
X56.432 Y79.06
X56.408 Y79.076
X56.392 Y79.099
X56.376 Y79.123
X56.353 Y79.139
X56.325 Y79.144
X56.18
X56.164 Y79.14
X56.153 Y79.128
X56.148 Y79.112
X56.149 Y78.294
X56.153 Y78.261
X56.166 Y78.232
X56.185 Y78.206
G3 X56.478 Y77.92 I16.537 J16.609
G2 X56.744 Y77.608 I-1.446 J-1.505
X57.217 Y76.916 I-37.889 J-26.404
X57.556 Y75.419 I-1.764 J-1.186
G1 X57.347 Y74.006
G2 X56.745 Y72.813 I-2.102 J0.311
G1 X56.655 Y72.726
X56.565 Y72.639
X56.543 Y72.611
X56.528 Y72.579
X56.521 Y72.544
X56.38 Y70.567
X56.384 Y70.551
X56.394 Y70.539
X56.41 Y70.535
X60.424
X60.44 Y70.54
X60.45 Y70.551
X60.453 Y70.567
X60.291 Y72.737
X60.284 Y72.773
X60.269 Y72.806
X60.246 Y72.834
X60.142 Y72.937
X60.038 Y73.04
G2 X59.45 Y74.227 I1.515 J1.49
G1 X59.2 Y75.954
G2 X59.287 Y76.953 I2.178 J0.314
X59.812 Y77.807 I2.043 J-0.669
X60.016 Y78.007 I12.779 J-12.822
G3 X60.22 Y78.207 I-12.576 J13.022
G1 X60.24 Y78.232
X60.252 Y78.262
X60.256 Y78.294
X60.255 Y79.114
X60.251 Y79.13
X60.239 Y79.142
X60.223 Y79.146
X56.325 Y79.144
X56.297 Y79.15
X56.273 Y79.166
X56.257 Y79.189
X56.241 Y79.213
X56.218 Y79.229
X56.19 Y79.234
X56.09
X56.074 Y79.23
X56.063 Y79.218
X56.058 Y79.202
X56.059 Y78.256
X56.063 Y78.224
X56.076 Y78.194
X56.095 Y78.168
G3 X56.396 Y77.876 I13.042 J13.1
G2 X56.67 Y77.557 I-1.438 J-1.511
X57.142 Y76.866 I-37.816 J-26.352
X57.466 Y75.453 I-1.677 J-1.127
X57.257 Y74.02 I-268.502 J38.267
X56.682 Y72.877 I-2.013 J0.298
G1 X56.58 Y72.778
X56.477 Y72.679
X56.455 Y72.651
X56.44 Y72.619
X56.434 Y72.584
X56.284 Y70.477
X56.287 Y70.461
X56.298 Y70.449
X56.313 Y70.445
X60.521
X60.537 Y70.45
X60.547 Y70.461
X60.55 Y70.477
X60.378 Y72.777
X60.371 Y72.812
X60.356 Y72.845
X60.334 Y72.874
X60.218 Y72.989
X60.102 Y73.103
G2 X59.539 Y74.24 I1.451 J1.427
G1 X59.289 Y75.967
G2 X59.372 Y76.925 I2.089 J0.301
X59.876 Y77.743 I1.958 J-0.64
X60.093 Y77.956 I14.51 J-14.559
G3 X60.31 Y78.169 I-14.293 J14.772
G1 X60.33 Y78.195
X60.342 Y78.225
X60.346 Y78.257
X60.345 Y79.204
X60.341 Y79.22
X60.329 Y79.232
X60.313 Y79.236
X56.19 Y79.234
X56.162 Y79.24
X56.138 Y79.256
X56.122 Y79.279
X56.106 Y79.303
X56.082 Y79.319
X56.055 Y79.324
X56.
X55.984 Y79.32
X55.973 Y79.308
X55.968 Y79.292
X55.969 Y78.219
X55.973 Y78.187
X55.986 Y78.157
X56.005 Y78.131
G3 X56.315 Y77.831 I10.963 J11.011
G2 X56.596 Y77.505 I-1.431 J-1.519
X57.068 Y76.816 I-37.743 J-26.301
X57.378 Y75.446 I-1.614 J-1.085
G1 X57.168 Y74.033
G2 X56.618 Y72.941 I-1.924 J0.285
G1 X56.504 Y72.83
X56.39 Y72.719
X56.368 Y72.691
X56.353 Y72.659
X56.346 Y72.624
X56.187 Y70.387
X56.19 Y70.371
X56.201 Y70.359
X56.216 Y70.355
X60.618
X60.634 Y70.36
X60.644 Y70.371
X60.647 Y70.387
X60.465 Y72.816
X60.458 Y72.852
X60.443 Y72.885
X60.421 Y72.914
X60.293 Y73.04
X60.166 Y73.166
G2 X59.628 Y74.253 I1.387 J1.364
G1 X59.378 Y75.98
G2 X59.458 Y76.896 I2. J0.288
X59.94 Y77.68 I1.872 J-0.612
X60.17 Y77.906 I16.351 J-16.406
G3 X60.4 Y78.132 I-16.121 J16.632
G1 X60.42 Y78.158
X60.432 Y78.188
X60.436 Y78.22
X60.435 Y79.294
X60.431 Y79.31
X60.419 Y79.322
X60.403 Y79.326
X56.055 Y79.324
X56.027 Y79.33
X56.003 Y79.345
X55.987 Y79.369
X55.971 Y79.393
X55.947 Y79.409
X55.919 Y79.414
X55.91
X55.894 Y79.41
X55.882 Y79.398
X55.878 Y79.382
X55.879 Y78.181
X55.883 Y78.149
X55.896 Y78.119
X55.915 Y78.094
G3 X56.233 Y77.787 I9.589 J9.631
G2 X56.522 Y77.454 I-1.426 J-1.529
X57.013 Y76.726 I-23.706 J-16.52
X57.301 Y75.897 I-1.521 J-0.992
X57.288 Y75.459 I-1.848 J-0.167
G1 X57.079 Y74.046
G2 X56.555 Y73.004 I-1.835 J0.272
G1 X56.429 Y72.882
X56.303 Y72.759
X56.281 Y72.731
X56.266 Y72.699
X56.259 Y72.664
X56.09 Y70.297
X56.094 Y70.281
X56.104 Y70.269
X56.12 Y70.265
X60.715
X60.731 Y70.27
X60.741 Y70.281
X60.744 Y70.297
X60.552 Y72.856
X60.545 Y72.892
X60.53 Y72.925
X60.508 Y72.953
X60.369 Y73.091
X60.23 Y73.23
G2 X59.717 Y74.265 I1.323 J1.301
G1 X59.468 Y75.993
G2 X59.543 Y76.868 I1.911 J0.276
X60.003 Y77.616 I1.787 J-0.583
X60.247 Y77.855 I18.302 J-18.364
G3 X60.49 Y78.095 I-18.058 J18.603
G1 X60.51 Y78.12
X60.522 Y78.15
X60.526 Y78.182
X60.525 Y79.384
X60.521 Y79.4
X60.509 Y79.412
X60.493 Y79.416
X55.919 Y79.414
X55.894 Y79.419
X55.873 Y79.434
X55.86 Y79.455
X55.847 Y79.471
X55.828 Y79.479
X55.809 Y79.475
X55.794 Y79.461
X55.788 Y79.442
X55.789 Y78.144
X55.793 Y78.112
X55.806 Y78.082
X55.825 Y78.056
G3 X56.036 Y77.85 I13.573 J13.632
G2 X56.246 Y77.644 I-13.363 J-13.838
X56.474 Y77.372 I-1.385 J-1.391
X56.674 Y77.078 I-20.348 J-14.108
G1 X56.918 Y76.715
G2 X57.199 Y75.472 I-1.465 J-0.985
G1 X56.99 Y74.059
G2 X56.491 Y73.068 I-1.746 J0.258
G1 X56.353 Y72.934
X56.215 Y72.799
X56.193 Y72.771
X56.178 Y72.739
X56.172 Y72.704
X55.994 Y70.207
X55.997 Y70.191
X56.008 Y70.179
X56.023 Y70.175
X60.812
X60.828 Y70.18
X60.838 Y70.191
X60.841 Y70.207
X60.64 Y72.896
X60.633 Y72.931
X60.618 Y72.964
X60.596 Y72.993
X60.445 Y73.143
X60.294 Y73.293
G2 X59.806 Y74.278 I1.259 J1.238
G1 X59.557 Y76.006
G2 X59.628 Y76.839 I1.822 J0.263
X60.067 Y77.552 I1.701 J-0.555
X60.323 Y77.805 I20.363 J-20.431
G3 X60.58 Y78.058 I-20.106 J20.684
G1 X60.6 Y78.083
X60.612 Y78.113
X60.616 Y78.145
X60.615 Y79.474
X60.61 Y79.49
X60.599 Y79.502
X60.583 Y79.506
X55.82 Y79.504
X55.804 Y79.5
X55.792 Y79.488
X55.788 Y79.472
Y79.442
X55.783 Y79.414
X55.767 Y79.39
X55.744 Y79.374
X55.721 Y79.358
X55.705 Y79.334
X55.7 Y79.307
X55.699 Y78.106
X55.703 Y78.074
X55.716 Y78.044
X55.735 Y78.019
G3 X55.959 Y77.8 I15.351 J15.418
G2 X56.182 Y77.58 I-15.128 J-15.637
X56.404 Y77.314 I-1.335 J-1.341
X56.599 Y77.028 I-23.317 J-16.094
G1 X56.844 Y76.665
G2 X57.11 Y75.485 I-1.39 J-0.935
G1 X56.901 Y74.072
G2 X56.428 Y73.132 I-1.657 J0.245
G1 X56.278 Y72.985
X56.128 Y72.839
X56.106 Y72.811
X56.091 Y72.779
X56.084 Y72.744
X55.897 Y70.117
X55.9 Y70.101
X55.911 Y70.089
X55.926 Y70.085
X60.909
X60.925 Y70.09
X60.935 Y70.101
X60.938 Y70.117
X60.727 Y72.935
X60.72 Y72.971
X60.705 Y73.004
X60.683 Y73.032
X60.521 Y73.194
X60.358 Y73.356
G2 X59.895 Y74.291 I1.194 J1.175
G1 X59.646 Y76.019
G2 X59.714 Y76.811 I1.733 J0.25
X60.13 Y77.488 I1.616 J-0.526
X60.4 Y77.754 I22.533 J-22.609
G3 X60.67 Y78.02 I-22.263 J22.875
G1 X60.69 Y78.046
X60.702 Y78.076
X60.706 Y78.108
X60.705 Y79.564
X60.7 Y79.58
X60.689 Y79.592
X60.673 Y79.596
X55.74 Y79.594
X55.723 Y79.59
X55.71 Y79.578
X55.704 Y79.561
X55.701 Y79.536
X55.7 Y79.511
X55.698 Y79.423
X55.7 Y79.335
Y79.307
X55.694 Y79.279
X55.679 Y79.256
X55.656 Y79.24
X55.632 Y79.224
X55.617 Y79.2
X55.611 Y79.172
X55.612 Y79.154
X55.609 Y78.069
X55.613 Y78.037
X55.626 Y78.007
X55.645 Y77.981
G3 X55.882 Y77.749 I17.238 J17.314
G2 X56.119 Y77.517 I-17.002 J-17.547
X56.335 Y77.257 I-1.285 J-1.291
X56.525 Y76.978 I-27.835 J-19.12
G1 X56.769 Y76.615
G2 X57.021 Y75.498 I-1.315 J-0.884
G1 X56.812 Y74.086
G2 X56.364 Y73.196 I-1.568 J0.232
G1 X56.202 Y73.037
X56.04 Y72.879
X56.018 Y72.851
X56.004 Y72.819
X55.997 Y72.784
X55.801 Y70.027
X55.804 Y70.011
X55.815 Y69.999
X55.83 Y69.995
X61.006
X61.022 Y70.
X61.032 Y70.011
X61.036 Y70.027
X60.814 Y72.975
X60.807 Y73.01
X60.792 Y73.043
X60.77 Y73.072
X60.596 Y73.245
X60.423 Y73.419
G2 X59.984 Y74.304 I1.13 J1.111
G1 X59.735 Y76.032
G2 X59.799 Y76.782 I1.644 J0.237
X60.194 Y77.425 I1.531 J-0.498
X60.477 Y77.704 I24.814 J-24.897
G3 X60.76 Y77.983 I-24.531 J25.176
G1 X60.78 Y78.008
X60.792 Y78.038
X60.797 Y78.07
X60.795 Y79.654
X60.79 Y79.67
X60.779 Y79.682
X60.763 Y79.686
X55.659 Y79.684
X55.642 Y79.68
X55.629 Y79.668
X55.623 Y79.651
X55.617 Y79.583
X55.612 Y79.515
X55.61 Y79.334
X55.611 Y79.172
X55.606 Y79.145
X55.59 Y79.121
X55.566 Y79.105
X55.543 Y79.089
X55.527 Y79.065
X55.521 Y79.037
X55.519 Y78.032
X55.523 Y77.999
X55.536 Y77.97
X55.556 Y77.944
G3 X55.805 Y77.698 I19.235 J19.32
G2 X56.055 Y77.453 I-18.986 J-19.565
X56.265 Y77.2 I-1.236 J-1.242
X56.45 Y76.928 I-35.489 J-24.256
G1 X56.694 Y76.564
G2 X56.932 Y75.511 I-1.241 J-0.834
G1 X56.723 Y74.099
G2 X56.3 Y73.259 I-1.479 J0.219
G1 X56.127 Y73.089
X55.953 Y72.919
X55.931 Y72.891
X55.916 Y72.859
X55.909 Y72.824
X55.704 Y69.937
X55.707 Y69.921
X55.718 Y69.909
X55.733 Y69.905
X61.103
X61.119 Y69.91
X61.129 Y69.921
X61.133 Y69.937
X60.901 Y73.014
X60.895 Y73.05
X60.88 Y73.083
X60.857 Y73.112
G3 X60.672 Y73.297 I-10.872 J-10.692
G2 X60.487 Y73.482 I10.687 J10.877
X60.073 Y74.317 I1.066 J1.048
G1 X59.824 Y76.044
G2 X59.885 Y76.754 I1.555 J0.224
X60.257 Y77.361 I1.445 J-0.47
X60.554 Y77.653 I27.204 J-27.296
G3 X60.85 Y77.946 I-26.908 J27.588
G1 X60.87 Y77.971
X60.882 Y78.001
X60.887 Y78.033
X60.884 Y79.744
X60.88 Y79.76
X60.868 Y79.772
X60.852 Y79.776
X55.578 Y79.774
X55.561 Y79.77
X55.548 Y79.758
X55.542 Y79.741
X55.531 Y79.631
X55.523 Y79.52
X55.52 Y79.334
X55.522 Y79.148
X55.521 Y79.037
X55.516 Y79.01
X55.5 Y78.986
X55.476 Y78.97
X55.453 Y78.954
X55.437 Y78.931
X55.431 Y78.903
X55.429 Y77.994
X55.433 Y77.962
X55.446 Y77.932
X55.466 Y77.907
G3 X55.729 Y77.648 I21.342 J21.436
G2 X55.992 Y77.389 I-21.079 J-21.694
X56.196 Y77.143 I-1.188 J-1.193
X56.375 Y76.877 I-51.17 J-34.787
G1 X56.619 Y76.514
G2 X56.843 Y75.525 I-1.166 J-0.784
G1 X56.634 Y74.112
G2 X56.237 Y73.323 I-1.39 J0.206
X56.051 Y73.141 I-10.607 J10.63
G3 X55.866 Y72.959 I10.422 J-10.812
G1 X55.844 Y72.931
X55.829 Y72.899
X55.822 Y72.864
X55.607 Y69.847
X55.61 Y69.831
X55.621 Y69.819
X55.637 Y69.815
X61.2
X61.216 Y69.82
X61.226 Y69.831
X61.23 Y69.847
X60.989 Y73.054
X60.982 Y73.09
X60.967 Y73.123
X60.945 Y73.151
G3 X60.748 Y73.348 I-12.283 J-12.079
G2 X60.551 Y73.545 I12.087 J12.276
X60.162 Y74.33 I1.002 J0.985
G1 X59.913 Y76.057
G2 X59.97 Y76.725 I1.465 J0.211
X60.321 Y77.297 I1.36 J-0.441
X60.631 Y77.603 I29.705 J-29.805
G3 X60.94 Y77.908 I-29.395 J30.11
G1 X60.96 Y77.934
X60.972 Y77.964
X60.977 Y77.996
X60.974 Y79.834
X60.97 Y79.85
X60.958 Y79.862
X60.942 Y79.866
X55.497 Y79.864
X55.48 Y79.86
X55.467 Y79.848
X55.461 Y79.831
X55.446 Y79.692
X55.433 Y79.525
X55.43 Y79.333
X55.432 Y79.142
X55.431 Y78.903
X55.426 Y78.875
X55.41 Y78.851
X55.386 Y78.835
X55.362 Y78.82
X55.347 Y78.796
X55.341 Y78.768
X55.339 Y77.957
X55.343 Y77.925
X55.356 Y77.895
X55.376 Y77.869
G3 X55.652 Y77.597 I23.558 J23.661
G2 X55.928 Y77.325 I-23.281 J-23.933
X56.119 Y77.093 I-1.07 J-1.074
G3 X56.288 Y76.845 I12.828 J8.573
G1 X56.417 Y76.655
X56.545 Y76.464
G2 X56.754 Y75.538 I-1.091 J-0.734
G1 X56.545 Y74.125
G2 X56.173 Y73.387 I-1.301 J0.193
X55.976 Y73.193 I-12.024 J12.05
G3 X55.778 Y72.999 I11.827 J-12.244
G1 X55.756 Y72.971
X55.741 Y72.939
X55.735 Y72.904
X55.511 Y69.757
X55.514 Y69.741
X55.525 Y69.729
X55.54 Y69.725
X61.297
X61.313 Y69.73
X61.323 Y69.741
X61.327 Y69.757
X61.076 Y73.094
X61.069 Y73.129
X61.054 Y73.162
X61.032 Y73.191
G3 X60.824 Y73.4 I-13.78 J-13.551
G2 X60.615 Y73.608 I13.572 J13.76
X60.251 Y74.343 I0.938 J0.922
G1 X60.002 Y76.07
G2 X60.055 Y76.697 I1.376 J0.199
X60.384 Y77.233 I1.275 J-0.413
G1 X61.03 Y77.871
X61.05 Y77.897
X61.062 Y77.926
X61.067 Y77.958
X61.064 Y79.924
X61.06 Y79.94
X61.048 Y79.952
X61.032 Y79.956
X55.416 Y79.954
X55.399 Y79.95
X55.386 Y79.938
X55.38 Y79.921
X55.356 Y79.697
X55.343 Y79.529
X55.34 Y79.333
X55.342 Y79.136
X55.341 Y78.768
X55.335 Y78.74
X55.319 Y78.716
X55.296 Y78.701
X55.272 Y78.685
X55.256 Y78.661
X55.251 Y78.633
X55.249 Y77.919
X55.253 Y77.887
X55.266 Y77.857
X55.286 Y77.832
G3 X55.575 Y77.547 I25.883 J25.997
G2 X55.865 Y77.262 I-25.593 J-26.282
X56.05 Y77.035 I-1.026 J-1.03
G3 X56.214 Y76.794 I10.84 J7.197
G1 X56.343 Y76.604
X56.47 Y76.414
G2 X56.665 Y75.551 I-1.017 J-0.684
G1 X56.456 Y74.138
G2 X56.11 Y73.45 I-1.212 J0.179
X55.9 Y73.245 I-13.53 J13.559
G3 X55.691 Y73.039 I13.321 J-13.765
G1 X55.669 Y73.011
X55.654 Y72.978
X55.647 Y72.944
X55.414 Y69.667
X55.417 Y69.651
X55.428 Y69.639
X55.443 Y69.635
X61.394
X61.41 Y69.64
X61.42 Y69.651
X61.424 Y69.667
X61.163 Y73.133
X61.156 Y73.169
X61.141 Y73.202
X61.119 Y73.23
G3 X60.899 Y73.451 I-15.363 J-15.108
G2 X60.679 Y73.671 I15.144 J15.329
X60.34 Y74.355 I0.874 J0.859
G1 X60.091 Y76.083
G2 X60.141 Y76.669 I1.287 J0.186
X60.448 Y77.17 I1.189 J-0.384
G1 X61.12 Y77.834
X61.14 Y77.859
X61.152 Y77.889
X61.157 Y77.921
X61.154 Y80.014
X61.15 Y80.03
X61.138 Y80.042
X61.122 Y80.046
X55.335 Y80.044
X55.318 Y80.04
X55.305 Y80.028
X55.299 Y80.011
X55.292 Y79.952
X55.287 Y79.892
X55.27 Y79.713
X55.253 Y79.534
X55.249 Y79.332
X55.252 Y79.131
X55.251 Y78.633
X55.245 Y78.605
X55.229 Y78.582
X55.206 Y78.566
X55.182 Y78.55
X55.166 Y78.526
X55.16 Y78.499
X55.159 Y77.882
X55.163 Y77.85
X55.176 Y77.82
X55.196 Y77.794
G3 X55.498 Y77.496 I28.318 J28.442
G2 X55.801 Y77.198 I-28.015 J-28.74
X55.981 Y76.978 I-0.982 J-0.986
G3 X56.141 Y76.742 I9.258 J6.105
G2 X56.422 Y76.316 I-8.16 J-5.686
X56.584 Y75.832 I-0.935 J-0.583
X56.576 Y75.564 I-1.131 J-0.102
G1 X56.367 Y74.151
G2 X56.046 Y73.514 I-1.123 J0.166
X55.825 Y73.296 I-15.125 J15.157
G3 X55.603 Y73.079 I14.904 J-15.375
G1 X55.581 Y73.051
X55.567 Y73.018
X55.56 Y72.983
X55.317 Y69.577
X55.321 Y69.561
X55.331 Y69.549
X55.347 Y69.545
X61.491
X61.507 Y69.55
X61.517 Y69.561
X61.521 Y69.577
X61.251 Y73.173
X61.244 Y73.208
X61.229 Y73.241
X61.206 Y73.27
G3 X60.975 Y73.502 I-17.033 J-16.749
G2 X60.744 Y73.734 I16.801 J16.982
X60.429 Y74.368 I0.809 J0.796
G1 X60.18 Y76.096
G2 X60.226 Y76.64 I1.198 J0.173
X60.511 Y77.106 I1.104 J-0.356
G1 X61.21 Y77.796
X61.23 Y77.822
X61.243 Y77.852
X61.247 Y77.884
X61.244 Y80.104
X61.24 Y80.12
X61.228 Y80.132
X61.212 Y80.136
X55.254 Y80.134
X55.237 Y80.13
X55.224 Y80.118
X55.218 Y80.101
X55.21 Y80.031
X55.204 Y79.961
X55.196 Y79.855
X55.183 Y79.75
X55.171 Y79.645
X55.163 Y79.539
X55.159 Y79.332
X55.162 Y79.125
X55.16 Y78.499
X55.155 Y78.471
X55.139 Y78.447
X55.115 Y78.431
X55.092 Y78.415
X55.076 Y78.392
X55.07 Y78.364
X55.069 Y77.846
X55.074 Y77.813
X55.086 Y77.782
X55.106 Y77.756
G3 X55.422 Y77.445 I30.786 J30.921
G2 X55.738 Y77.134 I-30.47 J-31.232
X55.912 Y76.92 I-0.939 J-0.943
G3 X56.067 Y76.691 I7.973 J5.22
G2 X56.337 Y76.285 I-9.655 J-6.728
X56.494 Y75.824 I-0.869 J-0.554
G1 X56.498 Y75.701
X56.487 Y75.577
X56.278 Y74.165
G2 X55.981 Y73.58 I-1.022 J0.151
G3 X55.516 Y73.119 I73.933 J-75.019
G1 X55.494 Y73.091
X55.479 Y73.058
X55.473 Y73.023
X55.221 Y69.487
X55.224 Y69.471
X55.235 Y69.459
X55.25 Y69.455
X61.588
X61.604 Y69.46
X61.614 Y69.471
X61.618 Y69.487
X61.338 Y73.212
X61.331 Y73.248
X61.316 Y73.281
X61.294 Y73.31
G3 X60.821 Y73.783 I-30.53 J-30.022
G2 X60.518 Y74.381 I0.737 J0.748
G1 X60.269 Y76.109
G2 X60.589 Y77.056 I1.094 J0.158
G3 X61.3 Y77.759 I-86.762 J88.47
G1 X61.32 Y77.785
X61.333 Y77.814
X61.337 Y77.846
X61.334 Y80.194
X61.33 Y80.21
X61.318 Y80.222
X61.302 Y80.226
X55.174 Y80.224
X55.156 Y80.22
X55.143 Y80.208
X55.137 Y80.191
X55.133 Y80.151
X55.129 Y80.11
G2 X55.101 Y79.827 I-3.051 J0.161
G3 X55.073 Y79.544 I3.023 J-0.445
G1 X55.069 Y79.332
X55.072 Y79.119
X55.07 Y78.364
X55.065 Y78.336
X55.049 Y78.312
X55.025 Y78.296
X55.001 Y78.281
X54.986 Y78.257
X54.98 Y78.229
X54.979 Y77.81
X54.983 Y77.777
X54.996 Y77.746
X55.016 Y77.72
X55.02 Y77.715
X55.183 Y77.554
X55.347 Y77.393
X55.674 Y77.07
X55.732 Y77.007
X55.784 Y76.939
G2 X56.246 Y76.263 I-36.936 J-25.739
X56.398 Y75.591 I-0.793 J-0.533
G1 X56.189 Y74.178
G2 X55.919 Y73.641 I-0.945 J0.14
X55.674 Y73.4 I-18.581 J18.62
G3 X55.429 Y73.159 I18.335 J-18.862
G1 X55.407 Y73.131
X55.392 Y73.098
X55.385 Y73.063
X55.13 Y69.452
X55.126 Y69.424
X55.122 Y69.396
X55.125 Y69.381
X55.135 Y69.369
X55.149 Y69.365
X61.689
X61.704 Y69.369
X61.714 Y69.381
X61.716 Y69.396
X61.712 Y69.422
X61.709 Y69.449
X61.425 Y73.252
X61.418 Y73.288
X61.403 Y73.321
X61.381 Y73.349
G3 X61.126 Y73.605 I-20.629 J-20.286
G2 X60.872 Y73.861 I20.375 J20.542
X60.608 Y74.394 I0.681 J0.67
G1 X60.358 Y76.121
G2 X60.397 Y76.583 I1.02 J0.147
X60.638 Y76.978 I0.933 J-0.299
G1 X61.39 Y77.722
X61.41 Y77.747
X61.423 Y77.777
X61.427 Y77.809
X61.424 Y80.284
X61.419 Y80.3
X61.408 Y80.312
X61.392 Y80.316
X55.093 Y80.314
X55.075 Y80.309
X55.062 Y80.298
X55.056 Y80.281
X55.051 Y80.235
X55.047 Y80.189
G2 X55.015 Y79.869 I-3.394 J0.18
G3 X54.983 Y79.549 I3.362 J-0.5
G1 X54.979 Y79.44
Y79.331
X54.982 Y79.114
X54.98 Y78.229
X54.974 Y78.201
X54.959 Y78.177
X54.935 Y78.162
X54.911 Y78.146
X54.895 Y78.122
X54.89 Y78.094
X54.889 Y77.774
X54.893 Y77.741
X54.906 Y77.71
X54.926 Y77.683
X54.941 Y77.668
X54.957 Y77.653
G3 X55.283 Y77.329 I13.725 J13.476
G2 X55.611 Y77.006 I-25.549 J-26.313
G1 X55.663 Y76.949
X55.71 Y76.888
G2 X56.171 Y76.213 I-36.862 J-25.688
X56.309 Y75.604 I-0.718 J-0.483
G1 X56.1 Y74.191
G2 X55.855 Y73.705 I-0.856 J0.127
X55.598 Y73.452 I-20.442 J20.485
G3 X55.341 Y73.199 I20.185 J-20.739
G1 X55.319 Y73.171
X55.304 Y73.138
X55.298 Y73.103
X55.043 Y69.458
X55.031 Y69.381
X55.013 Y69.305
X55.014 Y69.291
X55.023 Y69.279
X55.036 Y69.275
X61.802
X61.816 Y69.28
X61.825 Y69.291
Y69.305
X61.807 Y69.379
X61.796 Y69.455
X61.512 Y73.292
X61.506 Y73.327
X61.491 Y73.36
X61.468 Y73.389
G3 X61.202 Y73.656 I-22.556 J-22.181
G2 X60.936 Y73.924 I22.29 J22.449
X60.697 Y74.407 I0.617 J0.607
G1 X60.447 Y76.134
G2 X60.482 Y76.555 I0.931 J0.134
X60.702 Y76.915 I0.848 J-0.27
G1 X61.479 Y77.682
X61.499 Y77.709
X61.512 Y77.741
X61.517 Y77.775
X61.514 Y80.375
X61.509 Y80.39
X61.498 Y80.402
X61.482 Y80.406
X55.012 Y80.404
X54.995 Y80.399
X54.981 Y80.388
X54.975 Y80.371
X54.969 Y80.32
X54.965 Y80.269
X54.958 Y80.179
X54.947 Y80.09
X54.936 Y80.001
X54.929 Y79.911
X54.922 Y79.821
X54.911 Y79.732
X54.899 Y79.643
X54.893 Y79.553
X54.889 Y79.442
Y79.331
X54.892 Y79.108
X54.89 Y78.094
X54.884 Y78.066
X54.868 Y78.043
X54.845 Y78.027
X54.821 Y78.011
X54.805 Y77.987
X54.8 Y77.96
X54.799 Y77.738
X54.804 Y77.705
X54.816 Y77.674
X54.836 Y77.647
X54.864 Y77.619
X54.893 Y77.591
G3 X55.219 Y77.266 I15.368 J15.088
G2 X55.547 Y76.943 I-32.132 J-32.925
G1 X55.594 Y76.892
X55.636 Y76.837
G2 X56.097 Y76.163 I-36.789 J-25.637
X56.22 Y75.617 I-0.643 J-0.432
G1 X56.011 Y74.204
G2 X55.792 Y73.769 I-0.767 J0.113
X55.523 Y73.504 I-22.392 J22.44
G3 X55.254 Y73.239 I22.123 J-22.705
G1 X55.232 Y73.211
X55.217 Y73.178
X55.21 Y73.143
X54.953 Y69.465
X54.945 Y69.4
X54.931 Y69.336
X54.911 Y69.274
X54.887 Y69.214
X54.886 Y69.2
X54.893 Y69.189
X54.906 Y69.185
X61.933
X61.945 Y69.19
X61.952 Y69.201
X61.951 Y69.214
X61.928 Y69.274
X61.908 Y69.335
X61.894 Y69.398
X61.886 Y69.462
X61.6 Y73.331
X61.593 Y73.367
X61.578 Y73.4
X61.556 Y73.428
G3 X61.278 Y73.708 I-24.57 J-24.161
G2 X61. Y73.987 I24.292 J24.441
X60.786 Y74.42 I0.553 J0.543
G1 X60.536 Y76.147
G2 X60.568 Y76.526 I0.842 J0.122
X60.765 Y76.851 I0.763 J-0.242
G1 X61.568 Y77.644
X61.588 Y77.67
X61.601 Y77.701
X61.606 Y77.734
Y77.748
Y77.761
Y77.93
Y78.099
X61.603 Y80.465
X61.599 Y80.481
X61.587 Y80.492
X61.572 Y80.496
X54.931 Y80.494
X54.914 Y80.489
X54.901 Y80.478
X54.894 Y80.461
X54.891 Y80.433
X54.889 Y80.405
X54.878 Y80.299
X54.867 Y80.193
G2 X54.835 Y79.875 I-3.283 J0.174
G3 X54.803 Y79.558 I3.25 J-0.491
G1 X54.799 Y79.444
Y79.331
X54.802 Y79.103
X54.8 Y77.96
X54.794 Y77.932
X54.778 Y77.908
X54.755 Y77.892
X54.731 Y77.876
X54.715 Y77.853
X54.709 Y77.825
Y77.702
X54.714 Y77.669
X54.726 Y77.638
X54.746 Y77.611
X54.788 Y77.57
X54.83 Y77.529
G3 X55.156 Y77.203 I17.446 J17.129
G2 X55.484 Y76.879 I-43.141 J-43.984
G1 X55.525 Y76.834
X55.562 Y76.785
G2 X56.022 Y76.113 I-36.716 J-25.586
X56.131 Y75.63 I-0.569 J-0.382
G1 X55.922 Y74.217
G2 X55.728 Y73.833 I-0.678 J0.1
X55.447 Y73.556 I-24.43 J24.483
G3 X55.167 Y73.278 I24.149 J-24.76
G1 X55.145 Y73.251
X55.13 Y73.218
X55.123 Y73.183
X54.863 Y69.471
X54.853 Y69.394
X54.833 Y69.319
X54.805 Y69.246
X54.77 Y69.177
X54.753 Y69.149
X54.736 Y69.122
X54.734 Y69.11
X54.74 Y69.099
X54.751 Y69.095
X62.093
X62.104 Y69.1
X62.11 Y69.11
X62.107 Y69.122
X62.057 Y69.201
X62.017 Y69.286
X61.989 Y69.376
X61.975 Y69.469
X61.687 Y73.371
X61.68 Y73.406
X61.665 Y73.439
X61.643 Y73.468
G3 X61.354 Y73.759 I-26.669 J-26.226
G2 X61.064 Y74.05 I26.38 J26.517
X60.875 Y74.432 I0.488 J0.48
G1 X60.626 Y76.16
G2 X60.653 Y76.498 I0.753 J0.109
X60.829 Y76.787 I0.677 J-0.214
G1 X61.657 Y77.606
X61.677 Y77.632
X61.69 Y77.663
X61.695 Y77.696
Y77.728
Y77.76
G3 X61.696 Y78.078 I-24.965 J0.287
G1 X61.693 Y80.555
X61.689 Y80.571
X61.677 Y80.582
X61.661 Y80.587
X54.85 Y80.584
X54.833 Y80.579
X54.82 Y80.568
X54.814 Y80.551
X54.81 Y80.52
X54.807 Y80.489
X54.795 Y80.373
X54.784 Y80.258
X54.777 Y80.171
X54.766 Y80.084
X54.755 Y79.997
X54.748 Y79.91
X54.741 Y79.823
X54.73 Y79.737
X54.719 Y79.65
X54.713 Y79.563
X54.709 Y79.447
Y79.33
X54.712 Y79.098
X54.709 Y77.825
X54.704 Y77.797
X54.688 Y77.773
X54.664 Y77.757
X54.641 Y77.742
X54.625 Y77.718
X54.619 Y77.69
Y77.664
X54.623 Y77.632
X54.636 Y77.602
X54.655 Y77.575
G3 X55.035 Y77.193 I10.893 J10.454
G2 X55.42 Y76.815 I-28.929 J-29.82
G1 X55.456 Y76.776
X55.488 Y76.734
G2 X55.947 Y76.062 I-36.642 J-25.534
X56.042 Y75.643 I-0.494 J-0.332
G1 X55.833 Y74.23
G2 X55.665 Y73.896 I-0.589 J0.087
X55.371 Y73.607 I-27.174 J27.232
G3 X55.078 Y73.318 I26.881 J-27.521
G1 X55.057 Y73.29
X55.042 Y73.259
X55.036 Y73.224
X54.773 Y69.478
G2 X54.702 Y69.231 I-0.616 J0.044
X54.543 Y69.029 I-0.638 J0.34
G1 X54.538 Y69.019
X54.542 Y69.009
X54.552 Y69.005
X62.294
X62.304 Y69.009
X62.308 Y69.02
X62.303 Y69.029
G2 X62.141 Y69.229 I0.523 J0.592
X62.065 Y69.475 I0.507 J0.29
G1 X61.774 Y73.412
X61.767 Y73.446
X61.753 Y73.479
X61.731 Y73.507
G3 X61.43 Y73.81 I-29.522 J-29.032
G2 X61.129 Y74.113 I29.221 J29.335
X60.964 Y74.445 I0.424 J0.417
G1 X60.715 Y76.173
G2 X60.738 Y76.469 I0.664 J0.096
X60.893 Y76.723 I0.592 J-0.185
G1 X61.746 Y77.568
X61.767 Y77.594
X61.779 Y77.624
X61.784 Y77.656
Y77.708
Y77.759
G3 X61.786 Y78.265 I-39.733 J0.456
G1 X61.783 Y80.645
X61.779 Y80.661
X61.768 Y80.672
X61.752 Y80.677
X54.768 Y80.674
X54.752 Y80.669
X54.739 Y80.658
X54.733 Y80.642
X54.729 Y80.608
X54.726 Y80.574
X54.719 Y80.512
X54.713 Y80.449
X54.702 Y80.338
X54.69 Y80.228
G2 X54.656 Y79.898 I-3.356 J0.178
G3 X54.622 Y79.568 I3.323 J-0.508
G1 X54.618 Y79.449
X54.619 Y79.33
X54.622 Y79.092
X54.619 Y77.69
Y77.664 Z-1.34
X54.622 Y77.639 Z-1.333
X54.63 Y77.614 Z-1.326
X54.641 Y77.593 Z-1.313
X54.655 Y77.575 Z-1.299
X54.683 Y77.546 Z-1.255
X54.702 Y77.527 Z-1.201
X54.708 Y77.521 Z-1.142
G0 Z5.
X43.438 Y77.444
Z-0.978
G1 X43.452 Y77.451 Z-1.054 F17.
X43.489 Y77.471 Z-1.119
X43.543 Y77.506 Z-1.162
X43.604 Y77.551 Z-1.178
G3 X42.412 Y79.03 Z-1.218 I-0.596 J0.74
X43.604 Y77.551 Z-1.258 I0.596 J-0.74
X42.412 Y79.03 Z-1.298 I-0.596 J0.74
X42.37 Y77.586 Z-1.32 I0.596 J-0.74
X43.803 Y77.771 Z-1.342 I0.638 J0.704
G1 X43.86 Y77.858 F200.
X43.863 Y77.871
X43.857 Y77.881
X43.846 Y77.886
X43.652
X43.64 Y77.881
X43.633 Y77.87
X43.635 Y77.858
X43.717 Y77.689
X43.726 Y77.68
X43.738 Y77.679
X43.748 Y77.686
X43.803 Y77.771
X43.823 Y77.791
X43.849 Y77.802
X43.877
X43.906 Y77.803
X43.932 Y77.814
X43.952 Y77.834
X44.027 Y77.949
X44.029 Y77.961
X44.024 Y77.971
X44.012 Y77.976
X43.499
X43.487 Y77.971
X43.481 Y77.96
X43.483 Y77.948
G2 X43.7 Y77.496 I-2.849 J-1.646
G1 X43.708 Y77.487
X43.72 Y77.486
X43.73 Y77.493
G2 X43.878 Y77.721 I12.209 J-7.747
G1 X43.952 Y77.834
X43.971 Y77.854
X43.997 Y77.865
X44.025
X44.053
X44.079 Y77.876
X44.099 Y77.896
X44.193 Y78.039
X44.196 Y78.051
X44.19 Y78.062
X44.178 Y78.066
X43.337 Y78.065
X43.326 Y78.061
X43.32 Y78.05
X43.322 Y78.038
G2 X43.68 Y77.283 I-2.689 J-1.736
G1 X43.688 Y77.274
X43.699 Y77.273
X43.708 Y77.28
G2 X43.944 Y77.664 I4.347 J-2.406
G3 X44.099 Y77.896 I-21.214 J14.395
G1 X44.119 Y77.915
X44.144 Y77.926
X44.172
X44.199
X44.225 Y77.937
X44.244 Y77.957
X44.321 Y78.073
X44.34 Y78.101
X44.361 Y78.129
X44.363 Y78.141
X44.358 Y78.152
X44.346 Y78.156
X43.165 Y78.155
X43.154 Y78.151
X43.148 Y78.14
X43.151 Y78.129
G2 X43.657 Y77.034 I-2.518 J-1.827
G1 X43.664 Y77.025
X43.675 Y77.024
X43.683 Y77.031
G2 X43.983 Y77.564 I3.427 J-1.578
G3 X44.244 Y77.957 I-33.677 J22.729
G1 X44.264 Y77.977
X44.289 Y77.988
X44.317
X44.345
X44.37 Y77.999
X44.39 Y78.019
X44.394 Y78.025
X44.469 Y78.13
X44.538 Y78.219
X44.541 Y78.231
X44.536 Y78.242
X44.525 Y78.246
X42.98 Y78.245
X42.969 Y78.241
X42.964 Y78.23
X42.968 Y78.219
G2 X43.362 Y77.597 I-2.325 J-1.91
X43.6 Y76.9 I-2.92 J-1.383
G1 X43.616 Y76.808
X43.629 Y76.716
X43.652 Y76.714
G2 X43.995 Y77.415 I2.996 J-1.032
G1 X44.39 Y78.019
X44.394 Y78.025
X44.433 Y78.083 Z-1.327
X44.469 Y78.13 Z-1.288
X44.49 Y78.158 Z-1.246
X44.503 Y78.175 Z-1.196
X44.508 Y78.181 Z-1.142
G0 Z5.
X43.662 Y71.808
Z-0.978
G1 X43.661 Y71.823 Z-1.054 F17.
X43.657 Y71.865 Z-1.119
X43.647 Y71.929 Z-1.162
X43.63 Y72.002 Z-1.178
G3 X41.798 Y71.499 Z-1.218 I-0.916 J-0.251
X43.63 Y72.002 Z-1.258 I0.916 J0.251
X41.798 Y71.499 Z-1.298 I-0.916 J-0.251
X43.106 Y70.885 Z-1.32 I0.916 J0.251
X43.507 Y72.273 Z-1.342 I-0.392 J0.865
G1 X43.499 Y72.287 F200.
X43.488 Y72.295
X43.474
X43.463 Y72.288
X43.435 Y72.249
X43.431 Y72.237
X43.437 Y72.227
X43.448 Y72.222
X43.509
X43.52 Y72.227
X43.526 Y72.238
X43.523 Y72.249
X43.507 Y72.273
X43.499 Y72.293
Y72.315
X43.508 Y72.334
X43.516 Y72.354
X43.517 Y72.375
X43.509 Y72.395
X43.501 Y72.408
X43.491 Y72.417
X43.478
X43.467 Y72.409
X43.416 Y72.334
X43.363 Y72.26
X43.331 Y72.221
X43.298 Y72.181
X43.295 Y72.17
X43.3 Y72.159
X43.311 Y72.155
X43.638
X43.65 Y72.159
X43.655 Y72.17
X43.652 Y72.182
G2 X43.509 Y72.395 I3.036 J2.185
G1 X43.499 Y72.422
X43.5 Y72.451
X43.512 Y72.477
X43.524 Y72.503
X43.526 Y72.532
X43.517 Y72.559
X43.505 Y72.579
X43.496 Y72.587
X43.483 Y72.588
X43.473 Y72.58
G2 X43.164 Y72.158 I-3.388 J2.161
G1 X43.154 Y72.143
X43.151 Y72.126
X43.148 Y72.096
X43.152 Y72.081
X43.162 Y72.069
X43.178 Y72.065
X43.818
X43.829 Y72.069
X43.834 Y72.08
X43.831 Y72.091
G2 X43.659 Y72.329 I3.402 J2.641
X43.517 Y72.559 I3.036 J2.042
G1 X43.508 Y72.586
X43.51 Y72.615
X43.523 Y72.641
X43.536 Y72.666
X43.538 Y72.695
X43.53 Y72.723
X43.51 Y72.762
X43.501 Y72.771
X43.488
X43.479 Y72.763
G2 X43.297 Y72.48 I-3.174 J1.833
X43.092 Y72.213 I-3.359 J2.375
G1 X43.07 Y72.177
X43.061 Y72.136
X43.052 Y72.006
X43.055 Y71.991
X43.066 Y71.979
X43.081 Y71.975
X44.01
X44.02 Y71.979
X44.025 Y71.99
X44.022 Y72.001
G2 X43.53 Y72.723 I2.873 J2.485
G1 X43.522 Y72.75
X43.525 Y72.778
X43.539 Y72.803
X43.553 Y72.828
X43.557 Y72.856
X43.55 Y72.884
X43.514 Y72.963
X43.506 Y72.971
X43.494
X43.485 Y72.963
G2 X43.27 Y72.598 I-3.113 J1.592
X43.014 Y72.26 I-3.277 J2.213
G1 X42.993 Y72.229
X42.979 Y72.194
X42.972 Y72.157
X42.955 Y71.916
X42.958 Y71.901
X42.969 Y71.889
X42.984 Y71.885
X44.101
X44.116 Y71.889
X44.127 Y71.901
X44.13 Y71.916
X44.124 Y71.997
X44.118 Y72.021
X44.105 Y72.042
X43.984 Y72.185
X43.87 Y72.334
G2 X43.676 Y72.639 I2.518 J1.816
X43.55 Y72.884 I3.443 J1.918
G1 X43.543 Y72.912
X43.548 Y72.94
X43.563 Y72.965
X43.578 Y72.989
X43.583 Y73.017
X43.577 Y73.045
X43.52 Y73.188
X43.512 Y73.196
X43.501 Y73.197
X43.493 Y73.189
G2 X43.243 Y72.722 I-3.093 J1.353
X42.927 Y72.297 I-3.182 J2.035
G1 X42.906 Y72.266
X42.891 Y72.231
X42.885 Y72.193
X42.858 Y71.826
X42.862 Y71.811
X42.872 Y71.799
X42.888 Y71.795
X44.197
X44.212 Y71.799
X44.223 Y71.811
X44.226 Y71.826
X44.214 Y71.999
X44.207 Y72.037
X44.193 Y72.072
X44.171 Y72.104
G2 X43.796 Y72.616 I2.733 J2.391
X43.577 Y73.045 I2.9 J1.753
G1 X43.571 Y73.074
X43.576 Y73.102
X43.592 Y73.126
X43.608 Y73.15
X43.614 Y73.178
X43.609 Y73.206
G2 X43.526 Y73.456 I3.075 J1.159
G1 X43.519 Y73.464
X43.509 Y73.465
X43.501 Y73.457
G2 X43.225 Y72.864 I-3.087 J1.08
X42.841 Y72.335 I-3.107 J1.849
G1 X42.819 Y72.303
X42.804 Y72.268
X42.797 Y72.23
X42.762 Y71.736
X42.765 Y71.721
X42.776 Y71.709
X42.791 Y71.705
X44.294
X44.309 Y71.709
X44.32 Y71.721
X44.323 Y71.736
X44.302 Y72.038
X44.295 Y72.075
X44.28 Y72.11
X44.258 Y72.141
G2 X43.818 Y72.757 I2.617 J2.332
X43.609 Y73.206 I2.866 J1.608
G1 X43.605 Y73.234
X43.611 Y73.261
X43.628 Y73.284
X43.645 Y73.307
X43.652 Y73.334
X43.648 Y73.362
G2 X43.535 Y73.818 I3.129 J1.02
G1 X43.513 Y73.819
G2 X43.3 Y73.194 I-3.224 J0.749
X42.964 Y72.626 I-2.823 J1.288
G1 X42.862 Y72.497
X42.754 Y72.373
X42.732 Y72.341
X42.716 Y72.305
X42.709 Y72.266
X42.665 Y71.646
X42.668 Y71.631
X42.679 Y71.619
X42.694 Y71.615
X44.39
X44.406 Y71.619
X44.417 Y71.631
X44.42 Y71.646
X44.389 Y72.077
X44.382 Y72.113
X44.368 Y72.148
X44.346 Y72.178
X44.213 Y72.331
X44.089 Y72.492
G2 X43.737 Y73.124 I2.53 J1.825
X43.648 Y73.362 I3.041 J1.259
G1 X43.645 Y73.39
X43.653 Y73.417
X43.67 Y73.439
X43.687 Y73.46
X43.695 Y73.487
X43.693 Y73.515
G2 X43.6 Y73.961 I2.939 J0.844
G1 X43.571 Y74.196
X43.543 Y74.43
X43.522
X43.5 Y74.264
X43.478 Y74.097
G2 X43.196 Y73.187 I-3.011 J0.436
X42.658 Y72.4 I-3.036 J1.498
G1 X42.634 Y72.362
X42.623 Y72.319
X42.568 Y71.556
X42.572 Y71.541
X42.582 Y71.529
X42.598 Y71.525
X44.487
X44.502 Y71.529
X44.513 Y71.541
X44.516 Y71.556
X44.476 Y72.116
X44.47 Y72.152
X44.455 Y72.186
X44.433 Y72.215
G2 X43.881 Y73.023 I2.44 J2.261
X43.693 Y73.515 I2.75 J1.336
G1 X43.69 Y73.543
X43.699 Y73.571
X43.718 Y73.593
X43.737 Y73.614
X43.746 Y73.641
X43.745 Y73.67
G2 X43.689 Y73.973 I2.892 J0.69
G1 X43.547 Y75.088
X43.526 Y75.089
X43.389 Y74.11
G2 X43.108 Y73.212 I-2.928 J0.424
X42.571 Y72.439 I-2.939 J1.468
G1 X42.546 Y72.401
X42.535 Y72.357
X42.472 Y71.466
X42.475 Y71.451
X42.486 Y71.439
X42.501 Y71.435
X44.584
X44.599 Y71.439
X44.61 Y71.451
X44.613 Y71.466
X44.564 Y72.156
X44.557 Y72.192
X44.543 Y72.225
X44.521 Y72.254
G2 X43.969 Y73.047 I2.345 J2.219
X43.745 Y73.67 I2.668 J1.312
G1 X43.744 Y73.699
X43.754 Y73.726
X43.774 Y73.747
X43.793 Y73.768
X43.804 Y73.794
Y73.823
X43.778 Y73.985
X43.622 Y75.172
X43.603 Y75.316
G2 X44.051 Y77.335 I2.906 J0.415
G3 X44.373 Y77.835 I-37.554 J24.532
G2 X44.729 Y78.31 I3.186 J-2.021
G1 X44.733 Y78.321
X44.729 Y78.332
X44.718 Y78.336
X42.78 Y78.335
X42.769 Y78.331
X42.764 Y78.32
X42.769 Y78.31
G2 X43.23 Y77.667 I-2.181 J-2.051
X43.502 Y76.925 I-2.536 J-1.352
X43.574 Y76.383 I-3.257 J-0.707
X43.548 Y75.837 I-2.824 J-0.141
G1 X43.3 Y74.123
G2 X43.02 Y73.237 I-2.845 J0.412
X42.485 Y72.478 I-2.842 J1.437
G1 X42.459 Y72.44
X42.448 Y72.395
X42.375 Y71.376
X42.378 Y71.361
X42.389 Y71.349
X42.404 Y71.345
X44.68
X44.696 Y71.349
X44.706 Y71.361
X44.71 Y71.376
X44.651 Y72.196
X44.645 Y72.231
X44.63 Y72.264
X44.608 Y72.293
G2 X44.057 Y73.072 I2.25 J2.176
X43.804 Y73.823 I2.585 J1.289
G1 Y73.852
X43.816 Y73.878
X43.836 Y73.898
X43.857 Y73.918
X43.869 Y73.944
X43.871 Y73.973
X43.867 Y73.996
X43.711 Y75.184
X43.692 Y75.328
G2 X44.126 Y77.286 I2.817 J0.402
G3 X44.492 Y77.852 I-63.356 J41.387
G2 X44.914 Y78.377 I2.656 J-1.701
G1 X44.927 Y78.389
X44.939 Y78.401
X44.944 Y78.411
X44.939 Y78.422
X44.929 Y78.426
X42.559 Y78.425
X42.549 Y78.421
X42.546 Y78.412
X42.549 Y78.403
X42.595 Y78.361
X42.64 Y78.318
G2 X43.137 Y77.647 I-1.961 J-1.971
X43.424 Y76.862 I-2.721 J-1.438
X43.459 Y75.85 I-2.78 J-0.604
G1 X43.211 Y74.136
G2 X42.933 Y73.263 I-2.762 J0.4
X42.398 Y72.518 I-2.745 J1.406
G1 X42.379 Y72.494
X42.366 Y72.465
X42.36 Y72.434
X42.278 Y71.286
X42.282 Y71.271
X42.292 Y71.259
X42.308 Y71.255
X44.777
X44.792 Y71.259
X44.803 Y71.271
X44.806 Y71.286
X44.739 Y72.236
X44.732 Y72.271
X44.717 Y72.304
X44.695 Y72.333
G2 X44.145 Y73.097 I2.182 J2.148
X43.871 Y73.973 I2.493 J1.263
G1 X43.872 Y74.001
X43.885 Y74.027
X43.906 Y74.046
X43.928 Y74.065
X43.94 Y74.091
X43.942 Y74.119
X43.801 Y75.196
X43.781 Y75.341
G2 X44.202 Y77.237 I2.727 J0.389
G1 X44.62 Y77.878
G2 X44.975 Y78.316 I2.307 J-1.507
G1 X45.065 Y78.403
X45.155 Y78.489
X45.159 Y78.501
X45.155 Y78.512
X45.143 Y78.516
X42.341 Y78.515
X42.332 Y78.511
X42.328 Y78.502
X42.332 Y78.493
X42.454 Y78.374
X42.577 Y78.255
G2 X43.232 Y77.223 I-1.958 J-1.968
X43.387 Y76.011 I-2.674 J-0.958
G1 X43.37 Y75.863
X43.122 Y74.149
G2 X42.844 Y73.289 I-2.657 J0.384
X42.311 Y72.558 I-2.72 J1.423
G1 X42.292 Y72.533
X42.279 Y72.505
X42.273 Y72.474
X42.182 Y71.196
X42.185 Y71.181
X42.196 Y71.169
X42.211 Y71.165
X44.874
X44.889 Y71.169
X44.9 Y71.181
X44.903 Y71.196
X44.826 Y72.275
X44.819 Y72.311
X44.804 Y72.344
X44.782 Y72.372
X44.625 Y72.539
X44.55 Y72.627
X44.48 Y72.718
G2 X44.138 Y73.33 I2.466 J1.779
X43.957 Y74.008 I2.469 J1.026
G1 X43.942 Y74.119
X43.944 Y74.148
X43.956 Y74.173
X43.978 Y74.192
X43.999 Y74.211
X44.012 Y74.236
X44.014 Y74.265
X43.89 Y75.207
X43.87 Y75.354
G2 X44.277 Y77.188 I2.638 J0.377
G1 X44.696 Y77.829
G2 X45.039 Y78.252 I2.231 J-1.458
G1 X45.137 Y78.348
X45.235 Y78.443
X45.252 Y78.467
X45.257 Y78.496
Y78.565
X45.252 Y78.585
X45.236 Y78.601
X45.216 Y78.606
X42.262 Y78.605
X42.246 Y78.601
X42.235 Y78.589
X42.231 Y78.574
Y78.498
X42.236 Y78.469
X42.253 Y78.445
X42.383 Y78.318
X42.514 Y78.191
G2 X43.148 Y77.192 I-1.895 J-1.904
X43.298 Y76.019 I-2.589 J-0.927
G1 X43.281 Y75.876
X43.033 Y74.162
G2 X42.768 Y73.335 I-2.602 J0.377
X42.26 Y72.632 I-2.564 J1.32
G1 X42.242 Y72.615
X42.224 Y72.598
X42.205 Y72.573
X42.192 Y72.544
X42.186 Y72.513
X42.085 Y71.106
X42.088 Y71.091
X42.099 Y71.079
X42.114 Y71.075
X44.97
X44.986 Y71.079
X44.996 Y71.091
X45. Y71.106
X44.913 Y72.315
X44.907 Y72.35
X44.892 Y72.383
X44.87 Y72.412
X44.844 Y72.437
X44.817 Y72.462
G2 X44.305 Y73.178 I2.018 J1.987
X44.046 Y74.02 I2.362 J1.186
G1 X44.014 Y74.265
X44.016 Y74.293
X44.028 Y74.319
X44.05 Y74.338
X44.071 Y74.356
X44.083 Y74.382
X44.085 Y74.41
X43.979 Y75.219
X43.959 Y75.366
G2 X44.352 Y77.139 I2.549 J0.364
G1 X44.771 Y77.779
G2 X45.103 Y78.189 I2.156 J-1.408
G1 X45.207 Y78.29
X45.311 Y78.391
X45.331 Y78.417
X45.343 Y78.447
X45.347 Y78.479
Y78.586
X45.344 Y78.612
X45.334 Y78.636
X45.32 Y78.662
X45.305 Y78.68
X45.284 Y78.692
X45.261 Y78.696
X42.172 Y78.695
X42.156 Y78.691
X42.145 Y78.679
X42.141 Y78.663
Y78.481
X42.145 Y78.449
X42.157 Y78.419
X42.177 Y78.393
X42.314 Y78.26
X42.45 Y78.127
G2 X43.063 Y77.162 I-1.831 J-1.84
X43.208 Y76.027 I-2.504 J-0.896
G1 X43.192 Y75.889
X42.944 Y74.174
G2 X42.688 Y73.375 I-2.522 J0.365
X42.196 Y72.694 I-2.476 J1.272
G1 X42.166 Y72.666
X42.137 Y72.637
X42.117 Y72.612
X42.104 Y72.584
X42.098 Y72.553
X41.988 Y71.016
X41.991 Y71.001
X42.002 Y70.989
X42.018 Y70.985
X45.067
X45.082 Y70.989
X45.093 Y71.001
X45.096 Y71.016
X45.001 Y72.354
X44.994 Y72.39
X44.979 Y72.423
X44.957 Y72.451
X44.919 Y72.488
X44.881 Y72.524
G2 X44.385 Y73.217 I1.947 J1.918
X44.135 Y74.031 I2.291 J1.148
G1 X44.085 Y74.41
X44.087 Y74.439
X44.1 Y74.464
X44.121 Y74.483
X44.143 Y74.502
X44.155 Y74.527
X44.157 Y74.556
X44.068 Y75.231
X44.048 Y75.379
G2 X44.428 Y77.089 I2.46 J0.351
G1 X44.846 Y77.73
G2 X45.167 Y78.125 I2.081 J-1.359
G1 X45.284 Y78.24
X45.401 Y78.354
X45.421 Y78.38
X45.433 Y78.41
X45.437 Y78.442
Y78.589
X45.431 Y78.635
X45.414 Y78.678
X45.373 Y78.752
X45.359 Y78.77
X45.339 Y78.782
X45.316 Y78.786
X42.082 Y78.785
X42.066 Y78.781
X42.055 Y78.769
X42.051 Y78.753
Y78.444
X42.055 Y78.412
X42.067 Y78.382
X42.087 Y78.356
X42.237 Y78.21
X42.387 Y78.063
G2 X42.979 Y77.131 I-1.768 J-1.776
X43.118 Y76.035 I-2.42 J-0.865
G1 X43.103 Y75.902
X42.855 Y74.187
G2 X42.608 Y73.414 I-2.443 J0.354
X42.133 Y72.757 I-2.388 J1.225
G1 X42.091 Y72.717
X42.049 Y72.677
X42.03 Y72.652
X42.017 Y72.623
X42.011 Y72.592
X41.892 Y70.926
X41.895 Y70.911
X41.906 Y70.899
X41.921 Y70.895
X45.164
X45.179 Y70.899
X45.19 Y70.911
X45.193 Y70.926
X45.088 Y72.394
X45.082 Y72.429
X45.067 Y72.462
X45.045 Y72.491
X44.994 Y72.538
X44.944 Y72.586
G2 X44.465 Y73.256 I1.876 J1.848
X44.224 Y74.043 I2.22 J1.11
G1 X44.157 Y74.556
X44.159 Y74.584
X44.171 Y74.61
X44.193 Y74.629
X44.214 Y74.647
X44.227 Y74.673
X44.229 Y74.701
X44.158 Y75.243
X44.137 Y75.392
G2 X44.503 Y77.04 I2.371 J0.338
G1 X44.922 Y77.681
G2 X45.203 Y78.028 I1.825 J-1.192
G1 X45.491 Y78.317
X45.511 Y78.343
X45.523 Y78.373
X45.527 Y78.405
Y78.589
X45.523 Y78.636
X45.511 Y78.681
X45.492 Y78.723
X45.428 Y78.842
X45.414 Y78.86
X45.395 Y78.872
X45.373 Y78.876
X41.992 Y78.875
X41.976 Y78.871
X41.965 Y78.859
X41.961 Y78.843
Y78.407
X41.965 Y78.375
X41.977 Y78.345
X41.997 Y78.319
X42.16 Y78.159
X42.323 Y78.
G2 X42.894 Y77.1 I-1.704 J-1.713
X43.029 Y76.043 I-2.335 J-0.835
G1 X43.014 Y75.915
X42.766 Y74.2
G2 X42.528 Y73.454 I-2.362 J0.342
X42.069 Y72.819 I-2.301 J1.178
G1 X42.016 Y72.768
X41.962 Y72.716
X41.942 Y72.691
X41.929 Y72.663
X41.923 Y72.632
X41.795 Y70.836
X41.798 Y70.821
X41.809 Y70.809
X41.824 Y70.805
X45.26
X45.275 Y70.809
X45.286 Y70.821
X45.289 Y70.836
X45.176 Y72.433
X45.169 Y72.469
X45.154 Y72.502
X45.132 Y72.53
X45.07 Y72.59
X45.008 Y72.649
G2 X44.546 Y73.295 I1.811 J1.784
X44.314 Y74.055 I2.14 J1.071
G1 X44.229 Y74.701
X44.231 Y74.73
X44.243 Y74.755
X44.265 Y74.774
X44.286 Y74.793
X44.298 Y74.819
X44.3 Y74.847
X44.247 Y75.254
X44.226 Y75.405
G2 X44.578 Y76.991 I2.282 J0.326
G1 X44.997 Y77.632
G2 X45.266 Y77.964 I1.75 J-1.143
G1 X45.581 Y78.28
X45.601 Y78.306
X45.613 Y78.336
X45.617 Y78.368
Y78.616
X45.613 Y78.662
X45.601 Y78.706
X45.582 Y78.747
X45.531 Y78.838
X45.485 Y78.932
X45.472 Y78.95
X45.453 Y78.962
X45.431 Y78.966
X41.902 Y78.965
X41.886 Y78.961
X41.875 Y78.949
X41.871 Y78.933
Y78.37
X41.875 Y78.338
X41.887 Y78.308
X41.907 Y78.282
X42.083 Y78.109
X42.26 Y77.936
G2 X42.81 Y77.069 I-1.641 J-1.649
X42.939 Y76.051 I-2.251 J-0.804
G1 X42.925 Y75.928
X42.677 Y74.213
G2 X42.447 Y73.494 I-2.273 J0.329
X42.005 Y72.882 I-2.22 J1.138
G1 X41.94 Y72.819
X41.874 Y72.756
X41.855 Y72.731
X41.842 Y72.702
X41.836 Y72.671
X41.698 Y70.746
X41.701 Y70.731
X41.712 Y70.719
X41.728 Y70.715
X45.357
X45.372 Y70.719
X45.383 Y70.731
X45.386 Y70.746
X45.263 Y72.473
X45.256 Y72.508
X45.242 Y72.541
X45.219 Y72.57
X45.034 Y72.758
G2 X44.845 Y72.981 I1.367 J1.346
X44.557 Y73.496 I2.103 J1.517
X44.403 Y74.067 I2.053 J0.86
G1 X44.3 Y74.847
X44.302 Y74.875
X44.315 Y74.901
X44.336 Y74.92
X44.358 Y74.939
X44.37 Y74.964
X44.372 Y74.993
X44.336 Y75.266
X44.315 Y75.417
G2 X44.654 Y76.942 I2.193 J0.313
G1 X45.072 Y77.582
G2 X45.355 Y77.928 I1.753 J-1.145
G3 X45.671 Y78.243 I-37.148 J37.654
G1 X45.691 Y78.268
X45.703 Y78.298
X45.707 Y78.331
Y78.644
X45.703 Y78.688
X45.691 Y78.731
X45.672 Y78.772
G2 X45.543 Y79.022 I1.897 J1.135
G1 X45.53 Y79.04
X45.512 Y79.052
X45.49 Y79.056
X41.812 Y79.055
X41.796 Y79.051
X41.785 Y79.039
X41.78 Y79.023
X41.781 Y78.333
X41.785 Y78.301
X41.797 Y78.271
X41.817 Y78.245
G3 X42.007 Y78.058 I7.911 J7.858
G2 X42.196 Y77.872 I-15.303 J-15.757
X42.725 Y77.039 I-1.577 J-1.585
X42.85 Y76.059 I-2.166 J-0.773
G1 X42.836 Y75.941
X42.587 Y74.226
G2 X42.367 Y73.534 I-2.184 J0.316
X41.941 Y72.945 I-2.14 J1.099
G1 X41.864 Y72.87
X41.787 Y72.795
X41.768 Y72.77
X41.755 Y72.742
X41.749 Y72.711
X41.602 Y70.656
X41.605 Y70.641
X41.616 Y70.629
X41.631 Y70.625
X45.453
X45.469 Y70.629
X45.48 Y70.641
X45.483 Y70.656
X45.351 Y72.512
X45.344 Y72.548
X45.329 Y72.581
X45.307 Y72.609
X45.098 Y72.821
G2 X44.918 Y73.034 I1.303 J1.283
X44.64 Y73.53 I2.03 J1.465
X44.492 Y74.078 I1.97 J0.827
G1 X44.372 Y74.993
X44.374 Y75.021
X44.387 Y75.047
X44.408 Y75.066
X44.43 Y75.085
X44.442 Y75.111
X44.444 Y75.14
X44.415 Y75.354
G2 X44.387 Y75.637 I3.703 J0.507
X44.392 Y75.921 I1.894 J0.114
X44.729 Y76.893 I2.117 J-0.19
G1 X45.148 Y77.533
G2 X45.437 Y77.885 I1.74 J-1.137
G3 X45.761 Y78.205 I-21.885 J22.455
G1 X45.781 Y78.231
X45.793 Y78.261
X45.797 Y78.293
Y78.672
X45.793 Y78.715
X45.781 Y78.758
X45.762 Y78.797
X45.687 Y78.927
X45.622 Y79.062
X45.612 Y79.087
X45.602 Y79.112
X45.589 Y79.13
X45.571 Y79.142
X45.549 Y79.146
X41.722 Y79.145
X41.706 Y79.141
X41.695 Y79.129
X41.69 Y79.113
X41.691 Y78.296
X41.695 Y78.264
X41.707 Y78.233
X41.727 Y78.208
G3 X41.93 Y78.008 I9.068 J9.007
G2 X42.133 Y77.808 I-18.859 J-19.357
X42.64 Y77.008 I-1.514 J-1.521
X42.76 Y76.067 I-2.082 J-0.742
G1 X42.747 Y75.953
X42.498 Y74.239
G2 X42.286 Y73.574 I-2.095 J0.303
X41.877 Y73.009 I-2.059 J1.059
G1 X41.788 Y72.922
X41.7 Y72.835
X41.68 Y72.81
X41.667 Y72.781
X41.661 Y72.75
X41.505 Y70.566
X41.508 Y70.551
X41.519 Y70.539
X41.534 Y70.535
X45.55
X45.565 Y70.539
X45.576 Y70.551
X45.579 Y70.566
X45.438 Y72.552
X45.431 Y72.587
X45.416 Y72.62
X45.394 Y72.649
G3 X45.184 Y72.86 I-25.52 J-25.131
G2 X44.991 Y73.087 I1.308 J1.309
X44.564 Y74.185 I1.902 J1.372
G3 X44.444 Y75.14 I-61.175 J-7.193
G1 X44.446 Y75.168
X44.459 Y75.193
X44.48 Y75.212
X44.501 Y75.231
X44.513 Y75.256
X44.515 Y75.284
X44.491 Y75.468
G2 X44.804 Y76.843 I2.014 J0.264
G1 X45.223 Y77.484
G2 X45.52 Y77.842 I1.73 J-1.13
G3 X45.851 Y78.168 I-15.831 J16.435
G1 X45.871 Y78.194
X45.883 Y78.224
X45.887 Y78.256
Y78.7
X45.883 Y78.743
X45.871 Y78.784
X45.852 Y78.823
X45.772 Y78.957
X45.703 Y79.097
X45.682 Y79.15
X45.661 Y79.202
X45.648 Y79.22
X45.63 Y79.232
X45.608 Y79.236
X41.632 Y79.235
X41.616 Y79.231
X41.605 Y79.219
X41.6 Y79.203
X41.601 Y78.259
X41.605 Y78.226
X41.617 Y78.196
X41.637 Y78.17
X42.069 Y77.744
G2 X42.574 Y76.925 I-1.455 J-1.462
X42.657 Y75.966 I-2.003 J-0.657
G1 X42.409 Y74.252
G2 X42.205 Y73.614 I-2.006 J0.29
X41.813 Y73.072 I-1.979 J1.019
G1 X41.712 Y72.973
X41.612 Y72.874
X41.593 Y72.849
X41.58 Y72.821
X41.574 Y72.79
X41.408 Y70.476
X41.411 Y70.461
X41.422 Y70.449
X41.438 Y70.445
X45.647
X45.662 Y70.449
X45.673 Y70.461
X45.676 Y70.476
X45.525 Y72.591
X45.519 Y72.627
X45.504 Y72.66
X45.482 Y72.688
X45.259 Y72.915
G2 X45.038 Y73.176 I1.597 J1.572
X44.671 Y74.102 I1.65 J1.191
G1 X44.515 Y75.284
X44.517 Y75.313
X44.53 Y75.338
X44.551 Y75.357
X44.572 Y75.376
X44.585 Y75.401
X44.587 Y75.43
X44.58 Y75.48
G2 X44.88 Y76.794 I1.924 J0.253
G1 X45.298 Y77.435
G2 X45.602 Y77.799 I1.723 J-1.125
G3 X45.941 Y78.131 I-12.589 J13.217
G1 X45.961 Y78.157
X45.973 Y78.187
X45.977 Y78.219
Y78.73
X45.973 Y78.772
X45.961 Y78.812
X45.942 Y78.849
X45.857 Y78.987
X45.819 Y79.059
X45.784 Y79.133
X45.752 Y79.212
X45.72 Y79.292
X45.708 Y79.31
X45.69 Y79.322
X45.669 Y79.326
X41.542 Y79.325
X41.526 Y79.321
X41.515 Y79.309
X41.51 Y79.293
X41.511 Y78.222
X41.515 Y78.189
X41.527 Y78.159
X41.547 Y78.133
X42.006 Y77.681
G2 X42.489 Y76.897 I-1.391 J-1.398
X42.568 Y75.979 I-1.918 J-0.628
G1 X42.32 Y74.265
G2 X42.125 Y73.654 I-1.918 J0.278
X41.749 Y73.135 I-1.898 J0.979
G1 X41.637 Y73.024
X41.525 Y72.914
X41.505 Y72.889
X41.492 Y72.86
X41.486 Y72.829
X41.312 Y70.386
X41.315 Y70.371
X41.326 Y70.359
X41.341 Y70.355
X45.743
X45.759 Y70.359
X45.769 Y70.371
X45.773 Y70.386
X45.613 Y72.631
X45.606 Y72.666
X45.591 Y72.699
X45.569 Y72.728
X45.323 Y72.978
G2 X45.111 Y73.229 I1.533 J1.509
X44.76 Y74.113 I1.577 J1.138
G1 X44.587 Y75.43
X44.589 Y75.458
X44.601 Y75.484
X44.622 Y75.503
X44.644 Y75.521
X44.657 Y75.546
X44.66 Y75.574
G2 X44.955 Y76.745 I1.849 J0.156
G1 X45.374 Y77.386
G2 X45.684 Y77.757 I1.717 J-1.122
G3 X46.031 Y78.094 I-10.571 J11.219
G1 X46.051 Y78.12
X46.063 Y78.15
X46.068 Y78.182
X46.067 Y78.76
X46.063 Y78.801
X46.051 Y78.84
X46.032 Y78.876
X45.943 Y79.018
X45.902 Y79.092
X45.867 Y79.168
X45.823 Y79.275
X45.781 Y79.383
X45.77 Y79.4
X45.752 Y79.412
X45.732 Y79.416
X41.452 Y79.415
X41.436 Y79.411
X41.425 Y79.399
X41.42 Y79.383
X41.421 Y78.185
X41.425 Y78.152
X41.437 Y78.122
X41.457 Y78.096
X41.942 Y77.617
G2 X42.403 Y76.868 I-1.328 J-1.334
X42.479 Y75.992 I-1.832 J-0.6
G1 X42.231 Y74.278
G2 X42.044 Y73.694 I-1.829 J0.265
X41.684 Y73.198 I-1.818 J0.939
G1 X41.561 Y73.076
X41.437 Y72.953
X41.418 Y72.928
X41.405 Y72.9
X41.399 Y72.869
X41.215 Y70.296
X41.218 Y70.281
X41.229 Y70.269
X41.244 Y70.265
X45.84
X45.855 Y70.269
X45.866 Y70.281
X45.869 Y70.296
X45.7 Y72.67
X45.693 Y72.706
X45.679 Y72.739
X45.656 Y72.767
G3 X45.41 Y73.015 I-32.623 J-32.125
G2 X45.184 Y73.281 I1.542 J1.542
X44.849 Y74.125 I1.504 J1.085
G1 X44.693 Y75.313
X44.672 Y75.468
X44.66 Y75.574
X44.663 Y75.603
X44.677 Y75.629
X44.7 Y75.646
X44.723 Y75.664
X44.738 Y75.688
X44.743 Y75.717
G2 X45.03 Y76.696 I1.765 J0.013
G1 X45.449 Y77.336
G2 X45.677 Y77.617 I1.478 J-0.965
X45.899 Y77.837 I15.388 J-15.337
G3 X46.121 Y78.057 I-15.166 J15.557
G1 X46.141 Y78.083
X46.153 Y78.113
X46.158 Y78.145
X46.157 Y78.791
X46.153 Y78.831
X46.141 Y78.869
X46.122 Y78.904
G2 X45.963 Y79.179 I1.577 J1.094
X45.844 Y79.473 I2.531 J1.194
G1 X45.834 Y79.49
X45.817 Y79.502
X45.797 Y79.507
X41.362 Y79.505
X41.346 Y79.5
X41.335 Y79.489
X41.33 Y79.473
X41.331 Y78.147
X41.335 Y78.115
X41.347 Y78.085
X41.367 Y78.059
X41.879 Y77.553
G2 X42.318 Y76.84 I-1.264 J-1.271
X42.39 Y76.005 I-1.747 J-0.571
G1 X42.142 Y74.29
G2 X41.963 Y73.734 I-1.74 J0.252
X41.62 Y73.261 I-1.737 J0.899
G1 X41.485 Y73.127
X41.35 Y72.993
X41.331 Y72.968
X41.318 Y72.939
X41.312 Y72.908
X41.118 Y70.206
X41.121 Y70.191
X41.132 Y70.179
X41.148 Y70.175
X45.937
X45.952 Y70.179
X45.963 Y70.191
X45.966 Y70.206
X45.788 Y72.71
X45.781 Y72.745
X45.766 Y72.778
X45.744 Y72.807
G3 X45.49 Y73.061 I-20.611 J-20.297
G2 X45.257 Y73.334 I1.532 J1.547
X44.938 Y74.137 I1.432 J1.033
G1 X44.782 Y75.325
X44.761 Y75.481
X44.748 Y75.599
X44.743 Y75.717
X44.749 Y75.745
X44.765 Y75.77
X44.789 Y75.786
X44.813 Y75.801
X44.83 Y75.825
X44.838 Y75.852
G2 X45.106 Y76.646 I1.671 J-0.122
G1 X45.524 Y77.287
G2 X45.74 Y77.554 I1.402 J-0.916
X45.976 Y77.787 I17.275 J-17.218
G3 X46.211 Y78.02 I-17.04 J17.451
G1 X46.231 Y78.045
X46.243 Y78.075
X46.248 Y78.108
X46.247 Y78.823
X46.243 Y78.861
X46.231 Y78.898
X46.212 Y78.932
G2 X46.034 Y79.235 I1.533 J1.101
X45.91 Y79.563 I2.15 J1.004
G1 X45.9 Y79.58
X45.884 Y79.592
X45.865 Y79.597
X41.272 Y79.595
X41.256 Y79.59
X41.245 Y79.579
X41.24 Y79.563
X41.241 Y78.11
X41.245 Y78.078
X41.257 Y78.048
X41.277 Y78.022
X41.815 Y77.489
G2 X42.233 Y76.811 I-1.201 J-1.207
X42.301 Y76.018 I-1.662 J-0.543
G1 X42.053 Y74.303
G2 X41.883 Y73.774 I-1.651 J0.239
X41.556 Y73.324 I-1.657 J0.86
G1 X41.409 Y73.178
X41.263 Y73.032
X41.243 Y73.007
X41.23 Y72.979
X41.224 Y72.948
X41.022 Y70.116
X41.025 Y70.101
X41.036 Y70.089
X41.051 Y70.085
X46.033
X46.049 Y70.089
X46.059 Y70.101
X46.063 Y70.116
X45.875 Y72.749
X45.868 Y72.785
X45.853 Y72.818
X45.831 Y72.846
G3 X45.57 Y73.107 I-15.509 J-15.272
G2 X45.33 Y73.387 I1.525 J1.553
X45.027 Y74.149 I1.359 J0.98
G1 X44.872 Y75.336
X44.85 Y75.494
G2 X44.838 Y75.852 I1.658 J0.237
G1 X44.845 Y75.88
X44.863 Y75.903
X44.889 Y75.917
X44.914 Y75.931
X44.933 Y75.953
X44.943 Y75.98
G2 X45.181 Y76.597 I1.565 J-0.25
G1 X45.6 Y77.238
G2 X45.804 Y77.49 I1.327 J-0.867
X46.053 Y77.736 I19.272 J-19.208
G3 X46.301 Y77.983 I-19.023 J19.454
G1 X46.321 Y78.008
X46.333 Y78.038
X46.338 Y78.071
X46.337 Y78.856
X46.333 Y78.893
X46.321 Y78.929
X46.302 Y78.962
G2 X46.106 Y79.291 I1.465 J1.093
X45.978 Y79.653 I1.893 J0.87
G1 X45.97 Y79.671
X45.955 Y79.682
X45.936 Y79.687
X41.182 Y79.685
X41.166 Y79.68
X41.155 Y79.669
X41.15 Y79.653
X41.151 Y78.073
X41.155 Y78.041
X41.167 Y78.011
X41.187 Y77.985
X41.752 Y77.425
G2 X42.147 Y76.783 I-1.137 J-1.143
X42.212 Y76.031 I-1.576 J-0.514
G1 X41.964 Y74.316
G2 X41.802 Y73.814 I-1.562 J0.226
X41.492 Y73.387 I-1.577 J0.82
G1 X41.334 Y73.23
X41.175 Y73.072
X41.156 Y73.047
X41.143 Y73.018
X41.137 Y72.987
X40.925 Y70.026
X40.928 Y70.011
X40.939 Y69.999
X40.954 Y69.995
X46.13
X46.145 Y69.999
X46.156 Y70.011
X46.159 Y70.026
X45.962 Y72.789
X45.956 Y72.824
X45.941 Y72.857
X45.919 Y72.886
G3 X45.65 Y73.153 I-12.698 J-12.504
G2 X45.403 Y73.439 I1.52 J1.561
X45.117 Y74.16 I1.286 J0.927
G1 X44.961 Y75.348
X44.939 Y75.506
G2 X44.943 Y75.98 I1.569 J0.224
G1 X44.953 Y76.007
X44.973 Y76.028
X45. Y76.04
X45.026 Y76.052
X45.047 Y76.072
X45.059 Y76.098
G2 X45.257 Y76.548 I1.449 J-0.368
G1 X45.675 Y77.189
G2 X45.868 Y77.426 I1.252 J-0.818
X46.13 Y77.686 I21.377 J-21.306
G3 X46.391 Y77.945 I-21.115 J21.565
G1 X46.411 Y77.971
X46.423 Y78.001
X46.428 Y78.033
X46.427 Y78.889
X46.423 Y78.926
X46.411 Y78.961
X46.392 Y78.992
X46.336 Y79.068
X46.284 Y79.146
X46.238 Y79.227
X46.197 Y79.312
X46.112 Y79.524
X46.077 Y79.633
X46.05 Y79.744
X46.043 Y79.761
X46.028 Y79.772
X46.01 Y79.777
X41.092 Y79.775
X41.076 Y79.77
X41.064 Y79.759
X41.06 Y79.743
X41.061 Y78.036
X41.065 Y78.004
X41.077 Y77.974
X41.097 Y77.948
G3 X41.691 Y77.355 I73.452 J72.958
G2 X42.095 Y76.619 I-1.039 J-1.049
X42.135 Y76.333 I-1.873 J-0.407
X42.123 Y76.044 I-1.4 J-0.088
G1 X41.875 Y74.329
G2 X41.722 Y73.854 I-1.473 J0.213
X41.428 Y73.451 I-1.496 J0.78
G1 X41.258 Y73.281
X41.088 Y73.111
X41.068 Y73.086
X41.055 Y73.058
X41.049 Y73.027
X40.828 Y69.936
X40.831 Y69.921
X40.842 Y69.909
X40.857 Y69.905
X46.227
X46.242 Y69.909
X46.253 Y69.921
X46.256 Y69.936
X46.05 Y72.828
X46.043 Y72.864
X46.028 Y72.897
X46.006 Y72.925
G3 X45.73 Y73.198 I-10.925 J-10.758
G2 X45.476 Y73.492 I1.517 J1.571
X45.206 Y74.172 I1.213 J0.875
G1 X45.05 Y75.36
X45.028 Y75.519
G2 X45.059 Y76.098 I1.48 J0.211
G1 X45.072 Y76.124
X45.093 Y76.144
X45.121 Y76.153
X45.149 Y76.162
X45.171 Y76.18
X45.186 Y76.205
G2 X45.332 Y76.499 I1.323 J-0.475
G1 X45.75 Y77.139
G2 X45.932 Y77.363 I1.176 J-0.768
X46.206 Y77.636 I23.591 J-23.513
G3 X46.481 Y77.908 I-23.317 J23.786
G1 X46.501 Y77.934
X46.513 Y77.964
X46.518 Y77.996
X46.517 Y78.922
X46.513 Y78.959
X46.5 Y78.994
X46.48 Y79.025
X46.423 Y79.101
X46.369 Y79.179
X46.321 Y79.262
X46.28 Y79.348
X46.222 Y79.479
X46.189 Y79.565
X46.162 Y79.654
X46.142 Y79.743
X46.126 Y79.834
X46.119 Y79.851
X46.105 Y79.862
X46.088 Y79.867
X41.002 Y79.865
X40.986 Y79.86
X40.974 Y79.849
X40.97 Y79.833
X40.971 Y77.999
X40.975 Y77.967
X40.988 Y77.937
X41.007 Y77.911
G3 X41.601 Y77.327 I25.453 J25.281
G2 X42.007 Y76.6 I-0.99 J-1.03
X42.045 Y76.33 I-1.789 J-0.388
X42.034 Y76.057 I-1.312 J-0.085
G1 X41.786 Y74.342
G2 X41.641 Y73.894 I-1.385 J0.2
X41.364 Y73.514 I-1.416 J0.74
X41.182 Y73.332 I-10.438 J10.275
G3 X41. Y73.151 I10.256 J-10.456
G1 X40.981 Y73.126
X40.968 Y73.097
X40.962 Y73.066
X40.732 Y69.846
X40.735 Y69.831
X40.746 Y69.819
X40.761 Y69.815
X46.323
X46.338 Y69.819
X46.349 Y69.831
X46.352 Y69.846
X46.137 Y72.868
X46.13 Y72.903
X46.116 Y72.936
X46.094 Y72.965
G3 X45.904 Y73.154 I-11.411 J-11.237
G2 X45.714 Y73.344 I11.221 J11.427
X45.436 Y73.73 I1.107 J1.09
X45.295 Y74.184 I1.252 J0.637
G1 X45.139 Y75.371
X45.117 Y75.532
G2 X45.186 Y76.205 I1.391 J0.199
G1 X45.201 Y76.23
X45.224 Y76.247
X45.253 Y76.254
X45.281 Y76.26
X45.305 Y76.276
X45.322 Y76.299
X45.362 Y76.376
X45.407 Y76.45
X45.826 Y77.09
G2 X45.995 Y77.299 I1.101 J-0.719
X46.283 Y77.585 I25.915 J-25.829
G3 X46.571 Y77.871 I-25.627 J26.115
G1 X46.591 Y77.897
X46.604 Y77.927
X46.608 Y77.959
X46.607 Y78.954
X46.603 Y78.991
X46.59 Y79.026
X46.57 Y79.058
X46.511 Y79.134
X46.455 Y79.213
X46.405 Y79.296
X46.362 Y79.383
G2 X46.269 Y79.62 I3.289 J1.427
X46.21 Y79.866 I1.159 J0.408
G1 X46.207 Y79.895
X46.205 Y79.924
X46.198 Y79.941
X46.184 Y79.952
X46.167 Y79.957
X40.912 Y79.955
X40.896 Y79.95
X40.884 Y79.939
X40.88 Y79.923
X40.881 Y77.962
X40.885 Y77.93
X40.898 Y77.899
X40.917 Y77.874
X41.561 Y77.234
G2 X41.891 Y76.697 I-0.947 J-0.952
X41.945 Y76.07 I-1.32 J-0.429
G1 X41.697 Y74.355
G2 X41.56 Y73.934 I-1.296 J0.188
X41.3 Y73.577 I-1.336 J0.701
X41.106 Y73.384 I-11.83 J11.645
G3 X40.913 Y73.19 I11.636 J-11.838
G1 X40.894 Y73.165
X40.881 Y73.137
X40.875 Y73.106
X40.635 Y69.756
X40.638 Y69.741
X40.649 Y69.729
X40.664 Y69.725
X46.42
X46.435 Y69.729
X46.446 Y69.741
X46.449 Y69.756
X46.225 Y72.907
X46.218 Y72.943
X46.203 Y72.976
X46.181 Y73.004
G3 X45.979 Y73.206 I-12.866 J-12.669
G2 X45.778 Y73.407 I12.664 J12.871
X45.517 Y73.769 I1.043 J1.027
X45.384 Y74.195 I1.171 J0.597
G1 X45.228 Y75.383
X45.206 Y75.544
G2 X45.322 Y76.299 I1.302 J0.186
G1 X45.34 Y76.322
X45.365 Y76.337
X45.394 Y76.341
X45.423 Y76.344
X45.449 Y76.357
X45.469 Y76.378
X45.483 Y76.4
X45.901 Y77.041
G2 X46.059 Y77.236 I1.026 J-0.67
X46.36 Y77.535 I28.348 J-28.254
G3 X46.661 Y77.834 I-28.047 J28.553
G1 X46.681 Y77.86
X46.694 Y77.89
X46.698 Y77.922
X46.697 Y78.986
X46.693 Y79.023
X46.68 Y79.058
X46.66 Y79.09
X46.641 Y79.112
X46.622 Y79.133
X46.551 Y79.23
X46.49 Y79.334
X46.387 Y79.551
G2 X46.297 Y79.878 I1.119 J0.485
G1 X46.29 Y79.946
X46.283 Y80.014
X46.277 Y80.031
X46.264 Y80.042
X46.246 Y80.047
X40.822 Y80.044
X40.806 Y80.04
X40.794 Y80.029
X40.79 Y80.013
X40.791 Y77.925
X40.795 Y77.892
X40.808 Y77.862
X40.827 Y77.836
X41.498 Y77.17
G2 X41.806 Y76.669 I-0.883 J-0.888
X41.856 Y76.082 I-1.235 J-0.4
G1 X41.608 Y74.368
G2 X41.48 Y73.974 I-1.207 J0.175
X41.235 Y73.64 I-1.255 J0.661
X41.031 Y73.435 I-13.309 J13.101
G3 X40.826 Y73.23 I13.104 J-13.306
G1 X40.806 Y73.205
X40.793 Y73.176
X40.787 Y73.145
X40.538 Y69.666
X40.541 Y69.651
X40.552 Y69.639
X40.567 Y69.635
X46.516
X46.532 Y69.639
X46.543 Y69.651
X46.546 Y69.666
X46.312 Y72.947
X46.305 Y72.982
X46.29 Y73.015
X46.268 Y73.044
G3 X46.055 Y73.257 I-14.407 J-14.187
G2 X45.842 Y73.47 I14.194 J14.401
X45.598 Y73.809 I0.979 J0.964
X45.474 Y74.207 I1.091 J0.558
G1 X45.318 Y75.395
X45.295 Y75.557
G2 X45.469 Y76.378 I1.213 J0.173
G1 X45.489 Y76.4
X45.516 Y76.412
X45.546 Y76.413
X45.575
X45.602 Y76.425
X45.623 Y76.446
G2 X45.976 Y76.992 I81.124 J-52.217
G1 X46.045 Y77.086
X46.123 Y77.172
G2 X46.437 Y77.485 I30.89 J-30.787
G3 X46.751 Y77.797 I-30.575 J31.099
G1 X46.771 Y77.823
X46.784 Y77.853
X46.788 Y77.885
X46.787 Y79.019
X46.783 Y79.056
X46.77 Y79.09
X46.75 Y79.122
X46.72 Y79.156
X46.691 Y79.19
X46.624 Y79.282
X46.567 Y79.381
X46.47 Y79.587
G2 X46.395 Y79.841 I1.001 J0.434
X46.365 Y80.105 I2.436 J0.407
G1 X46.36 Y80.121
X46.348 Y80.133
X46.331 Y80.137
X40.732 Y80.134
X40.716 Y80.13
X40.704 Y80.119
X40.7 Y80.103
X40.701 Y77.888
X40.705 Y77.855
X40.718 Y77.825
X40.737 Y77.799
X41.434 Y77.106
G2 X41.721 Y76.64 I-0.82 J-0.824
X41.767 Y76.095 I-1.149 J-0.372
G1 X41.519 Y74.381
G2 X41.399 Y74.014 I-1.119 J0.162
X41.171 Y73.703 I-1.175 J0.622
X40.955 Y73.486 I-14.875 J14.642
G3 X40.738 Y73.269 I14.658 J-14.859
G1 X40.719 Y73.244
X40.706 Y73.216
X40.7 Y73.185
X40.442 Y69.576
X40.445 Y69.561
X40.456 Y69.549
X40.471 Y69.545
X46.613
X46.628 Y69.549
X46.639 Y69.561
X46.642 Y69.576
X46.399 Y72.986
X46.393 Y73.022
X46.378 Y73.055
X46.356 Y73.083
G3 X46.131 Y73.308 I-16.036 J-15.791
G2 X45.906 Y73.533 I15.811 J16.016
X45.679 Y73.848 I0.915 J0.901
X45.563 Y74.219 I1.01 J0.519
G1 X45.407 Y75.407
X45.385 Y75.57
G2 X45.551 Y76.335 I1.111 J0.159
G1 X45.623 Y76.446
X45.642 Y76.466
X45.667 Y76.477
X45.694
X45.722
X45.747 Y76.488
X45.766 Y76.507
G3 X46.052 Y76.943 I-90.503 J59.741
G1 X46.115 Y77.029
X46.187 Y77.109
X46.841 Y77.76
X46.861 Y77.785
X46.874 Y77.815
X46.878 Y77.848
X46.877 Y79.054
X46.873 Y79.089
X46.861 Y79.122
X46.842 Y79.152
X46.801 Y79.199
X46.76 Y79.246
X46.696 Y79.333
X46.643 Y79.427
X46.553 Y79.623
G2 X46.472 Y79.904 I1.035 J0.449
X46.454 Y80.195 I1.668 J0.251
G1 X46.45 Y80.211
X46.438 Y80.223
X46.423 Y80.227
X40.642 Y80.224
X40.626 Y80.22
X40.614 Y80.209
X40.61 Y80.193
X40.611 Y77.851
X40.615 Y77.818
X40.628 Y77.788
X40.647 Y77.762
X41.371 Y77.043
G2 X41.635 Y76.612 I-0.757 J-0.76
X41.678 Y76.108 I-1.064 J-0.343
G1 X41.43 Y74.394
G2 X41.127 Y73.789 I-1.062 J0.154
G3 X40.651 Y73.309 I66.237 J-66.152
G1 X40.631 Y73.284
X40.618 Y73.255
X40.612 Y73.224
X40.345 Y69.486
X40.348 Y69.471
X40.359 Y69.459
X40.374 Y69.455
X46.71
X46.725 Y69.459
X46.736 Y69.471
X46.739 Y69.486
X46.487 Y73.026
X46.48 Y73.061
X46.465 Y73.094
X46.443 Y73.123
G3 X46.207 Y73.36 I-17.752 J-17.481
G2 X45.97 Y73.597 I17.515 J17.718
X45.759 Y73.888 I0.852 J0.838
X45.652 Y74.231 I0.93 J0.479
G1 X45.496 Y75.418
X45.474 Y75.583
G2 X45.639 Y76.315 I1.045 J0.149
G1 X45.766 Y76.507
X45.786 Y76.528
X45.813 Y76.539
X45.842 Y76.54
X45.87
X45.897 Y76.551
X45.917 Y76.572
X46.127 Y76.893
X46.185 Y76.972
X46.25 Y77.045
X46.931 Y77.722
X46.951 Y77.748
X46.964 Y77.778
X46.968 Y77.811
X46.967 Y79.091
X46.963 Y79.125
X46.951 Y79.156
X46.932 Y79.184
X46.799 Y79.346
X46.74 Y79.433
X46.692 Y79.527
X46.615 Y79.716
X46.584 Y79.813
X46.565 Y79.913
X46.546 Y80.099
X46.543 Y80.193
X46.55 Y80.286
X46.548 Y80.301
X46.538 Y80.313
X46.523 Y80.317
X40.552 Y80.314
X40.536 Y80.31
X40.524 Y80.299
X40.52 Y80.283
X40.521 Y77.813
X40.525 Y77.781
X40.538 Y77.751
X40.557 Y77.725
X41.307 Y76.979
G2 X41.55 Y76.583 I-0.693 J-0.697
X41.589 Y76.121 I-0.979 J-0.315
G1 X41.34 Y74.407
G2 X41.238 Y74.094 I-0.942 J0.136
X41.043 Y73.829 I-1.015 J0.543
X40.803 Y73.589 I-18.268 J17.983
G3 X40.563 Y73.348 I18.028 J-18.223
G1 X40.544 Y73.323
X40.531 Y73.295
X40.525 Y73.264
X40.254 Y69.452
X40.251 Y69.424
X40.246 Y69.395
X40.249 Y69.38
X40.259 Y69.369
X40.273 Y69.365
X46.811
X46.825 Y69.369
X46.835 Y69.381
X46.837 Y69.396
X46.833 Y69.424
X46.83 Y69.452
X46.574 Y73.065
X46.568 Y73.101
X46.553 Y73.134
X46.531 Y73.162
G3 X46.282 Y73.411 I-19.555 J-19.257
G2 X46.034 Y73.66 I19.307 J19.505
X45.84 Y73.927 I0.788 J0.776
X45.741 Y74.242 I0.849 J0.44
G1 X45.585 Y75.43
X45.563 Y75.595
G2 X45.709 Y76.253 I0.946 J0.135
G1 X45.917 Y76.572
X45.937 Y76.592
X45.963 Y76.603
X45.992 Y76.604
X46.02
X46.046 Y76.615
X46.066 Y76.636
X46.203 Y76.844
X46.255 Y76.916
X46.314 Y76.982
X47.02 Y77.683
X47.04 Y77.71
X47.053 Y77.742
X47.058 Y77.776
X47.057 Y79.131
X47.053 Y79.163
X47.041 Y79.192
X47.022 Y79.218
X46.951 Y79.297
X46.884 Y79.38
X46.824 Y79.468
X46.775 Y79.562
X46.702 Y79.74
X46.672 Y79.831
X46.654 Y79.925
X46.634 Y80.106
X46.631 Y80.196
X46.638 Y80.287
X46.646 Y80.331
X46.653 Y80.376
X46.651 Y80.391
X46.641 Y80.403
X46.626 Y80.407
X40.462 Y80.404
X40.446 Y80.4
X40.434 Y80.389
X40.43 Y80.373
X40.431 Y77.776
X40.435 Y77.744
X40.448 Y77.714
X40.467 Y77.688
X41.244 Y76.915
G2 X41.464 Y76.555 I-0.63 J-0.633
X41.5 Y76.134 I-0.894 J-0.286
G1 X41.251 Y74.419
G2 X41.157 Y74.134 I-0.853 J0.124
X40.979 Y73.892 I-0.935 J0.504
X40.727 Y73.64 I-20.095 J19.781
G3 X40.476 Y73.388 I19.844 J-20.034
G1 X40.457 Y73.363
X40.444 Y73.334
X40.438 Y73.303
X40.167 Y69.458
X40.156 Y69.381
X40.137 Y69.304
X40.138 Y69.29
X40.147 Y69.279
X40.16 Y69.275
X46.924
X46.937 Y69.279
X46.946 Y69.29
X46.947 Y69.305
X46.928 Y69.381
X46.917 Y69.458
X46.662 Y73.105
X46.655 Y73.14
X46.64 Y73.173
X46.618 Y73.202
G3 X46.358 Y73.462 I-21.446 J-21.118
G2 X46.098 Y73.723 I21.186 J21.379
X45.921 Y73.967 I0.724 J0.713
X45.831 Y74.254 I0.769 J0.4
G1 X45.675 Y75.442
X45.652 Y75.608
G2 X45.784 Y76.203 I0.856 J0.122
G1 X46.066 Y76.636
X46.086 Y76.656
X46.112 Y76.667
X46.141
X46.169 Y76.668
X46.196 Y76.679
X46.215 Y76.699
X46.278 Y76.795
X46.325 Y76.859
X46.378 Y76.918
X47.109 Y77.645
X47.129 Y77.672
X47.142 Y77.702
X47.147 Y77.736
Y77.749
Y77.762
X47.148 Y77.938
X47.147 Y78.115
Y79.173
X47.143 Y79.203
X47.131 Y79.231
X47.113 Y79.255
X47.038 Y79.332
X46.968 Y79.414
X46.907 Y79.503
X46.858 Y79.598
X46.788 Y79.764
X46.76 Y79.849
X46.743 Y79.937
X46.723 Y80.105
X46.719 Y80.19
X46.726 Y80.275
X46.741 Y80.371
X46.759 Y80.467
X46.758 Y80.481
X46.749 Y80.493
X46.735 Y80.497
X40.372 Y80.494
X40.356 Y80.49
X40.344 Y80.479
X40.34 Y80.463
X40.341 Y77.739
X40.345 Y77.707
X40.358 Y77.677
X40.377 Y77.651
X41.181 Y76.851
G2 X41.379 Y76.526 I-0.566 J-0.569
X41.41 Y76.147 I-0.808 J-0.258
G1 X41.162 Y74.432
G2 X41.077 Y74.174 I-0.765 J0.111
X40.915 Y73.956 I-0.856 J0.465
X40.652 Y73.692 I-22.009 J21.666
G3 X40.389 Y73.427 I21.746 J-21.93
G1 X40.369 Y73.402
X40.356 Y73.374
X40.35 Y73.343
X40.077 Y69.465
X40.069 Y69.4
X40.055 Y69.336
X40.035 Y69.274
X40.011 Y69.213
X40.01 Y69.2
X40.017 Y69.189
X40.03 Y69.185
X47.054
X47.067 Y69.189
X47.074 Y69.2
X47.073 Y69.213
X47.049 Y69.274
X47.029 Y69.336
X47.015 Y69.4
X47.007 Y69.465
X46.749 Y73.144
X46.742 Y73.18
X46.728 Y73.213
X46.705 Y73.241
G3 X46.434 Y73.514 I-23.423 J-23.065
G2 X46.163 Y73.786 I23.152 J23.338
X46.002 Y74.006 I0.66 J0.65
X45.92 Y74.266 I0.688 J0.361
G1 X45.764 Y75.453
X45.741 Y75.621
G2 X45.859 Y76.154 I0.767 J0.11
G1 X46.215 Y76.699
X46.235 Y76.72
X46.261 Y76.731
X46.29 Y76.732
X46.318
X46.345 Y76.743
X46.365 Y76.763
X46.401 Y76.811
X46.442 Y76.855
X47.198 Y77.607
X47.218 Y77.633
X47.231 Y77.664
X47.236 Y77.697
Y77.729
Y77.761
G3 X47.238 Y78.075 I-24.979 J0.292
G1 X47.237 Y79.219
X47.233 Y79.247
X47.221 Y79.272
X47.203 Y79.294
X47.124 Y79.368
X47.053 Y79.449
X46.99 Y79.538
X46.94 Y79.634
X46.875 Y79.788
X46.848 Y79.867
X46.832 Y79.949
X46.813 Y80.105
X46.809 Y80.184
X46.815 Y80.263
X46.839 Y80.413
X46.856 Y80.487
X46.881 Y80.558
X46.882 Y80.572
X46.875 Y80.583
X46.862 Y80.587
X40.282 Y80.584
X40.266 Y80.58
X40.254 Y80.568
X40.25 Y80.553
X40.251 Y77.702
X40.255 Y77.67
X40.268 Y77.64
X40.287 Y77.614
X41.117 Y76.787
G2 X41.294 Y76.498 I-0.503 J-0.505
X41.321 Y76.16 I-0.723 J-0.229
G1 X41.073 Y74.445
X41.057 Y74.365
X41.031 Y74.288
X40.996 Y74.214
X40.954 Y74.145
X40.905 Y74.079
X40.851 Y74.019
G2 X40.576 Y73.743 I-24.011 J23.636
G3 X40.301 Y73.467 I23.736 J-23.912
G1 X40.282 Y73.442
X40.269 Y73.413
X40.263 Y73.382
X39.987 Y69.471
X39.974 Y69.377
X39.946 Y69.287
X39.906 Y69.201
X39.856 Y69.121
X39.853 Y69.11
X39.858 Y69.099
X39.869 Y69.095
X47.209
X47.221 Y69.099
X47.227 Y69.11
X47.225 Y69.122
X47.209 Y69.146
X47.194 Y69.17
X47.157 Y69.24
X47.128 Y69.315
X47.107 Y69.392
X47.096 Y69.471
X46.837 Y73.184
X46.83 Y73.219
X46.815 Y73.252
X46.793 Y73.281
G3 X46.51 Y73.565 I-25.488 J-25.099
G2 X46.227 Y73.849 I25.205 J25.383
G1 X46.172 Y73.91
X46.124 Y73.976
X46.083 Y74.046
X46.049 Y74.12
X46.024 Y74.197
X46.009 Y74.277
X45.853 Y75.465
X45.83 Y75.633
G2 X45.935 Y76.105 I0.678 J0.097
G1 X46.353 Y76.746
X46.365 Y76.763
X46.387 Y76.784
X46.415 Y76.794
X46.445 Y76.792
X46.475 Y76.789
X46.503 Y76.796
X46.528 Y76.813
X47.288 Y77.57
X47.308 Y77.596
X47.321 Y77.626
X47.325 Y77.658
Y77.709
Y77.76
G3 X47.327 Y78.263 I-40.064 J0.469
G1 Y79.268
X47.323 Y79.294
X47.311 Y79.317
X47.293 Y79.336
X47.242 Y79.379
X47.195 Y79.428
X47.108 Y79.53
X47.063 Y79.593
X47.027 Y79.661
X46.965 Y79.802
X46.94 Y79.872
X46.925 Y79.945
X46.904 Y80.092
X46.899 Y80.165
X46.903 Y80.238
X46.922 Y80.383
X46.937 Y80.452
X46.961 Y80.519
X47.019 Y80.649
X47.02 Y80.662
X47.013 Y80.673
X47. Y80.677
X40.191 Y80.674
X40.175 Y80.67
X40.164 Y80.659
X40.16 Y80.643
X40.161 Y77.664
X40.165 Y77.632
X40.177 Y77.603
X40.197 Y77.577
X41.053 Y76.724
G2 X41.208 Y76.469 I-0.439 J-0.441
X41.232 Y76.173 I-0.638 J-0.201
G1 X40.984 Y74.458
X40.969 Y74.388
X40.946 Y74.319
X40.915 Y74.254
X40.857 Y74.164
X40.786 Y74.082
G2 X40.5 Y73.794 I-26.697 J26.28
G3 X40.213 Y73.506 I26.41 J-26.568
G1 X40.194 Y73.481
X40.181 Y73.453
X40.175 Y73.423
X39.898 Y69.477
G2 X39.779 Y69.161 I-0.593 J0.042
G1 X39.722 Y69.092
X39.658 Y69.029
X39.654 Y69.019
X39.657 Y69.009
X39.667 Y69.005
X47.409
X47.419 Y69.009
X47.423 Y69.019
X47.418 Y69.029
G2 X47.258 Y69.231 I0.482 J0.547
X47.186 Y69.478 I0.541 J0.291
G1 X46.924 Y73.225
X46.917 Y73.259
X46.903 Y73.291
X46.881 Y73.319
G3 X46.586 Y73.616 I-28.281 J-27.849
G2 X46.291 Y73.912 I27.986 J28.145
G1 X46.221 Y73.994
X46.164 Y74.085
X46.134 Y74.15
X46.112 Y74.219
X46.098 Y74.289
X45.942 Y75.477
X45.919 Y75.646
G2 X46.01 Y76.056 I0.589 J0.084
G1 X46.429 Y76.696
X46.465 Y76.746
X46.505 Y76.791
X46.528 Y76.813
X46.552 Y76.843 Z-1.335
X46.57 Y76.876 Z-1.327
X46.58 Y76.907 Z-1.305
X46.585 Y76.939 Z-1.284
X46.584 Y76.982 Z-1.219
X46.581 Y76.997 Z-1.142
G0 Z15.

G53 Z0.
M30
