(1001)
(T1  D=2. CR=0. - ZMIN=-0.161 - FLAT END MILL)
G0 G90 G94 G17
G21
G53 G0 Z0.

(MORPHED SPIRAL3)
M5
M9
T1
S12000 M3
G4 P4.
G55
G0 X50.906 Y38.142
Z15.
Z1.935
G1 Z-0.151 F200.
Z-0.161
X51.107
Z-0.151
G0 Z5.
X50.58 Y38.102
Z1.935
G1 Z-0.151 F200.
Z-0.161
X51.047 Y38.094
X51.433 Y38.104
Z-0.151
G0 Z5.
X50.426 Y38.062
Z1.935
G1 Z-0.151 F200.
Z-0.161
X50.984 Y38.046
X51.571 Y38.064
X51.586
Z-0.151
Z-0.149
X51.579 Z-0.111
X51.557 Y38.063 Z-0.078
X51.525 Y38.062 Z-0.057
X51.486 Y38.061 Z-0.049
X50.406 Y38.025
X50.368 Y38.024 Z-0.057
X50.335 Y38.023 Z-0.078
X50.314 Y38.022 Z-0.111
X50.306 Z-0.149
Z-0.151
Z-0.161
X50.827 Y38.
X51.292 Y38.004
X51.708 Y38.025
Z-0.151
G0 Z5.
X50.199 Y37.983
Z1.935
G1 Z-0.151 F200.
Z-0.161
X50.67 Y37.957
X51.135 Y37.953
X51.614 Y37.971
X51.814 Y37.985
Z-0.151
G0 Z5.
X50.114 Y37.942
Z1.935
G1 Z-0.151 F200.
Z-0.161
X50.668 Y37.909
X51.133 Y37.905
X51.616 Y37.924
X51.9 Y37.945
Z-0.151
G0 Z5.
X50.032 Y37.902
Z1.935
G1 Z-0.151 F200.
Z-0.161
X50.511 Y37.868
X50.976 Y37.857
X51.463 Y37.868
X51.982 Y37.905
Z-0.151
G0 Z5.
X49.96 Y37.861
Z1.935
G1 Z-0.151 F200.
X49.961 Z-0.161
X50.509 Y37.82
X50.974 Y37.809
X51.465 Y37.82
X52.044 Y37.864
X52.054 Y37.865
Z-0.151
G0 Z5.
X49.894 Y37.821
Z1.935
G1 Z-0.151 F200.
Z-0.161
X50.357 Y37.781
X50.817 Y37.763
X51.281 Y37.766
X51.776 Y37.792
X52.12 Y37.824
Z-0.151
G0 Z5.
X49.829 Y37.78
Z1.935
G1 Z-0.151 F200.
X49.83 Z-0.161
X50.294 Y37.738
X50.814 Y37.716
X51.279 Y37.718
X51.778 Y37.744
X52.185 Y37.784
Z-0.151
Z-0.15
G0 Z5.
X49.774 Y37.739
Z1.935
G1 Z-0.151 F200.
X49.775 Z-0.161
X50.237 Y37.694
X50.812 Y37.668
X51.277 Y37.671
X51.78 Y37.697
X52.24 Y37.743
Z-0.151
G0 Z5.
X49.72 Y37.698
Z1.935
G1 Z-0.151 F200.
Z-0.161
X50.182 Y37.651
X50.655 Y37.625
X51.12 Y37.62
X51.628 Y37.639
X52.09 Y37.678
X52.295 Y37.702
Z-0.151
G0 Z5.
X49.667 Y37.656
Z1.935
G1 Z-0.151 F200.
Z-0.161
X50.128 Y37.607
X50.653 Y37.577
X51.118 Y37.573
X51.63 Y37.592
X52.092 Y37.63
X52.348 Y37.661
Z-0.151
Z-0.15
G0 Z5.
X49.621 Y37.615
Z1.935
G1 Z-0.151 F200.
Z-0.161
X50.084 Y37.563
X50.651 Y37.53
X51.115 Y37.525
X51.632 Y37.544
X52.094 Y37.583
X52.394 Y37.619
Z-0.151
G0 Z5.
X49.575 Y37.573
Z1.935
G1 Z-0.151 F200.
X49.576 Z-0.161
X50.037 Y37.52
X50.494 Y37.488
X50.959 Y37.477
X51.479 Y37.489
X51.942 Y37.52
X52.439 Y37.577
X52.44 Z-0.151
G0 Z5.
X49.53 Y37.531
Z1.935
G1 Z-0.151 F200.
Z-0.161
X49.993 Y37.476
X50.492 Y37.441
X50.956 Y37.43
X51.481 Y37.441
X51.944 Y37.473
X52.485 Y37.536
Z-0.151
G0 Z5.
X49.49 Y37.489
Z1.935
G1 Z-0.149 F200.
Z-0.151
Z-0.161
X49.953 Y37.433
X50.49 Y37.394
X50.954 Y37.382
X51.483 Y37.394
X51.946 Y37.425
X52.525 Y37.494
Z-0.151
G0 Z5.
X49.452 Y37.447
Z1.935
G1 Z-0.149 F200.
Z-0.151
Z-0.161
X49.913 Y37.389
X50.488 Y37.346
X50.952 Y37.335
X51.485 Y37.346
X51.948 Y37.378
X52.41 Y37.429
X52.563 Y37.451
Z-0.151
Z-0.15
G0 Z5.
X49.414 Y37.404
Z1.935
G1 Z-0.145 F200.
Z-0.151
Z-0.161
X49.877 Y37.345
X50.34 Y37.307
X50.795 Y37.289
X51.26 Y37.291
X51.796 Y37.317
X52.258 Y37.362
X52.601 Y37.409
Z-0.151
G0 Z5.
X49.377 Y37.362
Z1.935
G1 Z-0.146 F200.
Z-0.151
Z-0.161
X49.84 Y37.301
X50.302 Y37.261
X50.793 Y37.241
X51.257 Y37.243
X51.798 Y37.27
X52.26 Y37.315
X52.639 Y37.367
Z-0.151
G0 Z5.
X49.345 Y37.319
Z1.935
G1 Z-0.151 F200.
Z-0.161
X49.807 Y37.257
X50.27 Y37.216
X50.791 Y37.194
X51.255 Y37.196
X51.8 Y37.223
X52.262 Y37.267
X52.671 Y37.324
Z-0.151
G0 Z5.
X49.313 Y37.276
Z1.935
G1 Z-0.149 F200.
Z-0.151
Z-0.161
X49.775 Y37.213
X50.237 Y37.171
X50.789 Y37.147
X51.253 Y37.148
X51.802 Y37.175
X52.264 Y37.22
X52.703 Y37.281
Z-0.151
Z-0.15
G0 Z5.
X49.281 Y37.233
Z1.935
G1 Z-0.149 F200.
Z-0.151
Z-0.161
X49.741 Y37.169
X50.204 Y37.125
X50.787 Y37.099
X51.251 Y37.101
X51.804 Y37.128
X52.266 Y37.172
X52.734 Y37.238
Z-0.151
G0 Z5.
X49.251 Y37.19
Z1.935
G1 Z-0.145 F200.
Z-0.151
X49.252 Z-0.161
X49.711 Y37.125
X50.173 Y37.08
X50.785 Y37.052
X51.249 Y37.053
X51.806 Y37.08
X52.268 Y37.125
X52.765 Y37.195
Z-0.151
G0 Z5.
X49.225 Y37.146
Z1.935
G1 Z-0.147 F200.
Z-0.151
Z-0.161
X49.685 Y37.08
X50.147 Y37.034
X50.628 Y37.008
X51.092 Y37.003
X51.654 Y37.022
X52.117 Y37.06
X52.577 Y37.118
X52.791 Y37.151
Z-0.151
G0 Z5.
X49.199 Y37.102
Z1.935
G1 Z-0.149 F200.
Z-0.151
Z-0.161
X49.66 Y37.035
X50.122 Y36.989
X50.626 Y36.961
X51.245 Y36.958
X51.81 Y36.985
X52.272 Y37.029
X52.818 Y37.108
Z-0.151
Z-0.15
G0 Z5.
X49.172 Y37.058
Z1.935
G1 Z-0.146 F200.
Z-0.151
X49.173 Z-0.161
X49.632 Y36.991
X50.094 Y36.943
X50.623 Y36.913
X51.243 Y36.91
X51.812 Y36.938
X52.274 Y36.982
X52.844 Y37.064
Z-0.151
G0 Z5.
X49.148 Y37.014
Z1.935
G1 Z-0.148 F200.
Z-0.151
Z-0.161
X49.607 Y36.946
X50.069 Y36.898
X50.621 Y36.866
X51.24 Y36.863
X51.814 Y36.89
X52.276 Y36.934
X52.869 Y37.02
Z-0.151
Z-0.15
G0 Z5.
X49.126 Y36.97
Z1.935
G1 Z-0.145 F200.
Z-0.151
X49.127 Z-0.161
X49.587 Y36.901
X50.049 Y36.852
X50.619 Y36.819
X51.238 Y36.815
X51.816 Y36.843
X52.278 Y36.887
X52.886 Y36.975
X52.891 Y36.976
Z-0.151
G0 Z5.
X49.105 Y36.925
Z1.935
G1 Z-0.147 F200.
Z-0.151
Z-0.161
X49.564 Y36.856
X50.026 Y36.806
X50.617 Y36.771
X51.236 Y36.768
X51.818 Y36.796
X52.281 Y36.839
X52.741 Y36.902
X52.912 Y36.931
Z-0.151
G0 Z5.
X49.084 Y36.881
Z1.935
G1 Z-0.149 F200.
Z-0.151
Z-0.161
X49.544 Y36.811
X50.006 Y36.76
X50.615 Y36.724
X51.234 Y36.72
X51.82 Y36.748
X52.283 Y36.792
X52.743 Y36.855
X52.933 Y36.887
Z-0.151
Z-0.15
G0 Z5.
X49.063 Y36.836
Z1.935
G1 Z-0.148 F200.
Z-0.151
Z-0.161
X49.524 Y36.766
X49.986 Y36.714
X50.458 Y36.682
X51.077 Y36.671
X51.668 Y36.69
X52.285 Y36.744
X52.897 Y36.832
X52.954 Y36.842
Z-0.151
G0 Z5.
X49.046 Y36.791
Z1.935
G1 Z-0.145 F200.
Z-0.151
X49.047 Z-0.161
X49.659 Y36.701
X50.276 Y36.645
X50.765 Y36.625
X51.384 Y36.63
X51.979 Y36.666
X52.594 Y36.736
X52.971 Y36.797
Z-0.151
G0 Z5.
X49.03 Y36.746
Z1.935
G1 Z-0.148 F200.
Z-0.151
Z-0.161
X49.491 Y36.674
X50.106 Y36.609
X50.608 Y36.581
X51.228 Y36.578
X51.826 Y36.606
X52.442 Y36.668
X52.987 Y36.752
Z-0.151
G0 Z5.
X49.014 Y36.701
Z1.935
G1 Z-0.146 F200.
Z-0.151
Y36.7 Z-0.161
X49.626 Y36.609
X50.242 Y36.552
X50.761 Y36.53
X51.38 Y36.535
X51.983 Y36.571
X52.598 Y36.641
X53.004 Y36.706
Z-0.151
Z-0.15
G0 Z5.
X48.997 Y36.655
Z1.935
G1 Z-0.148 F200.
Z-0.151
Z-0.161
X49.611 Y36.563
X50.227 Y36.505
X50.759 Y36.483
X51.378 Y36.487
X51.985 Y36.523
X52.6 Y36.593
X53.02 Y36.661
Z-0.151
G0 Z5.
X48.984 Y36.609
Z1.935
G1 Z-0.145 F200.
Z-0.151
Z-0.161
X49.49 Y36.531
X50.106 Y36.466
X50.602 Y36.439
X51.221 Y36.435
X51.832 Y36.463
X52.448 Y36.525
X53.034 Y36.615
Z-0.151
Z-0.15
G0 Z5.
X48.972 Y36.563
Z1.935
G1 Z-0.146 F200.
Z-0.151
X48.973 Z-0.161
X49.585 Y36.471
X50.201 Y36.412
X50.755 Y36.388
X51.374 Y36.392
X51.989 Y36.428
X52.604 Y36.498
X53.045 Y36.569
Z-0.151
G0 Z5.
X48.961 Y36.517
Z1.935
G1 Z-0.147 F200.
Z-0.151
Z-0.161
X49.573 Y36.424
X50.189 Y36.365
X50.753 Y36.34
X51.372 Y36.344
X51.991 Y36.381
X52.606 Y36.45
X53.057 Y36.523
Z-0.151
Z-0.15
G0 Z5.
X48.949 Y36.471
Z1.935
G1 Z-0.148 F200.
Z-0.151
Z-0.161
X49.561 Y36.378
X50.177 Y36.318
X50.75 Y36.293
X51.37 Y36.297
X51.993 Y36.333
X52.608 Y36.403
X53.069 Y36.477
Z-0.151
Z-0.15
G0 Z5.
X48.939 Y36.425
Z1.935
G1 Z-0.145 F200.
Z-0.151
Z-0.161
X49.409 Y36.35
X50.024 Y36.282
X50.594 Y36.25
X51.213 Y36.245
X51.84 Y36.274
X52.456 Y36.335
X53.08 Y36.431
Z-0.151
G0 Z5.
X48.931 Y36.378
Z1.935
G1 Z-0.144 F200.
X48.932 Z-0.151
Z-0.161
X49.542 Y36.285
X50.158 Y36.225
X50.746 Y36.198
X51.365 Y36.202
X51.997 Y36.238
X52.612 Y36.307
X53.087 Y36.384
Z-0.151
G0 Z5.
X48.924 Y36.331
Z1.935
G1 Z-0.144 F200.
Z-0.151
X48.925 Z-0.161
X49.522 Y36.239
X50.138 Y36.178
X50.744 Y36.151
X51.363 Y36.154
X51.999 Y36.191
X52.614 Y36.26
X53.094 Y36.337
Z-0.151
G0 Z5.
X48.917 Y36.284
Z1.935
G1 Z-0.144 F200.
Z-0.151
X48.918 Z-0.161
X49.502 Y36.194
X50.118 Y36.132
X50.742 Y36.103
X51.361 Y36.107
X52.001 Y36.143
X52.616 Y36.212
X53.101 Y36.29
Z-0.151
G0 Z5.
X48.91 Y36.237
Z1.935
G1 Z-0.144 F200.
Z-0.151
X48.911 Z-0.161
X49.481 Y36.149
X50.097 Y36.086
X50.585 Y36.06
X51.204 Y36.055
X51.848 Y36.084
X52.464 Y36.144
X53.077 Y36.237
X53.108 Y36.243
Z-0.151
G0 Z5.
X48.907 Y36.189
Z1.935
G1 Z-0.144 F200.
Z-0.151
Z-0.161
X49.461 Y36.104
X50.077 Y36.04
X50.583 Y36.013
X51.202 Y36.008
X51.85 Y36.037
X52.466 Y36.097
X53.079 Y36.189
X53.112 Y36.195
Y36.196 Z-0.151
Z-0.15
G0 Z5.
X48.903 Y36.142
Z1.935
G1 Z-0.127 F200.
X48.904 Y36.141 Z-0.151
X48.905 Z-0.161
X49.441 Y36.058
X50.057 Y35.994
X50.581 Y35.965
X51.2 Y35.96
X51.852 Y35.989
X52.468 Y36.049
X53.1 Y36.145
X53.115 Y36.148
Z-0.151
G0 Z5.
X48.902 Y36.094
Z1.935
G1 Z-0.151 F200.
X48.904 Y36.093 Z-0.161
X49.421 Y36.013
X50.036 Y35.948
X50.579 Y35.918
X51.198 Y35.913
X51.7 Y35.932
X52.317 Y35.984
X52.93 Y36.068
X53.117 Y36.1
Z-0.151
G0 Z5.
X48.898 Y36.046
Z1.935
G1 Z-0.126 F200.
X48.9 Z-0.151
X48.901 Z-0.161
X49.4 Y35.968
X50.016 Y35.902
X50.577 Y35.87
X51.196 Y35.865
X51.702 Y35.884
X52.319 Y35.936
X52.932 Y36.02
X53.12 Y36.052
Z-0.151
G0 Z5.
X48.897 Y35.998
Z1.935
G1 Z-0.138 F200.
X48.898 Z-0.151
Z-0.161
X49.38 Y35.923
X49.996 Y35.856
X50.574 Y35.823
X51.194 Y35.818
X51.704 Y35.837
X52.321 Y35.889
X52.934 Y35.972
X53.122 Y36.004
Z-0.151
G0 Z5.
X48.9 Y35.949
Z1.935
G1 Z-0.138 F200.
Z-0.151
X48.901 Z-0.161
X49.513 Y35.858
X50.13 Y35.798
X50.727 Y35.771
X51.346 Y35.774
X51.86 Y35.799
X52.477 Y35.859
X53.108 Y35.954
X53.12 Y35.956
Z-0.151
G0 Z5.
X48.902 Y35.901
Z1.935
G1 Z-0.138 F200.
X48.903 Z-0.151
Z-0.161
X49.493 Y35.812
X50.109 Y35.752
X50.725 Y35.724
X51.344 Y35.726
X51.862 Y35.752
X52.479 Y35.811
X53.117 Y35.907
Z-0.151
G0 Z5.
X48.905 Y35.852
Z1.935
G1 Z-0.138 F200.
Z-0.151
X48.906 Z-0.161
X49.473 Y35.767
X50.089 Y35.706
X50.723 Y35.676
X51.342 Y35.679
X51.864 Y35.704
X52.481 Y35.764
X53.114 Y35.858
Z-0.151
Z-0.15
G0 Z5.
X48.907 Y35.803
Z1.935
G1 Z-0.138 F200.
X48.908 Z-0.151
Z-0.161
X49.452 Y35.722
X50.068 Y35.66
X50.566 Y35.633
X51.185 Y35.628
X51.712 Y35.647
X52.329 Y35.699
X52.942 Y35.781
X53.112 Y35.81
Z-0.151
Z-0.15
G0 Z5.
X48.913 Y35.754
Z1.935
G1 Z-0.151 F200.
X48.915 Z-0.161
X49.432 Y35.677
X50.048 Y35.614
X50.564 Y35.586
X51.183 Y35.58
X51.714 Y35.6
X52.331 Y35.651
X52.944 Y35.734
X53.107 Y35.761
Z-0.151
G0 Z5.
X48.92 Y35.705
Z1.935
G1 Z-0.145 F200.
X48.921 Z-0.151
Z-0.161
X49.412 Y35.631
X50.028 Y35.568
X50.562 Y35.538
X51.181 Y35.533
X51.716 Y35.552
X52.333 Y35.603
X52.946 Y35.686
X53.1 Y35.711
Z-0.151
G0 Z5.
X48.928 Y35.656
Z1.935
G1 Z-0.138 F200.
Y35.655 Z-0.151
X48.929 Z-0.161
X49.545 Y35.567
X50.162 Y35.511
X50.714 Y35.487
X51.333 Y35.489
X51.872 Y35.515
X52.489 Y35.574
X53.092 Y35.662
Z-0.151
G0 Z5.
X48.936 Y35.606
Z1.935
G1 Z-0.144 F200.
Z-0.151
Z-0.161
X49.525 Y35.522
X50.141 Y35.465
X50.712 Y35.439
X51.331 Y35.441
X51.874 Y35.467
X52.491 Y35.526
X53.085 Y35.612
Z-0.151
G0 Z5.
X48.945 Y35.556
Z1.935
G1 Z-0.145 F200.
Z-0.151
Z-0.161
X49.505 Y35.476
X50.121 Y35.418
X50.71 Y35.392
X51.329 Y35.394
X51.876 Y35.42
X52.493 Y35.478
X53.076 Y35.563
Z-0.151
G0 Z5.
X48.958 Y35.506
Z1.935
G1 Z-0.151 F200.
X48.967 Y35.505 Z-0.161
X49.484 Y35.431
X50.101 Y35.372
X50.708 Y35.344
X51.327 Y35.346
X51.878 Y35.372
X52.495 Y35.431
X53.064 Y35.513
Z-0.151
G0 Z5.
X48.97 Y35.456
Z1.935
G1 Z-0.144 F200.
Z-0.151
X48.971 Z-0.161
X49.618 Y35.368
X50.235 Y35.316
X50.861 Y35.295
X51.48 Y35.303
X52.035 Y35.337
X52.65 Y35.403
X53.051 Y35.462
Z-0.151
G0 Z5.
X48.983 Y35.406
Z1.935
G1 Z-0.145 F200.
Z-0.151
Z-0.161
X49.598 Y35.322
X50.214 Y35.27
X50.858 Y35.247
X51.478 Y35.256
X52.037 Y35.289
X52.652 Y35.355
X53.038 Y35.412
Z-0.151
Z-0.15
G0 Z5.
X48.997 Y35.356
Z1.935
G1 Z-0.139 F200.
Y35.355 Z-0.151
X49.002 Z-0.161
X49.577 Y35.277
X50.194 Y35.223
X50.856 Y35.2
X51.475 Y35.208
X52.039 Y35.242
X52.654 Y35.307
X53.024 Y35.362
Z-0.151
Z-0.15
G0 Z5.
X49.015 Y35.305
Z1.935
G1 Z-0.138 F200.
X49.016 Y35.304 Z-0.151
Z-0.161
X49.557 Y35.231
X50.174 Y35.177
X50.699 Y35.155
X51.319 Y35.156
X51.886 Y35.183
X52.503 Y35.241
X53.006 Y35.311
Z-0.151
Z-0.15
G0 Z5.
X49.033 Y35.254
Z1.935
G1 Z-0.126 F200.
X49.034 Z-0.151
X49.036 Y35.253 Z-0.161
X49.537 Y35.186
X50.153 Y35.131
X50.697 Y35.107
X51.316 Y35.108
X51.888 Y35.135
X52.505 Y35.193
X52.987 Y35.26
Z-0.151
Z-0.15
G0 Z5.
X41.876 Y58.499
Z1.935
G1 Z-0.151 F200.
Z-0.161
X41.46 Y58.08
Z-0.151
G0 Z5.
X49.053 Y35.203
Z1.935
G1 Z-0.145 F200.
Z-0.151
Z-0.161
X49.67 Y35.124
X50.287 Y35.075
X50.85 Y35.057
X51.469 Y35.066
X52.045 Y35.099
X52.66 Y35.165
X52.969 Y35.209
Z-0.151
G0 Z5.
X60.569 Y58.063
Z1.935
G1 Z-0.127 F200.
X60.568 Y58.064 Z-0.151
X60.567 Y58.065 Z-0.161
X60.1 Y58.532
Z-0.151
G0 Z5.
X41.995 Y58.674
Z1.935
G1 Z-0.151 F200.
Z-0.161
X41.658 Y58.35
X41.245 Y57.936
Z-0.151
G0 Z5.
X49.073 Y35.152
Z1.935
G1 Z-0.139 F200.
Y35.151 Z-0.151
X49.074 Z-0.161
X49.65 Y35.078
X50.267 Y35.029
X50.848 Y35.01
X51.467 Y35.018
X52.047 Y35.052
X52.662 Y35.117
X52.949 Y35.158
Z-0.151
G0 Z5.
X60.761 Y57.941
Z1.935
G1 Z-0.151 F200.
Z-0.161
X60.263 Y58.439
X59.989 Y58.7
Z-0.151
G0 Z5.
X42.068 Y58.802
Z1.935
G1 Z-0.151 F200.
Z-0.161
X41.726 Y58.485
X41.23 Y57.989
X41.108 Y57.864
Z-0.151
G0 Z5.
X49.098 Y35.1
Z1.935
G1 Z-0.144 F200.
Z-0.151
X49.099 Z-0.161
X49.63 Y35.032
X50.247 Y34.982
X50.846 Y34.962
X51.465 Y34.97
X52.049 Y35.005
X52.664 Y35.069
X52.924 Y35.106
Z-0.151
Z-0.15
G0 Z5.
X60.908 Y57.857
Z1.935
G1 Z-0.151 F200.
Y57.858 Z-0.161
X60.421 Y58.345
X60.074 Y58.686
X59.917 Y58.827
Z-0.151
G0 Z5.
X42.119 Y58.907
Z1.935
G1 Z-0.151 F200.
Z-0.161
X41.773 Y58.597
X41.306 Y58.13
X40.993 Y57.811
Z-0.151
G0 Z5.
X49.123 Y35.048
Z1.935
G1 Z-0.144 F200.
Z-0.151
Z-0.161
X49.763 Y34.971
X50.379 Y34.928
X50.998 Y34.914
X51.587 Y34.928
X52.205 Y34.97
X52.82 Y35.043
X52.899 Y35.054
Z-0.151
G0 Z5.
X61.017 Y57.81
Z1.935
G1 Z-0.151 F200.
Z-0.161
X60.68 Y58.154
X60.221 Y58.613
X59.87 Y58.93
Z-0.151
G0 Z5.
X42.159 Y59.003
Z1.935
G1 Z-0.151 F200.
Z-0.161
X41.81 Y58.697
X41.378 Y58.266
X41.053 Y57.943
X40.896 Y57.775
Z-0.151
G0 Z5.
X49.148 Y34.997
Z1.935
G1 Z-0.144 F200.
Z-0.151
Z-0.161
X49.743 Y34.926
X50.377 Y34.881
X50.996 Y34.867
X51.589 Y34.881
X52.207 Y34.923
X52.87 Y35.002
X52.875 Y35.003
Z-0.151
G0 Z5.
X61.106 Y57.782
Z1.935
G1 Z-0.151 F200.
Z-0.161
X60.785 Y58.118
X60.256 Y58.645
X59.912 Y58.957
X59.834 Y59.022
Z-0.151
G0 Z5.
X42.191 Y59.089
Z1.935
G1 Z-0.144 F200.
X42.19 Z-0.151
Z-0.161
X41.828 Y58.778
X41.488 Y58.446
X41.018 Y57.975
X40.804 Y57.743
Z-0.151
G0 Z5.
X49.177 Y34.945
Z1.935
G1 Z-0.151 F200.
X49.18 Y34.944 Z-0.161
X49.723 Y34.88
X50.375 Y34.833
X50.994 Y34.819
X51.591 Y34.833
X52.209 Y34.876
X52.846 Y34.951
Z-0.151
G0 Z5.
X61.192 Y57.756
Z1.935
G1 Z-0.151 F200.
Z-0.161
X60.874 Y58.096
X60.401 Y58.57
X60.063 Y58.888
X59.804 Y59.108
Z-0.151
G0 Z5.
X42.219 Y59.173
Z1.935
G1 Z-0.144 F200.
Z-0.151
Z-0.161
X41.912 Y58.917
X41.572 Y58.6
X40.984 Y58.008
X40.723 Y57.722
Z-0.151
G0 Z5.
X49.209 Y34.892
Z1.935
G1 Z-0.144 F200.
Z-0.151
Z-0.161
X49.856 Y34.82
X50.373 Y34.786
X50.992 Y34.772
X51.593 Y34.786
X52.211 Y34.828
X52.814 Y34.898
Z-0.151
G0 Z5.
X61.275 Y57.732
Z1.935
G1 Z-0.151 F200.
Z-0.161
X60.96 Y58.076
X60.435 Y58.602
X60.098 Y58.921
X59.775 Y59.193
Z-0.151
G0 Z5.
X42.239 Y59.251
Z1.935
G1 Z-0.144 F200.
Z-0.151
Z-0.161
X41.88 Y58.952
X41.541 Y58.635
X40.949 Y58.04
X40.643 Y57.701
Z-0.151
G0 Z5.
X49.24 Y34.84
Z1.935
G1 Z-0.148 F200.
Z-0.151
X49.241 Z-0.161
X49.858 Y34.772
X50.526 Y34.732
X51.145 Y34.725
X51.75 Y34.746
X52.367 Y34.796
X52.783 Y34.846
Z-0.151
G0 Z5.
X61.353 Y57.714
Z1.935
G1 Z-0.151 F200.
Z-0.161
X61.042 Y58.059
X60.578 Y58.524
X60.247 Y58.849
X59.889 Y59.161
X59.751 Y59.274
Z-0.151
Z-0.15
G0 Z5.
X42.259 Y59.33
Z1.935
G1 Z-0.151 F200.
Z-0.161
X41.849 Y58.987
X41.509 Y58.67
X40.915 Y58.072
X40.569 Y57.687
Z-0.151
G0 Z5.
X49.274 Y34.788
Z1.935
G1 Z-0.145 F200.
Z-0.151
X49.275 Z-0.161
X49.816 Y34.728
X50.369 Y34.691
X50.988 Y34.677
X51.597 Y34.691
X52.215 Y34.733
X52.749 Y34.793
Z-0.151
G0 Z5.
X61.426 Y57.7
Z1.935
G1 Z-0.151 F200.
Z-0.161
X61.117 Y58.049
X60.613 Y58.556
X60.281 Y58.882
X59.921 Y59.196
X59.731 Y59.353
X59.73 Z-0.151
G0 Z5.
X42.273 Y59.404
Z1.935
G1 Z-0.139 F200.
Z-0.151
Z-0.161
X41.817 Y59.023
X41.478 Y58.706
X40.88 Y58.105
X40.569 Y57.76
X40.498 Y57.676
Z-0.151
G0 Z5.
X49.313 Y34.735
Z1.935
G1 Z-0.138 F200.
X49.314 Z-0.151
Z-0.161
X49.95 Y34.669
X50.521 Y34.638
X51.141 Y34.63
X51.754 Y34.651
X52.371 Y34.701
X52.71 Y34.74
Z-0.151
G0 Z5.
X61.498 Y57.688
Z1.935
G1 Z-0.151 F200.
Z-0.161
X61.191 Y58.04
X60.777 Y58.456
X60.428 Y58.808
X60.085 Y59.12
X59.717 Y59.426
Z-0.151
G0 Z5.
X42.284 Y59.475
Z1.935
G1 Z-0.15 F200.
Z-0.151
Z-0.161
X41.786 Y59.058
X41.446 Y58.741
X40.846 Y58.137
X40.534 Y57.793
X40.428 Y57.665
Z-0.151
G0 Z5.
X49.352 Y34.682
Z1.935
G1 Z-0.127 F200.
X49.353 Z-0.151
X49.354 Z-0.161
X49.929 Y34.623
X50.519 Y34.59
X51.138 Y34.583
X51.756 Y34.604
X52.373 Y34.653
X52.671 Y34.687
Z-0.151
Z-0.15
G0 Z5.
X61.565 Y57.681
Z1.935
G1 Z-0.151 F200.
Z-0.161
X61.262 Y58.032
X60.922 Y58.38
X60.463 Y58.84
X60.119 Y59.153
X59.706 Y59.497
Z-0.151
G0 Z5.
X42.295 Y59.546
Z1.935
G1 Z-0.145 F200.
Z-0.151
Z-0.161
X41.754 Y59.094
X41.415 Y58.777
X40.811 Y58.169
X40.5 Y57.825
X40.363 Y57.661
Z-0.151
G0 Z5.
X49.394 Y34.629
Z1.935
G1 Z-0.144 F200.
Z-0.151
X49.395 Z-0.161
X50.063 Y34.566
X50.672 Y34.538
X51.291
X51.912 Y34.566
X52.529 Y34.623
X52.63 Y34.635
Z-0.151
Z-0.15
G0 Z5.
X61.632 Y57.674
Z1.935
G1 Z-0.151 F200.
Z-0.161
X61.326 Y58.032
X61.004 Y58.367
X60.497 Y58.873
X60.154 Y59.186
X59.696 Y59.567
Z-0.151
Z-0.15
G0 Z5.
X42.301 Y59.613
Z1.935
G1 Z-0.151 F200.
Z-0.161
X41.723 Y59.129
X41.383 Y58.812
X40.777 Y58.202
X40.465 Y57.857
X40.3 Y57.657
Z-0.151
G0 Z5.
X49.442 Y34.576
Z1.935
G1 Z-0.144 F200.
Z-0.151
X49.443 Z-0.161
X50.043 Y34.52
X50.67 Y34.491
X51.289
X51.914 Y34.519
X52.582 Y34.581
Z-0.151
G0 Z5.
X61.698 Y57.666
Z1.935
G1 Z-0.151 F200.
Z-0.161
X61.466 Y57.946
X61.151 Y58.287
X60.642 Y58.797
X60.305 Y59.116
X59.691 Y59.633
Z-0.151
G0 Z5.
X42.304 Y59.678
Z1.935
G1 Z-0.151 F200.
Z-0.161
X41.691 Y59.164
X41.352 Y58.848
X40.742 Y58.234
X40.431 Y57.89
X40.237 Y57.654
Z-0.151
G0 Z5.
X49.49 Y34.522
Z1.935
G1 Z-0.151 F200.
X49.493 Z-0.161
X50.023 Y34.474
X50.668 Y34.443
X51.287
X51.916 Y34.471
X52.534 Y34.528
Z-0.151
G0 Z5.
X61.764 Y57.658
Z1.935
G1 Z-0.151 F200.
Z-0.161
X61.503 Y57.975
X61.188 Y58.316
X60.677 Y58.829
X60.34 Y59.149
X59.688 Y59.697
Z-0.151
G0 Z5.
X42.307 Y59.742
Z1.935
G1 Z-0.151 F200.
Z-0.161
X41.66 Y59.2
X41.32 Y58.883
X40.708 Y58.266
X40.396 Y57.922
X40.176 Y57.653
Z-0.151
G0 Z5.
X49.542 Y34.469
Z1.935
G1 Z-0.144 F200.
Z-0.151
X49.543 Z-0.161
X50.157 Y34.417
X50.82 Y34.393
X51.44 Y34.4
X52.073 Y34.435
X52.483 Y34.474
Z-0.151
Z-0.15
G0 Z5.
X61.824 Y57.658
Z1.935
G1 Z-0.145 F200.
Z-0.151
Y57.659 Z-0.161
X61.541 Y58.004
X61.226 Y58.346
X60.711 Y58.862
X60.374 Y59.181
X59.701 Y59.748
X59.685 Y59.761
Z-0.151
G0 Z5.
X42.309 Y59.805
Z1.935
G1 Z-0.151 F200.
Z-0.161
X41.629 Y59.235
X41.289 Y58.919
X40.673 Y58.298
X40.361 Y57.954
X40.118 Y57.656
Z-0.151
G0 Z5.
X49.601 Y34.415
Z1.935
G1 Z-0.139 F200.
Z-0.151
X49.606 Z-0.161
X50.136 Y34.371
X50.818 Y34.346
X51.437 Y34.352
X52.075 Y34.388
X52.424 Y34.42
Z-0.151
Z-0.15
G0 Z5.
X61.88 Y57.664
Z1.935
G1 Z-0.148 F200.
Z-0.151
Z-0.161
X61.578 Y58.033
X61.263 Y58.375
X60.746 Y58.894
X60.409 Y59.214
X59.792 Y59.734
X59.685 Y59.823
Z-0.151
G0 Z5.
X42.306 Y59.864
Z1.935
G1 Z-0.151 F200.
Z-0.161
X41.597 Y59.271
X41.257 Y58.954
X40.639 Y58.331
X40.327 Y57.987
X40.061 Y57.659
Z-0.151
Z-0.15
G0 Z5.
X49.659 Y34.361
Z1.935
G1 Z-0.138 F200.
X49.66 Z-0.151
Z-0.161
X50.27 Y34.316
X50.816 Y34.298
X51.435 Y34.305
X52.077 Y34.34
X52.365 Y34.366
Z-0.151
G0 Z5.
X61.935 Y57.67
Z1.935
G1 Z-0.144 F200.
X61.934 Z-0.151
Y57.671 Z-0.161
X61.615 Y58.063
X61.3 Y58.404
X60.78 Y58.927
X60.444 Y59.246
X59.823 Y59.77
X59.688 Y59.882
Z-0.151
G0 Z5.
X42.303 Y59.923
Z1.935
G1 Z-0.151 F200.
Y59.922 Z-0.161
X41.566 Y59.306
X41.226 Y58.99
X40.604 Y58.363
X40.292 Y58.019
X40.003 Y57.662
Z-0.151
Z-0.15
G0 Z5.
X49.729 Y34.307
Z1.935
G1 Z-0.151 F200.
Z-0.161
X50.35 Y34.264
X50.969 Y34.25
X51.615 Y34.264
X52.297 Y34.312
Z-0.151
G0 Z5.
X61.99 Y57.676
Z1.935
G1 Z-0.138 F200.
Z-0.151
X61.989 Y57.677 Z-0.161
X61.652 Y58.092
X61.338 Y58.434
X60.815 Y58.959
X60.478 Y59.279
X59.854 Y59.806
X59.691 Y59.94
X59.69 Z-0.151
G0 Z5.
X42.3 Y59.981
Z1.935
G1 Z-0.151 F200.
Z-0.161
X41.534 Y59.341
X41.194 Y59.025
X40.57 Y58.395
X40.258 Y58.051
X39.948 Y57.668
Z-0.151
G0 Z5.
X49.801 Y34.253
Z1.935
G1 Z-0.148 F200.
Z-0.151
Z-0.161
X50.348 Y34.217
X50.967 Y34.202
X51.617 Y34.217
X52.225 Y34.257
Z-0.151
Z-0.15
G0 Z5.
X62.045 Y57.682
Z1.935
G1 Z-0.147 F200.
Z-0.151
Z-0.161
X61.789 Y58.004
X61.482 Y58.352
X60.977 Y58.861
X60.627 Y59.207
X60.237 Y59.549
X59.693 Y59.999
Z-0.151
G0 Z5.
X42.295 Y60.038
Z1.935
G1 Z-0.145 F200.
Z-0.151
Z-0.161
X41.503 Y59.377
X41.163 Y59.061
X40.535 Y58.428
X40.223 Y58.084
X39.895 Y57.677
Z-0.151
Z-0.15
G0 Z5.
X49.881 Y34.199
Z1.935
G1 Z-0.138 F200.
X49.882 Z-0.151
Z-0.161
X50.5 Y34.163
X51.119 Y34.156
X51.774 Y34.177
X52.145 Y34.203
Z-0.151
G0 Z5.
X62.099 Y57.689
Z1.935
G1 Z-0.146 F200.
Z-0.151
Z-0.161
X61.826 Y58.033
X61.519 Y58.381
X61.011 Y58.893
X60.662 Y59.239
X60.269 Y59.584
X59.701 Y60.054
Z-0.151
G0 Z5.
X42.287 Y60.092
Z1.935
G1 Z-0.149 F200.
Z-0.151
Z-0.161
X41.589 Y59.513
X41.243 Y59.204
X40.719 Y58.68
X40.395 Y58.347
X40.089 Y57.998
X39.842 Y57.685
Z-0.151
Z-0.15
G0 Z5.
X49.97 Y34.144
Z1.935
G1 Z-0.148 F200.
Z-0.151
Z-0.161
X50.653 Y34.111
X51.272 Y34.11
X51.93 Y34.139
X52.056 Y34.148
Z-0.151
Z-0.15
G0 Z5.
X62.152 Y57.698
Z1.935
G1 Z-0.149 F200.
Z-0.151
Z-0.161
X61.863 Y58.063
X61.556 Y58.411
X61.046 Y58.926
X60.696 Y59.272
X60.3 Y59.619
X59.709 Y60.108
Z-0.151
Z-0.15
G0 Z5.
X42.279 Y60.146
Z1.935
G1 Z-0.148 F200.
Z-0.151
X42.278 Z-0.161
X41.557 Y59.549
X41.211 Y59.239
X40.684 Y58.712
X40.36 Y58.38
X40.054 Y58.03
X39.788 Y57.693
Z-0.151
Z-0.15
G0 Z5.
X50.073 Y34.09
Z1.935
G1 Z-0.144 F200.
Z-0.151
Z-0.161
X50.651 Y34.064
X51.27 Y34.063
X51.955 Y34.093
Z-0.151
G0 Z5.
X62.205 Y57.707
Z1.935
G1 Z-0.146 F200.
Z-0.151
Z-0.161
X61.9 Y58.093
X61.593 Y58.441
X61.081 Y58.958
X60.731 Y59.304
X60.332 Y59.655
X59.717 Y60.163
Z-0.151
Z-0.15
G0 Z5.
X42.27 Y60.2
Z1.935
G1 Z-0.147 F200.
Z-0.151
Z-0.161
X41.526 Y59.584
X41.18 Y59.275
X40.65 Y58.744
X40.326 Y58.412
X40.02 Y58.063
X39.737 Y57.705
Z-0.151
Z-0.15
G0 Z5.
X50.185 Y34.035
Z1.935
G1 Z-0.144 F200.
Z-0.151
Z-0.161
X50.804 Y34.014
X51.423 Y34.019
X51.842 Y34.038
Z-0.151
G0 Z5.
X62.256 Y57.719
Z1.935
G1 Z-0.138 F200.
X62.255 Z-0.151
Y57.72 Z-0.161
X61.937 Y58.122
X61.63 Y58.47
X61.115 Y58.99
X60.765 Y59.337
X60.364 Y59.69
X59.726 Y60.216
Z-0.151
Z-0.15
G0 Z5.
X42.26 Y60.252
Z1.935
G1 Z-0.149 F200.
Z-0.151
Z-0.161
X41.495 Y59.62
X41.149 Y59.31
X40.718 Y58.878
X40.291 Y58.444
X39.985 Y58.095
X39.688 Y57.718
Z-0.151
G0 Z5.
X50.331 Y33.98
Z1.935
G1 Z-0.148 F200.
Z-0.151
Z-0.161
X50.956 Y33.965
X51.627 Y33.98
X51.697 Y33.983
Z-0.151
G0 Z5.
X62.306 Y57.731
Z1.935
G1 Z-0.145 F200.
Z-0.151
Z-0.161
X61.974 Y58.152
X61.667 Y58.5
X61.153 Y59.019
X60.8 Y59.369
X60.395 Y59.725
X59.739 Y60.266
Z-0.151
G0 Z5.
X42.247 Y60.302
Z1.935
G1 Z-0.148 F200.
Z-0.151
Z-0.161
X41.463 Y59.655
X41.117 Y59.346
X40.683 Y58.91
X40.257 Y58.477
X39.951 Y58.127
X39.638 Y57.731
Z-0.151
G0 Z5.
X50.519 Y33.925
Z1.935
G1 Z-0.139 F200.
Z-0.151
X50.52 Z-0.161
X51.109 Y33.918
X51.509 Y33.927
Z-0.151
Z-0.15
G0 Z5.
X62.355 Y57.744
Z1.935
G1 Z-0.151 F200.
Z-0.161
X62.011 Y58.181
X61.704 Y58.529
X61.296 Y58.941
X60.947 Y59.295
X60.605 Y59.609
X59.832 Y60.253
X59.752 Y60.317
Z-0.151
G0 Z5.
X42.234 Y60.353
Z1.935
G1 Z-0.148 F200.
Z-0.151
Z-0.161
X41.551 Y59.79
X41.199 Y59.486
X40.865 Y59.164
X40.328 Y58.622
X40.016 Y58.278
X39.723 Y57.919
X39.588 Y57.744
Z-0.151
Z-0.15
G0 Z5.
X50.896 Y33.871
Z1.935
G1 Z-0.127 F200.
X50.898 Y33.87 Z-0.151
X50.899 Z-0.161
X51.134 Y33.871
Z-0.151
Z-0.15
G0 Z5.
X62.404 Y57.759
Z1.935
G1 Z-0.146 F200.
Z-0.151
Z-0.161
X62.055 Y58.202
X61.749 Y58.551
X61.331 Y58.973
X60.981 Y59.327
X60.64 Y59.642
X59.863 Y60.289
X59.766 Y60.366
Z-0.151
G0 Z5.
X42.221 Y60.403
Z1.935
G1 Z-0.149 F200.
Z-0.151
Z-0.161
X41.615 Y59.903
X41.283 Y59.625
X40.943 Y59.309
X40.294 Y58.654
X39.981 Y58.311
X39.685 Y57.947
X39.541 Y57.759
Z-0.151
Z-0.15
G0 Z5.
X62.453 Y57.773
Z1.935
G1 Z-0.148 F200.
Z-0.151
X62.452 Z-0.161
X62.093 Y58.231
X61.787 Y58.579
X61.365 Y59.006
X61.016 Y59.36
X60.674 Y59.675
X59.894 Y60.325
X59.782 Y60.414
Z-0.151
G0 Z5.
X42.207 Y60.452
Z1.935
G1 Z-0.149 F200.
Z-0.151
Y60.451 Z-0.161
X41.659 Y60.002
X41.252 Y59.66
X40.911 Y59.345
X40.259 Y58.687
X39.947 Y58.343
X39.648 Y57.976
X39.494 Y57.777
Z-0.151
G0 Z5.
X62.501 Y57.788
Z1.935
G1 Z-0.145 F200.
Z-0.151
X62.5 Y57.789 Z-0.161
X62.131 Y58.259
X61.825 Y58.608
X61.4 Y59.038
X61.051 Y59.392
X60.709 Y59.707
X59.925 Y60.361
X59.799 Y60.461
Z-0.151
G0 Z5.
X42.19 Y60.498
Z1.935
G1 Z-0.146 F200.
Z-0.151
X42.189 Z-0.161
X41.627 Y60.037
X41.22 Y59.696
X40.88 Y59.38
X40.225 Y58.719
X39.912 Y58.375
X39.61 Y58.004
X39.448 Y57.794
Z-0.151
Z-0.15
G0 Z5.
X62.549 Y57.803
Z1.935
G1 Z-0.149 F200.
Z-0.151
Z-0.161
X62.169 Y58.287
X61.863 Y58.637
X61.434 Y59.07
X61.085 Y59.425
X60.744 Y59.74
X59.956 Y60.397
X59.815 Y60.509
Z-0.151
G0 Z5.
X42.173 Y60.545
Z1.935
G1 Z-0.146 F200.
Z-0.151
X42.172 Z-0.161
X41.595 Y60.073
X41.189 Y59.731
X40.849 Y59.416
X40.19 Y58.751
X39.878 Y58.408
X39.572 Y58.032
X39.401 Y57.811
Z-0.151
G0 Z5.
X62.597 Y57.818
Z1.935
G1 Z-0.145 F200.
Z-0.151
Z-0.161
X62.207 Y58.316
X61.901 Y58.665
X61.12 Y59.457
X60.779 Y59.772
X59.987 Y60.433
X59.831 Y60.556
Z-0.151
G0 Z5.
X42.156 Y60.592
Z1.935
G1 Z-0.146 F200.
Z-0.151
X42.155 Z-0.161
X41.682 Y60.209
X41.158 Y59.767
X40.817 Y59.451
X40.156 Y58.784
X39.843 Y58.44
X39.534 Y58.061
X39.356 Y57.83
Z-0.151
G0 Z5.
X62.641 Y57.838
Z1.935
G1 Z-0.151 F200.
X62.637 Y57.844 Z-0.161
X62.245 Y58.344
X61.939 Y58.694
X61.154 Y59.49
X60.813 Y59.805
X60.018 Y60.469
X59.847 Y60.604
Z-0.151
G0 Z5.
X42.138 Y60.638
Z1.935
G1 Z-0.147 F200.
Z-0.151
X42.137 Z-0.161
X41.651 Y60.244
X41.126 Y59.802
X40.786 Y59.487
X40.121 Y58.816
X39.809 Y58.473
X39.496 Y58.089
X39.313 Y57.852
Z-0.151
G0 Z5.
X62.684 Y57.86
Z1.935
G1 Z-0.15 F200.
Z-0.151
Z-0.161
X62.282 Y58.373
X61.977 Y58.722
X61.538 Y59.168
X61.077 Y59.629
X60.731 Y59.938
X59.928 Y60.601
X59.867 Y60.649
Z-0.151
G0 Z5.
X42.117 Y60.682
Z1.935
G1 Z-0.149 F200.
Z-0.151
Z-0.161
X41.62 Y60.28
X41.095 Y59.838
X40.754 Y59.522
X40.087 Y58.848
X39.774 Y58.505
X39.458 Y58.117
X39.269 Y57.873
Z-0.151
G0 Z5.
X62.726 Y57.883
Z1.935
G1 Z-0.144 F200.
Y57.884 Z-0.151
X62.725 Y57.885 Z-0.161
X62.32 Y58.401
X62.015 Y58.751
X61.683 Y59.091
X61.224 Y59.554
X60.883 Y59.87
X60.08 Y60.54
X59.887 Y60.693
Z-0.151
G0 Z5.
X42.096 Y60.726
Z1.935
G1 Z-0.146 F200.
Z-0.151
X42.095 Z-0.161
X41.589 Y60.316
X41.064 Y59.873
X40.723 Y59.558
X40.052 Y58.881
X39.74 Y58.537
X39.42 Y58.146
X39.226 Y57.894
Z-0.151
Z-0.15
G0 Z5.
X62.767 Y57.907
Z1.935
G1 Z-0.146 F200.
Z-0.151
Y57.908 Z-0.161
X62.358 Y58.43
X62.053 Y58.779
X61.717 Y59.123
X61.258 Y59.587
X60.917 Y59.902
X60.111 Y60.576
X59.908 Y60.737
Z-0.151
G0 Z5.
X42.075 Y60.769
Z1.935
G1 Z-0.146 F200.
Z-0.151
Z-0.161
X41.549 Y60.344
X41.032 Y59.909
X40.692 Y59.593
X40.018 Y58.913
X39.705 Y58.57
X39.382 Y58.174
X39.183 Y57.916
Z-0.151
Z-0.15
G0 Z5.
X62.809 Y57.931
Z1.935
G1 Z-0.141 F200.
Z-0.151
Z-0.161
X62.396 Y58.458
X62.091 Y58.808
X61.752 Y59.156
X61.293 Y59.619
X60.952 Y59.935
X60.142 Y60.612
X59.929 Y60.781
Z-0.151
G0 Z5.
X42.054 Y60.813
Z1.935
G1 Z-0.146 F200.
Z-0.151
Z-0.161
X41.516 Y60.378
X41.001 Y59.944
X40.66 Y59.629
X39.983 Y58.946
X39.671 Y58.602
X39.344 Y58.202
X39.142 Y57.941
Z-0.151
G0 Z5.
X62.851 Y57.954
Z1.935
G1 Z-0.147 F200.
Z-0.151
Z-0.161
X62.434 Y58.487
X62.129 Y58.837
X61.786 Y59.188
X61.327 Y59.651
X60.987 Y59.967
X60.173 Y60.648
X59.953 Y60.822
Z-0.151
G0 Z5.
X42.03 Y60.854
Z1.935
G1 Z-0.148 F200.
Z-0.151
X42.029 Z-0.161
X41.483 Y60.413
X40.97 Y59.98
X40.629 Y59.664
X39.949 Y58.978
X39.636 Y58.635
X39.306 Y58.231
X39.102 Y57.966
Z-0.151
G0 Z5.
X62.893 Y57.977
Z1.935
G1 Z-0.138 F200.
Z-0.151
X62.892 Y57.978 Z-0.161
X62.472 Y58.515
X62.167 Y58.865
X61.821 Y59.221
X61.362 Y59.684
X61.022 Y60.
X60.324 Y60.586
X59.977 Y60.864
Z-0.151
Z-0.15
G0 Z5.
X42.005 Y60.895
Z1.935
G1 Z-0.146 F200.
Z-0.151
Y60.894 Z-0.161
X41.451 Y60.447
X40.938 Y60.015
X40.597 Y59.7
X39.915 Y59.01
X39.602 Y58.667
X39.269 Y58.259
X39.061 Y57.991
Z-0.151
G0 Z5.
X62.934 Y58.002
Z1.935
G1 Z-0.145 F200.
Z-0.151
X62.933 Z-0.161
X62.51 Y58.543
X62.205 Y58.894
X61.855 Y59.253
X61.397 Y59.716
X61.056 Y60.032
X60.355 Y60.622
X60.001 Y60.905
Z-0.151
Z-0.15
G0 Z5.
X41.98 Y60.935
Z1.935
G1 Z-0.145 F200.
Z-0.151
Z-0.161
X41.418 Y60.482
X40.907 Y60.051
X40.566 Y59.736
X39.88 Y59.043
X39.567 Y58.699
X39.231 Y58.287
X39.021 Y58.016
Z-0.151
G0 Z5.
X62.973 Y58.028
Z1.935
G1 Z-0.127 F200.
X62.972 Y58.029 Z-0.151
X62.971 Y58.03 Z-0.161
X62.547 Y58.572
X62.243 Y58.922
X61.89 Y59.285
X61.431 Y59.749
X61.091 Y60.065
X60.386 Y60.658
X60.025 Y60.946
Z-0.151
Z-0.15
G0 Z5.
X41.956 Y60.976
Z1.935
G1 Z-0.151 F200.
Z-0.161
X41.385 Y60.516
X40.876 Y60.086
X40.535 Y59.771
X39.846 Y59.075
X39.533 Y58.732
X39.193 Y58.316
X38.983 Y58.044
Z-0.151
Z-0.15
G0 Z5.
X63.011 Y58.057
Z1.935
G1 Z-0.149 F200.
Z-0.151
Z-0.161
X62.585 Y58.6
X62.281 Y58.951
X61.925 Y59.318
X61.466 Y59.781
X61.126 Y60.097
X60.417 Y60.694
X60.052 Y60.985
Z-0.151
Z-0.15
G0 Z5.
X41.929 Y61.015
Z1.935
G1 Z-0.148 F200.
Z-0.151
Z-0.161
X41.444 Y60.627
X40.844 Y60.122
X40.503 Y59.807
X39.811 Y59.108
X39.498 Y58.764
X39.155 Y58.344
X38.945 Y58.073
Z-0.151
Z-0.15
G0 Z5.
X63.048 Y58.086
Z1.935
G1 Z-0.148 F200.
Z-0.151
Z-0.161
X62.623 Y58.629
X62.319 Y58.979
X61.959 Y59.35
X61.501 Y59.813
X61.161 Y60.13
X60.449 Y60.73
X60.08 Y61.024
Z-0.151
G0 Z5.
X41.901 Y61.053
Z1.935
G1 Z-0.148 F200.
Z-0.151
Z-0.161
X41.416 Y60.665
X40.813 Y60.157
X40.472 Y59.842
X39.777 Y59.14
X39.464 Y58.797
X39.117 Y58.372
X38.908 Y58.101
Z-0.151
G0 Z5.
X63.085 Y58.116
Z1.935
G1 Z-0.139 F200.
Z-0.151
X63.084 Z-0.161
X62.661 Y58.657
X62.357 Y59.008
X61.994 Y59.383
X61.535 Y59.846
X61.195 Y60.162
X60.48 Y60.766
X60.107 Y61.063
Z-0.151
G0 Z5.
X41.872 Y61.091
Z1.935
G1 Z-0.149 F200.
Z-0.151
Z-0.161
X41.387 Y60.704
X40.782 Y60.193
X40.44 Y59.878
X39.742 Y59.172
X39.43 Y58.829
X39.079 Y58.401
X38.87 Y58.13
Z-0.151
Z-0.15
G0 Z5.
X63.121 Y58.146
Z1.935
G1 Z-0.147 F200.
Z-0.151
Z-0.161
X62.699 Y58.685
X62.395 Y59.036
X62.028 Y59.415
X61.57 Y59.878
X61.23 Y60.195
X60.511 Y60.801
X60.134 Y61.102
Z-0.151
G0 Z5.
X41.844 Y61.129
Z1.935
G1 Z-0.149 F200.
Z-0.151
Z-0.161
X41.359 Y60.742
X40.75 Y60.228
X40.409 Y59.913
X39.708 Y59.205
X39.395 Y58.862
X39.041 Y58.429
X38.834 Y58.161
Z-0.151
Z-0.15
G0 Z5.
X63.157 Y58.176
Z1.935
G1 Z-0.145 F200.
Z-0.151
Y58.177 Z-0.161
X62.737 Y58.714
X62.433 Y59.065
X62.063 Y59.447
X61.605 Y59.91
X61.265 Y60.227
X60.542 Y60.837
X60.165 Y61.138
Z-0.151
G0 Z5.
X41.815 Y61.167
Z1.935
G1 Z-0.144 F200.
Y61.166 Z-0.151
Z-0.161
X41.27 Y60.729
X40.719 Y60.264
X40.378 Y59.949
X39.673 Y59.237
X39.361 Y58.894
X39.003 Y58.457
X38.799 Y58.193
Z-0.151
Z-0.15
G0 Z5.
X63.193 Y58.207
Z1.935
G1 Z-0.149 F200.
Z-0.151
Y58.208 Z-0.161
X62.775 Y58.742
X62.471 Y59.093
X62.097 Y59.48
X61.639 Y59.943
X61.3 Y60.259
X60.573 Y60.873
X60.196 Y61.174
Z-0.151
G0 Z5.
X41.783 Y61.202
Z1.935
G1 Z-0.139 F200.
Z-0.151
Y61.201 Z-0.161
X41.249 Y60.773
X40.688 Y60.299
X40.346 Y59.984
X39.747 Y59.381
X39.429 Y59.043
X39.127 Y58.69
X38.764 Y58.225
Z-0.151
G0 Z5.
X63.228 Y58.24
Z1.935
G1 Z-0.139 F200.
Z-0.151
X63.227 Y58.241 Z-0.161
X62.813 Y58.771
X62.509 Y59.122
X62.132 Y59.512
X61.674 Y59.975
X61.335 Y60.292
X60.604 Y60.909
X60.227 Y61.21
Z-0.151
Z-0.15
G0 Z5.
X41.751 Y61.237
Z1.935
G1 Z-0.145 F200.
Z-0.151
Z-0.161
X41.228 Y60.818
X40.656 Y60.335
X40.315 Y60.02
X39.712 Y59.413
X39.394 Y59.075
X39.092 Y58.722
X38.729 Y58.257
Z-0.151
G0 Z5.
X63.262 Y58.273
Z1.935
G1 Z-0.15 F200.
Z-0.151
Z-0.161
X62.851 Y58.799
X62.547 Y59.15
X62.166 Y59.545
X61.709 Y60.007
X61.369 Y60.324
X60.635 Y60.945
X60.257 Y61.246
Z-0.151
G0 Z5.
X41.72 Y61.272
Z1.935
G1 Z-0.144 F200.
X41.719 Z-0.151
Z-0.161
X41.207 Y60.862
X40.625 Y60.37
X40.284 Y60.056
X39.678 Y59.446
X39.36 Y59.107
X39.058 Y58.755
X38.695 Y58.29
Z-0.151
Z-0.15
G0 Z5.
X63.297 Y58.306
Z1.935
G1 Z-0.145 F200.
Z-0.151
X63.296 Z-0.161
X62.889 Y58.827
X62.585 Y59.178
X62.201 Y59.577
X61.743 Y60.04
X61.404 Y60.357
X60.666 Y60.981
X60.292 Y61.279
Y61.28 Z-0.151
G0 Z5.
X41.689 Y61.309
Z1.935
G1 Z-0.126 F200.
X41.688 Y61.308 Z-0.151
X41.687 Y61.307 Z-0.161
X41.186 Y60.906
X40.594 Y60.406
X40.252 Y60.091
X39.644 Y59.478
X39.325 Y59.14
X39.023 Y58.787
X38.663 Y58.326
Z-0.151
G0 Z5.
X63.331 Y58.339
Z1.935
G1 Z-0.151 F200.
X63.33 Y58.34 Z-0.161
X62.927 Y58.856
X62.623 Y59.207
X62.235 Y59.609
X61.778 Y60.072
X61.439 Y60.389
X60.697 Y61.017
X60.327 Y61.312
Z-0.151
Z-0.15
G0 Z5.
X41.653 Y61.34
Z1.935
G1 Z-0.139 F200.
X41.652 Z-0.151
Z-0.161
X41.166 Y60.951
X40.563 Y60.441
X40.221 Y60.127
X39.609 Y59.511
X39.291 Y59.172
X38.989 Y58.82
X38.631 Y58.362
Z-0.151
Z-0.15
G0 Z5.
X63.362 Y58.375
Z1.935
G1 Z-0.148 F200.
Z-0.151
Z-0.161
X62.965 Y58.884
X62.661 Y59.235
X62.27 Y59.642
X61.813 Y60.104
X61.474 Y60.422
X60.728 Y61.052
X60.362 Y61.346
Z-0.151
G0 Z5.
X41.617 Y61.373
Z1.935
G1 Z-0.145 F200.
Z-0.151
Z-0.161
X41.145 Y60.995
X40.531 Y60.477
X40.19 Y60.162
X39.575 Y59.543
X39.256 Y59.205
X38.954 Y58.852
X38.598 Y58.397
Z-0.151
Z-0.15
G0 Z5.
X63.394 Y58.412
Z1.935
G1 Z-0.146 F200.
Z-0.151
Z-0.161
X63.002 Y58.912
X62.699 Y59.264
X62.304 Y59.674
X61.847 Y60.137
X61.509 Y60.454
X60.759 Y61.088
X60.396 Y61.379
Z-0.151
Z-0.15
G0 Z5.
X41.582 Y61.405
Z1.935
G1 Z-0.151 F200.
X41.58 Y61.404 Z-0.161
X40.994 Y60.93
X40.5 Y60.513
X40.158 Y60.198
X39.54 Y59.575
X39.222 Y59.237
X38.92 Y58.885
X38.566 Y58.433
Z-0.151
G0 Z5.
X63.425 Y58.449
Z1.935
G1 Z-0.138 F200.
Z-0.151
Y58.45 Z-0.161
X63.04 Y58.941
X62.737 Y59.292
X62.339 Y59.707
X61.882 Y60.169
X61.543 Y60.486
X60.79 Y61.124
X60.433 Y61.411
Z-0.151
G0 Z5.
X41.546 Y61.438
Z1.935
G1 Z-0.144 F200.
Z-0.151
Z-0.161
X40.963 Y60.966
X40.469 Y60.548
X40.127 Y60.233
X39.506 Y59.608
X39.188 Y59.27
X38.885 Y58.917
X38.537 Y58.473
Z-0.151
G0 Z5.
X63.456 Y58.486
Z1.935
G1 Z-0.144 F200.
Z-0.151
Z-0.161
X63.078 Y58.969
X62.775 Y59.321
X62.373 Y59.739
X61.917 Y60.201
X61.578 Y60.519
X60.821 Y61.16
X60.47 Y61.442
Z-0.151
Z-0.15
G0 Z5.
X41.508 Y61.468
Z1.935
G1 Z-0.144 F200.
Z-0.151
Z-0.161
X40.932 Y61.002
X40.437 Y60.584
X40.096 Y60.269
X39.471 Y59.64
X39.153 Y59.302
X38.851 Y58.95
X38.508 Y58.512
Z-0.151
G0 Z5.
X63.485 Y58.526
Z1.935
G1 Z-0.139 F200.
Y58.527 Z-0.151
X63.484 Z-0.161
X63.116 Y58.997
X62.813 Y59.349
X62.494 Y59.686
X61.952 Y60.233
X61.613 Y60.551
X60.971 Y61.097
X60.507 Y61.473
Z-0.151
Z-0.15
G0 Z5.
X41.469 Y61.498
Z1.935
G1 Z-0.145 F200.
Z-0.151
X41.468 Z-0.161
X40.901 Y61.038
X40.406 Y60.619
X40.065 Y60.305
X39.437 Y59.673
X39.119 Y59.335
X38.816 Y58.982
X38.479 Y58.552
Z-0.151
G0 Z5.
X63.513 Y58.567
Z1.935
G1 Z-0.145 F200.
Z-0.151
Z-0.161
X63.154 Y59.026
X62.851 Y59.377
X62.532 Y59.715
X61.986 Y60.266
X61.648 Y60.584
X61.002 Y61.133
X60.545 Y61.504
Z-0.151
Z-0.15
G0 Z5.
X41.43 Y61.528
Z1.935
G1 Z-0.138 F200.
X41.429 Y61.527 Z-0.151
Z-0.161
X40.87 Y61.074
X40.375 Y60.655
X40.033 Y60.34
X39.403 Y59.705
X39.084 Y59.367
X38.782 Y59.015
X38.449 Y58.592
Z-0.151
G0 Z5.
X63.542 Y58.608
Z1.935
G1 Z-0.144 F200.
Z-0.151
X63.541 Z-0.161
X63.192 Y59.054
X62.889 Y59.406
X62.57 Y59.743
X62.021 Y60.298
X61.683 Y60.616
X61.033 Y61.168
X60.584 Y61.533
Z-0.151
G0 Z5.
X41.391 Y61.558
Z1.935
G1 Z-0.127 F200.
X41.39 Y61.557 Z-0.151
X41.389 Y61.556 Z-0.161
X40.839 Y61.11
X40.344 Y60.69
X40.002 Y60.376
X39.368 Y59.738
X39.05 Y59.4
X38.747 Y59.047
X38.423 Y58.635
Z-0.151
Z-0.15
G0 Z5.
X63.57 Y58.649
Z1.935
G1 Z-0.151 F200.
X63.568 Y58.651 Z-0.161
X63.23 Y59.082
X62.927 Y59.434
X62.608 Y59.772
X62.056 Y60.33
X61.717 Y60.648
X61.065 Y61.204
X60.625 Y61.561
Z-0.151
G0 Z5.
X41.35 Y61.586
Z1.935
G1 Z-0.126 F200.
X41.349 Y61.585 Z-0.151
X41.348 Y61.584 Z-0.161
X40.808 Y61.146
X40.312 Y60.726
X39.971 Y60.411
X39.334 Y59.77
X39.016 Y59.432
X38.713 Y59.08
X38.397 Y58.678
Z-0.151
G0 Z5.
X63.596 Y58.693
Z1.935
G1 Z-0.146 F200.
Z-0.151
X63.595 Z-0.161
X63.268 Y59.111
X62.965 Y59.463
X62.647 Y59.8
X62.09 Y60.363
X61.752 Y60.681
X61.096 Y61.24
X60.665 Y61.59
Z-0.151
Z-0.15
G0 Z5.
X41.306 Y61.611
Z1.935
G1 Z-0.144 F200.
X41.305 Z-0.151
Z-0.161
X40.777 Y61.182
X40.281 Y60.762
X39.939 Y60.447
X39.299 Y59.803
X38.981 Y59.465
X38.678 Y59.113
X38.37 Y58.722
Z-0.151
G0 Z5.
X63.621 Y58.737
Z1.935
G1 Z-0.138 F200.
Z-0.151
Y58.738 Z-0.161
X63.306 Y59.139
X63.004 Y59.491
X62.685 Y59.829
X62.125 Y60.395
X61.787 Y60.713
X61.127 Y61.276
X60.709 Y61.616
Z-0.151
G0 Z5.
X41.263 Y61.638
Z1.935
G1 Z-0.138 F200.
X41.262 Z-0.151
Y61.637 Z-0.161
X40.746 Y61.218
X40.25 Y60.797
X39.908 Y60.483
X39.265 Y59.835
X38.947 Y59.497
X38.644 Y59.145
X38.344 Y58.765
Z-0.151
G0 Z5.
X63.647 Y58.782
Z1.935
G1 Z-0.144 F200.
Z-0.151
X63.646 Z-0.161
X63.245 Y59.286
X62.937 Y59.634
X62.377 Y60.207
X62.049 Y60.535
X61.706 Y60.848
X60.919 Y61.509
X60.753 Y61.642
Z-0.151
G0 Z5.
X41.219 Y61.664
Z1.935
G1 Z-0.144 F200.
Z-0.151
Z-0.161
X40.715 Y61.253
X40.219 Y60.833
X39.877 Y60.518
X39.231 Y59.868
X38.912 Y59.529
X38.609 Y59.178
X38.321 Y58.812
Z-0.151
G0 Z5.
X63.672 Y58.827
Z1.935
G1 Z-0.139 F200.
Z-0.151
X63.669 Y58.831 Z-0.161
X63.283 Y59.314
X62.975 Y59.662
X62.412 Y60.239
X62.084 Y60.567
X61.741 Y60.881
X60.95 Y61.545
X60.797 Y61.668
Z-0.151
Z-0.15
G0 Z5.
X41.174 Y61.689
Z1.935
G1 Z-0.145 F200.
Z-0.151
Z-0.161
X40.566 Y61.189
X40.072 Y60.765
X39.735 Y60.446
X39.089 Y59.789
X38.775 Y59.446
X38.477 Y59.09
X38.298 Y58.86
Z-0.151
Z-0.15
G0 Z5.
X63.694 Y58.876
Z1.935
G1 Z-0.144 F200.
Z-0.151
Z-0.161
X63.321 Y59.343
X63.014 Y59.69
X62.447 Y60.271
X62.118 Y60.599
X61.776 Y60.913
X60.981 Y61.581
X60.841 Y61.693
Z-0.151
Z-0.15
G0 Z5.
X41.127 Y61.712
Z1.935
G1 Z-0.139 F200.
X41.126 Z-0.151
Z-0.161
X40.535 Y61.225
X40.041 Y60.801
X39.703 Y60.482
X39.054 Y59.821
X38.741 Y59.479
X38.443 Y59.123
X38.275 Y58.908
Z-0.151
G0 Z5.
X63.716 Y58.924
Z1.935
G1 Z-0.149 F200.
Z-0.151
Z-0.161
X63.359 Y59.371
X63.052 Y59.719
X62.507 Y60.277
X62.153 Y60.632
X61.811 Y60.945
X61.012 Y61.617
X60.886 Y61.718
Z-0.151
G0 Z5.
X41.079 Y61.735
Z1.935
G1 Z-0.145 F200.
Z-0.151
Z-0.161
X40.445 Y61.211
X40.009 Y60.836
X39.672 Y60.517
X39.02 Y59.854
X38.707 Y59.511
X38.408 Y59.155
X38.252 Y58.956
Z-0.151
G0 Z5.
X63.739 Y58.972
Z1.935
G1 Z-0.138 F200.
Y58.973 Z-0.151
X63.738 Z-0.161
X63.397 Y59.399
X63.09 Y59.747
X62.542 Y60.31
X62.188 Y60.664
X61.846 Y60.978
X61.043 Y61.652
X60.934 Y61.74
Z-0.151
G0 Z5.
X41.033 Y61.759
Z1.935
G1 Z-0.126 F200.
X41.032 Y61.758 Z-0.151
X41.031 Y61.757 Z-0.161
X40.329 Y61.176
X39.978 Y60.872
X39.641 Y60.553
X38.985 Y59.886
X38.672 Y59.544
X38.374 Y59.188
X38.233 Y59.008
Z-0.151
G0 Z5.
X63.757 Y59.027
Z1.935
G1 Z-0.146 F200.
Z-0.151
Z-0.161
X63.435 Y59.427
X63.128 Y59.776
X62.677 Y60.238
X62.223 Y60.696
X61.881 Y61.01
X61.074 Y61.688
X60.981 Y61.763
Z-0.151
Z-0.15
G0 Z5.
X40.982 Y61.779
Z1.935
G1 Z-0.138 F200.
X40.981 Z-0.151
Y61.778 Z-0.161
X40.298 Y61.212
X39.947 Y60.908
X39.61 Y60.589
X38.951 Y59.919
X38.638 Y59.576
X38.339 Y59.22
X38.214 Y59.061
Z-0.151
Z-0.15
G0 Z5.
X63.776 Y59.08
Z1.935
G1 Z-0.128 F200.
X63.775 Y59.081 Z-0.151
X63.774 Z-0.161
X63.473 Y59.456
X63.166 Y59.804
X62.712 Y60.27
X62.258 Y60.728
X61.916 Y61.043
X61.105 Y61.724
X61.035 Y61.781
Z-0.151
G0 Z5.
X40.93 Y61.798
Z1.935
G1 Z-0.139 F200.
Z-0.151
X40.929 Z-0.161
X40.148 Y61.148
X39.802 Y60.838
X39.37 Y60.413
X38.811 Y59.839
X38.502 Y59.492
X38.195 Y59.114
Z-0.151
G0 Z5.
X63.794 Y59.134
Z1.935
G1 Z-0.145 F200.
Z-0.151
X63.793 Z-0.161
X63.511 Y59.484
X63.204 Y59.832
X62.746 Y60.303
X62.292 Y60.761
X61.834 Y61.176
X61.089 Y61.798
Z-0.151
G0 Z5.
X40.878 Y61.817
Z1.935
G1 Z-0.145 F200.
Z-0.151
X40.877 Z-0.161
X40.117 Y61.183
X39.658 Y60.768
X39.099 Y60.205
X38.776 Y59.871
X38.468 Y59.524
X38.176 Y59.167
Z-0.151
G0 Z5.
X63.812 Y59.188
Z1.935
G1 Z-0.145 F200.
Z-0.151
Z-0.161
X63.449 Y59.63
X63.137 Y59.974
X62.438 Y60.685
X61.985 Y61.107
X61.144 Y61.815
Z-0.151
Z-0.15
G0 Z5.
X40.826 Y61.837
Z1.935
G1 Z-0.139 F200.
Y61.836 Z-0.151
X40.822 Y61.833 Z-0.161
X40.086 Y61.219
X39.627 Y60.803
X39.065 Y60.237
X38.742 Y59.904
X38.433 Y59.557
X38.162 Y59.225
Z-0.151
Z-0.15
G0 Z5.
X63.83 Y59.242
Z1.935
G1 Z-0.148 F200.
Z-0.151
X63.829 Z-0.161
X63.534 Y59.603
X63.225 Y59.949
X62.582 Y60.608
X62.136 Y61.036
X61.577 Y61.517
X61.199 Y61.831
Z-0.151
Z-0.15
G0 Z5.
X40.769 Y61.852
Z1.935
G1 Z-0.145 F200.
Z-0.151
Z-0.161
X40.055 Y61.255
X39.596 Y60.839
X39.03 Y60.27
X38.603 Y59.822
X38.201 Y59.351
X38.147 Y59.283
Z-0.151
G0 Z5.
X63.845 Y59.298
Z1.935
G1 Z-0.127 F200.
Y59.299 Z-0.151
X63.844 Y59.3 Z-0.161
X63.525 Y59.686
X63.213 Y60.031
X62.508 Y60.749
X62.055 Y61.172
X61.254 Y61.848
Z-0.151
Z-0.15
G0 Z5.
X40.711 Y61.867
Z1.935
G1 Z-0.151 F200.
X40.709 Y61.865 Z-0.161
X39.906 Y61.189
X39.453 Y60.767
X38.779 Y60.081
X38.365 Y59.622
X38.132 Y59.34
Z-0.151
G0 Z5.
X63.859 Y59.357
Z1.935
G1 Z-0.15 F200.
Z-0.151
Z-0.161
X63.563 Y59.715
X63.252 Y60.059
X62.542 Y60.782
X62.09 Y61.204
X61.311 Y61.863
Z-0.151
G0 Z5.
X40.653 Y61.882
Z1.935
G1 Z-0.151 F200.
X40.651 Y61.88 Z-0.161
X39.875 Y61.224
X39.422 Y60.803
X38.745 Y60.114
X38.33 Y59.654
X38.121 Y59.402
Z-0.151
Z-0.15
G0 Z5.
X63.872 Y59.417
Z1.935
G1 Z-0.127 F200.
X63.871 Y59.418 Z-0.151
X63.87 Y59.419 Z-0.161
X63.499 Y59.859
X63.183 Y60.199
X62.577 Y60.814
X62.125 Y61.237
X61.37 Y61.876
Z-0.151
Z-0.15
G0 Z5.
X40.594 Y61.895
Z1.935
G1 Z-0.139 F200.
X40.593 Y61.894 Z-0.151
X40.59 Y61.891 Z-0.161
X39.844 Y61.26
X39.391 Y60.838
X38.711 Y60.147
X38.296 Y59.687
X38.111 Y59.465
Z-0.151
Z-0.15
G0 Z5.
X63.881 Y59.482
Z1.935
G1 Z-0.144 F200.
X63.88 Z-0.151
Z-0.161
X63.537 Y59.888
X63.221 Y60.228
X62.612 Y60.846
X62.16 Y61.269
X61.429 Y61.888
Z-0.151
Z-0.15
G0 Z5.
X40.531 Y61.904
Z1.935
G1 Z-0.145 F200.
Z-0.151
Z-0.161
X39.813 Y61.296
X39.36 Y60.874
X38.676 Y60.179
X38.261 Y59.719
X38.102 Y59.528
Z-0.151
Z-0.15
G0 Z5.
X63.89 Y59.546
Z1.935
G1 Z-0.145 F200.
Z-0.151
Z-0.161
X63.575 Y59.916
X63.259 Y60.256
X62.647 Y60.878
X62.195 Y61.301
X61.491 Y61.898
Z-0.151
Z-0.15
G0 Z5.
X40.468 Y61.914
Z1.935
G1 Z-0.147 F200.
Z-0.151
Z-0.161
X39.782 Y61.331
X39.328 Y60.91
X38.642 Y60.212
X38.227 Y59.752
X38.094 Y59.593
Z-0.151
G0 Z5.
X63.897 Y59.612
Z1.935
G1 Z-0.144 F200.
Z-0.151
X63.896 Z-0.161
X63.51 Y60.059
X63.131 Y60.453
X62.571 Y61.018
X62.113 Y61.436
X61.554 Y61.908
Z-0.151
G0 Z5.
X40.405 Y61.923
Z1.935
G1 Z-0.145 F200.
Z-0.151
Y61.922 Z-0.161
X39.751 Y61.367
X39.297 Y60.945
X38.608 Y60.244
X38.193 Y59.785
X38.09 Y59.663
Z-0.151
G0 Z5.
X63.9 Y59.682
Z1.935
G1 Z-0.145 F200.
Z-0.151
Y59.683 Z-0.161
X63.548 Y60.087
X63.165 Y60.486
X62.606 Y61.051
X62.148 Y61.468
X61.621 Y61.914
Z-0.151
Z-0.15
G0 Z5.
X40.335 Y61.926
Z1.935
G1 Z-0.144 F200.
Z-0.151
Z-0.161
X39.719 Y61.403
X39.266 Y60.981
X38.573 Y60.277
X38.158 Y59.817
X38.087 Y59.733
Z-0.151
Z-0.15
G0 Z5.
X63.905 Y59.751
Z1.935
G1 Z-0.127 F200.
X63.904 Y59.752 Z-0.151
X63.903 Y59.753 Z-0.161
X63.586 Y60.116
X63.2 Y60.518
X62.641 Y61.083
X62.183 Y61.5
X61.688 Y61.92
Z-0.151
G0 Z5.
X40.266 Y61.93
Z1.935
G1 Z-0.143 F200.
Z-0.151
Y61.929 Z-0.161
X39.688 Y61.438
X39.235 Y61.017
X38.539 Y60.309
X38.124 Y59.85
X38.084 Y59.803
Z-0.151
Z-0.15
G0 Z5.
X63.904 Y59.825
Z1.935
G1 Z-0.138 F200.
Z-0.151
Y59.826 Z-0.161
X63.519 Y60.258
X62.786 Y61.007
X62.335 Y61.431
X61.754 Y61.926
Z-0.151
G0 Z5.
X40.197 Y61.933
Z1.935
G1 Z-0.147 F200.
Z-0.151
Z-0.161
X39.542 Y61.371
X39.094 Y60.944
X38.399 Y60.229
X38.088 Y59.881
Z-0.151
Z-0.15
G0 Z5.
X63.901 Y59.902
Z1.935
G1 Z-0.127 F200.
X63.9 Y59.903 Z-0.151
X63.899 Y59.904 Z-0.161
X63.558 Y60.286
X62.821 Y61.039
X62.37 Y61.463
X61.826 Y61.927
Z-0.151
G0 Z5.
X40.119 Y61.929
Z1.935
G1 Z-0.144 F200.
Z-0.151
X40.118 Z-0.161
X39.511 Y61.407
X39.062 Y60.979
X38.364 Y60.261
X38.092 Y59.958
Z-0.151
Z-0.15
G0 Z5.
X63.896 Y59.98
Z1.935
G1 Z-0.144 F200.
Z-0.151
Z-0.161
X63.489 Y60.427
X62.856 Y61.071
X62.405 Y61.495
X61.908 Y61.92
Z-0.151
G0 Z5.
X40.041 Y61.925
Z1.935
G1 Z-0.148 F200.
Z-0.151
Z-0.161
X39.479 Y61.442
X39.031 Y61.015
X38.33 Y60.294
X38.099 Y60.037
Z-0.151
G0 Z5.
X63.887 Y60.063
Z1.935
G1 Z-0.145 F200.
X63.886 Z-0.151
Y60.064 Z-0.161
X63.528 Y60.455
X62.891 Y61.103
X62.44 Y61.527
X61.99 Y61.912
Z-0.151
G0 Z5.
X39.96 Y61.919
Z1.935
G1 Z-0.151 F200.
Z-0.161
X39.448 Y61.478
X39. Y61.051
X38.296 Y60.327
X38.112 Y60.124
Z-0.151
Z-0.15
G0 Z5.
X63.874 Y60.15
Z1.935
G1 Z-0.144 F200.
Z-0.151
X63.873 Z-0.161
X63.458 Y60.594
X62.815 Y61.244
X62.359 Y61.662
X62.076 Y61.902
Z-0.151
G0 Z5.
X39.87 Y61.905
Z1.935
G1 Z-0.147 F200.
Z-0.151
Z-0.161
X39.417 Y61.514
X38.969 Y61.087
X38.261 Y60.359
X38.125 Y60.209
Z-0.151
G0 Z5.
X63.857 Y60.24
Z1.935
G1 Z-0.138 F200.
X63.856 Z-0.151
Z-0.161
X63.496 Y60.623
X62.85 Y61.276
X62.394 Y61.694
X62.166 Y61.888
Z-0.151
G0 Z5.
X39.78 Y61.891
Z1.935
G1 Z-0.151 F200.
Z-0.161
X39.386 Y61.549
X38.937 Y61.122
X38.227 Y60.392
X38.148 Y60.305
Z-0.151
Z-0.15
G0 Z5.
X63.831 Y60.338
Z1.935
G1 Z-0.139 F200.
Y60.339 Z-0.151
X63.828 Y60.342 Z-0.161
X63.441 Y60.746
X62.885 Y61.308
X62.429 Y61.727
X62.266 Y61.865
Z-0.151
G0 Z5.
X39.675
Z1.935
G1 Z-0.145 F200.
Y61.864 Z-0.151
Z-0.161
X39.241 Y61.48
X38.798 Y61.048
X38.172 Y60.402
Z-0.151
G0 Z5.
X63.795 Y60.448
Z1.935
G1 Z-0.144 F200.
Z-0.151
Z-0.161
X63.139 Y61.122
X62.694 Y61.552
X62.374 Y61.836
Z-0.151
Z-0.15
G0 Z5.
X39.569
Z1.935
G1 Z-0.148 F200.
Z-0.151
Z-0.161
X39.107 Y61.42
X38.665 Y60.979
X38.209 Y60.511
Z-0.151
G0 Z5.
X63.758 Y60.557
Z1.935
G1 Z-0.138 F200.
X63.757 Z-0.151
Z-0.161
X63.065 Y61.264
X62.615 Y61.689
X62.486 Y61.802
Y61.803 Z-0.151
Z-0.15
G0 Z5.
X39.442 Y61.79
Z1.935
G1 Z-0.144 F200.
Z-0.151
Y61.789 Z-0.161
X39.066 Y61.446
X38.63 Y61.011
X38.249 Y60.622
Z-0.151
G0 Z5.
X63.71 Y60.674
Z1.935
G1 Z-0.144 F200.
Y60.675 Z-0.151
Z-0.161
X62.989 Y61.404
X62.597 Y61.767
Z-0.151
Z-0.15
G0 Z5.
X39.302 Y61.729
Z1.935
G1 Z-0.148 F200.
Z-0.151
Z-0.161
X38.85 Y61.303
X38.313 Y60.756
Z-0.151
G0 Z5.
X63.642 Y60.812
Z1.935
G1 Z-0.144 F200.
Z-0.151
Z-0.161
X63.024 Y61.436
X62.759 Y61.686
Z-0.151
G0 Z5.
X39.132 Y61.638
Z1.935
G1 Z-0.144 F200.
Z-0.151
Z-0.161
X38.673 Y61.191
X38.398 Y60.909
Z-0.151
G0 Z5.
X63.537 Y60.984
Z1.935
G1 Z-0.151 F200.
Z-0.161
X63.003 Y61.522
X62.955 Y61.568
Z-0.151
G0 Z5.
X38.874 Y61.459
Z1.935
G1 Z-0.138 F200.
Z-0.151
Z-0.161
X38.56 Y61.144
Z-0.151
G0 Z15.

G53 Z0.
M30
