(1001)
(T1  D=1. CR=0. - ZMIN=-3.521 - FLAT END MILL)
G0 G90 G94 G17
G21
G53 G0 Z0.

(1MM  FLATEND  HORIZONTAL)
M5
M9
T1
S12000 M3
G4 P4.
G55
G0 X51.958 Y79.253
Z15.
Z-2.221
G1 Z-3.116 F200.
X51.959 Y79.255 Z-3.135 F17.
X51.961 Y79.26 Z-3.154
X51.964 Y79.268 Z-3.171
X51.967 Y79.28 Z-3.186
X51.971 Y79.294 Z-3.198
X51.976 Y79.31 Z-3.207
X51.979 Y79.328 Z-3.214
X51.983 Y79.346 Z-3.216
G3 X51.044 Y79.492 Z-3.268 I-0.469 J0.073
X51.983 Y79.346 Z-3.32 I0.469 J-0.073
X51.044 Y79.492 Z-3.372 I-0.469 J0.073
X51.958 Y79.251 Z-3.421 I0.469 J-0.073
X51.514 Y79.42 I-0.222 J0.084
G1 X51.513 Y79.418
G2 X51.206 Y79.28 I-0.222 J0.084
X51.069 Y79.587 I0.085 J0.222
G1 X51.089 Y79.637 F200.
X51.091 Y79.654
X51.085 Y79.67
X51.072 Y79.682
X51.013 Y79.712
X50.99 Y79.72
X50.965
X50.942 Y79.712
X50.887 Y79.683
X50.874 Y79.672
X50.868 Y79.656
X50.871 Y79.639
X50.922 Y79.501
X50.968 Y79.361
X50.975 Y79.354
X50.985
X50.992 Y79.361
X51.037 Y79.5
X51.069 Y79.587
X51.084 Y79.612
X51.108 Y79.628
X51.136 Y79.634
X51.164 Y79.639
X51.188 Y79.655
X51.204 Y79.678
X51.207 Y79.683
X51.209 Y79.699
X51.204 Y79.714
X51.191 Y79.724
X51.097 Y79.77
X51.005 Y79.819
X50.977 Y79.827
X50.95 Y79.819
X50.86 Y79.77
X50.768 Y79.726
X50.755 Y79.716
X50.75 Y79.701
X50.752 Y79.685
G2 X50.88 Y79.354 I-2.524 J-1.163
X50.957 Y79.008 I-1.995 J-0.626
G1 X50.964 Y78.944
X50.97 Y78.881
X50.975 Y78.873
X50.985
X50.99 Y78.881
G2 X51.029 Y79.145 I4.36 J-0.509
X51.096 Y79.404 I1.731 J-0.31
X51.204 Y79.678 I2.924 J-0.999
G1 X51.217 Y79.698
X51.236 Y79.713
X51.258 Y79.722
X51.277 Y79.734
X51.285 Y79.754
X51.28 Y79.776
X51.264 Y79.791
G2 X51.007 Y79.923 I0.823 J1.916
G1 X50.987 Y79.93
X50.967
X50.948 Y79.923
X50.797 Y79.84
X50.639 Y79.77
X50.629 Y79.762
X50.624 Y79.749
X50.627 Y79.737
G2 X50.843 Y79.15 I-2.156 J-1.128
X50.896 Y78.528 I-2.182 J-0.498
G1 X50.889 Y78.444
X50.88 Y78.361
X50.883 Y78.345
X50.894 Y78.334
X50.909 Y78.33
X51.051
X51.066 Y78.334
X51.077 Y78.345
X51.079 Y78.361
G2 X51.076 Y78.873 I2.846 J0.275
X51.181 Y79.375 I2.081 J-0.173
G1 X51.249 Y79.555
X51.287 Y79.644
X51.33 Y79.73
X51.333 Y79.746
X51.327 Y79.76
X51.315 Y79.769
X51.264 Y79.791
X51.24 Y79.807
X51.224 Y79.831
X51.219 Y79.86
X51.214 Y79.888
X51.2 Y79.913
X51.177 Y79.931
X51.092 Y79.977
X51.009 Y80.028
X50.988 Y80.036
X50.966
X50.946 Y80.028
X50.784 Y79.933
X50.7 Y79.891
X50.614 Y79.853
X50.563 Y79.835
X50.511 Y79.818
X50.5 Y79.81
X50.495 Y79.797
X50.498 Y79.784
X50.512 Y79.761
X50.526 Y79.738
G2 X50.773 Y79.025 I-1.911 J-1.061
X50.779 Y78.27 I-2.461 J-0.398
G1 X50.781 Y78.255
X50.791 Y78.244
X50.806 Y78.24
X51.154
X51.169 Y78.244
X51.179 Y78.255
X51.181 Y78.27
X51.16 Y78.455
X51.154 Y78.547
X51.151 Y78.64
G2 X51.191 Y79.043 I2.057 J0.001
X51.297 Y79.435 I3.014 J-0.601
G1 X51.331 Y79.525
X51.37 Y79.612
X51.46 Y79.781
X51.463 Y79.795
X51.458 Y79.809
X51.446 Y79.817
G2 X51.177 Y79.931 I0.622 J1.852
G1 X51.154 Y79.949
X51.14 Y79.974
X51.137 Y80.003
X51.134 Y80.032
X51.121 Y80.058
X51.1 Y80.077
X51.007 Y80.137
X50.988 Y80.145
X50.967
X50.948 Y80.137
G2 X50.379 Y79.871 I-1.09 J1.593
G1 X50.367 Y79.863
X50.361 Y79.85
X50.365 Y79.836
G2 X50.487 Y79.618 I-3.147 J-1.915
X50.585 Y79.388 I-1.405 J-0.729
X50.682 Y79.019 I-2.841 J-0.943
X50.719 Y78.639 I-1.947 J-0.381
X50.693 Y78.282 I-2.505 J-0.002
G1 X50.684 Y78.231
X50.675 Y78.18
X50.677 Y78.165
X50.687 Y78.154
X50.702 Y78.15
X51.258
X51.273 Y78.154
X51.283 Y78.165
X51.285 Y78.18
X51.263 Y78.323
X51.253 Y78.394
X51.248 Y78.465
G2 X51.272 Y78.983 I2.763 J0.131
X51.517 Y79.708 I2.036 J-0.285
G1 X51.555 Y79.772
X51.595 Y79.835
X51.598 Y79.849
X51.593 Y79.862
X51.581 Y79.87
G2 X51.1 Y80.077 I0.51 J1.848
G1 X51.079 Y80.096
X51.067 Y80.122
Y80.151
Y80.179
X51.056 Y80.205
X51.037 Y80.226
X51.006 Y80.249
X50.988 Y80.257
X50.968
X50.95 Y80.249
G2 X50.225 Y79.927 I-1.079 J1.456
G1 X50.215 Y79.922
X50.211 Y79.911
X50.215 Y79.9
G2 X50.396 Y79.597 I-1.684 J-1.213
X50.529 Y79.271 I-2.373 J-1.159
X50.624 Y78.787 I-1.86 J-0.618
X50.605 Y78.295 I-2.318 J-0.159
G1 X50.588 Y78.193
X50.571 Y78.09
X50.573 Y78.075
X50.583 Y78.064
X50.598 Y78.06
X51.362
X51.377 Y78.064
X51.387 Y78.075
X51.389 Y78.09
X51.357 Y78.313
X51.342 Y78.436
X51.333 Y78.559
G2 X51.436 Y79.287 I1.964 J0.093
X51.567 Y79.603 I2.521 J-0.861
X51.742 Y79.896 I1.891 J-0.931
G1 X51.746 Y79.908
X51.741 Y79.921
X51.73 Y79.927
X51.61 Y79.955
X51.493 Y79.989
X51.378 Y80.032
X51.266 Y80.083
X51.198 Y80.119
X51.132 Y80.16
X51.037 Y80.226
X51.017 Y80.248
X51.007 Y80.277
X51.009 Y80.306
X51.01 Y80.329
X51. Y80.349
X50.982 Y80.361
X50.959 Y80.363
X50.939 Y80.354
G2 X50.061 Y79.993 I-1.064 J1.338
G1 X50.05 Y79.987
X50.046 Y79.976
X50.05 Y79.964
X50.155 Y79.831
X50.204 Y79.762
X50.247 Y79.689
G2 X50.46 Y79.183 I-2.192 J-1.217
X50.539 Y78.639 I-1.842 J-0.545
X50.514 Y78.319 I-2.125 J-0.001
G3 X50.467 Y78. I47.099 J-7.161
G1 X50.469 Y77.985
X50.479 Y77.974
X50.494 Y77.97
X51.466
X51.481 Y77.974
X51.491 Y77.985
X51.493 Y78.
G3 X51.446 Y78.319 I-42.019 J-6.034
G2 X51.421 Y78.64 I2.129 J0.322
X51.502 Y79.189 I1.909 J0.001
X51.719 Y79.7 I2.404 J-0.72
G1 X51.761 Y79.769
X51.808 Y79.836
X51.91 Y79.964
X51.914 Y79.975
X51.909 Y79.987
X51.898 Y79.992
G2 X51.003 Y80.364 I0.189 J1.717
G1 X50.987 Y80.372
X50.968
X50.951 Y80.364
X50.939 Y80.354
X50.913 Y80.341
X50.884 Y80.338
X50.856 Y80.348
X50.829 Y80.357
X50.8 Y80.356
X50.773 Y80.345
X50.693 Y80.294
X50.611 Y80.247
G2 X50.22 Y80.106 I-0.708 J1.343
G1 X50.133 Y80.09
X50.045 Y80.08
X49.867 Y80.072
X49.857 Y80.068
X49.852 Y80.057
X49.857 Y80.047
G2 X50.052 Y79.818 I-1.446 J-1.429
X50.214 Y79.564 I-1.954 J-1.429
X50.358 Y79.214 I-1.428 J-0.793
X50.435 Y78.844 I-2.592 J-0.731
X50.433 Y78.388 I-1.627 J-0.219
G1 X50.363 Y77.91
X50.365 Y77.895
X50.375 Y77.884
X50.39 Y77.88
X51.57
X51.584 Y77.884
X51.594 Y77.895
X51.597 Y77.91
G3 X51.541 Y78.274 I-20.294 J-2.914
G2 X51.511 Y78.64 I2.27 J0.368
X51.589 Y79.166 I1.821 J0.001
X51.797 Y79.655 I2.319 J-0.699
G1 X51.863 Y79.761
X51.937 Y79.861
X52.018 Y79.956
X52.103 Y80.047
X52.108 Y80.058
X52.103 Y80.068
X52.093 Y80.072
G2 X51.842 Y80.088 I0.005 J2.052
X51.597 Y80.142 I0.172 J1.37
X51.281 Y80.281 I0.48 J1.515
X51.002 Y80.483 I0.856 J1.48
G1 X50.986 Y80.491
X50.969 Y80.492
X50.953 Y80.483
X50.865 Y80.411
X50.773 Y80.345
X50.747 Y80.334
X50.718
X50.691 Y80.345
X50.665 Y80.357
X50.636 Y80.358
X50.609 Y80.349
X50.601 Y80.344
G2 X50.186 Y80.19 I-0.734 J1.341
X49.913 Y80.162 I-0.27 J1.264
G1 X49.649
X49.638 Y80.158
X49.634 Y80.148
X49.638 Y80.137
X49.785 Y79.991
X49.864 Y79.909
X49.938 Y79.823
G2 X50.212 Y79.356 I-1.278 J-1.061
X50.346 Y78.832 I-2.188 J-0.838
X50.337 Y78.321 I-1.692 J-0.228
G3 X50.259 Y77.816 I22.983 J-3.852
G1 X50.261 Y77.802
X50.271 Y77.791
X50.285 Y77.787
G2 X50.931 Y77.796 I0.502 J-12.609
G3 X51.577 Y77.793 I0.646 J56.529
G1 X51.626 Y77.79
X51.675 Y77.787
X51.689 Y77.791
X51.699 Y77.802
X51.701 Y77.816
G3 X51.637 Y78.226 I-15.683 J-2.252
G2 X51.601 Y78.64 I2.435 J0.415
X51.676 Y79.143 I1.732 J0.001
X51.876 Y79.611 I2.234 J-0.677
G1 X51.94 Y79.716
X52.012 Y79.815
X52.091 Y79.909
X52.176 Y79.998
X52.249 Y80.068
X52.322 Y80.137
X52.326 Y80.147
X52.321 Y80.158
X52.311 Y80.162
X52.068 Y80.16
X51.946 Y80.165
X51.825 Y80.18
G2 X51.379 Y80.329 I0.24 J1.455
X51. Y80.608 I0.73 J1.389
G1 X50.986 Y80.617
X50.969
X50.955 Y80.609
G2 X50.609 Y80.349 I-1.118 J1.13
G1 X50.581 Y80.34
X50.552 Y80.343
X50.527 Y80.356
X50.502 Y80.37
X50.473 Y80.374
X50.445 Y80.368
G2 X50.167 Y80.278 I-0.583 J1.335
X49.907 Y80.249 I-0.277 J1.295
X49.645 Y80.248 I-0.223 J18.118
G1 X49.525 Y80.256
X49.406 Y80.274
X49.396 Y80.271
X49.391 Y80.262
X49.395 Y80.252
G3 X49.728 Y79.927 I19.648 J19.762
G2 X50.011 Y79.558 I-1.086 J-1.13
X50.198 Y79.115 I-1.962 J-1.09
X50.269 Y78.639 I-1.585 J-0.477
X50.228 Y78.175 I-2.621 J-0.002
G3 X50.153 Y77.716 I13.84 J-2.479
G1 X50.155 Y77.702
X50.165 Y77.691
X50.179 Y77.689
X50.281 Y77.699
X50.382 Y77.704
X51.577
X51.679 Y77.699
X51.78 Y77.688
X51.794 Y77.691
X51.804 Y77.701
X51.806 Y77.716
G3 X51.758 Y78.037 I-23.246 J-3.338
G2 X51.709 Y78.358 I23.198 J3.66
X51.695 Y78.769 I1.89 J0.271
X51.777 Y79.171 I1.602 J-0.117
X51.909 Y79.486 I2.437 J-0.832
X52.096 Y79.772 I1.305 J-0.65
X52.325 Y80.018 I2.371 J-1.985
G3 X52.566 Y80.253 I-13.549 J14.112
G1 X52.57 Y80.263
X52.565 Y80.272
X52.554 Y80.275
X52.435 Y80.258
X52.314 Y80.25
X52.072 Y80.248
G2 X51.482 Y80.38 I0.003 J1.4
X50.998 Y80.742 I0.633 J1.353
G1 X50.985 Y80.75
X50.97
X50.957 Y80.742
G2 X50.445 Y80.368 I-1.094 J0.961
G1 X50.417 Y80.362
X50.389 Y80.367
X50.365 Y80.383
X50.341 Y80.399
X50.313 Y80.406
X50.285 Y80.402
X50.157 Y80.368
X50.043 Y80.349
X49.928 Y80.339
G2 X49.549 Y80.345 I-0.143 J2.814
X49.178 Y80.428 I0.119 J1.417
G1 X49.154 Y80.437
X49.131 Y80.448
X49.119
X49.11 Y80.441
X49.107 Y80.43
X49.108 Y80.418
X49.115 Y80.403
G3 X49.387 Y80.136 I22.863 J22.995
G2 X49.66 Y79.868 I-22.59 J-23.262
X49.924 Y79.525 I-1.158 J-1.164
X50.102 Y79.129 I-1.851 J-1.069
X50.176 Y78.748 I-1.436 J-0.477
X50.16 Y78.359 I-1.875 J-0.118
X50.103 Y77.983 I-31.788 J4.614
G3 X50.046 Y77.608 I31.731 J-4.99
G1 X50.049 Y77.594
X50.059 Y77.584
X50.072 Y77.583
X50.206 Y77.603
X50.341 Y77.613
X50.382 Y77.614
X51.577
X51.655 Y77.612
X51.733 Y77.605
X51.887 Y77.583
X51.901 Y77.584
X51.91 Y77.594
X51.913 Y77.607
G3 X51.856 Y77.989 I-32.802 J-4.71
G2 X51.799 Y78.371 I32.745 J5.092
X51.785 Y78.76 I1.802 J0.259
X51.862 Y79.142 I1.513 J-0.109
X51.987 Y79.442 I2.365 J-0.808
X52.165 Y79.715 I1.23 J-0.608
X52.494 Y80.063 I3.113 J-2.607
G3 X52.838 Y80.396 I-12.397 J13.155
G1 X52.845 Y80.411
X52.847 Y80.426
X52.844 Y80.439
X52.833 Y80.446
X52.821
X52.707 Y80.404
X52.589 Y80.372
X52.47 Y80.349
X52.349 Y80.339
G2 X52.004 Y80.341 I-0.147 J3.425
X51.665 Y80.404 I0.08 J1.384
X51.293 Y80.592 I0.392 J1.238
X50.996 Y80.886 I0.818 J1.121
G1 X50.985 Y80.895
X50.971
X50.959 Y80.887
G2 X50.698 Y80.622 I-1.148 J0.869
X50.377 Y80.435 I-0.831 J1.063
G1 X50.285 Y80.402
X50.255 Y80.399
X50.226 Y80.407
X50.203 Y80.426
X50.181 Y80.445
X50.152 Y80.455
X50.123
X50.024 Y80.438
X49.924 Y80.429
G2 X49.562 Y80.433 I-0.149 J2.924
X49.208 Y80.509 I0.095 J1.298
G1 X49.116 Y80.55
X49.028 Y80.599
X49.015 Y80.601
X49.005 Y80.594
X49.002 Y80.582
X49.019 Y80.404
X49.028 Y80.371
X49.048 Y80.343
G3 X49.322 Y80.073 I23.138 J23.272
G2 X49.596 Y79.804 I-22.864 J-23.541
X49.848 Y79.477 I-1.095 J-1.102
X50.016 Y79.101 I-1.777 J-1.022
X50.086 Y78.74 I-1.352 J-0.449
X50.071 Y78.372 I-1.787 J-0.11
X50.005 Y77.931 I-43.753 J6.35
G3 X49.938 Y77.49 I43.687 J-6.791
G1 X49.941 Y77.477
X49.951 Y77.468
X49.964 Y77.467
G2 X50.344 Y77.523 I0.441 J-1.673
G1 X50.382 Y77.524
X51.577
X51.683 Y77.52
X51.788 Y77.509
X51.892 Y77.491
X51.995 Y77.467
X52.008 Y77.468
X52.018 Y77.477
X52.021 Y77.491
X51.888 Y78.384
G2 X51.874 Y78.752 I1.714 J0.246
X51.947 Y79.113 I1.424 J-0.1
X52.066 Y79.398 I2.295 J-0.784
X52.234 Y79.657 I1.155 J-0.567
X52.562 Y80.004 I3.083 J-2.581
G3 X52.905 Y80.336 I-12.015 J12.769
G1 X52.924 Y80.364
X52.934 Y80.396
X52.954 Y80.582
X52.951 Y80.594
X52.941 Y80.601
X52.929 Y80.599
X52.835 Y80.551
X52.739 Y80.509
X52.639 Y80.475
X52.536 Y80.45
X52.419 Y80.433
X52.301 Y80.427
X52.073 Y80.428
G2 X51.45 Y80.598 I0.003 J1.234
X50.992 Y81.053 I0.659 J1.121
G1 X50.983 Y81.06
X50.971
X50.962 Y81.053
G2 X50.522 Y80.61 I-1.087 J0.642
X50.123 Y80.455 I-0.664 J1.113
G1 X50.094 Y80.454
X50.067 Y80.465
X50.047 Y80.486
X50.028 Y80.507
X50.002 Y80.519
X49.974 Y80.522
X49.872 Y80.517
X49.645 Y80.518
G2 X49.256 Y80.588 I0.002 J1.125
X48.913 Y80.786 I0.415 J1.118
G1 X48.904 Y80.788
X48.895 Y80.784
X48.892 Y80.774
X48.931 Y80.385
X48.938 Y80.349
X48.954 Y80.315
X48.977 Y80.287
G3 X49.255 Y80.013 I23.791 J23.929
G2 X49.533 Y79.74 I-23.513 J-24.202
X49.771 Y79.43 I-1.033 J-1.039
X49.931 Y79.073 I-1.703 J-0.976
X49.997 Y78.732 I-1.267 J-0.421
X49.982 Y78.385 I-1.699 J-0.102
G1 X49.835 Y77.403
X49.837 Y77.388
X49.847 Y77.377
X49.862 Y77.373
X49.91 Y77.372
X49.958 Y77.375
X50.027 Y77.391
X50.095 Y77.408
X50.22 Y77.426
X50.347 Y77.434
X50.382
X51.577
X51.66 Y77.432
X51.743 Y77.425
X51.907 Y77.4
X52.002 Y77.381
X52.049 Y77.375
X52.097 Y77.373
X52.112 Y77.377
X52.122 Y77.388
X52.124 Y77.403
X51.977 Y78.397
G2 X51.964 Y78.744 I1.626 J0.233
X52.033 Y79.084 I1.335 J-0.092
X52.193 Y79.436 I1.877 J-0.641
X52.429 Y79.743 I1.274 J-0.737
X52.702 Y80.011 I22.864 J-23.01
G3 X52.975 Y80.278 I-22.592 J23.278
G1 X52.998 Y80.308
X53.014 Y80.341
X53.022 Y80.378
X53.065 Y80.771
X53.062 Y80.782
X53.052 Y80.787
X53.041 Y80.784
G2 X52.341 Y80.518 I-0.746 J0.91
X52.028 Y80.52 I-0.144 J3.362
X51.72 Y80.575 I0.061 J1.222
X51.28 Y80.835 I0.343 J1.084
X50.991 Y81.257 I0.844 J0.887
G1 X50.983 Y81.265
X50.972
X50.964 Y81.257
G2 X50.111 Y80.542 I-1.099 J0.445
G1 X50.043 Y80.53
X49.974 Y80.522
X49.943 Y80.525
X49.917 Y80.54
X49.898 Y80.565
X49.88 Y80.589
X49.854 Y80.605
X49.824 Y80.61
X49.646 Y80.608
G2 X49.189 Y80.714 I0.002 J1.043
X48.82 Y81.003 I0.498 J1.017
G1 X48.81 Y81.008
X48.8 Y81.004
X48.795 Y80.994
G3 X48.811 Y80.684 I3.161 J0.
G1 X48.844 Y80.344
X48.852 Y80.308
X48.868 Y80.274
X48.891 Y80.246
G3 X49.18 Y79.961 I25.806 J25.956
G2 X49.47 Y79.676 I-25.517 J-26.24
X49.695 Y79.382 I-0.97 J-0.976
X49.845 Y79.044 I-1.629 J-0.929
X49.907 Y78.724 I-1.183 J-0.393
X49.893 Y78.398 I-1.611 J-0.094
G1 X49.731 Y77.314
X49.733 Y77.298
X49.743 Y77.287
X49.758 Y77.283
X49.946 Y77.282
X49.995 Y77.289
G2 X50.35 Y77.344 I0.4 J-1.424
G1 X50.382
X51.577
X51.675 Y77.341
X51.772 Y77.33
X51.868 Y77.313
X51.963 Y77.289
X52.012 Y77.283
X52.201 Y77.282
X52.216 Y77.287
X52.226 Y77.298
X52.228 Y77.313
X52.066 Y78.41
G2 X52.054 Y78.735 I1.538 J0.221
X52.118 Y79.055 I1.246 J-0.084
X52.269 Y79.389 I1.794 J-0.613
X52.493 Y79.679 I1.199 J-0.691
X52.777 Y79.958 I24.811 J-24.969
G3 X53.061 Y80.237 I-24.527 J25.248
G1 X53.084 Y80.266
X53.1 Y80.3
X53.108 Y80.336
X53.116 Y80.4
X53.121 Y80.464
G2 X53.146 Y80.731 I3.378 J-0.183
G3 X53.164 Y80.998 I-1.994 J0.267
G1 X53.16 Y81.008
X53.149 Y81.012
X53.139 Y81.007
X53.069 Y80.929
X52.992 Y80.858
X52.908 Y80.794
X52.819 Y80.739
G2 X52.586 Y80.646 I-0.492 J0.896
X52.337 Y80.608 I-0.299 J1.143
X52.04 Y80.609 I-0.144 J3.349
X51.747 Y80.661 I0.052 J1.141
X51.3 Y80.94 I0.321 J1.013
X51.038 Y81.396 I0.794 J0.759
G1 X51.028 Y81.414
X51.013 Y81.426
X50.993 Y81.43
X50.962
X50.943 Y81.426
X50.927 Y81.414
X50.917 Y81.397
G2 X50.275 Y80.685 I-1.063 J0.314
X49.964 Y80.616 I-0.361 J0.885
G1 X49.824 Y80.61
X49.797 Y80.615
X49.773 Y80.63
X49.758 Y80.652
X49.743 Y80.675
X49.72 Y80.69
X49.693 Y80.696
X49.602 Y80.7
G2 X49.301 Y80.763 I0.062 J1.053
X48.95 Y80.989 I0.33 J0.899
X48.724 Y81.34 I0.719 J0.71
G1 X48.717 Y81.346
X48.709 Y81.345
X48.705 Y81.337
Y81.211
X48.707 Y81.086
X48.709 Y80.96
X48.71 Y80.835
X48.72 Y80.702
X48.734 Y80.569
X48.746 Y80.436
X48.758 Y80.303
X48.766 Y80.267
X48.781 Y80.233
X48.804 Y80.204
G3 X49.105 Y79.909 I27.904 J28.065
G2 X49.406 Y79.613 I-27.603 J-28.361
X49.618 Y79.335 I-0.908 J-0.913
X49.76 Y79.016 I-1.556 J-0.883
X49.817 Y78.716 I-1.099 J-0.365
X49.804 Y78.411 I-1.523 J-0.086
G1 X49.627 Y77.228
X49.63 Y77.211
X49.641 Y77.197
X49.658 Y77.193
X49.95 Y77.192
X49.983 Y77.195
X50.015 Y77.201
X50.105 Y77.224
X50.197 Y77.24
X50.289 Y77.251
X50.382 Y77.254
X51.577
X51.67 Y77.251
X51.762 Y77.241
X51.853 Y77.224
X51.942 Y77.202
X51.975 Y77.195
X52.007 Y77.193
X52.3 Y77.192
X52.317 Y77.197
X52.329 Y77.211
X52.331 Y77.228
X52.155 Y78.422
G2 X52.143 Y78.727 I1.45 J0.208
X52.203 Y79.026 I1.157 J-0.076
X52.346 Y79.341 I1.712 J-0.585
X52.556 Y79.615 I1.124 J-0.644
X52.851 Y79.905 I26.837 J-27.008
G3 X53.147 Y80.196 I-26.542 J27.298
G1 X53.17 Y80.225
X53.186 Y80.259
X53.194 Y80.295
X53.202 Y80.364
X53.208 Y80.432
X53.216 Y80.535
X53.229 Y80.638
X53.242 Y80.741
X53.249 Y80.844
X53.252 Y80.967
Y81.09
X53.253 Y81.213
X53.254 Y81.337
X53.25 Y81.345
X53.24 Y81.347
X53.233 Y81.341
G2 X52.94 Y80.931 I-0.925 J0.352
X52.485 Y80.715 I-0.65 J0.784
G1 X52.383 Y80.7
X52.279 Y80.696
X52.073 Y80.698
G2 X51.452 Y80.923 I0.002 J0.977
X51.107 Y81.487 I0.652 J0.786
G1 X51.099 Y81.504
X51.084 Y81.516
X51.066 Y81.52
X50.888
X50.87 Y81.516
X50.856 Y81.504
X50.848 Y81.487
G2 X50.513 Y80.934 I-0.971 J0.21
X49.91 Y80.699 I-0.654 J0.786
G1 X49.802 Y80.695
X49.693 Y80.696
X49.664 Y80.703
X49.64 Y80.72
X49.625 Y80.745
X49.61 Y80.771
X49.587 Y80.789
X49.559 Y80.798
X49.542 Y80.799
G2 X49.196 Y80.912 I0.099 J0.891
X48.898 Y81.194 I0.429 J0.752
X48.754 Y81.578 I0.807 J0.521
G1 X48.748 Y81.594
X48.734 Y81.606
X48.717 Y81.61
X48.647
X48.631 Y81.606
X48.619 Y81.594
X48.615 Y81.579
Y81.532
X48.616 Y81.485
G2 X48.618 Y81.158 I-3.794 J-0.187
G3 X48.62 Y80.83 I3.796 J-0.14
G1 X48.631 Y80.688
X48.646 Y80.546
X48.658 Y80.404
X48.671 Y80.262
X48.679 Y80.226
X48.695 Y80.192
X48.718 Y80.163
G3 X49.03 Y79.856 I30.083 J30.257
G2 X49.343 Y79.549 I-29.771 J-30.564
X49.542 Y79.288 I-0.846 J-0.851
X49.675 Y78.987 I-1.483 J-0.837
X49.728 Y78.708 I-1.015 J-0.337
X49.715 Y78.424 I-1.436 J-0.077
G1 X49.527 Y77.163
X49.529 Y77.145
X49.539 Y77.131
X49.554 Y77.122
X49.582 Y77.115
X49.614 Y77.107
X49.644 Y77.103
X49.803
X49.962 Y77.102
X49.995 Y77.105
X50.028 Y77.111
X50.115 Y77.133
X50.203 Y77.15
X50.292 Y77.161
X50.382 Y77.164
X51.577
X51.667 Y77.161
X51.755 Y77.15
X51.843 Y77.134
X51.929 Y77.112
X51.962 Y77.105
X51.995 Y77.103
X52.315 Y77.102
X52.343 Y77.106
X52.38 Y77.116
X52.405 Y77.122
X52.42 Y77.131
X52.43 Y77.145
X52.432 Y77.163
X52.244 Y78.435
G2 X52.233 Y78.718 I1.363 J0.196
X52.288 Y78.996 I1.069 J-0.068
X52.422 Y79.293 I1.631 J-0.557
X52.62 Y79.551 I1.049 J-0.598
X52.926 Y79.853 I28.943 J-29.127
G3 X53.233 Y80.154 I-28.636 J29.428
G1 X53.256 Y80.183
X53.272 Y80.217
X53.28 Y80.254
X53.285 Y80.29
X53.288 Y80.327
G2 X53.314 Y80.583 I2.773 J-0.15
G3 X53.339 Y80.839 I-2.747 J0.406
G1 X53.343 Y81.024
X53.342 Y81.209
X53.343 Y81.393
X53.344 Y81.578
X53.34 Y81.594
X53.328 Y81.606
X53.312 Y81.61
X53.239
X53.222 Y81.606
X53.208 Y81.594
X53.202 Y81.578
G2 X53.13 Y81.326 I-0.976 J0.142
X52.991 Y81.103 I-0.817 J0.356
X52.755 Y80.909 I-0.662 J0.564
X52.467 Y80.803 I-0.473 J0.843
G1 X52.37 Y80.789
X52.271 Y80.786
X52.074 Y80.788
G2 X51.48 Y81.015 I0.002 J0.895
X51.183 Y81.577 I0.607 J0.681
G1 X51.176 Y81.594
X51.163 Y81.606
X51.145 Y81.61
X50.81
X50.793 Y81.606
X50.779 Y81.594
X50.773 Y81.578
G2 X50.635 Y81.207 I-0.929 J0.133
X50.355 Y80.927 I-0.771 J0.491
G1 X50.286 Y80.887
X50.214 Y80.854
X50.139 Y80.828
X50.024 Y80.802
X49.906 Y80.788
G2 X49.559 Y80.798 I-0.115 J2.256
G1 X49.532 Y80.806
X49.511 Y80.824
X49.498 Y80.849
X49.487 Y80.874
X49.467 Y80.893
X49.442 Y80.905
G2 X49.082 Y81.11 I0.206 J0.78
X48.836 Y81.669 I0.579 J0.587
G1 X48.832 Y81.684
X48.82 Y81.696
X48.804 Y81.7
X48.557
X48.541 Y81.696
X48.529 Y81.684
X48.525 Y81.669
Y81.616
X48.526 Y81.563
X48.528 Y81.471
X48.527 Y81.379
X48.525 Y81.287
X48.528 Y81.194
X48.53 Y81.102
X48.529 Y81.01
X48.527 Y80.918
X48.53 Y80.826
X48.542 Y80.674
X48.557 Y80.523
X48.571 Y80.372
X48.585 Y80.221
X48.593 Y80.185
X48.609 Y80.151
X48.632 Y80.122
X49.279 Y79.485
G2 X49.465 Y79.24 I-0.784 J-0.789
X49.589 Y78.959 I-1.41 J-0.791
X49.638 Y78.7 I-0.931 J-0.309
X49.626 Y78.437 I-1.35 J-0.069
G1 X49.425 Y77.088
X49.427 Y77.072
X49.437 Y77.058
X49.452 Y77.052
X49.522 Y77.038
X49.59 Y77.02
X49.617 Y77.014
X49.643 Y77.013
X49.809
X49.975 Y77.012
X50.008 Y77.015
X50.04 Y77.021
X50.124 Y77.043
X50.209 Y77.06
X50.295 Y77.07
X50.382 Y77.074
X51.577
X51.663 Y77.071
X51.749 Y77.06
X51.833 Y77.043
X51.917 Y77.022
X51.949 Y77.015
X51.982 Y77.013
X52.316 Y77.012
X52.368 Y77.02
X52.437 Y77.038
X52.506 Y77.052
X52.522 Y77.058
X52.532 Y77.072
X52.533 Y77.089
X52.333 Y78.448
G2 X52.322 Y78.71 I1.276 J0.183
X52.373 Y78.967 I0.98 J-0.06
X52.498 Y79.245 I1.55 J-0.529
X52.683 Y79.488 I0.974 J-0.552
X53.001 Y79.8 I31.128 J-31.326
G3 X53.319 Y80.113 I-30.81 J31.639
G1 X53.342 Y80.142
X53.358 Y80.176
X53.367 Y80.212
X53.371 Y80.251
X53.374 Y80.29
G2 X53.402 Y80.562 I2.917 J-0.158
G3 X53.429 Y80.834 I-2.89 J0.43
G1 X53.433 Y81.043
X53.432 Y81.251
X53.433 Y81.46
X53.434 Y81.668
X53.43 Y81.684
X53.418 Y81.696
X53.402 Y81.7
X53.153
X53.136 Y81.696
X53.125 Y81.684
X53.12 Y81.669
G2 X52.92 Y81.163 I-0.813 J0.029
X52.45 Y80.892 I-0.631 J0.549
G1 X52.357 Y80.879
X52.262 Y80.876
X52.074 Y80.878
G2 X51.51 Y81.111 I0.002 J0.803
X51.264 Y81.669 I0.586 J0.591
G1 X51.26 Y81.684
X51.248 Y81.696
X51.231 Y81.7
X50.723
X50.707 Y81.696
X50.695 Y81.684
X50.69 Y81.669
G2 X50.496 Y81.169 I-0.81 J0.027
X50.036 Y80.894 I-0.635 J0.543
G1 X49.939 Y80.88
X49.841 Y80.876
X49.646 Y80.878
X49.543 Y80.885
X49.442 Y80.905
X49.415 Y80.918
X49.395 Y80.942
X49.385 Y80.971
X49.377 Y81.
X49.359 Y81.025
X49.335 Y81.042
X49.285 Y81.068
G2 X49.092 Y81.232 I0.343 J0.6
X48.966 Y81.451 I0.613 J0.5
G1 X48.947 Y81.51
X48.934 Y81.57
X48.926 Y81.631
X48.924 Y81.693
X48.925 Y81.726
X48.926 Y81.758
X48.922 Y81.774
X48.91 Y81.786
X48.894 Y81.79
X48.467
X48.451 Y81.786
X48.439 Y81.774
X48.435 Y81.759
Y81.729
Y81.7
X48.436 Y81.59
Y81.48
G2 X48.438 Y81.151 I-3.714 J-0.183
G3 X48.44 Y80.821 I3.716 J-0.146
G1 X48.452 Y80.661
X48.469 Y80.5
X48.484 Y80.34
X48.499 Y80.18
X48.506 Y80.144
X48.522 Y80.11
X48.545 Y80.081
X49.216 Y79.421
G2 X49.389 Y79.193 I-0.722 J-0.726
X49.504 Y78.931 I-1.339 J-0.745
G1 X49.526 Y78.853
X49.541 Y78.773
X49.548 Y78.692
Y78.571
X49.537 Y78.45
X49.323 Y77.008
X49.325 Y76.992
X49.335 Y76.98
X49.35 Y76.974
X49.46 Y76.959
X49.568 Y76.933
X49.604 Y76.925
X49.64 Y76.922
X49.683 Y76.923
X49.987 Y76.922
X50.02 Y76.925
X50.052 Y76.931
X50.186 Y76.965
X50.253 Y76.977
X50.322 Y76.982
X50.352 Y76.984
X50.382
X51.577
X51.699 Y76.976
X51.82 Y76.956
X51.862 Y76.945
X51.904 Y76.932
X51.937 Y76.925
X51.97 Y76.923
X52.321 Y76.922
X52.356 Y76.925
X52.39 Y76.933
X52.499 Y76.959
X52.609 Y76.975
X52.624 Y76.98
X52.634 Y76.992
X52.636 Y77.008
X52.422 Y78.461
X52.411 Y78.581
X52.412 Y78.702
X52.42 Y78.782
X52.436 Y78.861
X52.458 Y78.938
G2 X52.575 Y79.198 I1.47 J-0.502
X52.747 Y79.424 I0.899 J-0.506
G1 X53.405 Y80.071
X53.428 Y80.101
X53.444 Y80.134
X53.453 Y80.171
X53.457 Y80.212
X53.461 Y80.253
G2 X53.49 Y80.541 I3.063 J-0.166
G3 X53.519 Y80.829 I-3.033 J0.454
G1 X53.524 Y80.945
Y81.062
X53.522 Y81.294
X53.524 Y81.758
X53.52 Y81.774
X53.508 Y81.786
X53.492 Y81.79
X53.062
X53.046 Y81.786
X53.035 Y81.774
X53.03 Y81.758
X53.031 Y81.664
X53.029 Y81.617
X53.023 Y81.57
G2 X52.779 Y81.145 I-0.701 J0.12
X52.322 Y80.968 I-0.49 J0.584
X52.03 Y80.972 I-0.11 J2.557
X51.748 Y81.049 I0.053 J0.748
X51.48 Y81.284 I0.314 J0.628
X51.354 Y81.618 I0.636 J0.43
G1 X51.352 Y81.688
X51.354 Y81.758
X51.349 Y81.774
X51.338 Y81.786
X51.322 Y81.79
X50.633
X50.617 Y81.786
X50.605 Y81.774
X50.601 Y81.758
Y81.662
X50.599 Y81.614
X50.593 Y81.566
G2 X50.349 Y81.146 I-0.7 J0.124
X49.896 Y80.968 I-0.492 J0.588
X49.584 Y80.974 I-0.113 J2.217
X49.335 Y81.042 I0.066 J0.732
G1 X49.311 Y81.061
X49.296 Y81.087
X49.293 Y81.116
X49.291 Y81.146
X49.28 Y81.173
X49.26 Y81.195
X49.201 Y81.247
X49.148 Y81.307
X49.103 Y81.372
G2 X49.011 Y81.693 I0.524 J0.322
G1 X49.014 Y81.771
X49.016 Y81.848
X49.012 Y81.864
X49. Y81.876
X48.984 Y81.88
X48.377
X48.361 Y81.876
X48.349 Y81.864
X48.345 Y81.849
Y81.816
Y81.784
X48.346 Y81.663
Y81.542
G2 X48.348 Y81.18 I-4.048 J-0.2
G3 X48.35 Y80.817 I4.05 J-0.163
G1 X48.363 Y80.647
X48.381 Y80.478
X48.397 Y80.308
X48.412 Y80.139
X48.42 Y80.103
X48.436 Y80.069
X48.459 Y80.04
X49.152 Y79.357
G2 X49.312 Y79.145 I-0.661 J-0.664
X49.418 Y78.902 I-1.268 J-0.699
G1 X49.446 Y78.795
X49.459 Y78.684
X49.458 Y78.573
X49.448 Y78.463
X49.219 Y76.92
X49.221 Y76.905
X49.231 Y76.893
X49.246 Y76.889
X49.323 Y76.886
X49.4 Y76.878
X49.476 Y76.864
X49.551 Y76.844
X49.588 Y76.835
X49.627 Y76.832
X49.697 Y76.833
X50. Y76.832
X50.035 Y76.835
X50.068 Y76.842
X50.215 Y76.878
X50.289 Y76.889
X50.364 Y76.894
X50.382
X51.577
X51.69 Y76.887
X51.802 Y76.868
X51.846 Y76.856
X51.889 Y76.842
X51.923 Y76.835
X51.957 Y76.833
X52.334 Y76.832
X52.372 Y76.835
X52.408 Y76.844
X52.483 Y76.864
X52.559 Y76.878
X52.636 Y76.887
X52.713 Y76.889
X52.728 Y76.894
X52.738 Y76.905
X52.74 Y76.92
X52.511 Y78.474
X52.501 Y78.583
X52.502 Y78.693
X52.515 Y78.803
X52.544 Y78.909
G2 X52.651 Y79.15 I1.39 J-0.475
X52.81 Y79.36 I0.825 J-0.46
G1 X53.491 Y80.03
X53.514 Y80.059
X53.53 Y80.093
X53.539 Y80.129
X53.544 Y80.173
X53.547 Y80.216
G2 X53.578 Y80.52 I3.208 J-0.173
G3 X53.609 Y80.824 I-3.177 J0.478
G1 X53.612 Y80.952
X53.611 Y81.08
X53.614 Y81.848
X53.61 Y81.864
X53.598 Y81.876
X53.582 Y81.88
X52.972
X52.956 Y81.876
X52.945 Y81.864
X52.94 Y81.848
Y81.667
X52.933 Y81.579
X52.91 Y81.494
G2 X52.671 Y81.178 I-0.623 J0.223
X52.293 Y81.057 I-0.376 J0.528
G1 X52.045 Y81.061
X51.962 Y81.07
X51.881 Y81.09
X51.804 Y81.122
G2 X51.563 Y81.323 I0.304 J0.609
X51.445 Y81.614 I0.492 J0.368
G1 X51.441 Y81.673
Y81.731
X51.444 Y81.848
X51.439 Y81.864
X51.428 Y81.876
X51.412 Y81.88
X50.543
X50.527 Y81.876
X50.515 Y81.864
X50.511 Y81.848
Y81.673
X50.504 Y81.586
X50.483 Y81.5
G2 X49.863 Y81.057 I-0.621 J0.213
X49.598 Y81.064 I0.012 J5.485
X49.343 Y81.139 I0.029 J0.571
G1 X49.26 Y81.195
X49.241 Y81.218
X49.232 Y81.246
X49.236 Y81.276
X49.241 Y81.305
X49.236 Y81.334
X49.222 Y81.36
G2 X49.109 Y81.613 I0.458 J0.356
G1 X49.099 Y81.694
X49.1 Y81.776
X49.106 Y81.938
X49.101 Y81.954
X49.09 Y81.966
X49.074 Y81.97
X48.287
X48.271 Y81.966
X48.259 Y81.954
X48.255 Y81.939
Y81.903
Y81.868
X48.256 Y81.736
Y81.604
X48.259 Y81.505
X48.257 Y81.406
X48.255 Y81.307
X48.258 Y81.208
X48.261 Y81.109
X48.259 Y81.01
X48.257 Y80.911
X48.26 Y80.812
X48.274 Y80.634
X48.293 Y80.455
X48.309 Y80.276
X48.326 Y80.098
X48.334 Y80.062
X48.349 Y80.028
X48.372 Y79.999
X49.089 Y79.293
X49.144 Y79.233
X49.193 Y79.168
X49.236 Y79.098
X49.289 Y78.988
X49.333 Y78.874
X49.358 Y78.776
X49.369 Y78.676
X49.368 Y78.576
X49.358 Y78.476
X49.115 Y76.83
X49.117 Y76.815
X49.127 Y76.804
X49.142 Y76.799
X49.299 Y76.798
X49.378 Y76.793
X49.456 Y76.778
X49.495 Y76.767
X49.533 Y76.755
X49.572 Y76.745
X49.613 Y76.742
X49.712 Y76.743
X50.013 Y76.742
X50.05 Y76.745
X50.086 Y76.754
X50.155 Y76.773
X50.225 Y76.788
X50.296 Y76.799
X50.367 Y76.804
X50.382
X51.577
X51.652 Y76.801
X51.727 Y76.79
X51.8 Y76.774
X51.872 Y76.754
X51.908 Y76.745
X51.944 Y76.743
X52.349 Y76.742
X52.388 Y76.745
X52.425 Y76.755
X52.491 Y76.774
X52.557 Y76.79
X52.625 Y76.8
X52.693 Y76.803
X52.755 Y76.801
X52.817 Y76.799
X52.832 Y76.804
X52.842 Y76.815
X52.844 Y76.83
X52.6 Y78.486
X52.591 Y78.585
Y78.685
X52.603 Y78.784
X52.629 Y78.88
X52.673 Y78.993
X52.727 Y79.102
X52.77 Y79.171
X52.819 Y79.236
X52.873 Y79.296
X53.577 Y79.989
X53.6 Y80.018
X53.616 Y80.052
X53.625 Y80.088
X53.63 Y80.134
X53.634 Y80.18
G2 X53.667 Y80.5 I3.354 J-0.181
G3 X53.699 Y80.82 I-3.322 J0.501
G1 X53.702 Y80.959
X53.701 Y81.099
X53.704 Y81.938
X53.7 Y81.954
X53.688 Y81.966
X53.672 Y81.97
X52.882
X52.866 Y81.966
X52.855 Y81.954
X52.85 Y81.938
Y81.676
G2 X52.783 Y81.43 I-0.487 J0.
X52.593 Y81.232 I-0.511 J0.3
X52.331 Y81.149 I-0.285 J0.443
G1 X52.202 Y81.147
X52.074 Y81.148
G2 X51.743 Y81.265 I0.001 J0.531
X51.549 Y81.557 I0.363 J0.452
G1 X51.535 Y81.62
X51.528 Y81.683
Y81.747
X51.534 Y81.938
X51.529 Y81.954
X51.518 Y81.966
X51.502 Y81.97
X50.453
X50.437 Y81.966
X50.425 Y81.954
X50.421 Y81.938
X50.422 Y81.689
X50.416 Y81.605
X50.396 Y81.523
X50.363 Y81.446
G2 X50.174 Y81.238 I-0.518 J0.28
X49.907 Y81.149 I-0.293 J0.435
G1 X49.777 Y81.147
X49.647 Y81.148
G2 X49.293 Y81.283 I0.001 J0.532
G1 X49.256 Y81.32
X49.222 Y81.36
X49.208 Y81.387
X49.207 Y81.417
X49.218 Y81.446
X49.23 Y81.473
X49.232 Y81.502
X49.226 Y81.531
X49.209 Y81.579
X49.197 Y81.629
X49.191 Y81.693
X49.194 Y81.861
X49.196 Y82.028
X49.191 Y82.044
X49.18 Y82.056
X49.164 Y82.06
X48.197
X48.181 Y82.056
X48.169 Y82.044
X48.165 Y82.029
Y81.99
Y81.952
X48.166 Y81.881
Y81.809
Y81.684
X48.167 Y81.559
G2 X48.168 Y81.183 I-4.128 J-0.204
G3 X48.17 Y80.808 I4.13 J-0.172
G1 X48.185 Y80.62
X48.205 Y80.432
X48.222 Y80.244
X48.239 Y80.057
X48.247 Y80.021
X48.263 Y79.987
X48.286 Y79.958
X49.025 Y79.23
X49.076 Y79.174
X49.12 Y79.115
X49.159 Y79.051
X49.208 Y78.95
X49.248 Y78.846
X49.27 Y78.758
X49.279 Y78.668
X49.278 Y78.578
X49.269 Y78.489
X49.011 Y76.74
X49.013 Y76.725
X49.023 Y76.714
X49.038 Y76.709
X49.27
X49.349 Y76.705
X49.426 Y76.692
X49.502 Y76.671
X49.51 Y76.668
X49.519 Y76.665
X49.558 Y76.655
X49.598 Y76.652
X49.728 Y76.653
X49.968 Y76.652
X50.057 Y76.658
X50.144 Y76.677
X50.262 Y76.704
X50.322 Y76.711
X50.382 Y76.714
X51.577
X51.638 Y76.711
X51.697 Y76.704
X51.815 Y76.677
X51.899 Y76.659
X51.985 Y76.653
X52.173
X52.36 Y76.652
X52.4 Y76.655
X52.44 Y76.665
X52.564 Y76.7
X52.628 Y76.71
X52.693 Y76.714
X52.807 Y76.712
X52.921 Y76.709
X52.936 Y76.714
X52.946 Y76.725
X52.948 Y76.74
X52.689 Y78.499
X52.681 Y78.588
Y78.677
X52.691 Y78.765
X52.714 Y78.851
X52.754 Y78.955
X52.803 Y79.055
X52.842 Y79.118
X52.887 Y79.177
X52.937 Y79.232
X53.663 Y79.947
X53.686 Y79.977
X53.702 Y80.01
X53.711 Y80.047
X53.716 Y80.095
X53.721 Y80.143
X53.727 Y80.227
X53.738 Y80.311
X53.748 Y80.395
X53.755 Y80.479
X53.762 Y80.563
X53.772 Y80.647
X53.783 Y80.731
X53.789 Y80.815
X53.792 Y80.966
X53.791 Y81.118
X53.794 Y82.028
X53.79 Y82.044
X53.778 Y82.056
X53.762 Y82.06
X52.792
X52.777 Y82.056
X52.765 Y82.044
X52.761 Y82.028
X52.763 Y81.861
X52.765 Y81.694
G2 X52.653 Y81.401 I-0.443 J0.
X52.381 Y81.245 I-0.366 J0.325
G1 X52.305 Y81.235
X52.228 Y81.234
X52.075 Y81.238
G2 X51.797 Y81.337 I0.001 J0.441
X51.635 Y81.582 I0.309 J0.38
G1 X51.623 Y81.639
X51.619 Y81.697
X51.621 Y81.863
X51.624 Y82.028
X51.619 Y82.044
X51.608 Y82.056
X51.592 Y82.06
X50.363
X50.347 Y82.056
X50.335 Y82.044
X50.331 Y82.028
X50.333 Y81.86
X50.335 Y81.692
G2 X50.227 Y81.403 I-0.44 J0.
X49.96 Y81.247 I-0.368 J0.322
G1 X49.883 Y81.235
X49.804 Y81.234
X49.647 Y81.238
G2 X49.351 Y81.352 I0.001 J0.443
G1 X49.3 Y81.405
X49.258 Y81.465
X49.226 Y81.531
X49.22 Y81.561
X49.227 Y81.591
X49.246 Y81.616
X49.265 Y81.638
X49.277 Y81.665
X49.281 Y81.695
X49.284 Y81.906
X49.286 Y82.118
X49.281 Y82.134
X49.27 Y82.146
X49.254 Y82.15
X48.107
X48.091 Y82.146
X48.079 Y82.134
X48.075 Y82.119
Y82.077
Y82.036
X48.076 Y81.959
Y81.882
Y81.747
X48.077 Y81.613
X48.08 Y81.511
X48.078 Y81.41
X48.076 Y81.309
X48.078 Y81.208
X48.081 Y81.107
X48.079 Y81.006
X48.077 Y80.905
X48.08 Y80.804
X48.096 Y80.606
X48.116 Y80.41
X48.135 Y80.213
X48.153 Y80.016
X48.161 Y79.98
X48.177 Y79.946
X48.2 Y79.917
X48.962 Y79.166
X49.028 Y79.089
X49.082 Y79.003
X49.126 Y78.912
X49.162 Y78.817
X49.182 Y78.74
X49.19 Y78.66
X49.188 Y78.581
X49.18 Y78.502
X48.907 Y76.65
X48.909 Y76.635
X48.919 Y76.624
X48.934 Y76.619
G3 X49.204 Y76.624 I0.004 J7.373
G2 X49.472 Y76.585 I0.027 J-0.755
G1 X49.545 Y76.568
X49.62 Y76.562
X49.708 Y76.563
X50.011 Y76.562
X50.077 Y76.567
X50.142 Y76.582
X50.256 Y76.611
X50.314 Y76.62
X50.373 Y76.624
X50.382
X51.577
X51.638 Y76.621
X51.699 Y76.612
X51.817 Y76.582
X51.881 Y76.568
X51.946 Y76.563
X52.347 Y76.562
X52.417 Y76.568
X52.485 Y76.585
G2 X52.754 Y76.624 I0.242 J-0.719
G3 X53.025 Y76.619 I0.268 J7.621
G1 X53.04 Y76.624
X53.05 Y76.635
X53.052 Y76.65
X52.779 Y78.512
X52.771 Y78.59
X52.77 Y78.668
X52.779 Y78.746
X52.799 Y78.822
X52.836 Y78.916
X52.88 Y79.007
X52.934 Y79.092
X53. Y79.168
X53.749 Y79.906
X53.772 Y79.935
X53.789 Y79.969
X53.797 Y80.005
X53.803 Y80.056
X53.807 Y80.106
X53.814 Y80.194
X53.825 Y80.282
X53.836 Y80.37
X53.843 Y80.458
X53.85 Y80.546
X53.861 Y80.634
X53.873 Y80.722
X53.879 Y80.81
X53.882 Y80.973
X53.881 Y81.137
X53.884 Y82.118
X53.88 Y82.134
X53.868 Y82.146
X53.852 Y82.15
X52.703
X52.687 Y82.146
X52.675 Y82.134
X52.671 Y82.118
X52.673 Y81.906
X52.675 Y81.694
G2 X52.584 Y81.458 I-0.353 J0.
X52.364 Y81.333 I-0.297 J0.268
G1 X52.292 Y81.324
X52.219
X52.075 Y81.328
X52.015 Y81.333
X51.956 Y81.349
X51.901 Y81.374
X51.852 Y81.408
X51.808 Y81.45
X51.772 Y81.498
X51.743 Y81.551
X51.722 Y81.607
X51.712 Y81.652
X51.709 Y81.697
X51.711 Y81.908
X51.714 Y82.118
X51.709 Y82.134
X51.698 Y82.146
X51.682 Y82.15
X50.273
X50.257 Y82.146
X50.245 Y82.134
X50.241 Y82.118
X50.243 Y81.905
X50.245 Y81.692
X50.239 Y81.629
X50.222 Y81.568
X50.194 Y81.511
X50.157 Y81.46
X50.111 Y81.416
X50.059 Y81.38
X50.002 Y81.353
X49.942 Y81.335
X49.903 Y81.329
X49.864 Y81.327
X49.723 Y81.325
X49.653 Y81.327
X49.583 Y81.335
X49.521 Y81.352
X49.463 Y81.381
X49.411 Y81.42
X49.366 Y81.467
X49.33 Y81.52
X49.303 Y81.578
X49.287 Y81.635
X49.281 Y81.693
Y81.695
X49.287 Y81.723
X49.303 Y81.746
X49.327 Y81.762
X49.35 Y81.778
X49.366 Y81.802
X49.372 Y81.83
X49.374 Y81.951
G3 X49.375 Y82.208 I-6.174 J0.145
G1 X49.37 Y82.224
X49.359 Y82.236
X49.342 Y82.24
X48.017
X48.001 Y82.236
X47.989 Y82.224
X47.985 Y82.209
Y82.187
Y82.165
Y82.079
X47.986 Y81.994
Y81.845
X47.987 Y81.695
X47.99 Y81.583
X47.988 Y81.471
X47.985 Y81.359
X47.988 Y81.247
X47.991 Y81.135
X47.989 Y81.023
X47.987 Y80.911
X47.99 Y80.799
X48.006 Y80.593
X48.028 Y80.387
X48.047 Y80.181
X48.067 Y79.975
X48.074 Y79.938
X48.09 Y79.905
X48.113 Y79.876
X48.898 Y79.102
X48.958 Y79.033
X49.006 Y78.956
X49.045 Y78.874
X49.077 Y78.789
X49.094 Y78.722
X49.1 Y78.653
X49.098 Y78.583
X49.091 Y78.515
X48.809 Y76.592
X48.805 Y76.576
X48.801 Y76.56
X48.802 Y76.545
X48.811 Y76.534
X48.825 Y76.529
X49.073 Y76.535
X49.198 Y76.536
X49.322 Y76.53
X49.364 Y76.524
X49.405 Y76.513
X49.486 Y76.486
X49.536 Y76.473
X49.588 Y76.472
X49.811 Y76.48
X49.922 Y76.478
X50.034 Y76.472
X50.088 Y76.473
X50.142 Y76.487
X50.237 Y76.518
X50.286 Y76.528
X50.336 Y76.533
X50.359 Y76.534
X50.382
X51.577
X51.639 Y76.531
X51.699 Y76.521
X51.759 Y76.506
X51.817 Y76.487
X51.872 Y76.473
X51.928 Y76.472
X52.038 Y76.48
X52.148 Y76.481
X52.368 Y76.472
X52.421 Y76.473
X52.473 Y76.486
G2 X52.801 Y76.536 I0.293 J-0.819
G3 X53.133 Y76.529 I0.328 J8.133
G1 X53.147 Y76.534
X53.157 Y76.545
X53.158 Y76.56
X53.154 Y76.574
X53.151 Y76.588
X52.868 Y78.525
X52.861 Y78.592
X52.86 Y78.66
X52.867 Y78.727
X52.884 Y78.793
X52.917 Y78.877
X52.956 Y78.959
X53.004 Y79.036
X53.064 Y79.105
X53.835 Y79.865
X53.858 Y79.894
X53.875 Y79.927
X53.883 Y79.964
X53.886 Y79.99
X53.888 Y80.016
X53.898 Y80.115
X53.908 Y80.214
G2 X53.939 Y80.509 I3.049 J-0.165
G3 X53.969 Y80.805 I-3.018 J0.461
G1 X53.972 Y80.98
X53.971 Y81.156
X53.974 Y82.208
X53.97 Y82.224
X53.958 Y82.236
X53.942 Y82.24
X52.613
X52.597 Y82.236
X52.586 Y82.225
X52.581 Y82.209
G3 X52.582 Y81.952 I6.594 J-0.108
G2 X52.585 Y81.694 I-10.965 J-0.249
G1 X52.58 Y81.645
X52.567 Y81.598
X52.544 Y81.554
X52.514 Y81.515
X52.465 Y81.472
X52.409 Y81.441
X52.346 Y81.422
X52.32 Y81.418
X52.294 Y81.417
X52.162 Y81.415
X52.096
X52.03 Y81.423
X51.972 Y81.44
X51.919 Y81.469
X51.874 Y81.511
X51.839 Y81.56
X51.814 Y81.615
X51.801 Y81.674
X51.799 Y81.698
G2 X51.802 Y81.953 I10.377 J0.003
G3 X51.803 Y82.208 I-6. J0.146
G1 X51.799 Y82.224
X51.787 Y82.236
X51.77 Y82.24
X50.184
X50.168 Y82.236
X50.156 Y82.224
X50.152 Y82.208
G3 Y81.95 I6.658 J-0.109
G2 X50.155 Y81.692 I-11.006 J-0.246
G1 X50.147 Y81.629
X50.124 Y81.569
X50.087 Y81.516
X50.039 Y81.474
X49.984 Y81.442
X49.923 Y81.423
X49.893 Y81.418
X49.864 Y81.417
X49.647 Y81.418
X49.598 Y81.423
X49.55 Y81.437
X49.506 Y81.459
X49.467 Y81.49
X49.424 Y81.54
X49.393 Y81.598
X49.374 Y81.661
X49.371 Y81.694
X49.372 Y81.83
X49.378 Y81.857
X49.394 Y81.881
X49.417 Y81.896
X49.441 Y81.912
X49.456 Y81.935
X49.462 Y81.963
Y82.18
X49.463 Y82.238
X49.456 Y82.296
X49.448 Y82.313
X49.432 Y82.326
X49.412 Y82.33
X47.927
X47.911 Y82.326
X47.899 Y82.314
X47.895 Y82.299
Y82.275
Y82.252
Y82.206
Y82.161
X47.896 Y82.075
Y81.99
Y81.84
X47.897 Y81.691
X47.9 Y81.579
X47.898 Y81.467
X47.895 Y81.355
X47.898 Y81.243
X47.901 Y81.131
X47.899 Y81.019
X47.897 Y80.907
X47.9 Y80.795
X47.917 Y80.579
X47.94 Y80.364
X47.96 Y80.149
X47.98 Y79.934
X47.988 Y79.897
X48.004 Y79.864
X48.027 Y79.835
X48.835 Y79.038
X48.887 Y78.977
X48.929 Y78.909
X48.963 Y78.836
X48.991 Y78.761
X49.005 Y78.703
X49.01 Y78.645
X49.008 Y78.586
X49.002 Y78.527
X48.723 Y76.605
X48.705 Y76.535
X48.679 Y76.468
Y76.455
X48.686 Y76.444
X48.699 Y76.439
G3 X48.983 Y76.442 I0.01 J17.901
G2 X49.267 Y76.444 I0.273 J-17.899
G1 X49.315 Y76.44
X49.363 Y76.431
X49.455 Y76.402
X49.474 Y76.394
X49.492 Y76.385
X49.529 Y76.375
X49.568 Y76.377
X49.616 Y76.384
X49.665 Y76.386
X49.842 Y76.385
X50.018 Y76.383
X50.036 Y76.382
X50.052 Y76.378
X50.096 Y76.376
X50.137 Y76.388
X50.196 Y76.412
X50.256 Y76.43
X50.319 Y76.44
X50.382 Y76.444
X51.577
X51.64 Y76.44
X51.703 Y76.43
X51.763 Y76.412
X51.822 Y76.388
X51.865 Y76.375
X51.909 Y76.379
X51.927 Y76.382
X51.946 Y76.384
X52.354 Y76.383
X52.371 Y76.382
X52.387 Y76.378
X52.429 Y76.376
X52.469 Y76.386
X52.555 Y76.421
X52.6 Y76.433
X52.646 Y76.44
G2 X52.952 Y76.446 I0.2 J-2.505
G3 X53.259 Y76.44 I0.303 J7.131
G1 X53.272 Y76.444
X53.28 Y76.455
X53.279 Y76.469
X53.254 Y76.533
X53.237 Y76.601
X52.957 Y78.538
X52.951 Y78.594
X52.95 Y78.651
X52.955 Y78.708
X52.969 Y78.764
X52.998 Y78.839
X53.032 Y78.911
X53.075 Y78.98
X53.127 Y79.041
X53.921 Y79.823
X53.944 Y79.852
X53.961 Y79.886
X53.969 Y79.923
X53.972 Y79.95
X53.974 Y79.977
X53.985 Y80.08
X53.996 Y80.183
G2 X54.028 Y80.492 I3.167 J-0.171
G3 X54.059 Y80.8 I-3.135 J0.48
G1 X54.063 Y80.987
X54.061 Y81.175
X54.064 Y82.298
X54.06 Y82.314
X54.048 Y82.326
X54.032 Y82.33
X52.544
X52.524 Y82.326
X52.509 Y82.313
X52.5 Y82.296
X52.494 Y82.238
Y82.18
X52.495 Y81.694
X52.489 Y81.65
X52.472 Y81.608
X52.445 Y81.572
X52.411 Y81.544
X52.372 Y81.523
X52.329 Y81.51
X52.312 Y81.508
X52.294 Y81.507
X52.075 Y81.508
X52.034 Y81.513
X51.995 Y81.528
X51.96 Y81.552
X51.932 Y81.583
X51.91 Y81.618
X51.895 Y81.656
X51.891 Y81.677
X51.889 Y81.698
X51.89 Y82.18
X51.891 Y82.237
X51.886 Y82.293
X51.877 Y82.312
X51.86 Y82.325
X51.84 Y82.33
X50.111
X50.093 Y82.326
X50.078 Y82.314
X50.07 Y82.297
X50.065 Y82.239
Y82.18
Y81.692
X50.06 Y81.649
X50.043 Y81.608
X50.017 Y81.573
X49.984 Y81.545
X49.945 Y81.524
X49.904 Y81.511
X49.884 Y81.508
X49.864 Y81.507
X49.647 Y81.508
X49.602 Y81.514
X49.561 Y81.531
X49.525 Y81.559
X49.496 Y81.594
X49.475 Y81.634
X49.463 Y81.677
X49.461 Y81.694
X49.462 Y81.963
X49.468 Y81.992
X49.484 Y82.017
X49.509 Y82.034
X49.534 Y82.05
X49.55 Y82.075
X49.556 Y82.104
Y82.181
X49.555 Y82.256
X49.548 Y82.301
X49.539 Y82.341
X49.532 Y82.361
X49.521 Y82.391
X49.518 Y82.406
X49.517 Y82.418
X49.516 Y82.421
X47.818
X47.806
X47.805 Y82.418
Y80.79
X47.899 Y79.835
X48.768 Y78.971
X48.827 Y78.9
X48.872 Y78.819
X48.901 Y78.731
X48.914 Y78.638
X48.908 Y78.541
X48.629 Y76.618
X48.612 Y76.544
X48.583 Y76.472
X48.545 Y76.407
X48.5 Y76.351
X48.502 Y76.349
X49.267
X49.306 Y76.345
X49.346 Y76.339
X49.386 Y76.329
X49.426 Y76.315
X49.465 Y76.298
X49.504 Y76.277
X49.534 Y76.257
X49.536
X49.55 Y76.27
X49.566 Y76.281
X49.585 Y76.288
X49.6 Y76.291
X49.665 Y76.292
X50.018
X50.033 Y76.29
X50.048 Y76.285
X50.063 Y76.277
X50.078 Y76.266
X50.086 Y76.257
X50.088 Y76.256
X50.12 Y76.277
X50.143 Y76.29
X50.183 Y76.309
X50.223 Y76.324
X50.263 Y76.336
X50.302 Y76.343
X50.342 Y76.348
X50.382 Y76.349
X51.577
X51.617 Y76.348
X51.657 Y76.343
X51.697 Y76.335
X51.737 Y76.324
X51.777 Y76.309
X51.816 Y76.29
X51.838 Y76.277
X51.871 Y76.256
X51.889 Y76.272
X51.901 Y76.28
X51.916 Y76.287
X51.931 Y76.291
X51.946 Y76.292
X52.354
X52.369 Y76.289
X52.386 Y76.284
X52.398 Y76.277
X52.412 Y76.267
X52.423 Y76.256
X52.454 Y76.277
X52.474 Y76.289
X52.494 Y76.299
X52.534 Y76.316
X52.573 Y76.329
X52.613 Y76.339
X52.653 Y76.346
X52.693 Y76.349
X53.457
X53.458 Y76.351
X53.412 Y76.409
X53.373 Y76.477
X53.346 Y76.546
X53.33 Y76.614
X53.194 Y77.554
X53.051 Y78.551
X53.046 Y78.641
X53.059 Y78.733
X53.09 Y78.823
X53.135 Y78.903
X53.194 Y78.973
X54.049 Y79.823
X54.154 Y80.795
Y82.418
X54.153 Y82.421
X52.441
X52.439 Y82.418
X52.437 Y82.401
X52.434 Y82.386
X52.424 Y82.361
X52.418 Y82.341
X52.408 Y82.301
X52.401 Y82.254
X52.4 Y82.181
Y81.694
X52.397 Y81.677
X52.391 Y81.661
X52.381 Y81.644
X52.371 Y81.632
X52.356 Y81.62
X52.34 Y81.611
X52.327 Y81.606
X52.311 Y81.603
X52.295 Y81.602
X52.075 Y81.603
X52.06 Y81.605
X52.048 Y81.609
X52.032 Y81.617
X52.018 Y81.627
X52.008 Y81.638
X51.997 Y81.653
X51.99 Y81.668
X51.986 Y81.683
X51.984 Y81.698
Y82.181
X51.983 Y82.256
X51.976 Y82.304
X51.972 Y82.323
X51.967 Y82.341
X51.949 Y82.391
X51.946 Y82.406
X51.945 Y82.418
X51.943 Y82.421
X50.011
X50.01 Y82.418
X50.008 Y82.401
X50.004 Y82.386
X49.988 Y82.341
X49.984 Y82.325
X49.977 Y82.293
X49.972 Y82.251
X49.971 Y82.181
X49.97 Y81.693
X49.968 Y81.678
X49.962 Y81.663
X49.954 Y81.648
X49.942 Y81.633
X49.931 Y81.623
X49.918 Y81.614
X49.899 Y81.607
X49.884 Y81.603
X49.864 Y81.602
X49.648 Y81.603
X49.63 Y81.606
X49.613 Y81.612
X49.6 Y81.62
X49.585 Y81.632
X49.574 Y81.645
X49.566 Y81.658
X49.56 Y81.676
X49.556 Y81.694
Y82.104
X49.549 Y82.129
X49.531 Y82.148
X49.506 Y82.154
X49.481 Y82.148
X49.027 Y81.888
X49.016 Y81.88
X49. Y81.853
X48.998 Y81.821
X49.011 Y81.792
X50.583 Y79.782
X50.597 Y79.769
X50.613 Y79.761
X51.92 Y79.326
X51.942 Y79.324
X51.963 Y79.332
X51.978 Y79.348
X51.986 Y79.368
G3 X51.041 Y79.47 Z-3.473 I-0.472 J0.051 F17.
X51.958 Y79.251 Z-3.521 I0.472 J-0.051
X51.514 Y79.42 I-0.222 J0.084
G1 X51.513 Y79.418
G2 X51.206 Y79.28 I-0.222 J0.084
X51.069 Y79.587 I0.085 J0.222
G1 X51.089 Y79.637 F200.
X51.091 Y79.654
X51.085 Y79.67
X51.072 Y79.682
X51.013 Y79.712
X50.99 Y79.72
X50.965
X50.942 Y79.712
X50.887 Y79.683
X50.874 Y79.672
X50.868 Y79.656
X50.871 Y79.639
X50.922 Y79.501
X50.968 Y79.361
X50.975 Y79.354
X50.985
X50.992 Y79.361
X51.037 Y79.5
X51.069 Y79.587
X51.084 Y79.612
X51.108 Y79.628
X51.136 Y79.634
X51.164 Y79.639
X51.188 Y79.655
X51.204 Y79.678
X51.207 Y79.683
X51.209 Y79.699
X51.204 Y79.714
X51.191 Y79.724
X51.097 Y79.77
X51.005 Y79.819
X50.977 Y79.827
X50.95 Y79.819
X50.86 Y79.77
X50.768 Y79.726
X50.755 Y79.716
X50.75 Y79.701
X50.752 Y79.685
G2 X50.88 Y79.354 I-2.524 J-1.163
X50.957 Y79.008 I-1.995 J-0.626
G1 X50.964 Y78.944
X50.97 Y78.881
X50.975 Y78.873
X50.985
X50.99 Y78.881
G2 X51.029 Y79.145 I4.36 J-0.509
X51.096 Y79.404 I1.731 J-0.31
X51.204 Y79.678 I2.924 J-0.999
G1 X51.217 Y79.698
X51.236 Y79.713
X51.258 Y79.722
X51.277 Y79.734
X51.285 Y79.754
X51.28 Y79.776
X51.264 Y79.791
G2 X51.007 Y79.923 I0.823 J1.916
G1 X50.987 Y79.93
X50.967
X50.948 Y79.923
X50.797 Y79.84
X50.639 Y79.77
X50.629 Y79.762
X50.624 Y79.749
X50.627 Y79.737
G2 X50.843 Y79.15 I-2.156 J-1.128
X50.896 Y78.528 I-2.182 J-0.498
G1 X50.889 Y78.444
X50.88 Y78.361
X50.883 Y78.345
X50.894 Y78.334
X50.909 Y78.33
X51.051
X51.066 Y78.334
X51.077 Y78.345
X51.079 Y78.361
G2 X51.076 Y78.873 I2.846 J0.275
X51.181 Y79.375 I2.081 J-0.173
G1 X51.249 Y79.555
X51.287 Y79.644
X51.33 Y79.73
X51.333 Y79.746
X51.327 Y79.76
X51.315 Y79.769
X51.264 Y79.791
X51.24 Y79.807
X51.224 Y79.831
X51.219 Y79.86
X51.214 Y79.888
X51.2 Y79.913
X51.177 Y79.931
X51.092 Y79.977
X51.009 Y80.028
X50.988 Y80.036
X50.966
X50.946 Y80.028
X50.784 Y79.933
X50.7 Y79.891
X50.614 Y79.853
X50.563 Y79.835
X50.511 Y79.818
X50.5 Y79.81
X50.495 Y79.797
X50.498 Y79.784
X50.512 Y79.761
X50.526 Y79.738
G2 X50.773 Y79.025 I-1.911 J-1.061
X50.779 Y78.27 I-2.461 J-0.398
G1 X50.781 Y78.255
X50.791 Y78.244
X50.806 Y78.24
X51.154
X51.169 Y78.244
X51.179 Y78.255
X51.181 Y78.27
X51.16 Y78.455
X51.154 Y78.547
X51.151 Y78.64
G2 X51.191 Y79.043 I2.057 J0.001
X51.297 Y79.435 I3.014 J-0.601
G1 X51.331 Y79.525
X51.37 Y79.612
X51.46 Y79.781
X51.463 Y79.795
X51.458 Y79.809
X51.446 Y79.817
G2 X51.177 Y79.931 I0.622 J1.852
G1 X51.154 Y79.949
X51.14 Y79.974
X51.137 Y80.003
X51.134 Y80.032
X51.121 Y80.058
X51.1 Y80.077
X51.007 Y80.137
X50.988 Y80.145
X50.967
X50.948 Y80.137
G2 X50.379 Y79.871 I-1.09 J1.593
G1 X50.367 Y79.863
X50.361 Y79.85
X50.365 Y79.836
G2 X50.487 Y79.618 I-3.147 J-1.915
X50.585 Y79.388 I-1.405 J-0.729
X50.682 Y79.019 I-2.841 J-0.943
X50.719 Y78.639 I-1.947 J-0.381
X50.693 Y78.282 I-2.505 J-0.002
G1 X50.684 Y78.231
X50.675 Y78.18
X50.677 Y78.165
X50.687 Y78.154
X50.702 Y78.15
X51.258
X51.273 Y78.154
X51.283 Y78.165
X51.285 Y78.18
X51.263 Y78.323
X51.253 Y78.394
X51.248 Y78.465
G2 X51.272 Y78.983 I2.763 J0.131
X51.517 Y79.708 I2.036 J-0.285
G1 X51.555 Y79.772
X51.595 Y79.835
X51.598 Y79.849
X51.593 Y79.862
X51.581 Y79.87
G2 X51.1 Y80.077 I0.51 J1.848
G1 X51.079 Y80.096
X51.067 Y80.122
Y80.151
Y80.179
X51.056 Y80.205
X51.037 Y80.226
X51.006 Y80.249
X50.988 Y80.257
X50.968
X50.95 Y80.249
G2 X50.225 Y79.927 I-1.079 J1.456
G1 X50.215 Y79.922
X50.211 Y79.911
X50.215 Y79.9
G2 X50.396 Y79.597 I-1.684 J-1.213
X50.529 Y79.271 I-2.373 J-1.159
X50.624 Y78.787 I-1.86 J-0.618
X50.605 Y78.295 I-2.318 J-0.159
G1 X50.588 Y78.193
X50.571 Y78.09
X50.573 Y78.075
X50.583 Y78.064
X50.598 Y78.06
X51.362
X51.377 Y78.064
X51.387 Y78.075
X51.389 Y78.09
X51.357 Y78.313
X51.342 Y78.436
X51.333 Y78.559
G2 X51.436 Y79.287 I1.964 J0.093
X51.567 Y79.603 I2.521 J-0.861
X51.742 Y79.896 I1.891 J-0.931
G1 X51.746 Y79.908
X51.741 Y79.921
X51.73 Y79.927
X51.61 Y79.955
X51.493 Y79.989
X51.378 Y80.032
X51.266 Y80.083
X51.198 Y80.119
X51.132 Y80.16
X51.037 Y80.226
X51.017 Y80.248
X51.007 Y80.277
X51.009 Y80.306
X51.01 Y80.329
X51. Y80.349
X50.982 Y80.361
X50.959 Y80.363
X50.939 Y80.354
G2 X50.061 Y79.993 I-1.064 J1.338
G1 X50.05 Y79.987
X50.046 Y79.976
X50.05 Y79.964
X50.155 Y79.831
X50.204 Y79.762
X50.247 Y79.689
G2 X50.46 Y79.183 I-2.192 J-1.217
X50.539 Y78.639 I-1.842 J-0.545
X50.514 Y78.319 I-2.125 J-0.001
G3 X50.467 Y78. I47.099 J-7.161
G1 X50.469 Y77.985
X50.479 Y77.974
X50.494 Y77.97
X51.466
X51.481 Y77.974
X51.491 Y77.985
X51.493 Y78.
G3 X51.446 Y78.319 I-42.019 J-6.034
G2 X51.421 Y78.64 I2.129 J0.322
X51.502 Y79.189 I1.909 J0.001
X51.719 Y79.7 I2.404 J-0.72
G1 X51.761 Y79.769
X51.808 Y79.836
X51.91 Y79.964
X51.914 Y79.975
X51.909 Y79.987
X51.898 Y79.992
G2 X51.003 Y80.364 I0.189 J1.717
G1 X50.987 Y80.372
X50.968
X50.951 Y80.364
X50.939 Y80.354
X50.913 Y80.341
X50.884 Y80.338
X50.856 Y80.348
X50.829 Y80.357
X50.8 Y80.356
X50.773 Y80.345
X50.693 Y80.294
X50.611 Y80.247
G2 X50.22 Y80.106 I-0.708 J1.343
G1 X50.133 Y80.09
X50.045 Y80.08
X49.867 Y80.072
X49.857 Y80.068
X49.852 Y80.057
X49.857 Y80.047
G2 X50.052 Y79.818 I-1.446 J-1.429
X50.214 Y79.564 I-1.954 J-1.429
X50.358 Y79.214 I-1.428 J-0.793
X50.435 Y78.844 I-2.592 J-0.731
X50.433 Y78.388 I-1.627 J-0.219
G1 X50.363 Y77.91
X50.365 Y77.895
X50.375 Y77.884
X50.39 Y77.88
X51.57
X51.584 Y77.884
X51.594 Y77.895
X51.597 Y77.91
G3 X51.541 Y78.274 I-20.294 J-2.914
G2 X51.511 Y78.64 I2.27 J0.368
X51.589 Y79.166 I1.821 J0.001
X51.797 Y79.655 I2.319 J-0.699
G1 X51.863 Y79.761
X51.937 Y79.861
X52.018 Y79.956
X52.103 Y80.047
X52.108 Y80.058
X52.103 Y80.068
X52.093 Y80.072
G2 X51.842 Y80.088 I0.005 J2.052
X51.597 Y80.142 I0.172 J1.37
X51.281 Y80.281 I0.48 J1.515
X51.002 Y80.483 I0.856 J1.48
G1 X50.986 Y80.491
X50.969 Y80.492
X50.953 Y80.483
X50.865 Y80.411
X50.773 Y80.345
X50.747 Y80.334
X50.718
X50.691 Y80.345
X50.665 Y80.357
X50.636 Y80.358
X50.609 Y80.349
X50.601 Y80.344
G2 X50.186 Y80.19 I-0.734 J1.341
X49.913 Y80.162 I-0.27 J1.264
G1 X49.649
X49.638 Y80.158
X49.634 Y80.148
X49.638 Y80.137
X49.785 Y79.991
X49.864 Y79.909
X49.938 Y79.823
G2 X50.212 Y79.356 I-1.278 J-1.061
X50.346 Y78.832 I-2.188 J-0.838
X50.337 Y78.321 I-1.692 J-0.228
G3 X50.259 Y77.816 I22.983 J-3.852
G1 X50.261 Y77.802
X50.271 Y77.791
X50.285 Y77.787
G2 X50.931 Y77.796 I0.502 J-12.609
G3 X51.577 Y77.793 I0.646 J56.529
G1 X51.626 Y77.79
X51.675 Y77.787
X51.689 Y77.791
X51.699 Y77.802
X51.701 Y77.816
G3 X51.637 Y78.226 I-15.683 J-2.252
G2 X51.601 Y78.64 I2.435 J0.415
X51.676 Y79.143 I1.732 J0.001
X51.876 Y79.611 I2.234 J-0.677
G1 X51.94 Y79.716
X52.012 Y79.815
X52.091 Y79.909
X52.176 Y79.998
X52.249 Y80.068
X52.322 Y80.137
X52.326 Y80.147
X52.321 Y80.158
X52.311 Y80.162
X52.068 Y80.16
X51.946 Y80.165
X51.825 Y80.18
G2 X51.379 Y80.329 I0.24 J1.455
X51. Y80.608 I0.73 J1.389
G1 X50.986 Y80.617
X50.969
X50.955 Y80.609
G2 X50.609 Y80.349 I-1.118 J1.13
G1 X50.581 Y80.34
X50.552 Y80.343
X50.527 Y80.356
X50.502 Y80.37
X50.473 Y80.374
X50.445 Y80.368
G2 X50.167 Y80.278 I-0.583 J1.335
X49.907 Y80.249 I-0.277 J1.295
X49.645 Y80.248 I-0.223 J18.118
G1 X49.525 Y80.256
X49.406 Y80.274
X49.396 Y80.271
X49.391 Y80.262
X49.395 Y80.252
G3 X49.728 Y79.927 I19.648 J19.762
G2 X50.011 Y79.558 I-1.086 J-1.13
X50.198 Y79.115 I-1.962 J-1.09
X50.269 Y78.639 I-1.585 J-0.477
X50.228 Y78.175 I-2.621 J-0.002
G3 X50.153 Y77.716 I13.84 J-2.479
G1 X50.155 Y77.702
X50.165 Y77.691
X50.179 Y77.689
X50.281 Y77.699
X50.382 Y77.704
X51.577
X51.679 Y77.699
X51.78 Y77.688
X51.794 Y77.691
X51.804 Y77.701
X51.806 Y77.716
G3 X51.758 Y78.037 I-23.246 J-3.338
G2 X51.709 Y78.358 I23.198 J3.66
X51.695 Y78.769 I1.89 J0.271
X51.777 Y79.171 I1.602 J-0.117
X51.909 Y79.486 I2.437 J-0.832
X52.096 Y79.772 I1.305 J-0.65
X52.325 Y80.018 I2.371 J-1.985
G3 X52.566 Y80.253 I-13.549 J14.112
G1 X52.57 Y80.263
X52.565 Y80.272
X52.554 Y80.275
X52.435 Y80.258
X52.314 Y80.25
X52.072 Y80.248
G2 X51.482 Y80.38 I0.003 J1.4
X50.998 Y80.742 I0.633 J1.353
G1 X50.985 Y80.75
X50.97
X50.957 Y80.742
G2 X50.445 Y80.368 I-1.094 J0.961
G1 X50.417 Y80.362
X50.389 Y80.367
X50.365 Y80.383
X50.341 Y80.399
X50.313 Y80.406
X50.285 Y80.402
X50.157 Y80.368
X50.043 Y80.349
X49.928 Y80.339
G2 X49.549 Y80.345 I-0.143 J2.814
X49.178 Y80.428 I0.119 J1.417
G1 X49.154 Y80.437
X49.131 Y80.448
X49.119
X49.11 Y80.441
X49.107 Y80.43
X49.108 Y80.418
X49.115 Y80.403
G3 X49.387 Y80.136 I22.863 J22.995
G2 X49.66 Y79.868 I-22.59 J-23.262
X49.924 Y79.525 I-1.158 J-1.164
X50.102 Y79.129 I-1.851 J-1.069
X50.176 Y78.748 I-1.436 J-0.477
X50.16 Y78.359 I-1.875 J-0.118
X50.103 Y77.983 I-31.788 J4.614
G3 X50.046 Y77.608 I31.731 J-4.99
G1 X50.049 Y77.594
X50.059 Y77.584
X50.072 Y77.583
X50.206 Y77.603
X50.341 Y77.613
X50.382 Y77.614
X51.577
X51.655 Y77.612
X51.733 Y77.605
X51.887 Y77.583
X51.901 Y77.584
X51.91 Y77.594
X51.913 Y77.607
G3 X51.856 Y77.989 I-32.802 J-4.71
G2 X51.799 Y78.371 I32.745 J5.092
X51.785 Y78.76 I1.802 J0.259
X51.862 Y79.142 I1.513 J-0.109
X51.987 Y79.442 I2.365 J-0.808
X52.165 Y79.715 I1.23 J-0.608
X52.494 Y80.063 I3.113 J-2.607
G3 X52.838 Y80.396 I-12.397 J13.155
G1 X52.845 Y80.411
X52.847 Y80.426
X52.844 Y80.439
X52.833 Y80.446
X52.821
X52.707 Y80.404
X52.589 Y80.372
X52.47 Y80.349
X52.349 Y80.339
G2 X52.004 Y80.341 I-0.147 J3.425
X51.665 Y80.404 I0.08 J1.384
X51.293 Y80.592 I0.392 J1.238
X50.996 Y80.886 I0.818 J1.121
G1 X50.985 Y80.895
X50.971
X50.959 Y80.887
G2 X50.698 Y80.622 I-1.148 J0.869
X50.377 Y80.435 I-0.831 J1.063
G1 X50.285 Y80.402
X50.255 Y80.399
X50.226 Y80.407
X50.203 Y80.426
X50.181 Y80.445
X50.152 Y80.455
X50.123
X50.024 Y80.438
X49.924 Y80.429
G2 X49.562 Y80.433 I-0.149 J2.924
X49.208 Y80.509 I0.095 J1.298
G1 X49.116 Y80.55
X49.028 Y80.599
X49.015 Y80.601
X49.005 Y80.594
X49.002 Y80.582
X49.019 Y80.404
X49.028 Y80.371
X49.048 Y80.343
G3 X49.322 Y80.073 I23.138 J23.272
G2 X49.596 Y79.804 I-22.864 J-23.541
X49.848 Y79.477 I-1.095 J-1.102
X50.016 Y79.101 I-1.777 J-1.022
X50.086 Y78.74 I-1.352 J-0.449
X50.071 Y78.372 I-1.787 J-0.11
X50.005 Y77.931 I-43.753 J6.35
G3 X49.938 Y77.49 I43.687 J-6.791
G1 X49.941 Y77.477
X49.951 Y77.468
X49.964 Y77.467
G2 X50.344 Y77.523 I0.441 J-1.673
G1 X50.382 Y77.524
X51.577
X51.683 Y77.52
X51.788 Y77.509
X51.892 Y77.491
X51.995 Y77.467
X52.008 Y77.468
X52.018 Y77.477
X52.021 Y77.491
X51.888 Y78.384
G2 X51.874 Y78.752 I1.714 J0.246
X51.947 Y79.113 I1.424 J-0.1
X52.066 Y79.398 I2.295 J-0.784
X52.234 Y79.657 I1.155 J-0.567
X52.562 Y80.004 I3.083 J-2.581
G3 X52.905 Y80.336 I-12.015 J12.769
G1 X52.924 Y80.364
X52.934 Y80.396
X52.954 Y80.582
X52.951 Y80.594
X52.941 Y80.601
X52.929 Y80.599
X52.835 Y80.551
X52.739 Y80.509
X52.639 Y80.475
X52.536 Y80.45
X52.419 Y80.433
X52.301 Y80.427
X52.073 Y80.428
G2 X51.45 Y80.598 I0.003 J1.234
X50.992 Y81.053 I0.659 J1.121
G1 X50.983 Y81.06
X50.971
X50.962 Y81.053
G2 X50.522 Y80.61 I-1.087 J0.642
X50.123 Y80.455 I-0.664 J1.113
G1 X50.094 Y80.454
X50.067 Y80.465
X50.047 Y80.486
X50.028 Y80.507
X50.002 Y80.519
X49.974 Y80.522
X49.872 Y80.517
X49.645 Y80.518
G2 X49.256 Y80.588 I0.002 J1.125
X48.913 Y80.786 I0.415 J1.118
G1 X48.904 Y80.788
X48.895 Y80.784
X48.892 Y80.774
X48.931 Y80.385
X48.938 Y80.349
X48.954 Y80.315
X48.977 Y80.287
G3 X49.255 Y80.013 I23.791 J23.929
G2 X49.533 Y79.74 I-23.513 J-24.202
X49.771 Y79.43 I-1.033 J-1.039
X49.931 Y79.073 I-1.703 J-0.976
X49.997 Y78.732 I-1.267 J-0.421
X49.982 Y78.385 I-1.699 J-0.102
G1 X49.835 Y77.403
X49.837 Y77.388
X49.847 Y77.377
X49.862 Y77.373
X49.91 Y77.372
X49.958 Y77.375
X50.027 Y77.391
X50.095 Y77.408
X50.22 Y77.426
X50.347 Y77.434
X50.382
X51.577
X51.66 Y77.432
X51.743 Y77.425
X51.907 Y77.4
X52.002 Y77.381
X52.049 Y77.375
X52.097 Y77.373
X52.112 Y77.377
X52.122 Y77.388
X52.124 Y77.403
X51.977 Y78.397
G2 X51.964 Y78.744 I1.626 J0.233
X52.033 Y79.084 I1.335 J-0.092
X52.193 Y79.436 I1.877 J-0.641
X52.429 Y79.743 I1.274 J-0.737
X52.702 Y80.011 I22.864 J-23.01
G3 X52.975 Y80.278 I-22.592 J23.278
G1 X52.998 Y80.308
X53.014 Y80.341
X53.022 Y80.378
X53.065 Y80.771
X53.062 Y80.782
X53.052 Y80.787
X53.041 Y80.784
G2 X52.341 Y80.518 I-0.746 J0.91
X52.028 Y80.52 I-0.144 J3.362
X51.72 Y80.575 I0.061 J1.222
X51.28 Y80.835 I0.343 J1.084
X50.991 Y81.257 I0.844 J0.887
G1 X50.983 Y81.265
X50.972
X50.964 Y81.257
G2 X50.111 Y80.542 I-1.099 J0.445
G1 X50.043 Y80.53
X49.974 Y80.522
X49.943 Y80.525
X49.917 Y80.54
X49.898 Y80.565
X49.88 Y80.589
X49.854 Y80.605
X49.824 Y80.61
X49.646 Y80.608
G2 X49.189 Y80.714 I0.002 J1.043
X48.82 Y81.003 I0.498 J1.017
G1 X48.81 Y81.008
X48.8 Y81.004
X48.795 Y80.994
G3 X48.811 Y80.684 I3.161 J0.
G1 X48.844 Y80.344
X48.852 Y80.308
X48.868 Y80.274
X48.891 Y80.246
G3 X49.18 Y79.961 I25.806 J25.956
G2 X49.47 Y79.676 I-25.517 J-26.24
X49.695 Y79.382 I-0.97 J-0.976
X49.845 Y79.044 I-1.629 J-0.929
X49.907 Y78.724 I-1.183 J-0.393
X49.893 Y78.398 I-1.611 J-0.094
G1 X49.731 Y77.314
X49.733 Y77.298
X49.743 Y77.287
X49.758 Y77.283
X49.946 Y77.282
X49.995 Y77.289
G2 X50.35 Y77.344 I0.4 J-1.424
G1 X50.382
X51.577
X51.675 Y77.341
X51.772 Y77.33
X51.868 Y77.313
X51.963 Y77.289
X52.012 Y77.283
X52.201 Y77.282
X52.216 Y77.287
X52.226 Y77.298
X52.228 Y77.313
X52.066 Y78.41
G2 X52.054 Y78.735 I1.538 J0.221
X52.118 Y79.055 I1.246 J-0.084
X52.269 Y79.389 I1.794 J-0.613
X52.493 Y79.679 I1.199 J-0.691
X52.777 Y79.958 I24.811 J-24.969
G3 X53.061 Y80.237 I-24.527 J25.248
G1 X53.084 Y80.266
X53.1 Y80.3
X53.108 Y80.336
X53.116 Y80.4
X53.121 Y80.464
G2 X53.146 Y80.731 I3.378 J-0.183
G3 X53.164 Y80.998 I-1.994 J0.267
G1 X53.16 Y81.008
X53.149 Y81.012
X53.139 Y81.007
X53.069 Y80.929
X52.992 Y80.858
X52.908 Y80.794
X52.819 Y80.739
G2 X52.586 Y80.646 I-0.492 J0.896
X52.337 Y80.608 I-0.299 J1.143
X52.04 Y80.609 I-0.144 J3.349
X51.747 Y80.661 I0.052 J1.141
X51.3 Y80.94 I0.321 J1.013
X51.038 Y81.396 I0.794 J0.759
G1 X51.028 Y81.414
X51.013 Y81.426
X50.993 Y81.43
X50.962
X50.943 Y81.426
X50.927 Y81.414
X50.917 Y81.397
G2 X50.275 Y80.685 I-1.063 J0.314
X49.964 Y80.616 I-0.361 J0.885
G1 X49.824 Y80.61
X49.797 Y80.615
X49.773 Y80.63
X49.758 Y80.652
X49.743 Y80.675
X49.72 Y80.69
X49.693 Y80.696
X49.602 Y80.7
G2 X49.301 Y80.763 I0.062 J1.053
X48.95 Y80.989 I0.33 J0.899
X48.724 Y81.34 I0.719 J0.71
G1 X48.717 Y81.346
X48.709 Y81.345
X48.705 Y81.337
Y81.211
X48.707 Y81.086
X48.709 Y80.96
X48.71 Y80.835
X48.72 Y80.702
X48.734 Y80.569
X48.746 Y80.436
X48.758 Y80.303
X48.766 Y80.267
X48.781 Y80.233
X48.804 Y80.204
G3 X49.105 Y79.909 I27.904 J28.065
G2 X49.406 Y79.613 I-27.603 J-28.361
X49.618 Y79.335 I-0.908 J-0.913
X49.76 Y79.016 I-1.556 J-0.883
X49.817 Y78.716 I-1.099 J-0.365
X49.804 Y78.411 I-1.523 J-0.086
G1 X49.627 Y77.228
X49.63 Y77.211
X49.641 Y77.197
X49.658 Y77.193
X49.95 Y77.192
X49.983 Y77.195
X50.015 Y77.201
X50.105 Y77.224
X50.197 Y77.24
X50.289 Y77.251
X50.382 Y77.254
X51.577
X51.67 Y77.251
X51.762 Y77.241
X51.853 Y77.224
X51.942 Y77.202
X51.975 Y77.195
X52.007 Y77.193
X52.3 Y77.192
X52.317 Y77.197
X52.329 Y77.211
X52.331 Y77.228
X52.155 Y78.422
G2 X52.143 Y78.727 I1.45 J0.208
X52.203 Y79.026 I1.157 J-0.076
X52.346 Y79.341 I1.712 J-0.585
X52.556 Y79.615 I1.124 J-0.644
X52.851 Y79.905 I26.837 J-27.008
G3 X53.147 Y80.196 I-26.542 J27.298
G1 X53.17 Y80.225
X53.186 Y80.259
X53.194 Y80.295
X53.202 Y80.364
X53.208 Y80.432
X53.216 Y80.535
X53.229 Y80.638
X53.242 Y80.741
X53.249 Y80.844
X53.252 Y80.967
Y81.09
X53.253 Y81.213
X53.254 Y81.337
X53.25 Y81.345
X53.24 Y81.347
X53.233 Y81.341
G2 X52.94 Y80.931 I-0.925 J0.352
X52.485 Y80.715 I-0.65 J0.784
G1 X52.383 Y80.7
X52.279 Y80.696
X52.073 Y80.698
G2 X51.452 Y80.923 I0.002 J0.977
X51.107 Y81.487 I0.652 J0.786
G1 X51.099 Y81.504
X51.084 Y81.516
X51.066 Y81.52
X50.888
X50.87 Y81.516
X50.856 Y81.504
X50.848 Y81.487
G2 X50.513 Y80.934 I-0.971 J0.21
X49.91 Y80.699 I-0.654 J0.786
G1 X49.802 Y80.695
X49.693 Y80.696
X49.664 Y80.703
X49.64 Y80.72
X49.625 Y80.745
X49.61 Y80.771
X49.587 Y80.789
X49.559 Y80.798
X49.542 Y80.799
G2 X49.196 Y80.912 I0.099 J0.891
X48.898 Y81.194 I0.429 J0.752
X48.754 Y81.578 I0.807 J0.521
G1 X48.748 Y81.594
X48.734 Y81.606
X48.717 Y81.61
X48.647
X48.631 Y81.606
X48.619 Y81.594
X48.615 Y81.579
Y81.532
X48.616 Y81.485
G2 X48.618 Y81.158 I-3.794 J-0.187
G3 X48.62 Y80.83 I3.796 J-0.14
G1 X48.631 Y80.688
X48.646 Y80.546
X48.658 Y80.404
X48.671 Y80.262
X48.679 Y80.226
X48.695 Y80.192
X48.718 Y80.163
G3 X49.03 Y79.856 I30.083 J30.257
G2 X49.343 Y79.549 I-29.771 J-30.564
X49.542 Y79.288 I-0.846 J-0.851
X49.675 Y78.987 I-1.483 J-0.837
X49.728 Y78.708 I-1.015 J-0.337
X49.715 Y78.424 I-1.436 J-0.077
G1 X49.527 Y77.163
X49.529 Y77.145
X49.539 Y77.131
X49.554 Y77.122
X49.582 Y77.115
X49.614 Y77.107
X49.644 Y77.103
X49.803
X49.962 Y77.102
X49.995 Y77.105
X50.028 Y77.111
X50.115 Y77.133
X50.203 Y77.15
X50.292 Y77.161
X50.382 Y77.164
X51.577
X51.667 Y77.161
X51.755 Y77.15
X51.843 Y77.134
X51.929 Y77.112
X51.962 Y77.105
X51.995 Y77.103
X52.315 Y77.102
X52.343 Y77.106
X52.38 Y77.116
X52.405 Y77.122
X52.42 Y77.131
X52.43 Y77.145
X52.432 Y77.163
X52.244 Y78.435
G2 X52.233 Y78.718 I1.363 J0.196
X52.288 Y78.996 I1.069 J-0.068
X52.422 Y79.293 I1.631 J-0.557
X52.62 Y79.551 I1.049 J-0.598
X52.926 Y79.853 I28.943 J-29.127
G3 X53.233 Y80.154 I-28.636 J29.428
G1 X53.256 Y80.183
X53.272 Y80.217
X53.28 Y80.254
X53.285 Y80.29
X53.288 Y80.327
G2 X53.314 Y80.583 I2.773 J-0.15
G3 X53.339 Y80.839 I-2.747 J0.406
G1 X53.343 Y81.024
X53.342 Y81.209
X53.343 Y81.393
X53.344 Y81.578
X53.34 Y81.594
X53.328 Y81.606
X53.312 Y81.61
X53.239
X53.222 Y81.606
X53.208 Y81.594
X53.202 Y81.578
G2 X53.13 Y81.326 I-0.976 J0.142
X52.991 Y81.103 I-0.817 J0.356
X52.755 Y80.909 I-0.662 J0.564
X52.467 Y80.803 I-0.473 J0.843
G1 X52.37 Y80.789
X52.271 Y80.786
X52.074 Y80.788
G2 X51.48 Y81.015 I0.002 J0.895
X51.183 Y81.577 I0.607 J0.681
G1 X51.176 Y81.594
X51.163 Y81.606
X51.145 Y81.61
X50.81
X50.793 Y81.606
X50.779 Y81.594
X50.773 Y81.578
G2 X50.635 Y81.207 I-0.929 J0.133
X50.355 Y80.927 I-0.771 J0.491
G1 X50.286 Y80.887
X50.214 Y80.854
X50.139 Y80.828
X50.024 Y80.802
X49.906 Y80.788
G2 X49.559 Y80.798 I-0.115 J2.256
G1 X49.532 Y80.806
X49.511 Y80.824
X49.498 Y80.849
X49.487 Y80.874
X49.467 Y80.893
X49.442 Y80.905
G2 X49.082 Y81.11 I0.206 J0.78
X48.836 Y81.669 I0.579 J0.587
G1 X48.832 Y81.684
X48.82 Y81.696
X48.804 Y81.7
X48.557
X48.541 Y81.696
X48.529 Y81.684
X48.525 Y81.669
Y81.616
X48.526 Y81.563
X48.528 Y81.471
X48.527 Y81.379
X48.525 Y81.287
X48.528 Y81.194
X48.53 Y81.102
X48.529 Y81.01
X48.527 Y80.918
X48.53 Y80.826
X48.542 Y80.674
X48.557 Y80.523
X48.571 Y80.372
X48.585 Y80.221
X48.593 Y80.185
X48.609 Y80.151
X48.632 Y80.122
X49.279 Y79.485
G2 X49.465 Y79.24 I-0.784 J-0.789
X49.589 Y78.959 I-1.41 J-0.791
X49.638 Y78.7 I-0.931 J-0.309
X49.626 Y78.437 I-1.35 J-0.069
G1 X49.425 Y77.088
X49.427 Y77.072
X49.437 Y77.058
X49.452 Y77.052
X49.522 Y77.038
X49.59 Y77.02
X49.617 Y77.014
X49.643 Y77.013
X49.809
X49.975 Y77.012
X50.008 Y77.015
X50.04 Y77.021
X50.124 Y77.043
X50.209 Y77.06
X50.295 Y77.07
X50.382 Y77.074
X51.577
X51.663 Y77.071
X51.749 Y77.06
X51.833 Y77.043
X51.917 Y77.022
X51.949 Y77.015
X51.982 Y77.013
X52.316 Y77.012
X52.368 Y77.02
X52.437 Y77.038
X52.506 Y77.052
X52.522 Y77.058
X52.532 Y77.072
X52.533 Y77.089
X52.333 Y78.448
G2 X52.322 Y78.71 I1.276 J0.183
X52.373 Y78.967 I0.98 J-0.06
X52.498 Y79.245 I1.55 J-0.529
X52.683 Y79.488 I0.974 J-0.552
X53.001 Y79.8 I31.128 J-31.326
G3 X53.319 Y80.113 I-30.81 J31.639
G1 X53.342 Y80.142
X53.358 Y80.176
X53.367 Y80.212
X53.371 Y80.251
X53.374 Y80.29
G2 X53.402 Y80.562 I2.917 J-0.158
G3 X53.429 Y80.834 I-2.89 J0.43
G1 X53.433 Y81.043
X53.432 Y81.251
X53.433 Y81.46
X53.434 Y81.668
X53.43 Y81.684
X53.418 Y81.696
X53.402 Y81.7
X53.153
X53.136 Y81.696
X53.125 Y81.684
X53.12 Y81.669
G2 X52.92 Y81.163 I-0.813 J0.029
X52.45 Y80.892 I-0.631 J0.549
G1 X52.357 Y80.879
X52.262 Y80.876
X52.074 Y80.878
G2 X51.51 Y81.111 I0.002 J0.803
X51.264 Y81.669 I0.586 J0.591
G1 X51.26 Y81.684
X51.248 Y81.696
X51.231 Y81.7
X50.723
X50.707 Y81.696
X50.695 Y81.684
X50.69 Y81.669
G2 X50.496 Y81.169 I-0.81 J0.027
X50.036 Y80.894 I-0.635 J0.543
G1 X49.939 Y80.88
X49.841 Y80.876
X49.646 Y80.878
X49.543 Y80.885
X49.442 Y80.905
X49.415 Y80.918
X49.395 Y80.942
X49.385 Y80.971
X49.377 Y81.
X49.359 Y81.025
X49.335 Y81.042
X49.285 Y81.068
G2 X49.092 Y81.232 I0.343 J0.6
X48.966 Y81.451 I0.613 J0.5
G1 X48.947 Y81.51
X48.934 Y81.57
X48.926 Y81.631
X48.924 Y81.693
X48.925 Y81.726
X48.926 Y81.758
X48.922 Y81.774
X48.91 Y81.786
X48.894 Y81.79
X48.467
X48.451 Y81.786
X48.439 Y81.774
X48.435 Y81.759
Y81.729
Y81.7
X48.436 Y81.59
Y81.48
G2 X48.438 Y81.151 I-3.714 J-0.183
G3 X48.44 Y80.821 I3.716 J-0.146
G1 X48.452 Y80.661
X48.469 Y80.5
X48.484 Y80.34
X48.499 Y80.18
X48.506 Y80.144
X48.522 Y80.11
X48.545 Y80.081
X49.216 Y79.421
G2 X49.389 Y79.193 I-0.722 J-0.726
X49.504 Y78.931 I-1.339 J-0.745
G1 X49.526 Y78.853
X49.541 Y78.773
X49.548 Y78.692
Y78.571
X49.537 Y78.45
X49.323 Y77.008
X49.325 Y76.992
X49.335 Y76.98
X49.35 Y76.974
X49.46 Y76.959
X49.568 Y76.933
X49.604 Y76.925
X49.64 Y76.922
X49.683 Y76.923
X49.987 Y76.922
X50.02 Y76.925
X50.052 Y76.931
X50.186 Y76.965
X50.253 Y76.977
X50.322 Y76.982
X50.352 Y76.984
X50.382
X51.577
X51.699 Y76.976
X51.82 Y76.956
X51.862 Y76.945
X51.904 Y76.932
X51.937 Y76.925
X51.97 Y76.923
X52.321 Y76.922
X52.356 Y76.925
X52.39 Y76.933
X52.499 Y76.959
X52.609 Y76.975
X52.624 Y76.98
X52.634 Y76.992
X52.636 Y77.008
X52.422 Y78.461
X52.411 Y78.581
X52.412 Y78.702
X52.42 Y78.782
X52.436 Y78.861
X52.458 Y78.938
G2 X52.575 Y79.198 I1.47 J-0.502
X52.747 Y79.424 I0.899 J-0.506
G1 X53.405 Y80.071
X53.428 Y80.101
X53.444 Y80.134
X53.453 Y80.171
X53.457 Y80.212
X53.461 Y80.253
G2 X53.49 Y80.541 I3.063 J-0.166
G3 X53.519 Y80.829 I-3.033 J0.454
G1 X53.524 Y80.945
Y81.062
X53.522 Y81.294
X53.524 Y81.758
X53.52 Y81.774
X53.508 Y81.786
X53.492 Y81.79
X53.062
X53.046 Y81.786
X53.035 Y81.774
X53.03 Y81.758
X53.031 Y81.664
X53.029 Y81.617
X53.023 Y81.57
G2 X52.779 Y81.145 I-0.701 J0.12
X52.322 Y80.968 I-0.49 J0.584
X52.03 Y80.972 I-0.11 J2.557
X51.748 Y81.049 I0.053 J0.748
X51.48 Y81.284 I0.314 J0.628
X51.354 Y81.618 I0.636 J0.43
G1 X51.352 Y81.688
X51.354 Y81.758
X51.349 Y81.774
X51.338 Y81.786
X51.322 Y81.79
X50.633
X50.617 Y81.786
X50.605 Y81.774
X50.601 Y81.758
Y81.662
X50.599 Y81.614
X50.593 Y81.566
G2 X50.349 Y81.146 I-0.7 J0.124
X49.896 Y80.968 I-0.492 J0.588
X49.584 Y80.974 I-0.113 J2.217
X49.335 Y81.042 I0.066 J0.732
G1 X49.311 Y81.061
X49.296 Y81.087
X49.293 Y81.116
X49.291 Y81.146
X49.28 Y81.173
X49.26 Y81.195
X49.201 Y81.247
X49.148 Y81.307
X49.103 Y81.372
G2 X49.011 Y81.693 I0.524 J0.322
G1 X49.014 Y81.771
X49.016 Y81.848
X49.012 Y81.864
X49. Y81.876
X48.984 Y81.88
X48.377
X48.361 Y81.876
X48.349 Y81.864
X48.345 Y81.849
Y81.816
Y81.784
X48.346 Y81.663
Y81.542
G2 X48.348 Y81.18 I-4.048 J-0.2
G3 X48.35 Y80.817 I4.05 J-0.163
G1 X48.363 Y80.647
X48.381 Y80.478
X48.397 Y80.308
X48.412 Y80.139
X48.42 Y80.103
X48.436 Y80.069
X48.459 Y80.04
X49.152 Y79.357
G2 X49.312 Y79.145 I-0.661 J-0.664
X49.418 Y78.902 I-1.268 J-0.699
G1 X49.446 Y78.795
X49.459 Y78.684
X49.458 Y78.573
X49.448 Y78.463
X49.219 Y76.92
X49.221 Y76.905
X49.231 Y76.893
X49.246 Y76.889
X49.323 Y76.886
X49.4 Y76.878
X49.476 Y76.864
X49.551 Y76.844
X49.588 Y76.835
X49.627 Y76.832
X49.697 Y76.833
X50. Y76.832
X50.035 Y76.835
X50.068 Y76.842
X50.215 Y76.878
X50.289 Y76.889
X50.364 Y76.894
X50.382
X51.577
X51.69 Y76.887
X51.802 Y76.868
X51.846 Y76.856
X51.889 Y76.842
X51.923 Y76.835
X51.957 Y76.833
X52.334 Y76.832
X52.372 Y76.835
X52.408 Y76.844
X52.483 Y76.864
X52.559 Y76.878
X52.636 Y76.887
X52.713 Y76.889
X52.728 Y76.894
X52.738 Y76.905
X52.74 Y76.92
X52.511 Y78.474
X52.501 Y78.583
X52.502 Y78.693
X52.515 Y78.803
X52.544 Y78.909
G2 X52.651 Y79.15 I1.39 J-0.475
X52.81 Y79.36 I0.825 J-0.46
G1 X53.491 Y80.03
X53.514 Y80.059
X53.53 Y80.093
X53.539 Y80.129
X53.544 Y80.173
X53.547 Y80.216
G2 X53.578 Y80.52 I3.208 J-0.173
G3 X53.609 Y80.824 I-3.177 J0.478
G1 X53.612 Y80.952
X53.611 Y81.08
X53.614 Y81.848
X53.61 Y81.864
X53.598 Y81.876
X53.582 Y81.88
X52.972
X52.956 Y81.876
X52.945 Y81.864
X52.94 Y81.848
Y81.667
X52.933 Y81.579
X52.91 Y81.494
G2 X52.671 Y81.178 I-0.623 J0.223
X52.293 Y81.057 I-0.376 J0.528
G1 X52.045 Y81.061
X51.962 Y81.07
X51.881 Y81.09
X51.804 Y81.122
G2 X51.563 Y81.323 I0.304 J0.609
X51.445 Y81.614 I0.492 J0.368
G1 X51.441 Y81.673
Y81.731
X51.444 Y81.848
X51.439 Y81.864
X51.428 Y81.876
X51.412 Y81.88
X50.543
X50.527 Y81.876
X50.515 Y81.864
X50.511 Y81.848
Y81.673
X50.504 Y81.586
X50.483 Y81.5
G2 X49.863 Y81.057 I-0.621 J0.213
X49.598 Y81.064 I0.012 J5.485
X49.343 Y81.139 I0.029 J0.571
G1 X49.26 Y81.195
X49.241 Y81.218
X49.232 Y81.246
X49.236 Y81.276
X49.241 Y81.305
X49.236 Y81.334
X49.222 Y81.36
G2 X49.109 Y81.613 I0.458 J0.356
G1 X49.099 Y81.694
X49.1 Y81.776
X49.106 Y81.938
X49.101 Y81.954
X49.09 Y81.966
X49.074 Y81.97
X48.287
X48.271 Y81.966
X48.259 Y81.954
X48.255 Y81.939
Y81.903
Y81.868
X48.256 Y81.736
Y81.604
X48.259 Y81.505
X48.257 Y81.406
X48.255 Y81.307
X48.258 Y81.208
X48.261 Y81.109
X48.259 Y81.01
X48.257 Y80.911
X48.26 Y80.812
X48.274 Y80.634
X48.293 Y80.455
X48.309 Y80.276
X48.326 Y80.098
X48.334 Y80.062
X48.349 Y80.028
X48.372 Y79.999
X49.089 Y79.293
X49.144 Y79.233
X49.193 Y79.168
X49.236 Y79.098
X49.289 Y78.988
X49.333 Y78.874
X49.358 Y78.776
X49.369 Y78.676
X49.368 Y78.576
X49.358 Y78.476
X49.115 Y76.83
X49.117 Y76.815
X49.127 Y76.804
X49.142 Y76.799
X49.299 Y76.798
X49.378 Y76.793
X49.456 Y76.778
X49.495 Y76.767
X49.533 Y76.755
X49.572 Y76.745
X49.613 Y76.742
X49.712 Y76.743
X50.013 Y76.742
X50.05 Y76.745
X50.086 Y76.754
X50.155 Y76.773
X50.225 Y76.788
X50.296 Y76.799
X50.367 Y76.804
X50.382
X51.577
X51.652 Y76.801
X51.727 Y76.79
X51.8 Y76.774
X51.872 Y76.754
X51.908 Y76.745
X51.944 Y76.743
X52.349 Y76.742
X52.388 Y76.745
X52.425 Y76.755
X52.491 Y76.774
X52.557 Y76.79
X52.625 Y76.8
X52.693 Y76.803
X52.755 Y76.801
X52.817 Y76.799
X52.832 Y76.804
X52.842 Y76.815
X52.844 Y76.83
X52.6 Y78.486
X52.591 Y78.585
Y78.685
X52.603 Y78.784
X52.629 Y78.88
X52.673 Y78.993
X52.727 Y79.102
X52.77 Y79.171
X52.819 Y79.236
X52.873 Y79.296
X53.577 Y79.989
X53.6 Y80.018
X53.616 Y80.052
X53.625 Y80.088
X53.63 Y80.134
X53.634 Y80.18
G2 X53.667 Y80.5 I3.354 J-0.181
G3 X53.699 Y80.82 I-3.322 J0.501
G1 X53.702 Y80.959
X53.701 Y81.099
X53.704 Y81.938
X53.7 Y81.954
X53.688 Y81.966
X53.672 Y81.97
X52.882
X52.866 Y81.966
X52.855 Y81.954
X52.85 Y81.938
Y81.676
G2 X52.783 Y81.43 I-0.487 J0.
X52.593 Y81.232 I-0.511 J0.3
X52.331 Y81.149 I-0.285 J0.443
G1 X52.202 Y81.147
X52.074 Y81.148
G2 X51.743 Y81.265 I0.001 J0.531
X51.549 Y81.557 I0.363 J0.452
G1 X51.535 Y81.62
X51.528 Y81.683
Y81.747
X51.534 Y81.938
X51.529 Y81.954
X51.518 Y81.966
X51.502 Y81.97
X50.453
X50.437 Y81.966
X50.425 Y81.954
X50.421 Y81.938
X50.422 Y81.689
X50.416 Y81.605
X50.396 Y81.523
X50.363 Y81.446
G2 X50.174 Y81.238 I-0.518 J0.28
X49.907 Y81.149 I-0.293 J0.435
G1 X49.777 Y81.147
X49.647 Y81.148
G2 X49.293 Y81.283 I0.001 J0.532
G1 X49.256 Y81.32
X49.222 Y81.36
X49.208 Y81.387
X49.207 Y81.417
X49.218 Y81.446
X49.23 Y81.473
X49.232 Y81.502
X49.226 Y81.531
X49.209 Y81.579
X49.197 Y81.629
X49.191 Y81.693
X49.194 Y81.861
X49.196 Y82.028
X49.191 Y82.044
X49.18 Y82.056
X49.164 Y82.06
X48.197
X48.181 Y82.056
X48.169 Y82.044
X48.165 Y82.029
Y81.99
Y81.952
X48.166 Y81.881
Y81.809
Y81.684
X48.167 Y81.559
G2 X48.168 Y81.183 I-4.128 J-0.204
G3 X48.17 Y80.808 I4.13 J-0.172
G1 X48.185 Y80.62
X48.205 Y80.432
X48.222 Y80.244
X48.239 Y80.057
X48.247 Y80.021
X48.263 Y79.987
X48.286 Y79.958
X49.025 Y79.23
X49.076 Y79.174
X49.12 Y79.115
X49.159 Y79.051
X49.208 Y78.95
X49.248 Y78.846
X49.27 Y78.758
X49.279 Y78.668
X49.278 Y78.578
X49.269 Y78.489
X49.011 Y76.74
X49.013 Y76.725
X49.023 Y76.714
X49.038 Y76.709
X49.27
X49.349 Y76.705
X49.426 Y76.692
X49.502 Y76.671
X49.51 Y76.668
X49.519 Y76.665
X49.558 Y76.655
X49.598 Y76.652
X49.728 Y76.653
X49.968 Y76.652
X50.057 Y76.658
X50.144 Y76.677
X50.262 Y76.704
X50.322 Y76.711
X50.382 Y76.714
X51.577
X51.638 Y76.711
X51.697 Y76.704
X51.815 Y76.677
X51.899 Y76.659
X51.985 Y76.653
X52.173
X52.36 Y76.652
X52.4 Y76.655
X52.44 Y76.665
X52.564 Y76.7
X52.628 Y76.71
X52.693 Y76.714
X52.807 Y76.712
X52.921 Y76.709
X52.936 Y76.714
X52.946 Y76.725
X52.948 Y76.74
X52.689 Y78.499
X52.681 Y78.588
Y78.677
X52.691 Y78.765
X52.714 Y78.851
X52.754 Y78.955
X52.803 Y79.055
X52.842 Y79.118
X52.887 Y79.177
X52.937 Y79.232
X53.663 Y79.947
X53.686 Y79.977
X53.702 Y80.01
X53.711 Y80.047
X53.716 Y80.095
X53.721 Y80.143
X53.727 Y80.227
X53.738 Y80.311
X53.748 Y80.395
X53.755 Y80.479
X53.762 Y80.563
X53.772 Y80.647
X53.783 Y80.731
X53.789 Y80.815
X53.792 Y80.966
X53.791 Y81.118
X53.794 Y82.028
X53.79 Y82.044
X53.778 Y82.056
X53.762 Y82.06
X52.792
X52.777 Y82.056
X52.765 Y82.044
X52.761 Y82.028
X52.763 Y81.861
X52.765 Y81.694
G2 X52.653 Y81.401 I-0.443 J0.
X52.381 Y81.245 I-0.366 J0.325
G1 X52.305 Y81.235
X52.228 Y81.234
X52.075 Y81.238
G2 X51.797 Y81.337 I0.001 J0.441
X51.635 Y81.582 I0.309 J0.38
G1 X51.623 Y81.639
X51.619 Y81.697
X51.621 Y81.863
X51.624 Y82.028
X51.619 Y82.044
X51.608 Y82.056
X51.592 Y82.06
X50.363
X50.347 Y82.056
X50.335 Y82.044
X50.331 Y82.028
X50.333 Y81.86
X50.335 Y81.692
G2 X50.227 Y81.403 I-0.44 J0.
X49.96 Y81.247 I-0.368 J0.322
G1 X49.883 Y81.235
X49.804 Y81.234
X49.647 Y81.238
G2 X49.351 Y81.352 I0.001 J0.443
G1 X49.3 Y81.405
X49.258 Y81.465
X49.226 Y81.531
X49.22 Y81.561
X49.227 Y81.591
X49.246 Y81.616
X49.265 Y81.638
X49.277 Y81.665
X49.281 Y81.695
X49.284 Y81.906
X49.286 Y82.118
X49.281 Y82.134
X49.27 Y82.146
X49.254 Y82.15
X48.107
X48.091 Y82.146
X48.079 Y82.134
X48.075 Y82.119
Y82.077
Y82.036
X48.076 Y81.959
Y81.882
Y81.747
X48.077 Y81.613
X48.08 Y81.511
X48.078 Y81.41
X48.076 Y81.309
X48.078 Y81.208
X48.081 Y81.107
X48.079 Y81.006
X48.077 Y80.905
X48.08 Y80.804
X48.096 Y80.606
X48.116 Y80.41
X48.135 Y80.213
X48.153 Y80.016
X48.161 Y79.98
X48.177 Y79.946
X48.2 Y79.917
X48.962 Y79.166
X49.028 Y79.089
X49.082 Y79.003
X49.126 Y78.912
X49.162 Y78.817
X49.182 Y78.74
X49.19 Y78.66
X49.188 Y78.581
X49.18 Y78.502
X48.907 Y76.65
X48.909 Y76.635
X48.919 Y76.624
X48.934 Y76.619
G3 X49.204 Y76.624 I0.004 J7.373
G2 X49.472 Y76.585 I0.027 J-0.755
G1 X49.545 Y76.568
X49.62 Y76.562
X49.708 Y76.563
X50.011 Y76.562
X50.077 Y76.567
X50.142 Y76.582
X50.256 Y76.611
X50.314 Y76.62
X50.373 Y76.624
X50.382
X51.577
X51.638 Y76.621
X51.699 Y76.612
X51.817 Y76.582
X51.881 Y76.568
X51.946 Y76.563
X52.347 Y76.562
X52.417 Y76.568
X52.485 Y76.585
G2 X52.754 Y76.624 I0.242 J-0.719
G3 X53.025 Y76.619 I0.268 J7.621
G1 X53.04 Y76.624
X53.05 Y76.635
X53.052 Y76.65
X52.779 Y78.512
X52.771 Y78.59
X52.77 Y78.668
X52.779 Y78.746
X52.799 Y78.822
X52.836 Y78.916
X52.88 Y79.007
X52.934 Y79.092
X53. Y79.168
X53.749 Y79.906
X53.772 Y79.935
X53.789 Y79.969
X53.797 Y80.005
X53.803 Y80.056
X53.807 Y80.106
X53.814 Y80.194
X53.825 Y80.282
X53.836 Y80.37
X53.843 Y80.458
X53.85 Y80.546
X53.861 Y80.634
X53.873 Y80.722
X53.879 Y80.81
X53.882 Y80.973
X53.881 Y81.137
X53.884 Y82.118
X53.88 Y82.134
X53.868 Y82.146
X53.852 Y82.15
X52.703
X52.687 Y82.146
X52.675 Y82.134
X52.671 Y82.118
X52.673 Y81.906
X52.675 Y81.694
G2 X52.584 Y81.458 I-0.353 J0.
X52.364 Y81.333 I-0.297 J0.268
G1 X52.292 Y81.324
X52.219
X52.075 Y81.328
X52.015 Y81.333
X51.956 Y81.349
X51.901 Y81.374
X51.852 Y81.408
X51.808 Y81.45
X51.772 Y81.498
X51.743 Y81.551
X51.722 Y81.607
X51.712 Y81.652
X51.709 Y81.697
X51.711 Y81.908
X51.714 Y82.118
X51.709 Y82.134
X51.698 Y82.146
X51.682 Y82.15
X50.273
X50.257 Y82.146
X50.245 Y82.134
X50.241 Y82.118
X50.243 Y81.905
X50.245 Y81.692
X50.239 Y81.629
X50.222 Y81.568
X50.194 Y81.511
X50.157 Y81.46
X50.111 Y81.416
X50.059 Y81.38
X50.002 Y81.353
X49.942 Y81.335
X49.903 Y81.329
X49.864 Y81.327
X49.723 Y81.325
X49.653 Y81.327
X49.583 Y81.335
X49.521 Y81.352
X49.463 Y81.381
X49.411 Y81.42
X49.366 Y81.467
X49.33 Y81.52
X49.303 Y81.578
X49.287 Y81.635
X49.281 Y81.693
Y81.695
X49.287 Y81.723
X49.303 Y81.746
X49.327 Y81.762
X49.35 Y81.778
X49.366 Y81.802
X49.372 Y81.83
X49.374 Y81.951
G3 X49.375 Y82.208 I-6.174 J0.145
G1 X49.37 Y82.224
X49.359 Y82.236
X49.342 Y82.24
X48.017
X48.001 Y82.236
X47.989 Y82.224
X47.985 Y82.209
Y82.187
Y82.165
Y82.079
X47.986 Y81.994
Y81.845
X47.987 Y81.695
X47.99 Y81.583
X47.988 Y81.471
X47.985 Y81.359
X47.988 Y81.247
X47.991 Y81.135
X47.989 Y81.023
X47.987 Y80.911
X47.99 Y80.799
X48.006 Y80.593
X48.028 Y80.387
X48.047 Y80.181
X48.067 Y79.975
X48.074 Y79.938
X48.09 Y79.905
X48.113 Y79.876
X48.898 Y79.102
X48.958 Y79.033
X49.006 Y78.956
X49.045 Y78.874
X49.077 Y78.789
X49.094 Y78.722
X49.1 Y78.653
X49.098 Y78.583
X49.091 Y78.515
X48.809 Y76.592
X48.805 Y76.576
X48.801 Y76.56
X48.802 Y76.545
X48.811 Y76.534
X48.825 Y76.529
X49.073 Y76.535
X49.198 Y76.536
X49.322 Y76.53
X49.364 Y76.524
X49.405 Y76.513
X49.486 Y76.486
X49.536 Y76.473
X49.588 Y76.472
X49.811 Y76.48
X49.922 Y76.478
X50.034 Y76.472
X50.088 Y76.473
X50.142 Y76.487
X50.237 Y76.518
X50.286 Y76.528
X50.336 Y76.533
X50.359 Y76.534
X50.382
X51.577
X51.639 Y76.531
X51.699 Y76.521
X51.759 Y76.506
X51.817 Y76.487
X51.872 Y76.473
X51.928 Y76.472
X52.038 Y76.48
X52.148 Y76.481
X52.368 Y76.472
X52.421 Y76.473
X52.473 Y76.486
G2 X52.801 Y76.536 I0.293 J-0.819
G3 X53.133 Y76.529 I0.328 J8.133
G1 X53.147 Y76.534
X53.157 Y76.545
X53.158 Y76.56
X53.154 Y76.574
X53.151 Y76.588
X52.868 Y78.525
X52.861 Y78.592
X52.86 Y78.66
X52.867 Y78.727
X52.884 Y78.793
X52.917 Y78.877
X52.956 Y78.959
X53.004 Y79.036
X53.064 Y79.105
X53.835 Y79.865
X53.858 Y79.894
X53.875 Y79.927
X53.883 Y79.964
X53.886 Y79.99
X53.888 Y80.016
X53.898 Y80.115
X53.908 Y80.214
G2 X53.939 Y80.509 I3.049 J-0.165
G3 X53.969 Y80.805 I-3.018 J0.461
G1 X53.972 Y80.98
X53.971 Y81.156
X53.974 Y82.208
X53.97 Y82.224
X53.958 Y82.236
X53.942 Y82.24
X52.613
X52.597 Y82.236
X52.586 Y82.225
X52.581 Y82.209
G3 X52.582 Y81.952 I6.594 J-0.108
G2 X52.585 Y81.694 I-10.965 J-0.249
G1 X52.58 Y81.645
X52.567 Y81.598
X52.544 Y81.554
X52.514 Y81.515
X52.465 Y81.472
X52.409 Y81.441
X52.346 Y81.422
X52.32 Y81.418
X52.294 Y81.417
X52.162 Y81.415
X52.096
X52.03 Y81.423
X51.972 Y81.44
X51.919 Y81.469
X51.874 Y81.511
X51.839 Y81.56
X51.814 Y81.615
X51.801 Y81.674
X51.799 Y81.698
G2 X51.802 Y81.953 I10.377 J0.003
G3 X51.803 Y82.208 I-6. J0.146
G1 X51.799 Y82.224
X51.787 Y82.236
X51.77 Y82.24
X50.184
X50.168 Y82.236
X50.156 Y82.224
X50.152 Y82.208
G3 Y81.95 I6.658 J-0.109
G2 X50.155 Y81.692 I-11.006 J-0.246
G1 X50.147 Y81.629
X50.124 Y81.569
X50.087 Y81.516
X50.039 Y81.474
X49.984 Y81.442
X49.923 Y81.423
X49.893 Y81.418
X49.864 Y81.417
X49.647 Y81.418
X49.598 Y81.423
X49.55 Y81.437
X49.506 Y81.459
X49.467 Y81.49
X49.424 Y81.54
X49.393 Y81.598
X49.374 Y81.661
X49.371 Y81.694
X49.372 Y81.83
X49.378 Y81.857
X49.394 Y81.881
X49.417 Y81.896
X49.441 Y81.912
X49.456 Y81.935
X49.462 Y81.963
Y82.18
X49.463 Y82.238
X49.456 Y82.296
X49.448 Y82.313
X49.432 Y82.326
X49.412 Y82.33
X47.927
X47.911 Y82.326
X47.899 Y82.314
X47.895 Y82.299
Y82.275
Y82.252
Y82.206
Y82.161
X47.896 Y82.075
Y81.99
Y81.84
X47.897 Y81.691
X47.9 Y81.579
X47.898 Y81.467
X47.895 Y81.355
X47.898 Y81.243
X47.901 Y81.131
X47.899 Y81.019
X47.897 Y80.907
X47.9 Y80.795
X47.917 Y80.579
X47.94 Y80.364
X47.96 Y80.149
X47.98 Y79.934
X47.988 Y79.897
X48.004 Y79.864
X48.027 Y79.835
X48.835 Y79.038
X48.887 Y78.977
X48.929 Y78.909
X48.963 Y78.836
X48.991 Y78.761
X49.005 Y78.703
X49.01 Y78.645
X49.008 Y78.586
X49.002 Y78.527
X48.723 Y76.605
X48.705 Y76.535
X48.679 Y76.468
Y76.455
X48.686 Y76.444
X48.699 Y76.439
G3 X48.983 Y76.442 I0.01 J17.901
G2 X49.267 Y76.444 I0.273 J-17.899
G1 X49.315 Y76.44
X49.363 Y76.431
X49.455 Y76.402
X49.474 Y76.394
X49.492 Y76.385
X49.529 Y76.375
X49.568 Y76.377
X49.616 Y76.384
X49.665 Y76.386
X49.842 Y76.385
X50.018 Y76.383
X50.036 Y76.382
X50.052 Y76.378
X50.096 Y76.376
X50.137 Y76.388
X50.196 Y76.412
X50.256 Y76.43
X50.319 Y76.44
X50.382 Y76.444
X51.577
X51.64 Y76.44
X51.703 Y76.43
X51.763 Y76.412
X51.822 Y76.388
X51.865 Y76.375
X51.909 Y76.379
X51.927 Y76.382
X51.946 Y76.384
X52.354 Y76.383
X52.371 Y76.382
X52.387 Y76.378
X52.429 Y76.376
X52.469 Y76.386
X52.555 Y76.421
X52.6 Y76.433
X52.646 Y76.44
G2 X52.952 Y76.446 I0.2 J-2.505
G3 X53.259 Y76.44 I0.303 J7.131
G1 X53.272 Y76.444
X53.28 Y76.455
X53.279 Y76.469
X53.254 Y76.533
X53.237 Y76.601
X52.957 Y78.538
X52.951 Y78.594
X52.95 Y78.651
X52.955 Y78.708
X52.969 Y78.764
X52.998 Y78.839
X53.032 Y78.911
X53.075 Y78.98
X53.127 Y79.041
X53.921 Y79.823
X53.944 Y79.852
X53.961 Y79.886
X53.969 Y79.923
X53.972 Y79.95
X53.974 Y79.977
X53.985 Y80.08
X53.996 Y80.183
G2 X54.028 Y80.492 I3.167 J-0.171
G3 X54.059 Y80.8 I-3.135 J0.48
G1 X54.063 Y80.987
X54.061 Y81.175
X54.064 Y82.298
X54.06 Y82.314
X54.048 Y82.326
X54.032 Y82.33
X52.544
X52.524 Y82.326
X52.509 Y82.313
X52.5 Y82.296
X52.494 Y82.238
Y82.18
X52.495 Y81.694
X52.489 Y81.65
X52.472 Y81.608
X52.445 Y81.572
X52.411 Y81.544
X52.372 Y81.523
X52.329 Y81.51
X52.312 Y81.508
X52.294 Y81.507
X52.075 Y81.508
X52.034 Y81.513
X51.995 Y81.528
X51.96 Y81.552
X51.932 Y81.583
X51.91 Y81.618
X51.895 Y81.656
X51.891 Y81.677
X51.889 Y81.698
X51.89 Y82.18
X51.891 Y82.237
X51.886 Y82.293
X51.877 Y82.312
X51.86 Y82.325
X51.84 Y82.33
X50.111
X50.093 Y82.326
X50.078 Y82.314
X50.07 Y82.297
X50.065 Y82.239
Y82.18
Y81.692
X50.06 Y81.649
X50.043 Y81.608
X50.017 Y81.573
X49.984 Y81.545
X49.945 Y81.524
X49.904 Y81.511
X49.884 Y81.508
X49.864 Y81.507
X49.647 Y81.508
X49.602 Y81.514
X49.561 Y81.531
X49.525 Y81.559
X49.496 Y81.594
X49.475 Y81.634
X49.463 Y81.677
X49.461 Y81.694
X49.462 Y81.963
X49.468 Y81.992
X49.484 Y82.017
X49.509 Y82.034
X49.534 Y82.05
X49.55 Y82.075
X49.556 Y82.104
Y82.181
X49.555 Y82.256
X49.548 Y82.301
X49.539 Y82.341
X49.532 Y82.361
X49.521 Y82.391
X49.518 Y82.406
X49.517 Y82.418
X49.516 Y82.421
X47.818
X47.806
X47.805 Y82.418
Y80.79
X47.899 Y79.835
X48.768 Y78.971
X48.827 Y78.9
X48.872 Y78.819
X48.901 Y78.731
X48.914 Y78.638
X48.908 Y78.541
X48.629 Y76.618
X48.612 Y76.544
X48.583 Y76.472
X48.545 Y76.407
X48.5 Y76.351
X48.502 Y76.349
X49.267
X49.306 Y76.345
X49.346 Y76.339
X49.386 Y76.329
X49.426 Y76.315
X49.465 Y76.298
X49.504 Y76.277
X49.534 Y76.257
X49.536
X49.55 Y76.27
X49.566 Y76.281
X49.585 Y76.288
X49.6 Y76.291
X49.665 Y76.292
X50.018
X50.033 Y76.29
X50.048 Y76.285
X50.063 Y76.277
X50.078 Y76.266
X50.086 Y76.257
X50.088 Y76.256
X50.12 Y76.277
X50.143 Y76.29
X50.183 Y76.309
X50.223 Y76.324
X50.263 Y76.336
X50.302 Y76.343
X50.342 Y76.348
X50.382 Y76.349
X51.577
X51.617 Y76.348
X51.657 Y76.343
X51.697 Y76.335
X51.737 Y76.324
X51.777 Y76.309
X51.816 Y76.29
X51.838 Y76.277
X51.871 Y76.256
X51.889 Y76.272
X51.901 Y76.28
X51.916 Y76.287
X51.931 Y76.291
X51.946 Y76.292
X52.354
X52.369 Y76.289
X52.386 Y76.284
X52.398 Y76.277
X52.412 Y76.267
X52.423 Y76.256
X52.454 Y76.277
X52.474 Y76.289
X52.494 Y76.299
X52.534 Y76.316
X52.573 Y76.329
X52.613 Y76.339
X52.653 Y76.346
X52.693 Y76.349
X53.457
X53.458 Y76.351
X53.412 Y76.409
X53.373 Y76.477
X53.346 Y76.546
X53.33 Y76.614
X53.194 Y77.554
X53.051 Y78.551
X53.046 Y78.641
X53.059 Y78.733
X53.09 Y78.823
X53.135 Y78.903
X53.194 Y78.973
X54.049 Y79.823
X54.154 Y80.795
Y82.418
X54.153 Y82.421
X52.441
X52.439 Y82.418
X52.437 Y82.401
X52.434 Y82.386
X52.424 Y82.361
X52.418 Y82.341
X52.408 Y82.301
X52.401 Y82.254
X52.4 Y82.181
Y81.694
X52.397 Y81.677
X52.391 Y81.661
X52.381 Y81.644
X52.371 Y81.632
X52.356 Y81.62
X52.34 Y81.611
X52.327 Y81.606
X52.311 Y81.603
X52.295 Y81.602
X52.075 Y81.603
X52.06 Y81.605
X52.048 Y81.609
X52.032 Y81.617
X52.018 Y81.627
X52.008 Y81.638
X51.997 Y81.653
X51.99 Y81.668
X51.986 Y81.683
X51.984 Y81.698
Y82.181
X51.983 Y82.256
X51.976 Y82.304
X51.972 Y82.323
X51.967 Y82.341
X51.949 Y82.391
X51.946 Y82.406
X51.945 Y82.418
X51.943 Y82.421
X50.011
X50.01 Y82.418
X50.008 Y82.401
X50.004 Y82.386
X49.988 Y82.341
X49.984 Y82.325
X49.977 Y82.293
X49.972 Y82.251
X49.971 Y82.181
X49.97 Y81.693
X49.968 Y81.678
X49.962 Y81.663
X49.954 Y81.648
X49.942 Y81.633
X49.931 Y81.623
X49.918 Y81.614
X49.899 Y81.607
X49.884 Y81.603
X49.864 Y81.602
X49.648 Y81.603
X49.63 Y81.606
X49.613 Y81.612
X49.6 Y81.62
X49.585 Y81.632
X49.574 Y81.645
X49.566 Y81.658
X49.56 Y81.676
X49.556 Y81.694
Y82.104
X49.554 Y82.124 Z-3.519
X49.549 Y82.142 Z-3.513
X49.541 Y82.157 Z-3.504
X49.532 Y82.169 Z-3.492
X49.523 Y82.178 Z-3.477
X49.516 Y82.184 Z-3.459
X49.512 Y82.187 Z-3.441
X49.51 Y82.189 Z-3.421
G0 Z15.

G53 Z0.
M30
