(1001)
(T1  D=0.8 CR=0. - ZMIN=-3.679 - FLAT END MILL)
G0 G90 G94 G17
G21
G53 G0 Z0.

(0.4MM  FLATEND  RAMP)
M5
M9
T1
S12000 M3
G4 P4.
G55
G0 X46.688 Y76.383
Z15.
Z-0.53
G1 Z-2.428 F200.
X46.671 Y76.357
X46.664 Y76.327
X46.671 Y76.296
X46.688 Y76.27
X46.714 Y76.253
X46.744 Y76.247
X46.907 Z-2.429
X46.942 Y76.245
X46.96 Y76.244
X46.978 Y76.241
X46.996 Y76.237
X47.013 Y76.233
X47.031 Y76.228
X47.049 Y76.222
X47.066 Y76.215
X47.084 Y76.207
X47.102 Y76.198
X47.12 Y76.187
X47.135 Y76.177
X47.163 Y76.157
X47.177 Y76.145
X47.19 Y76.132
X47.214 Y76.106 Z-2.43
X47.228 Y76.089
X47.24 Y76.072
X47.251 Y76.054
X47.261 Y76.037
X47.262 Y76.035
X47.271 Y76.018
X47.279 Y76.
X47.285 Y75.982
X47.291 Y75.964
X47.296 Y75.947
X47.3 Y75.929
X47.304 Y75.911
X47.306 Y75.893
X47.308 Y75.876
Y75.858
Y75.822
Y75.299 Z-2.432
X47.31 Y75.297
X47.642 Z-2.433
X47.644 Y75.299
Y75.822 Z-2.434
Y75.858
Y75.876
X47.646 Y75.893
X47.648 Y75.911
X47.652 Y75.929
X47.656 Y75.947
X47.661 Y75.964
X47.672 Y75.997
X47.679 Y76.013
X47.686 Y76.029 Z-2.435
X47.69 Y76.035
X47.7 Y76.053
X47.711 Y76.071
X47.724 Y76.089
X47.738 Y76.106
X47.757 Y76.127
X47.772 Y76.142
X47.787 Y76.155
X47.802 Y76.167
X47.817 Y76.177
X47.828 Y76.185
X47.846 Y76.195
X47.864 Y76.205
X47.881 Y76.213
X47.899 Y76.22
X47.917 Y76.227
X47.934 Y76.232
X47.952 Y76.237
X47.97 Y76.24
X47.988 Y76.243 Z-2.436
X48.005 Y76.245
X48.023 Y76.246
X48.041 Y76.247
X49.245 Z-2.439
X49.263 Y76.246
X49.281 Y76.245
X49.298 Y76.243
X49.316 Y76.24
X49.334 Y76.237
X49.351 Y76.232
X49.369 Y76.227
X49.387 Y76.221
X49.405 Y76.213
X49.422 Y76.205
X49.44 Y76.196
X49.458 Y76.185
X49.47 Y76.177
X49.484 Y76.167 Z-2.44
X49.499 Y76.155
X49.514 Y76.142
X49.529 Y76.128
X49.549 Y76.106
X49.563 Y76.089
X49.575 Y76.071
X49.587 Y76.053
X49.597 Y76.035
X49.599 Y76.03
X49.607 Y76.014
X49.614 Y75.997
X49.621 Y75.981
X49.626 Y75.964
X49.631 Y75.947
X49.635 Y75.929
X49.638 Y75.911
X49.641 Y75.893
X49.642 Y75.876
X49.643 Y75.858
Y75.822 Z-2.441
Y75.299 Z-2.442
X49.645 Y75.297
X49.979 Z-2.443
X49.981 Y75.299
Y75.822 Z-2.444
Y75.858
X49.982 Y75.876
X49.983 Y75.893
X49.986 Y75.911
X49.989 Y75.929 Z-2.445
X49.993 Y75.947
X49.998 Y75.964
X50.003 Y75.981
X50.009 Y75.998
X50.017 Y76.014
X50.025 Y76.031
X50.027 Y76.035
X50.037 Y76.053
X50.048 Y76.071
X50.061 Y76.089
X50.075 Y76.106
X50.095 Y76.129
X50.11 Y76.143
X50.125 Y76.155
X50.139 Y76.167
X50.154 Y76.177
X50.166 Y76.185
X50.184 Y76.196
X50.202 Y76.205
X50.219 Y76.214 Z-2.446
X50.237 Y76.221
X50.255 Y76.227
X50.273 Y76.232
X50.29 Y76.237
X50.308 Y76.24
X50.326 Y76.243
X50.343 Y76.245
X50.361 Y76.246
X50.379 Y76.247
X51.513 Z-2.449
X51.583
X51.601 Y76.246
X51.619 Y76.245
X51.637 Y76.243
X51.654 Y76.24
X51.672 Y76.236
X51.69 Y76.231
X51.707 Y76.226
X51.725 Y76.219 Z-2.45
X51.743 Y76.212
X51.761 Y76.203
X51.778 Y76.194
X51.796 Y76.183
X51.804 Y76.177
X51.82 Y76.166
X51.836 Y76.154
X51.851 Y76.14
X51.867 Y76.124
X51.883 Y76.106
X51.897 Y76.089
X51.91 Y76.071
X51.921 Y76.053
X51.931 Y76.035
X51.938 Y76.023
X51.95 Y75.994
X51.961 Y75.964
X51.965 Y75.947 Z-2.451
X51.97 Y75.929
X51.973 Y75.911
X51.975 Y75.893
X51.977 Y75.876
X51.978 Y75.858
Y75.822
Y75.299 Z-2.452
X51.98 Y75.297
X52.314 Z-2.453
X52.315 Y75.299
Y75.822 Z-2.454
Y75.858 Z-2.455
X52.316 Y75.876
X52.318 Y75.893
X52.32 Y75.911
X52.323 Y75.929
X52.327 Y75.947
X52.332 Y75.964
X52.338 Y75.982
X52.345 Y76.
X52.353 Y76.018
X52.362 Y76.035
X52.363 Y76.038
X52.373 Y76.055
X52.384 Y76.072
X52.396 Y76.089
X52.41 Y76.106
X52.421 Y76.119
X52.434 Y76.132
X52.447 Y76.145
X52.461 Y76.157
X52.489 Y76.177 Z-2.456
X52.505 Y76.188
X52.522 Y76.198
X52.54 Y76.207
X52.558 Y76.215
X52.575 Y76.222
X52.593 Y76.228
X52.611 Y76.233
X52.629 Y76.238
X52.646 Y76.241
X52.664 Y76.244
X52.682 Y76.245
X52.717 Y76.247
X53.851 Z-2.459
X53.922
X53.939 Y76.246
X53.957 Y76.245
X53.975 Y76.242 Z-2.46
X53.992 Y76.239
X54.01 Y76.236
X54.028 Y76.231
X54.046 Y76.225
X54.063 Y76.219
X54.081 Y76.211
X54.099 Y76.203
X54.116 Y76.193
X54.134 Y76.182
X54.141 Y76.177
X54.157 Y76.166
X54.173 Y76.153
X54.189 Y76.139
X54.205 Y76.123
X54.22 Y76.106
X54.234 Y76.089
X54.247 Y76.071
X54.258 Y76.053
X54.268 Y76.035 Z-2.461
X54.276 Y76.02
X54.288 Y75.992
X54.298 Y75.964
X54.303 Y75.947
X54.307 Y75.929
X54.31 Y75.911
X54.312 Y75.893
X54.314 Y75.876
X54.315 Y75.858
Y75.822
Y75.299 Z-2.462
X54.317 Y75.297
X54.65 Z-2.463
X54.651 Y75.299
Y75.822 Z-2.465
Y75.858
X54.652 Y75.876
X54.654 Y75.893
X54.656 Y75.911
X54.659 Y75.929
X54.663 Y75.947
X54.668 Y75.964
X54.674 Y75.982
X54.681 Y76.
X54.689 Y76.018
X54.698 Y76.035
X54.701 Y76.042
X54.71 Y76.058
X54.721 Y76.074
X54.733 Y76.09 Z-2.466
X54.746 Y76.106
X54.758 Y76.12
X54.772 Y76.134
X54.785 Y76.147
X54.798 Y76.158
X54.824 Y76.177
X54.843 Y76.189
X54.86 Y76.199
X54.878 Y76.208
X54.896 Y76.216
X54.914 Y76.223
X54.931 Y76.229
X54.949 Y76.234
X54.967 Y76.238
X54.984 Y76.241
X55.002 Y76.244
X55.02 Y76.246
X55.055 Y76.247
X55.227 Z-2.467
X55.229 Y76.248
X55.198 Y76.293
X55.197 Y76.295
X53.851 Z-2.471
X53.815
X53.798
X53.78 Y76.297
X53.762 Y76.299
X53.744 Y76.303
X53.727 Y76.307
X53.709 Y76.312
X53.686 Y76.319
X53.662 Y76.329
X53.638 Y76.341
X53.62 Y76.351
X53.603 Y76.362
X53.585 Y76.374
X53.567 Y76.388
X53.565 Y76.39
X53.547 Y76.407 Z-2.472
X53.529 Y76.426
X53.514 Y76.443
X53.5 Y76.461
X53.496 Y76.467
X53.486 Y76.483
X53.476 Y76.499
X53.468 Y76.516
X53.46 Y76.532
X53.453 Y76.55
X53.446 Y76.568
X53.441 Y76.585
X53.436 Y76.603
X53.426 Y76.669
X53.414 Y76.745 Z-2.473
X53.394 Y76.887
X53.384 Y76.958
X53.373 Y77.029
X53.355 Y77.157 Z-2.474
X53.342 Y77.242
X53.332 Y77.313
X53.322 Y77.384
X53.312 Y77.455
X53.291 Y77.597 Z-2.475
X53.271 Y77.739
X53.261 Y77.81
X53.25 Y77.881 Z-2.476
X53.24 Y77.952
X53.23 Y78.023
X53.22 Y78.094
X53.213 Y78.14
X53.21 Y78.165
X53.179 Y78.378 Z-2.477
X53.169 Y78.449
X53.158 Y78.52
X53.149 Y78.591
Y78.608
X53.148 Y78.626 Z-2.478
X53.149 Y78.644
X53.151 Y78.662
X53.153 Y78.679
X53.156 Y78.697
X53.16 Y78.715
X53.165 Y78.733
X53.171 Y78.75
X53.178 Y78.768
X53.186 Y78.786
X53.194 Y78.804
X53.203 Y78.82
X53.213 Y78.835
X53.227 Y78.855
X53.242 Y78.875
X53.262 Y78.896
X53.284 Y78.918
X53.312 Y78.946 Z-2.479
X53.355 Y78.988
X53.383 Y79.017
X53.426 Y79.059
X53.455 Y79.088
X53.496 Y79.129
X53.526 Y79.159
X53.567 Y79.2
X53.669 Y79.301 Z-2.48
X53.78 Y79.411
X53.883 Y79.514 Z-2.481
X53.955 Y79.584
X54.026 Y79.655
X54.097 Y79.726
X54.147 Y79.776 Z-2.482
X54.148 Y79.778
X54.257 Y80.789 Z-2.484
Y80.791
Y82.521 Z-2.489
X54.255 Y82.523
X47.704 Z-2.506
X47.702 Y82.521
Y80.789 Z-2.511
Y80.787
X47.8 Y79.791 Z-2.513
Y79.788
X47.863 Y79.726 Z-2.514
X48.041 Y79.55
X48.148 Y79.443 Z-2.515
X48.182 Y79.409
X48.22 Y79.372
X48.324 Y79.268
X48.395 Y79.198 Z-2.516
X48.434 Y79.159
X48.505 Y79.088
X48.577 Y79.017
X48.608 Y78.986
X48.648 Y78.946 Z-2.517
X48.678 Y78.916
X48.699 Y78.895
X48.718 Y78.875
X48.735 Y78.853
X48.749 Y78.832
X48.766 Y78.804
X48.774 Y78.786
X48.782 Y78.768
X48.789 Y78.75
X48.795 Y78.733
X48.8 Y78.715
X48.804 Y78.697
X48.807 Y78.679
X48.809 Y78.662
X48.811 Y78.644
X48.812 Y78.626 Z-2.518
X48.811 Y78.608
Y78.591
X48.801 Y78.52
X48.781 Y78.378
X48.771 Y78.307
X48.76 Y78.236 Z-2.519
X48.73 Y78.023
X48.719 Y77.952
X48.688 Y77.739 Z-2.52
X48.678 Y77.668
X48.668 Y77.597
X48.658 Y77.526
X48.647 Y77.455 Z-2.521
X48.637 Y77.384
X48.627 Y77.313
X48.606 Y77.171
X48.596 Y77.1 Z-2.522
X48.585 Y77.029
X48.575 Y76.958
X48.555 Y76.816
X48.544 Y76.745 Z-2.523
X48.534 Y76.674
X48.522 Y76.603
X48.518 Y76.585
X48.512 Y76.568
X48.506 Y76.55
X48.499 Y76.532
X48.484 Y76.502
X48.475 Y76.487
X48.466 Y76.472
X48.458 Y76.461
X48.445 Y76.444
X48.43 Y76.426
X48.413 Y76.408 Z-2.524
X48.395 Y76.392
X48.393 Y76.39
X48.376 Y76.376
X48.359 Y76.364
X48.341 Y76.353
X48.324 Y76.343
X48.298 Y76.33
X48.272 Y76.319
X48.253 Y76.313
X48.236 Y76.308
X48.218 Y76.303
X48.2 Y76.3
X48.182 Y76.298
X48.165 Y76.296
X48.147 Y76.295
X48.112
X46.755 Z-2.528
X46.754 Y76.294
X46.724 Y76.248
X46.725 Y76.247
X46.744
X46.907
X46.942 Y76.245
X46.96 Y76.244
X46.978 Y76.241
X46.996 Y76.237
X47.013 Y76.233
X47.031 Y76.228
X47.049 Y76.222
X47.066 Y76.215
X47.084 Y76.207
X47.102 Y76.198
X47.12 Y76.187
X47.135 Y76.177
X47.163 Y76.157
X47.177 Y76.145
X47.19 Y76.132
X47.214 Y76.106
X47.228 Y76.089
X47.24 Y76.072
X47.251 Y76.054
X47.261 Y76.037
X47.262 Y76.035
X47.271 Y76.018
X47.279 Y76.
X47.285 Y75.982
X47.291 Y75.964
X47.296 Y75.947
X47.3 Y75.929
X47.304 Y75.911
X47.306 Y75.893
X47.308 Y75.876
Y75.858
Y75.822
Y75.299
X47.31 Y75.297
X47.642
X47.644 Y75.299
Y75.822
Y75.858
Y75.876
X47.646 Y75.893
X47.648 Y75.911
X47.652 Y75.929
X47.656 Y75.947
X47.661 Y75.964
X47.672 Y75.997
X47.679 Y76.013
X47.686 Y76.029
X47.69 Y76.035
X47.7 Y76.053
X47.711 Y76.071
X47.724 Y76.089
X47.738 Y76.106
X47.757 Y76.127
X47.772 Y76.142
X47.787 Y76.155
X47.802 Y76.167
X47.817 Y76.177
X47.828 Y76.185
X47.846 Y76.195
X47.864 Y76.205
X47.881 Y76.213
X47.899 Y76.22
X47.917 Y76.227
X47.934 Y76.232
X47.952 Y76.237
X47.97 Y76.24
X47.988 Y76.243
X48.005 Y76.245
X48.023 Y76.246
X48.041 Y76.247
X49.245
X49.263 Y76.246
X49.281 Y76.245
X49.298 Y76.243
X49.316 Y76.24
X49.334 Y76.237
X49.351 Y76.232
X49.369 Y76.227
X49.387 Y76.221
X49.405 Y76.213
X49.422 Y76.205
X49.44 Y76.196
X49.458 Y76.185
X49.47 Y76.177
X49.484 Y76.167
X49.499 Y76.155
X49.514 Y76.142
X49.529 Y76.128
X49.549 Y76.106
X49.563 Y76.089
X49.575 Y76.071
X49.587 Y76.053
X49.597 Y76.035
X49.599 Y76.03
X49.607 Y76.014
X49.614 Y75.997
X49.621 Y75.981
X49.626 Y75.964
X49.631 Y75.947
X49.635 Y75.929
X49.638 Y75.911
X49.641 Y75.893
X49.642 Y75.876
X49.643 Y75.858
Y75.822
Y75.299
X49.645 Y75.297
X49.979
X49.981 Y75.299
Y75.822
Y75.858
X49.982 Y75.876
X49.983 Y75.893
X49.986 Y75.911
X49.989 Y75.929
X49.993 Y75.947
X49.998 Y75.964
X50.003 Y75.981
X50.009 Y75.998
X50.017 Y76.014
X50.025 Y76.031
X50.027 Y76.035
X50.037 Y76.053
X50.048 Y76.071
X50.061 Y76.089
X50.075 Y76.106
X50.095 Y76.129
X50.11 Y76.143
X50.125 Y76.155
X50.139 Y76.167
X50.154 Y76.177
X50.166 Y76.185
X50.184 Y76.196
X50.202 Y76.205
X50.219 Y76.214
X50.237 Y76.221
X50.255 Y76.227
X50.273 Y76.232
X50.29 Y76.237
X50.308 Y76.24
X50.326 Y76.243
X50.343 Y76.245
X50.361 Y76.246
X50.379 Y76.247
X51.513
X51.583
X51.601 Y76.246
X51.619 Y76.245
X51.637 Y76.243
X51.654 Y76.24
X51.672 Y76.236
X51.69 Y76.231
X51.707 Y76.226
X51.725 Y76.219
X51.743 Y76.212
X51.761 Y76.203
X51.778 Y76.194
X51.796 Y76.183
X51.804 Y76.177
X51.82 Y76.166
X51.836 Y76.154
X51.851 Y76.14
X51.867 Y76.124
X51.883 Y76.106
X51.897 Y76.089
X51.91 Y76.071
X51.921 Y76.053
X51.931 Y76.035
X51.938 Y76.023
X51.95 Y75.994
X51.961 Y75.964
X51.965 Y75.947
X51.97 Y75.929
X51.973 Y75.911
X51.975 Y75.893
X51.977 Y75.876
X51.978 Y75.858
Y75.822
Y75.299
X51.98 Y75.297
X52.314
X52.315 Y75.299
Y75.822
Y75.858
X52.316 Y75.876
X52.318 Y75.893
X52.32 Y75.911
X52.323 Y75.929
X52.327 Y75.947
X52.332 Y75.964
X52.338 Y75.982
X52.345 Y76.
X52.353 Y76.018
X52.362 Y76.035
X52.363 Y76.038
X52.373 Y76.055
X52.384 Y76.072
X52.396 Y76.089
X52.41 Y76.106
X52.421 Y76.119
X52.434 Y76.132
X52.447 Y76.145
X52.461 Y76.157
X52.489 Y76.177
X52.505 Y76.188
X52.522 Y76.198
X52.54 Y76.207
X52.558 Y76.215
X52.575 Y76.222
X52.593 Y76.228
X52.611 Y76.233
X52.629 Y76.238
X52.646 Y76.241
X52.664 Y76.244
X52.682 Y76.245
X52.717 Y76.247
X53.851
X53.922
X53.939 Y76.246
X53.957 Y76.245
X53.975 Y76.242
X53.992 Y76.239
X54.01 Y76.236
X54.028 Y76.231
X54.046 Y76.225
X54.063 Y76.219
X54.081 Y76.211
X54.099 Y76.203
X54.116 Y76.193
X54.134 Y76.182
X54.141 Y76.177
X54.157 Y76.166
X54.173 Y76.153
X54.189 Y76.139
X54.205 Y76.123
X54.22 Y76.106
X54.234 Y76.089
X54.247 Y76.071
X54.258 Y76.053
X54.268 Y76.035
X54.276 Y76.02
X54.288 Y75.992
X54.298 Y75.964
X54.303 Y75.947
X54.307 Y75.929
X54.31 Y75.911
X54.312 Y75.893
X54.314 Y75.876
X54.315 Y75.858
Y75.822
Y75.299
X54.317 Y75.297
X54.65
X54.651 Y75.299
Y75.822
Y75.858
X54.652 Y75.876
X54.654 Y75.893
X54.656 Y75.911
X54.659 Y75.929
X54.663 Y75.947
X54.668 Y75.964
X54.674 Y75.982
X54.681 Y76.
X54.689 Y76.018
X54.698 Y76.035
X54.701 Y76.042
X54.71 Y76.058
X54.721 Y76.074
X54.733 Y76.09
X54.746 Y76.106
X54.758 Y76.12
X54.772 Y76.134
X54.785 Y76.147
X54.798 Y76.158
X54.824 Y76.177
X54.843 Y76.189
X54.86 Y76.199
X54.878 Y76.208
X54.896 Y76.216
X54.914 Y76.223
X54.931 Y76.229
X54.949 Y76.234
X54.967 Y76.238
X54.984 Y76.241
X55.002 Y76.244
X55.02 Y76.246
X55.055 Y76.247
X55.227
X55.229 Y76.248
X55.198 Y76.293
X55.197 Y76.295
X53.851
X53.815
X53.798
X53.78 Y76.297
X53.762 Y76.299
X53.744 Y76.303
X53.727 Y76.307
X53.709 Y76.312
X53.686 Y76.319
X53.662 Y76.329
X53.638 Y76.341
X53.62 Y76.351
X53.603 Y76.362
X53.585 Y76.374
X53.567 Y76.388
X53.565 Y76.39
X53.547 Y76.407
X53.529 Y76.426
X53.514 Y76.443
X53.5 Y76.461
X53.496 Y76.467
X53.486 Y76.483
X53.476 Y76.499
X53.468 Y76.516
X53.46 Y76.532
X53.453 Y76.55
X53.446 Y76.568
X53.441 Y76.585
X53.436 Y76.603
X53.426 Y76.669
X53.414 Y76.745
X53.394 Y76.887
X53.384 Y76.958
X53.373 Y77.029
X53.355 Y77.157
X53.342 Y77.242
X53.332 Y77.313
X53.322 Y77.384
X53.312 Y77.455
X53.291 Y77.597
X53.271 Y77.739
X53.261 Y77.81
X53.25 Y77.881
X53.24 Y77.952
X53.23 Y78.023
X53.22 Y78.094
X53.213 Y78.14
X53.21 Y78.165
X53.179 Y78.378
X53.169 Y78.449
X53.158 Y78.52
X53.149 Y78.591
Y78.608
X53.148 Y78.626
X53.149 Y78.644
X53.151 Y78.662
X53.153 Y78.679
X53.156 Y78.697
X53.16 Y78.715
X53.165 Y78.733
X53.171 Y78.75
X53.178 Y78.768
X53.186 Y78.786
X53.194 Y78.804
X53.203 Y78.82
X53.213 Y78.835
X53.227 Y78.855
X53.242 Y78.875
X53.262 Y78.896
X53.284 Y78.918
X53.312 Y78.946
X53.355 Y78.988
X53.383 Y79.017
X53.426 Y79.059
X53.455 Y79.088
X53.496 Y79.129
X53.526 Y79.159
X53.567 Y79.2
X53.669 Y79.301
X53.78 Y79.411
X53.883 Y79.514
X53.955 Y79.584
X54.026 Y79.655
X54.097 Y79.726
X54.147 Y79.776
X54.148 Y79.778
X54.257 Y80.789
Y80.791
Y82.521
X54.255 Y82.523
X47.704
X47.702 Y82.521
Y80.789
Y80.787
X47.8 Y79.791
Y79.788
X47.863 Y79.726
X48.041 Y79.55
X48.148 Y79.443
X48.182 Y79.409
X48.22 Y79.372
X48.324 Y79.268
X48.395 Y79.198
X48.434 Y79.159
X48.505 Y79.088
X48.577 Y79.017
X48.608 Y78.986
X48.648 Y78.946
X48.678 Y78.916
X48.699 Y78.895
X48.718 Y78.875
X48.735 Y78.853
X48.749 Y78.832
X48.766 Y78.804
X48.774 Y78.786
X48.782 Y78.768
X48.789 Y78.75
X48.795 Y78.733
X48.8 Y78.715
X48.804 Y78.697
X48.807 Y78.679
X48.809 Y78.662
X48.811 Y78.644
X48.812 Y78.626
X48.811 Y78.608
Y78.591
X48.801 Y78.52
X48.781 Y78.378
X48.771 Y78.307
X48.76 Y78.236
X48.73 Y78.023
X48.719 Y77.952
X48.688 Y77.739
X48.678 Y77.668
X48.668 Y77.597
X48.658 Y77.526
X48.647 Y77.455
X48.637 Y77.384
X48.627 Y77.313
X48.606 Y77.171
X48.596 Y77.1
X48.585 Y77.029
X48.575 Y76.958
X48.555 Y76.816
X48.544 Y76.745
X48.534 Y76.674
X48.522 Y76.603
X48.518 Y76.585
X48.512 Y76.568
X48.506 Y76.55
X48.499 Y76.532
X48.484 Y76.502
X48.475 Y76.487
X48.466 Y76.472
X48.458 Y76.461
X48.445 Y76.444
X48.43 Y76.426
X48.413 Y76.408
X48.395 Y76.392
X48.393 Y76.39
X48.376 Y76.376
X48.359 Y76.364
X48.341 Y76.353
X48.324 Y76.343
X48.298 Y76.33
X48.272 Y76.319
X48.253 Y76.313
X48.236 Y76.308
X48.218 Y76.303
X48.2 Y76.3
X48.182 Y76.298
X48.165 Y76.296
X48.147 Y76.295
X48.112
X46.755
X46.754 Y76.294
X46.724 Y76.248
X46.725 Y76.247
X46.744
X46.775 Y76.253
X46.801 Y76.27
X46.818 Y76.296
X46.824 Y76.327
X46.818 Y76.357
X46.801 Y76.383
G0 Z5.
X46.688
Z-0.53
G1 Z-2.486 F200.
X46.671 Y76.357
X46.664 Y76.327
X46.671 Y76.296
X46.688 Y76.27
X46.714 Y76.253
X46.744 Y76.247
X46.907
X46.942 Y76.245
X46.96 Y76.244
X46.978 Y76.241
X46.996 Y76.237
X47.013 Y76.233
X47.031 Y76.228
X47.049 Y76.222 Z-2.487
X47.066 Y76.215
X47.084 Y76.207
X47.102 Y76.198
X47.12 Y76.187
X47.135 Y76.177
X47.163 Y76.157
X47.177 Y76.145
X47.19 Y76.132
X47.214 Y76.106
X47.228 Y76.089
X47.24 Y76.072
X47.251 Y76.054
X47.261 Y76.037
X47.262 Y76.035
X47.271 Y76.018
X47.279 Y76.
X47.285 Y75.982
X47.291 Y75.964
X47.296 Y75.947 Z-2.488
X47.3 Y75.929
X47.304 Y75.911
X47.306 Y75.893
X47.308 Y75.876
Y75.858
Y75.822
Y75.299 Z-2.489
X47.31 Y75.297
X47.642 Z-2.49
X47.644 Y75.299
Y75.822 Z-2.492
Y75.858
Y75.876
X47.646 Y75.893
X47.648 Y75.911
X47.652 Y75.929
X47.656 Y75.947
X47.661 Y75.964
X47.672 Y75.997
X47.679 Y76.013
X47.686 Y76.029
X47.69 Y76.035
X47.7 Y76.053
X47.711 Y76.071
X47.724 Y76.089
X47.738 Y76.106
X47.757 Y76.127
X47.772 Y76.142
X47.787 Y76.155 Z-2.493
X47.802 Y76.167
X47.817 Y76.177
X47.828 Y76.185
X47.846 Y76.195
X47.864 Y76.205
X47.881 Y76.213
X47.899 Y76.22
X47.917 Y76.227
X47.934 Y76.232
X47.952 Y76.237
X47.97 Y76.24
X47.988 Y76.243
X48.005 Y76.245
X48.023 Y76.246
X48.041 Y76.247
X49.245 Z-2.496
X49.263 Y76.246
X49.281 Y76.245 Z-2.497
X49.298 Y76.243
X49.316 Y76.24
X49.334 Y76.237
X49.351 Y76.232
X49.369 Y76.227
X49.387 Y76.221
X49.405 Y76.213
X49.422 Y76.205
X49.44 Y76.196
X49.458 Y76.185
X49.47 Y76.177
X49.484 Y76.167
X49.499 Y76.155
X49.514 Y76.142
X49.529 Y76.128
X49.549 Y76.106
X49.563 Y76.089
X49.575 Y76.071
X49.587 Y76.053 Z-2.498
X49.597 Y76.035
X49.599 Y76.03
X49.607 Y76.014
X49.614 Y75.997
X49.621 Y75.981
X49.626 Y75.964
X49.631 Y75.947
X49.635 Y75.929
X49.638 Y75.911
X49.641 Y75.893
X49.642 Y75.876
X49.643 Y75.858
Y75.822
Y75.299 Z-2.5
X49.645 Y75.297
X49.979
X49.981 Y75.299
Y75.822 Z-2.502
Y75.858
X49.982 Y75.876
X49.983 Y75.893
X49.986 Y75.911
X49.989 Y75.929
X49.993 Y75.947
X49.998 Y75.964
X50.003 Y75.981
X50.009 Y75.998
X50.017 Y76.014
X50.025 Y76.031
X50.027 Y76.035
X50.037 Y76.053
X50.048 Y76.071
X50.061 Y76.089 Z-2.503
X50.075 Y76.106
X50.095 Y76.129
X50.11 Y76.143
X50.125 Y76.155
X50.139 Y76.167
X50.154 Y76.177
X50.166 Y76.185
X50.184 Y76.196
X50.202 Y76.205
X50.219 Y76.214
X50.237 Y76.221
X50.255 Y76.227
X50.273 Y76.232
X50.29 Y76.237
X50.308 Y76.24
X50.326 Y76.243
X50.343 Y76.245
X50.361 Y76.246
X50.379 Y76.247 Z-2.504
X51.513 Z-2.507
X51.583
X51.601 Y76.246
X51.619 Y76.245
X51.637 Y76.243
X51.654 Y76.24
X51.672 Y76.236
X51.69 Y76.231
X51.707 Y76.226
X51.725 Y76.219
X51.743 Y76.212
X51.761 Y76.203
X51.778 Y76.194
X51.796 Y76.183
X51.804 Y76.177
X51.82 Y76.166
X51.836 Y76.154
X51.851 Y76.14
X51.867 Y76.124 Z-2.508
X51.883 Y76.106
X51.897 Y76.089
X51.91 Y76.071
X51.921 Y76.053
X51.931 Y76.035
X51.938 Y76.023
X51.95 Y75.994
X51.961 Y75.964
X51.965 Y75.947
X51.97 Y75.929
X51.973 Y75.911
X51.975 Y75.893
X51.977 Y75.876
X51.978 Y75.858
Y75.822
Y75.299 Z-2.51
X51.98 Y75.297
X52.314 Z-2.511
X52.315 Y75.299
Y75.822 Z-2.512
Y75.858
X52.316 Y75.876
X52.318 Y75.893
X52.32 Y75.911
X52.323 Y75.929
X52.327 Y75.947
X52.332 Y75.964
X52.338 Y75.982
X52.345 Y76. Z-2.513
X52.353 Y76.018
X52.362 Y76.035
X52.363 Y76.038
X52.373 Y76.055
X52.384 Y76.072
X52.396 Y76.089
X52.41 Y76.106
X52.421 Y76.119
X52.434 Y76.132
X52.447 Y76.145
X52.461 Y76.157
X52.489 Y76.177
X52.505 Y76.188
X52.522 Y76.198
X52.54 Y76.207
X52.558 Y76.215
X52.575 Y76.222
X52.593 Y76.228
X52.611 Y76.233 Z-2.514
X52.629 Y76.238
X52.646 Y76.241
X52.664 Y76.244
X52.682 Y76.245
X52.717 Y76.247
X53.851 Z-2.517
X53.922
X53.939 Y76.246
X53.957 Y76.245
X53.975 Y76.242
X53.992 Y76.239
X54.01 Y76.236
X54.028 Y76.231
X54.046 Y76.225
X54.063 Y76.219
X54.081 Y76.211
X54.099 Y76.203
X54.116 Y76.193 Z-2.518
X54.134 Y76.182
X54.141 Y76.177
X54.157 Y76.166
X54.173 Y76.153
X54.189 Y76.139
X54.205 Y76.123
X54.22 Y76.106
X54.234 Y76.089
X54.247 Y76.071
X54.258 Y76.053
X54.268 Y76.035
X54.276 Y76.02
X54.288 Y75.992
X54.298 Y75.964
X54.303 Y75.947
X54.307 Y75.929
X54.31 Y75.911
X54.312 Y75.893
X54.314 Y75.876 Z-2.519
X54.315 Y75.858
Y75.822
Y75.299 Z-2.52
X54.317 Y75.297
X54.65 Z-2.521
X54.651 Y75.299
Y75.822 Z-2.522
Y75.858
X54.652 Y75.876
X54.654 Y75.893 Z-2.523
X54.656 Y75.911
X54.659 Y75.929
X54.663 Y75.947
X54.668 Y75.964
X54.674 Y75.982
X54.681 Y76.
X54.689 Y76.018
X54.698 Y76.035
X54.701 Y76.042
X54.71 Y76.058
X54.721 Y76.074
X54.733 Y76.09
X54.746 Y76.106
X54.758 Y76.12
X54.772 Y76.134
X54.785 Y76.147
X54.798 Y76.158
X54.824 Y76.177
X54.843 Y76.189
X54.86 Y76.199 Z-2.524
X54.878 Y76.208
X54.896 Y76.216
X54.914 Y76.223
X54.931 Y76.229
X54.949 Y76.234
X54.967 Y76.238
X54.984 Y76.241
X55.002 Y76.244
X55.02 Y76.246
X55.055 Y76.247
X55.227 Z-2.525
X55.229 Y76.248
X55.198 Y76.293
X55.197 Y76.295
X53.851 Z-2.528
X53.815
X53.798
X53.78 Y76.297
X53.762 Y76.299
X53.744 Y76.303
X53.727 Y76.307 Z-2.529
X53.709 Y76.312
X53.686 Y76.319
X53.662 Y76.329
X53.638 Y76.341
X53.62 Y76.351
X53.603 Y76.362
X53.585 Y76.374
X53.567 Y76.388
X53.565 Y76.39
X53.547 Y76.407
X53.529 Y76.426
X53.514 Y76.443
X53.5 Y76.461
X53.496 Y76.467
X53.486 Y76.483
X53.476 Y76.499
X53.468 Y76.516
X53.46 Y76.532
X53.453 Y76.55 Z-2.53
X53.446 Y76.568
X53.441 Y76.585
X53.436 Y76.603
X53.426 Y76.669
X53.414 Y76.745
X53.394 Y76.887
X53.384 Y76.958 Z-2.531
X53.373 Y77.029
X53.355 Y77.157
X53.342 Y77.242
X53.332 Y77.313 Z-2.532
X53.322 Y77.384
X53.312 Y77.455
X53.291 Y77.597
X53.271 Y77.739 Z-2.533
X53.261 Y77.81
X53.25 Y77.881
X53.24 Y77.952
X53.23 Y78.023
X53.22 Y78.094 Z-2.534
X53.213 Y78.14
X53.21 Y78.165
X53.179 Y78.378
X53.169 Y78.449 Z-2.535
X53.158 Y78.52
X53.149 Y78.591
Y78.608
X53.148 Y78.626
X53.149 Y78.644
X53.151 Y78.662
X53.153 Y78.679
X53.156 Y78.697
X53.16 Y78.715
X53.165 Y78.733
X53.171 Y78.75
X53.178 Y78.768
X53.186 Y78.786 Z-2.536
X53.194 Y78.804
X53.203 Y78.82
X53.213 Y78.835
X53.227 Y78.855
X53.242 Y78.875
X53.262 Y78.896
X53.284 Y78.918
X53.312 Y78.946
X53.355 Y78.988
X53.383 Y79.017
X53.426 Y79.059
X53.455 Y79.088 Z-2.537
X53.496 Y79.129
X53.526 Y79.159
X53.567 Y79.2
X53.669 Y79.301
X53.78 Y79.411 Z-2.538
X53.883 Y79.514
X53.955 Y79.584
X54.026 Y79.655 Z-2.539
X54.097 Y79.726
X54.147 Y79.776
X54.148 Y79.778
X54.257 Y80.789 Z-2.542
Y80.791
Y82.521 Z-2.546
X54.255 Y82.523
X47.704 Z-2.564
X47.702 Y82.521
Y80.789 Z-2.568
Y80.787
X47.8 Y79.791 Z-2.571
Y79.788
X47.863 Y79.726
X48.041 Y79.55 Z-2.572
X48.148 Y79.443
X48.182 Y79.409
X48.22 Y79.372 Z-2.573
X48.324 Y79.268
X48.395 Y79.198
X48.434 Y79.159
X48.505 Y79.088 Z-2.574
X48.577 Y79.017
X48.608 Y78.986
X48.648 Y78.946
X48.678 Y78.916
X48.699 Y78.895
X48.718 Y78.875
X48.735 Y78.853
X48.749 Y78.832
X48.766 Y78.804 Z-2.575
X48.774 Y78.786
X48.782 Y78.768
X48.789 Y78.75
X48.795 Y78.733
X48.8 Y78.715
X48.804 Y78.697
X48.807 Y78.679
X48.809 Y78.662
X48.811 Y78.644
X48.812 Y78.626
X48.811 Y78.608
Y78.591
X48.801 Y78.52
X48.781 Y78.378 Z-2.576
X48.771 Y78.307
X48.76 Y78.236
X48.73 Y78.023 Z-2.577
X48.719 Y77.952
X48.688 Y77.739
X48.678 Y77.668 Z-2.578
X48.668 Y77.597
X48.658 Y77.526
X48.647 Y77.455
X48.637 Y77.384
X48.627 Y77.313 Z-2.579
X48.606 Y77.171
X48.596 Y77.1
X48.585 Y77.029
X48.575 Y76.958 Z-2.58
X48.555 Y76.816
X48.544 Y76.745
X48.534 Y76.674
X48.522 Y76.603
X48.518 Y76.585 Z-2.581
X48.512 Y76.568
X48.506 Y76.55
X48.499 Y76.532
X48.484 Y76.502
X48.475 Y76.487
X48.466 Y76.472
X48.458 Y76.461
X48.445 Y76.444
X48.43 Y76.426
X48.413 Y76.408
X48.395 Y76.392
X48.393 Y76.39
X48.376 Y76.376
X48.359 Y76.364
X48.341 Y76.353
X48.324 Y76.343
X48.298 Y76.33
X48.272 Y76.319 Z-2.582
X48.253 Y76.313
X48.236 Y76.308
X48.218 Y76.303
X48.2 Y76.3
X48.182 Y76.298
X48.165 Y76.296
X48.147 Y76.295
X48.112
X46.755 Z-2.586
X46.754 Y76.294
X46.724 Y76.248
X46.725 Y76.247
X46.744
X46.907
X46.942 Y76.245
X46.96 Y76.244
X46.978 Y76.241
X46.996 Y76.237
X47.013 Y76.233
X47.031 Y76.228
X47.049 Y76.222
X47.066 Y76.215
X47.084 Y76.207
X47.102 Y76.198
X47.12 Y76.187
X47.135 Y76.177
X47.163 Y76.157
X47.177 Y76.145
X47.19 Y76.132
X47.214 Y76.106
X47.228 Y76.089
X47.24 Y76.072
X47.251 Y76.054
X47.261 Y76.037
X47.262 Y76.035
X47.271 Y76.018
X47.279 Y76.
X47.285 Y75.982
X47.291 Y75.964
X47.296 Y75.947
X47.3 Y75.929
X47.304 Y75.911
X47.306 Y75.893
X47.308 Y75.876
Y75.858
Y75.822
Y75.299
X47.31 Y75.297
X47.642
X47.644 Y75.299
Y75.822
Y75.858
Y75.876
X47.646 Y75.893
X47.648 Y75.911
X47.652 Y75.929
X47.656 Y75.947
X47.661 Y75.964
X47.672 Y75.997
X47.679 Y76.013
X47.686 Y76.029
X47.69 Y76.035
X47.7 Y76.053
X47.711 Y76.071
X47.724 Y76.089
X47.738 Y76.106
X47.757 Y76.127
X47.772 Y76.142
X47.787 Y76.155
X47.802 Y76.167
X47.817 Y76.177
X47.828 Y76.185
X47.846 Y76.195
X47.864 Y76.205
X47.881 Y76.213
X47.899 Y76.22
X47.917 Y76.227
X47.934 Y76.232
X47.952 Y76.237
X47.97 Y76.24
X47.988 Y76.243
X48.005 Y76.245
X48.023 Y76.246
X48.041 Y76.247
X49.245
X49.263 Y76.246
X49.281 Y76.245
X49.298 Y76.243
X49.316 Y76.24
X49.334 Y76.237
X49.351 Y76.232
X49.369 Y76.227
X49.387 Y76.221
X49.405 Y76.213
X49.422 Y76.205
X49.44 Y76.196
X49.458 Y76.185
X49.47 Y76.177
X49.484 Y76.167
X49.499 Y76.155
X49.514 Y76.142
X49.529 Y76.128
X49.549 Y76.106
X49.563 Y76.089
X49.575 Y76.071
X49.587 Y76.053
X49.597 Y76.035
X49.599 Y76.03
X49.607 Y76.014
X49.614 Y75.997
X49.621 Y75.981
X49.626 Y75.964
X49.631 Y75.947
X49.635 Y75.929
X49.638 Y75.911
X49.641 Y75.893
X49.642 Y75.876
X49.643 Y75.858
Y75.822
Y75.299
X49.645 Y75.297
X49.979
X49.981 Y75.299
Y75.822
Y75.858
X49.982 Y75.876
X49.983 Y75.893
X49.986 Y75.911
X49.989 Y75.929
X49.993 Y75.947
X49.998 Y75.964
X50.003 Y75.981
X50.009 Y75.998
X50.017 Y76.014
X50.025 Y76.031
X50.027 Y76.035
X50.037 Y76.053
X50.048 Y76.071
X50.061 Y76.089
X50.075 Y76.106
X50.095 Y76.129
X50.11 Y76.143
X50.125 Y76.155
X50.139 Y76.167
X50.154 Y76.177
X50.166 Y76.185
X50.184 Y76.196
X50.202 Y76.205
X50.219 Y76.214
X50.237 Y76.221
X50.255 Y76.227
X50.273 Y76.232
X50.29 Y76.237
X50.308 Y76.24
X50.326 Y76.243
X50.343 Y76.245
X50.361 Y76.246
X50.379 Y76.247
X51.513
X51.583
X51.601 Y76.246
X51.619 Y76.245
X51.637 Y76.243
X51.654 Y76.24
X51.672 Y76.236
X51.69 Y76.231
X51.707 Y76.226
X51.725 Y76.219
X51.743 Y76.212
X51.761 Y76.203
X51.778 Y76.194
X51.796 Y76.183
X51.804 Y76.177
X51.82 Y76.166
X51.836 Y76.154
X51.851 Y76.14
X51.867 Y76.124
X51.883 Y76.106
X51.897 Y76.089
X51.91 Y76.071
X51.921 Y76.053
X51.931 Y76.035
X51.938 Y76.023
X51.95 Y75.994
X51.961 Y75.964
X51.965 Y75.947
X51.97 Y75.929
X51.973 Y75.911
X51.975 Y75.893
X51.977 Y75.876
X51.978 Y75.858
Y75.822
Y75.299
X51.98 Y75.297
X52.314
X52.315 Y75.299
Y75.822
Y75.858
X52.316 Y75.876
X52.318 Y75.893
X52.32 Y75.911
X52.323 Y75.929
X52.327 Y75.947
X52.332 Y75.964
X52.338 Y75.982
X52.345 Y76.
X52.353 Y76.018
X52.362 Y76.035
X52.363 Y76.038
X52.373 Y76.055
X52.384 Y76.072
X52.396 Y76.089
X52.41 Y76.106
X52.421 Y76.119
X52.434 Y76.132
X52.447 Y76.145
X52.461 Y76.157
X52.489 Y76.177
X52.505 Y76.188
X52.522 Y76.198
X52.54 Y76.207
X52.558 Y76.215
X52.575 Y76.222
X52.593 Y76.228
X52.611 Y76.233
X52.629 Y76.238
X52.646 Y76.241
X52.664 Y76.244
X52.682 Y76.245
X52.717 Y76.247
X53.851
X53.922
X53.939 Y76.246
X53.957 Y76.245
X53.975 Y76.242
X53.992 Y76.239
X54.01 Y76.236
X54.028 Y76.231
X54.046 Y76.225
X54.063 Y76.219
X54.081 Y76.211
X54.099 Y76.203
X54.116 Y76.193
X54.134 Y76.182
X54.141 Y76.177
X54.157 Y76.166
X54.173 Y76.153
X54.189 Y76.139
X54.205 Y76.123
X54.22 Y76.106
X54.234 Y76.089
X54.247 Y76.071
X54.258 Y76.053
X54.268 Y76.035
X54.276 Y76.02
X54.288 Y75.992
X54.298 Y75.964
X54.303 Y75.947
X54.307 Y75.929
X54.31 Y75.911
X54.312 Y75.893
X54.314 Y75.876
X54.315 Y75.858
Y75.822
Y75.299
X54.317 Y75.297
X54.65
X54.651 Y75.299
Y75.822
Y75.858
X54.652 Y75.876
X54.654 Y75.893
X54.656 Y75.911
X54.659 Y75.929
X54.663 Y75.947
X54.668 Y75.964
X54.674 Y75.982
X54.681 Y76.
X54.689 Y76.018
X54.698 Y76.035
X54.701 Y76.042
X54.71 Y76.058
X54.721 Y76.074
X54.733 Y76.09
X54.746 Y76.106
X54.758 Y76.12
X54.772 Y76.134
X54.785 Y76.147
X54.798 Y76.158
X54.824 Y76.177
X54.843 Y76.189
X54.86 Y76.199
X54.878 Y76.208
X54.896 Y76.216
X54.914 Y76.223
X54.931 Y76.229
X54.949 Y76.234
X54.967 Y76.238
X54.984 Y76.241
X55.002 Y76.244
X55.02 Y76.246
X55.055 Y76.247
X55.227
X55.229 Y76.248
X55.198 Y76.293
X55.197 Y76.295
X53.851
X53.815
X53.798
X53.78 Y76.297
X53.762 Y76.299
X53.744 Y76.303
X53.727 Y76.307
X53.709 Y76.312
X53.686 Y76.319
X53.662 Y76.329
X53.638 Y76.341
X53.62 Y76.351
X53.603 Y76.362
X53.585 Y76.374
X53.567 Y76.388
X53.565 Y76.39
X53.547 Y76.407
X53.529 Y76.426
X53.514 Y76.443
X53.5 Y76.461
X53.496 Y76.467
X53.486 Y76.483
X53.476 Y76.499
X53.468 Y76.516
X53.46 Y76.532
X53.453 Y76.55
X53.446 Y76.568
X53.441 Y76.585
X53.436 Y76.603
X53.426 Y76.669
X53.414 Y76.745
X53.394 Y76.887
X53.384 Y76.958
X53.373 Y77.029
X53.355 Y77.157
X53.342 Y77.242
X53.332 Y77.313
X53.322 Y77.384
X53.312 Y77.455
X53.291 Y77.597
X53.271 Y77.739
X53.261 Y77.81
X53.25 Y77.881
X53.24 Y77.952
X53.23 Y78.023
X53.22 Y78.094
X53.213 Y78.14
X53.21 Y78.165
X53.179 Y78.378
X53.169 Y78.449
X53.158 Y78.52
X53.149 Y78.591
Y78.608
X53.148 Y78.626
X53.149 Y78.644
X53.151 Y78.662
X53.153 Y78.679
X53.156 Y78.697
X53.16 Y78.715
X53.165 Y78.733
X53.171 Y78.75
X53.178 Y78.768
X53.186 Y78.786
X53.194 Y78.804
X53.203 Y78.82
X53.213 Y78.835
X53.227 Y78.855
X53.242 Y78.875
X53.262 Y78.896
X53.284 Y78.918
X53.312 Y78.946
X53.355 Y78.988
X53.383 Y79.017
X53.426 Y79.059
X53.455 Y79.088
X53.496 Y79.129
X53.526 Y79.159
X53.567 Y79.2
X53.669 Y79.301
X53.78 Y79.411
X53.883 Y79.514
X53.955 Y79.584
X54.026 Y79.655
X54.097 Y79.726
X54.147 Y79.776
X54.148 Y79.778
X54.257 Y80.789
Y80.791
Y82.521
X54.255 Y82.523
X47.704
X47.702 Y82.521
Y80.789
Y80.787
X47.8 Y79.791
Y79.788
X47.863 Y79.726
X48.041 Y79.55
X48.148 Y79.443
X48.182 Y79.409
X48.22 Y79.372
X48.324 Y79.268
X48.395 Y79.198
X48.434 Y79.159
X48.505 Y79.088
X48.577 Y79.017
X48.608 Y78.986
X48.648 Y78.946
X48.678 Y78.916
X48.699 Y78.895
X48.718 Y78.875
X48.735 Y78.853
X48.749 Y78.832
X48.766 Y78.804
X48.774 Y78.786
X48.782 Y78.768
X48.789 Y78.75
X48.795 Y78.733
X48.8 Y78.715
X48.804 Y78.697
X48.807 Y78.679
X48.809 Y78.662
X48.811 Y78.644
X48.812 Y78.626
X48.811 Y78.608
Y78.591
X48.801 Y78.52
X48.781 Y78.378
X48.771 Y78.307
X48.76 Y78.236
X48.73 Y78.023
X48.719 Y77.952
X48.688 Y77.739
X48.678 Y77.668
X48.668 Y77.597
X48.658 Y77.526
X48.647 Y77.455
X48.637 Y77.384
X48.627 Y77.313
X48.606 Y77.171
X48.596 Y77.1
X48.585 Y77.029
X48.575 Y76.958
X48.555 Y76.816
X48.544 Y76.745
X48.534 Y76.674
X48.522 Y76.603
X48.518 Y76.585
X48.512 Y76.568
X48.506 Y76.55
X48.499 Y76.532
X48.484 Y76.502
X48.475 Y76.487
X48.466 Y76.472
X48.458 Y76.461
X48.445 Y76.444
X48.43 Y76.426
X48.413 Y76.408
X48.395 Y76.392
X48.393 Y76.39
X48.376 Y76.376
X48.359 Y76.364
X48.341 Y76.353
X48.324 Y76.343
X48.298 Y76.33
X48.272 Y76.319
X48.253 Y76.313
X48.236 Y76.308
X48.218 Y76.303
X48.2 Y76.3
X48.182 Y76.298
X48.165 Y76.296
X48.147 Y76.295
X48.112
X46.755
X46.754 Y76.294
X46.724 Y76.248
X46.725 Y76.247
X46.744
X46.907
X46.942 Y76.245
X46.96 Y76.244
X46.978 Y76.241
X46.996 Y76.237
X47.013 Y76.233
X47.031 Y76.228
X47.049 Y76.222 Z-2.587
X47.066 Y76.215
X47.084 Y76.207
X47.102 Y76.198
X47.12 Y76.187
X47.135 Y76.177
X47.163 Y76.157
X47.177 Y76.145
X47.19 Y76.132
X47.214 Y76.106
X47.228 Y76.089
X47.24 Y76.072
X47.251 Y76.054
X47.261 Y76.037
X47.262 Y76.035
X47.271 Y76.018
X47.279 Y76.
X47.285 Y75.982
X47.291 Y75.964
X47.296 Y75.947 Z-2.588
X47.3 Y75.929
X47.304 Y75.911
X47.306 Y75.893
X47.308 Y75.876
Y75.858
Y75.822
Y75.299 Z-2.589
X47.31 Y75.297
X47.642 Z-2.59
X47.644 Y75.299
Y75.822 Z-2.592
Y75.858
Y75.876
X47.646 Y75.893
X47.648 Y75.911
X47.652 Y75.929
X47.656 Y75.947
X47.661 Y75.964
X47.672 Y75.997
X47.679 Y76.013
X47.686 Y76.029
X47.69 Y76.035
X47.7 Y76.053
X47.711 Y76.071
X47.724 Y76.089
X47.738 Y76.106
X47.757 Y76.127
X47.772 Y76.142
X47.787 Y76.155 Z-2.593
X47.802 Y76.167
X47.817 Y76.177
X47.828 Y76.185
X47.846 Y76.195
X47.864 Y76.205
X47.881 Y76.213
X47.899 Y76.22
X47.917 Y76.227
X47.934 Y76.232
X47.952 Y76.237
X47.97 Y76.24
X47.988 Y76.243
X48.005 Y76.245
X48.023 Y76.246
X48.041 Y76.247
X49.245 Z-2.596
X49.263 Y76.246
X49.281 Y76.245 Z-2.597
X49.298 Y76.243
X49.316 Y76.24
X49.334 Y76.237
X49.351 Y76.232
X49.369 Y76.227
X49.387 Y76.221
X49.405 Y76.213
X49.422 Y76.205
X49.44 Y76.196
X49.458 Y76.185
X49.47 Y76.177
X49.484 Y76.167
X49.499 Y76.155
X49.514 Y76.142
X49.529 Y76.128
X49.549 Y76.106
X49.563 Y76.089
X49.575 Y76.071
X49.587 Y76.053 Z-2.598
X49.597 Y76.035
X49.599 Y76.03
X49.607 Y76.014
X49.614 Y75.997
X49.621 Y75.981
X49.626 Y75.964
X49.631 Y75.947
X49.635 Y75.929
X49.638 Y75.911
X49.641 Y75.893
X49.642 Y75.876
X49.643 Y75.858
Y75.822
Y75.299 Z-2.6
X49.645 Y75.297
X49.979
X49.981 Y75.299
Y75.822 Z-2.602
Y75.858
X49.982 Y75.876
X49.983 Y75.893
X49.986 Y75.911
X49.989 Y75.929
X49.993 Y75.947
X49.998 Y75.964
X50.003 Y75.981
X50.009 Y75.998
X50.017 Y76.014
X50.025 Y76.031
X50.027 Y76.035
X50.037 Y76.053
X50.048 Y76.071
X50.061 Y76.089 Z-2.603
X50.075 Y76.106
X50.095 Y76.129
X50.11 Y76.143
X50.125 Y76.155
X50.139 Y76.167
X50.154 Y76.177
X50.166 Y76.185
X50.184 Y76.196
X50.202 Y76.205
X50.219 Y76.214
X50.237 Y76.221
X50.255 Y76.227
X50.273 Y76.232
X50.29 Y76.237
X50.308 Y76.24
X50.326 Y76.243
X50.343 Y76.245
X50.361 Y76.246
X50.379 Y76.247 Z-2.604
X51.513 Z-2.607
X51.583
X51.601 Y76.246
X51.619 Y76.245
X51.637 Y76.243
X51.654 Y76.24
X51.672 Y76.236
X51.69 Y76.231
X51.707 Y76.226
X51.725 Y76.219
X51.743 Y76.212
X51.761 Y76.203
X51.778 Y76.194
X51.796 Y76.183
X51.804 Y76.177
X51.82 Y76.166
X51.836 Y76.154
X51.851 Y76.14
X51.867 Y76.124 Z-2.608
X51.883 Y76.106
X51.897 Y76.089
X51.91 Y76.071
X51.921 Y76.053
X51.931 Y76.035
X51.938 Y76.023
X51.95 Y75.994
X51.961 Y75.964
X51.965 Y75.947
X51.97 Y75.929
X51.973 Y75.911
X51.975 Y75.893
X51.977 Y75.876
X51.978 Y75.858
Y75.822
Y75.299 Z-2.61
X51.98 Y75.297
X52.314 Z-2.611
X52.315 Y75.299
Y75.822 Z-2.612
Y75.858
X52.316 Y75.876
X52.318 Y75.893
X52.32 Y75.911
X52.323 Y75.929
X52.327 Y75.947
X52.332 Y75.964
X52.338 Y75.982
X52.345 Y76. Z-2.613
X52.353 Y76.018
X52.362 Y76.035
X52.363 Y76.038
X52.373 Y76.055
X52.384 Y76.072
X52.396 Y76.089
X52.41 Y76.106
X52.421 Y76.119
X52.434 Y76.132
X52.447 Y76.145
X52.461 Y76.157
X52.489 Y76.177
X52.505 Y76.188
X52.522 Y76.198
X52.54 Y76.207
X52.558 Y76.215
X52.575 Y76.222
X52.593 Y76.228
X52.611 Y76.233 Z-2.614
X52.629 Y76.238
X52.646 Y76.241
X52.664 Y76.244
X52.682 Y76.245
X52.717 Y76.247
X53.851 Z-2.617
X53.922
X53.939 Y76.246
X53.957 Y76.245
X53.975 Y76.242
X53.992 Y76.239
X54.01 Y76.236
X54.028 Y76.231
X54.046 Y76.225
X54.063 Y76.219
X54.081 Y76.211
X54.099 Y76.203
X54.116 Y76.193 Z-2.618
X54.134 Y76.182
X54.141 Y76.177
X54.157 Y76.166
X54.173 Y76.153
X54.189 Y76.139
X54.205 Y76.123
X54.22 Y76.106
X54.234 Y76.089
X54.247 Y76.071
X54.258 Y76.053
X54.268 Y76.035
X54.276 Y76.02
X54.288 Y75.992
X54.298 Y75.964
X54.303 Y75.947
X54.307 Y75.929
X54.31 Y75.911
X54.312 Y75.893
X54.314 Y75.876 Z-2.619
X54.315 Y75.858
Y75.822
Y75.299 Z-2.62
X54.317 Y75.297
X54.65 Z-2.621
X54.651 Y75.299
Y75.822 Z-2.622
Y75.858
X54.652 Y75.876
X54.654 Y75.893 Z-2.623
X54.656 Y75.911
X54.659 Y75.929
X54.663 Y75.947
X54.668 Y75.964
X54.674 Y75.982
X54.681 Y76.
X54.689 Y76.018
X54.698 Y76.035
X54.701 Y76.042
X54.71 Y76.058
X54.721 Y76.074
X54.733 Y76.09
X54.746 Y76.106
X54.758 Y76.12
X54.772 Y76.134
X54.785 Y76.147
X54.798 Y76.158
X54.824 Y76.177
X54.843 Y76.189
X54.86 Y76.199 Z-2.624
X54.878 Y76.208
X54.896 Y76.216
X54.914 Y76.223
X54.931 Y76.229
X54.949 Y76.234
X54.967 Y76.238
X54.984 Y76.241
X55.002 Y76.244
X55.02 Y76.246
X55.055 Y76.247
X55.224 Z-2.625
X55.226 Y76.248
X55.195 Y76.294
X55.193 Y76.295
X53.851 Z-2.628
X53.815
X53.798
X53.78 Y76.297
X53.762 Y76.299
X53.744 Y76.303
X53.727 Y76.307 Z-2.629
X53.709 Y76.312
X53.686 Y76.319
X53.662 Y76.329
X53.638 Y76.341
X53.62 Y76.351
X53.603 Y76.362
X53.585 Y76.374
X53.567 Y76.388
X53.565 Y76.39
X53.547 Y76.407
X53.529 Y76.426
X53.514 Y76.443
X53.5 Y76.461
X53.496 Y76.467
X53.486 Y76.483
X53.476 Y76.499
X53.468 Y76.516
X53.46 Y76.532
X53.453 Y76.55 Z-2.63
X53.446 Y76.568
X53.441 Y76.585
X53.436 Y76.603
X53.426 Y76.669
X53.414 Y76.745
X53.394 Y76.887
X53.384 Y76.958 Z-2.631
X53.373 Y77.029
X53.355 Y77.157
X53.342 Y77.242
X53.332 Y77.313 Z-2.632
X53.322 Y77.384
X53.312 Y77.455
X53.291 Y77.597
X53.271 Y77.739 Z-2.633
X53.261 Y77.81
X53.25 Y77.881
X53.24 Y77.952
X53.23 Y78.023
X53.22 Y78.094 Z-2.634
X53.213 Y78.14
X53.21 Y78.165
X53.179 Y78.378
X53.169 Y78.449 Z-2.635
X53.158 Y78.52
X53.149 Y78.591
Y78.608
X53.148 Y78.626
X53.149 Y78.644
X53.151 Y78.662
X53.153 Y78.679
X53.156 Y78.697
X53.16 Y78.715
X53.165 Y78.733
X53.171 Y78.75
X53.178 Y78.768
X53.186 Y78.786 Z-2.636
X53.194 Y78.804
X53.203 Y78.82
X53.213 Y78.835
X53.227 Y78.855
X53.242 Y78.875
X53.262 Y78.896
X53.284 Y78.918
X53.312 Y78.946
X53.355 Y78.988
X53.383 Y79.017
X53.426 Y79.059
X53.455 Y79.088 Z-2.637
X53.496 Y79.129
X53.526 Y79.159
X53.567 Y79.2
X53.669 Y79.301
X53.78 Y79.411 Z-2.638
X53.883 Y79.514
X53.955 Y79.584
X54.026 Y79.655 Z-2.639
X54.097 Y79.726
X54.143 Y79.772
X54.145 Y79.774
X54.257 Y80.811 Z-2.642
Y80.813
Y82.521 Z-2.646
X54.255 Y82.523
X47.704 Z-2.664
X47.702 Y82.521
Y80.813 Z-2.668
Y80.811
Y80.809
X47.803 Y79.786 Z-2.671
X47.805 Y79.784
X47.863 Y79.726
X48.041 Y79.55 Z-2.672
X48.148 Y79.443
X48.182 Y79.409
X48.22 Y79.372 Z-2.673
X48.324 Y79.268
X48.395 Y79.198
X48.434 Y79.159
X48.505 Y79.088 Z-2.674
X48.577 Y79.017
X48.608 Y78.986
X48.648 Y78.946
X48.678 Y78.916
X48.699 Y78.895
X48.718 Y78.875
X48.735 Y78.853
X48.749 Y78.832 Z-2.675
X48.766 Y78.804
X48.774 Y78.786
X48.782 Y78.768
X48.789 Y78.75
X48.795 Y78.733
X48.8 Y78.715
X48.804 Y78.697
X48.807 Y78.679
X48.809 Y78.662
X48.811 Y78.644
X48.812 Y78.626
X48.811 Y78.608
Y78.591
X48.801 Y78.52
X48.781 Y78.378 Z-2.676
X48.771 Y78.307
X48.76 Y78.236
X48.73 Y78.023 Z-2.677
X48.719 Y77.952
X48.688 Y77.739
X48.678 Y77.668 Z-2.678
X48.668 Y77.597
X48.658 Y77.526
X48.647 Y77.455
X48.637 Y77.384
X48.627 Y77.313 Z-2.679
X48.606 Y77.171
X48.596 Y77.1
X48.585 Y77.029
X48.575 Y76.958 Z-2.68
X48.555 Y76.816
X48.544 Y76.745
X48.534 Y76.674
X48.522 Y76.603
X48.518 Y76.585 Z-2.681
X48.512 Y76.568
X48.506 Y76.55
X48.499 Y76.532
X48.484 Y76.502
X48.475 Y76.487
X48.466 Y76.472
X48.458 Y76.461
X48.445 Y76.444
X48.43 Y76.426
X48.413 Y76.408
X48.395 Y76.392
X48.393 Y76.39
X48.376 Y76.376
X48.359 Y76.364
X48.341 Y76.353
X48.324 Y76.343
X48.298 Y76.33
X48.272 Y76.319 Z-2.682
X48.253 Y76.313
X48.236 Y76.308
X48.218 Y76.303
X48.2 Y76.3
X48.182 Y76.298
X48.165 Y76.296
X48.147 Y76.295
X48.112
X46.758 Z-2.686
X46.756 Y76.294
X46.727 Y76.248
X46.729 Y76.247
X46.744
X46.907
X46.942 Y76.245
X46.96 Y76.244
X46.978 Y76.241
X46.996 Y76.237
X47.013 Y76.233
X47.031 Y76.228
X47.049 Y76.222
X47.066 Y76.215
X47.084 Y76.207
X47.102 Y76.198
X47.12 Y76.187
X47.135 Y76.177
X47.163 Y76.157
X47.177 Y76.145
X47.19 Y76.132
X47.214 Y76.106
X47.228 Y76.089
X47.24 Y76.072
X47.251 Y76.054
X47.261 Y76.037
X47.262 Y76.035
X47.271 Y76.018
X47.279 Y76.
X47.285 Y75.982
X47.291 Y75.964
X47.296 Y75.947
X47.3 Y75.929
X47.304 Y75.911
X47.306 Y75.893
X47.308 Y75.876
Y75.858
Y75.822
Y75.299
X47.31 Y75.297
X47.642
X47.644 Y75.299
Y75.822
Y75.858
Y75.876
X47.646 Y75.893
X47.648 Y75.911
X47.652 Y75.929
X47.656 Y75.947
X47.661 Y75.964
X47.672 Y75.997
X47.679 Y76.013
X47.686 Y76.029
X47.69 Y76.035
X47.7 Y76.053
X47.711 Y76.071
X47.724 Y76.089
X47.738 Y76.106
X47.757 Y76.127
X47.772 Y76.142
X47.787 Y76.155
X47.802 Y76.167
X47.817 Y76.177
X47.828 Y76.185
X47.846 Y76.195
X47.864 Y76.205
X47.881 Y76.213
X47.899 Y76.22
X47.917 Y76.227
X47.934 Y76.232
X47.952 Y76.237
X47.97 Y76.24
X47.988 Y76.243
X48.005 Y76.245
X48.023 Y76.246
X48.041 Y76.247
X49.245
X49.263 Y76.246
X49.281 Y76.245
X49.298 Y76.243
X49.316 Y76.24
X49.334 Y76.237
X49.351 Y76.232
X49.369 Y76.227
X49.387 Y76.221
X49.405 Y76.213
X49.422 Y76.205
X49.44 Y76.196
X49.458 Y76.185
X49.47 Y76.177
X49.484 Y76.167
X49.499 Y76.155
X49.514 Y76.142
X49.529 Y76.128
X49.549 Y76.106
X49.563 Y76.089
X49.575 Y76.071
X49.587 Y76.053
X49.597 Y76.035
X49.599 Y76.03
X49.607 Y76.014
X49.614 Y75.997
X49.621 Y75.981
X49.626 Y75.964
X49.631 Y75.947
X49.635 Y75.929
X49.638 Y75.911
X49.641 Y75.893
X49.642 Y75.876
X49.643 Y75.858
Y75.822
Y75.299
X49.645 Y75.297
X49.979
X49.981 Y75.299
Y75.822
Y75.858
X49.982 Y75.876
X49.983 Y75.893
X49.986 Y75.911
X49.989 Y75.929
X49.993 Y75.947
X49.998 Y75.964
X50.003 Y75.981
X50.009 Y75.998
X50.017 Y76.014
X50.025 Y76.031
X50.027 Y76.035
X50.037 Y76.053
X50.048 Y76.071
X50.061 Y76.089
X50.075 Y76.106
X50.095 Y76.129
X50.11 Y76.143
X50.125 Y76.155
X50.139 Y76.167
X50.154 Y76.177
X50.166 Y76.185
X50.184 Y76.196
X50.202 Y76.205
X50.219 Y76.214
X50.237 Y76.221
X50.255 Y76.227
X50.273 Y76.232
X50.29 Y76.237
X50.308 Y76.24
X50.326 Y76.243
X50.343 Y76.245
X50.361 Y76.246
X50.379 Y76.247
X51.513
X51.583
X51.601 Y76.246
X51.619 Y76.245
X51.637 Y76.243
X51.654 Y76.24
X51.672 Y76.236
X51.69 Y76.231
X51.707 Y76.226
X51.725 Y76.219
X51.743 Y76.212
X51.761 Y76.203
X51.778 Y76.194
X51.796 Y76.183
X51.804 Y76.177
X51.82 Y76.166
X51.836 Y76.154
X51.851 Y76.14
X51.867 Y76.124
X51.883 Y76.106
X51.897 Y76.089
X51.91 Y76.071
X51.921 Y76.053
X51.931 Y76.035
X51.938 Y76.023
X51.95 Y75.994
X51.961 Y75.964
X51.965 Y75.947
X51.97 Y75.929
X51.973 Y75.911
X51.975 Y75.893
X51.977 Y75.876
X51.978 Y75.858
Y75.822
Y75.299
X51.98 Y75.297
X52.314
X52.315 Y75.299
Y75.822
Y75.858
X52.316 Y75.876
X52.318 Y75.893
X52.32 Y75.911
X52.323 Y75.929
X52.327 Y75.947
X52.332 Y75.964
X52.338 Y75.982
X52.345 Y76.
X52.353 Y76.018
X52.362 Y76.035
X52.363 Y76.038
X52.373 Y76.055
X52.384 Y76.072
X52.396 Y76.089
X52.41 Y76.106
X52.421 Y76.119
X52.434 Y76.132
X52.447 Y76.145
X52.461 Y76.157
X52.489 Y76.177
X52.505 Y76.188
X52.522 Y76.198
X52.54 Y76.207
X52.558 Y76.215
X52.575 Y76.222
X52.593 Y76.228
X52.611 Y76.233
X52.629 Y76.238
X52.646 Y76.241
X52.664 Y76.244
X52.682 Y76.245
X52.717 Y76.247
X53.851
X53.922
X53.939 Y76.246
X53.957 Y76.245
X53.975 Y76.242
X53.992 Y76.239
X54.01 Y76.236
X54.028 Y76.231
X54.046 Y76.225
X54.063 Y76.219
X54.081 Y76.211
X54.099 Y76.203
X54.116 Y76.193
X54.134 Y76.182
X54.141 Y76.177
X54.157 Y76.166
X54.173 Y76.153
X54.189 Y76.139
X54.205 Y76.123
X54.22 Y76.106
X54.234 Y76.089
X54.247 Y76.071
X54.258 Y76.053
X54.268 Y76.035
X54.276 Y76.02
X54.288 Y75.992
X54.298 Y75.964
X54.303 Y75.947
X54.307 Y75.929
X54.31 Y75.911
X54.312 Y75.893
X54.314 Y75.876
X54.315 Y75.858
Y75.822
Y75.299
X54.317 Y75.297
X54.65
X54.651 Y75.299
Y75.822
Y75.858
X54.652 Y75.876
X54.654 Y75.893
X54.656 Y75.911
X54.659 Y75.929
X54.663 Y75.947
X54.668 Y75.964
X54.674 Y75.982
X54.681 Y76.
X54.689 Y76.018
X54.698 Y76.035
X54.701 Y76.042
X54.71 Y76.058
X54.721 Y76.074
X54.733 Y76.09
X54.746 Y76.106
X54.758 Y76.12
X54.772 Y76.134
X54.785 Y76.147
X54.798 Y76.158
X54.824 Y76.177
X54.843 Y76.189
X54.86 Y76.199
X54.878 Y76.208
X54.896 Y76.216
X54.914 Y76.223
X54.931 Y76.229
X54.949 Y76.234
X54.967 Y76.238
X54.984 Y76.241
X55.002 Y76.244
X55.02 Y76.246
X55.055 Y76.247
X55.224
X55.226 Y76.248
X55.195 Y76.294
X55.193 Y76.295
X53.851
X53.815
X53.798
X53.78 Y76.297
X53.762 Y76.299
X53.744 Y76.303
X53.727 Y76.307
X53.709 Y76.312
X53.686 Y76.319
X53.662 Y76.329
X53.638 Y76.341
X53.62 Y76.351
X53.603 Y76.362
X53.585 Y76.374
X53.567 Y76.388
X53.565 Y76.39
X53.547 Y76.407
X53.529 Y76.426
X53.514 Y76.443
X53.5 Y76.461
X53.496 Y76.467
X53.486 Y76.483
X53.476 Y76.499
X53.468 Y76.516
X53.46 Y76.532
X53.453 Y76.55
X53.446 Y76.568
X53.441 Y76.585
X53.436 Y76.603
X53.426 Y76.669
X53.414 Y76.745
X53.394 Y76.887
X53.384 Y76.958
X53.373 Y77.029
X53.355 Y77.157
X53.342 Y77.242
X53.332 Y77.313
X53.322 Y77.384
X53.312 Y77.455
X53.291 Y77.597
X53.271 Y77.739
X53.261 Y77.81
X53.25 Y77.881
X53.24 Y77.952
X53.23 Y78.023
X53.22 Y78.094
X53.213 Y78.14
X53.21 Y78.165
X53.179 Y78.378
X53.169 Y78.449
X53.158 Y78.52
X53.149 Y78.591
Y78.608
X53.148 Y78.626
X53.149 Y78.644
X53.151 Y78.662
X53.153 Y78.679
X53.156 Y78.697
X53.16 Y78.715
X53.165 Y78.733
X53.171 Y78.75
X53.178 Y78.768
X53.186 Y78.786
X53.194 Y78.804
X53.203 Y78.82
X53.213 Y78.835
X53.227 Y78.855
X53.242 Y78.875
X53.262 Y78.896
X53.284 Y78.918
X53.312 Y78.946
X53.355 Y78.988
X53.383 Y79.017
X53.426 Y79.059
X53.455 Y79.088
X53.496 Y79.129
X53.526 Y79.159
X53.567 Y79.2
X53.669 Y79.301
X53.78 Y79.411
X53.883 Y79.514
X53.955 Y79.584
X54.026 Y79.655
X54.097 Y79.726
X54.143 Y79.772
X54.145 Y79.774
X54.257 Y80.811
Y80.813
Y82.521
X54.255 Y82.523
X47.704
X47.702 Y82.521
Y80.813
Y80.811
Y80.809
X47.803 Y79.786
X47.805 Y79.784
X47.863 Y79.726
X48.041 Y79.55
X48.148 Y79.443
X48.182 Y79.409
X48.22 Y79.372
X48.324 Y79.268
X48.395 Y79.198
X48.434 Y79.159
X48.505 Y79.088
X48.577 Y79.017
X48.608 Y78.986
X48.648 Y78.946
X48.678 Y78.916
X48.699 Y78.895
X48.718 Y78.875
X48.735 Y78.853
X48.749 Y78.832
X48.766 Y78.804
X48.774 Y78.786
X48.782 Y78.768
X48.789 Y78.75
X48.795 Y78.733
X48.8 Y78.715
X48.804 Y78.697
X48.807 Y78.679
X48.809 Y78.662
X48.811 Y78.644
X48.812 Y78.626
X48.811 Y78.608
Y78.591
X48.801 Y78.52
X48.781 Y78.378
X48.771 Y78.307
X48.76 Y78.236
X48.73 Y78.023
X48.719 Y77.952
X48.688 Y77.739
X48.678 Y77.668
X48.668 Y77.597
X48.658 Y77.526
X48.647 Y77.455
X48.637 Y77.384
X48.627 Y77.313
X48.606 Y77.171
X48.596 Y77.1
X48.585 Y77.029
X48.575 Y76.958
X48.555 Y76.816
X48.544 Y76.745
X48.534 Y76.674
X48.522 Y76.603
X48.518 Y76.585
X48.512 Y76.568
X48.506 Y76.55
X48.499 Y76.532
X48.484 Y76.502
X48.475 Y76.487
X48.466 Y76.472
X48.458 Y76.461
X48.445 Y76.444
X48.43 Y76.426
X48.413 Y76.408
X48.395 Y76.392
X48.393 Y76.39
X48.376 Y76.376
X48.359 Y76.364
X48.341 Y76.353
X48.324 Y76.343
X48.298 Y76.33
X48.272 Y76.319
X48.253 Y76.313
X48.236 Y76.308
X48.218 Y76.303
X48.2 Y76.3
X48.182 Y76.298
X48.165 Y76.296
X48.147 Y76.295
X48.112
X46.758
X46.756 Y76.294
X46.727 Y76.248
X46.729 Y76.247
X46.744
X46.907
X46.942 Y76.245
X46.96 Y76.244
X46.978 Y76.241
X46.996 Y76.237
X47.013 Y76.233
X47.031 Y76.228
X47.049 Y76.222 Z-2.687
X47.066 Y76.215
X47.084 Y76.207
X47.102 Y76.198
X47.12 Y76.187
X47.135 Y76.177
X47.163 Y76.157
X47.177 Y76.145
X47.19 Y76.132
X47.214 Y76.106
X47.228 Y76.089
X47.24 Y76.072
X47.251 Y76.054
X47.261 Y76.037
X47.262 Y76.035
X47.271 Y76.018
X47.279 Y76.
X47.285 Y75.982
X47.291 Y75.964
X47.296 Y75.947 Z-2.688
X47.3 Y75.929
X47.304 Y75.911
X47.306 Y75.893
X47.308 Y75.876
Y75.858
Y75.822
Y75.299 Z-2.689
X47.31 Y75.297
X47.642 Z-2.69
X47.644 Y75.299
Y75.822 Z-2.692
Y75.858
Y75.876
X47.646 Y75.893
X47.648 Y75.911
X47.652 Y75.929
X47.656 Y75.947
X47.661 Y75.964
X47.672 Y75.997
X47.679 Y76.013
X47.686 Y76.029
X47.69 Y76.035
X47.7 Y76.053
X47.711 Y76.071
X47.724 Y76.089
X47.738 Y76.106
X47.757 Y76.127
X47.772 Y76.142
X47.787 Y76.155 Z-2.693
X47.802 Y76.167
X47.817 Y76.177
X47.828 Y76.185
X47.846 Y76.195
X47.864 Y76.205
X47.881 Y76.213
X47.899 Y76.22
X47.917 Y76.227
X47.934 Y76.232
X47.952 Y76.237
X47.97 Y76.24
X47.988 Y76.243
X48.005 Y76.245
X48.023 Y76.246
X48.041 Y76.247
X49.245 Z-2.696
X49.263 Y76.246
X49.281 Y76.245 Z-2.697
X49.298 Y76.243
X49.316 Y76.24
X49.334 Y76.237
X49.351 Y76.232
X49.369 Y76.227
X49.387 Y76.221
X49.405 Y76.213
X49.422 Y76.205
X49.44 Y76.196
X49.458 Y76.185
X49.47 Y76.177
X49.484 Y76.167
X49.499 Y76.155
X49.514 Y76.142
X49.529 Y76.128
X49.549 Y76.106
X49.563 Y76.089
X49.575 Y76.071
X49.587 Y76.053 Z-2.698
X49.597 Y76.035
X49.599 Y76.03
X49.607 Y76.014
X49.614 Y75.997
X49.621 Y75.981
X49.626 Y75.964
X49.631 Y75.947
X49.635 Y75.929
X49.638 Y75.911
X49.641 Y75.893
X49.642 Y75.876
X49.643 Y75.858
Y75.822
Y75.299 Z-2.7
X49.645 Y75.297
X49.979
X49.981 Y75.299
Y75.822 Z-2.702
Y75.858
X49.982 Y75.876
X49.983 Y75.893
X49.986 Y75.911
X49.989 Y75.929
X49.993 Y75.947
X49.998 Y75.964
X50.003 Y75.981
X50.009 Y75.998
X50.017 Y76.014
X50.025 Y76.031
X50.027 Y76.035
X50.037 Y76.053
X50.048 Y76.071
X50.061 Y76.089 Z-2.703
X50.075 Y76.106
X50.095 Y76.129
X50.11 Y76.143
X50.125 Y76.155
X50.139 Y76.167
X50.154 Y76.177
X50.166 Y76.185
X50.184 Y76.196
X50.202 Y76.205
X50.219 Y76.214
X50.237 Y76.221
X50.255 Y76.227
X50.273 Y76.232
X50.29 Y76.237
X50.308 Y76.24
X50.326 Y76.243
X50.343 Y76.245
X50.361 Y76.246
X50.379 Y76.247 Z-2.704
X51.513 Z-2.707
X51.583
X51.601 Y76.246
X51.619 Y76.245
X51.637 Y76.243
X51.654 Y76.24
X51.672 Y76.236
X51.69 Y76.231
X51.707 Y76.226
X51.725 Y76.219
X51.743 Y76.212
X51.761 Y76.203
X51.778 Y76.194
X51.796 Y76.183
X51.804 Y76.177
X51.82 Y76.166
X51.836 Y76.154
X51.851 Y76.14
X51.867 Y76.124 Z-2.708
X51.883 Y76.106
X51.897 Y76.089
X51.91 Y76.071
X51.921 Y76.053
X51.931 Y76.035
X51.938 Y76.023
X51.95 Y75.994
X51.961 Y75.964
X51.965 Y75.947
X51.97 Y75.929
X51.973 Y75.911
X51.975 Y75.893
X51.977 Y75.876
X51.978 Y75.858
Y75.822
Y75.299 Z-2.71
X51.98 Y75.297
X52.314 Z-2.711
X52.315 Y75.299
Y75.822 Z-2.712
Y75.858
X52.316 Y75.876
X52.318 Y75.893
X52.32 Y75.911
X52.323 Y75.929
X52.327 Y75.947
X52.332 Y75.964
X52.338 Y75.982
X52.345 Y76. Z-2.713
X52.353 Y76.018
X52.362 Y76.035
X52.363 Y76.038
X52.373 Y76.055
X52.384 Y76.072
X52.396 Y76.089
X52.41 Y76.106
X52.421 Y76.119
X52.434 Y76.132
X52.447 Y76.145
X52.461 Y76.157
X52.489 Y76.177
X52.505 Y76.188
X52.522 Y76.198
X52.54 Y76.207
X52.558 Y76.215
X52.575 Y76.222
X52.593 Y76.228
X52.611 Y76.233 Z-2.714
X52.629 Y76.238
X52.646 Y76.241
X52.664 Y76.244
X52.682 Y76.245
X52.717 Y76.247
X53.851 Z-2.717
X53.922
X53.939 Y76.246
X53.957 Y76.245
X53.975 Y76.242
X53.992 Y76.239
X54.01 Y76.236
X54.028 Y76.231
X54.046 Y76.225
X54.063 Y76.219
X54.081 Y76.211
X54.099 Y76.203
X54.116 Y76.193 Z-2.718
X54.134 Y76.182
X54.141 Y76.177
X54.157 Y76.166
X54.173 Y76.153
X54.189 Y76.139
X54.205 Y76.123
X54.22 Y76.106
X54.234 Y76.089
X54.247 Y76.071
X54.258 Y76.053
X54.268 Y76.035
X54.276 Y76.02
X54.288 Y75.992
X54.298 Y75.964
X54.303 Y75.947
X54.307 Y75.929
X54.31 Y75.911
X54.312 Y75.893
X54.314 Y75.876 Z-2.719
X54.315 Y75.858
Y75.822
Y75.299 Z-2.72
X54.317 Y75.297
X54.65 Z-2.721
X54.651 Y75.299
Y75.822 Z-2.722
Y75.858
X54.652 Y75.876
X54.654 Y75.893 Z-2.723
X54.656 Y75.911
X54.659 Y75.929
X54.663 Y75.947
X54.668 Y75.964
X54.674 Y75.982
X54.681 Y76.
X54.689 Y76.018
X54.698 Y76.035
X54.701 Y76.042
X54.71 Y76.058
X54.721 Y76.074
X54.733 Y76.09
X54.746 Y76.106
X54.758 Y76.12
X54.772 Y76.134
X54.785 Y76.147
X54.798 Y76.158
X54.824 Y76.177
X54.843 Y76.189
X54.86 Y76.199 Z-2.724
X54.878 Y76.208
X54.896 Y76.216
X54.914 Y76.223
X54.931 Y76.229
X54.949 Y76.234
X54.967 Y76.238
X54.984 Y76.241
X55.002 Y76.244
X55.02 Y76.246
X55.055 Y76.247
X55.224 Z-2.725
X55.226 Y76.248
X55.195 Y76.294
X55.193 Y76.295
X53.851 Z-2.728
X53.815
X53.798
X53.78 Y76.297
X53.762 Y76.299
X53.744 Y76.303
X53.727 Y76.307 Z-2.729
X53.709 Y76.312
X53.686 Y76.319
X53.662 Y76.329
X53.638 Y76.341
X53.62 Y76.351
X53.603 Y76.362
X53.585 Y76.374
X53.567 Y76.388
X53.565 Y76.39
X53.547 Y76.407
X53.529 Y76.426
X53.514 Y76.443
X53.5 Y76.461
X53.496 Y76.467
X53.486 Y76.483
X53.476 Y76.499
X53.468 Y76.516
X53.46 Y76.532
X53.453 Y76.55 Z-2.73
X53.446 Y76.568
X53.441 Y76.585
X53.436 Y76.603
X53.426 Y76.669
X53.414 Y76.745
X53.394 Y76.887
X53.384 Y76.958 Z-2.731
X53.373 Y77.029
X53.355 Y77.157
X53.342 Y77.242
X53.332 Y77.313 Z-2.732
X53.322 Y77.384
X53.312 Y77.455
X53.291 Y77.597
X53.271 Y77.739 Z-2.733
X53.261 Y77.81
X53.25 Y77.881
X53.24 Y77.952
X53.23 Y78.023
X53.22 Y78.094 Z-2.734
X53.213 Y78.14
X53.21 Y78.165
X53.179 Y78.378
X53.169 Y78.449 Z-2.735
X53.158 Y78.52
X53.149 Y78.591
Y78.608
X53.148 Y78.626
X53.149 Y78.644
X53.151 Y78.662
X53.153 Y78.679
X53.156 Y78.697
X53.16 Y78.715
X53.165 Y78.733
X53.171 Y78.75
X53.178 Y78.768
X53.186 Y78.786 Z-2.736
X53.194 Y78.804
X53.203 Y78.82
X53.213 Y78.835
X53.227 Y78.855
X53.242 Y78.875
X53.262 Y78.896
X53.284 Y78.918
X53.312 Y78.946
X53.355 Y78.988
X53.383 Y79.017
X53.426 Y79.059
X53.455 Y79.088 Z-2.737
X53.496 Y79.129
X53.526 Y79.159
X53.567 Y79.2
X53.669 Y79.301
X53.78 Y79.411 Z-2.738
X53.883 Y79.514
X53.955 Y79.584
X54.026 Y79.655 Z-2.739
X54.097 Y79.726
X54.143 Y79.772
X54.145 Y79.774
X54.257 Y80.811 Z-2.742
Y80.813
Y82.521 Z-2.746
X54.255 Y82.523
X47.704 Z-2.764
X47.702 Y82.521
Y80.813 Z-2.768
Y80.811
Y80.809
X47.803 Y79.786 Z-2.771
X47.805 Y79.784
X47.863 Y79.726
X48.041 Y79.55 Z-2.772
X48.148 Y79.443
X48.182 Y79.409
X48.22 Y79.372 Z-2.773
X48.324 Y79.268
X48.395 Y79.198
X48.434 Y79.159
X48.505 Y79.088 Z-2.774
X48.577 Y79.017
X48.608 Y78.986
X48.648 Y78.946
X48.678 Y78.916
X48.699 Y78.895
X48.718 Y78.875
X48.735 Y78.853
X48.749 Y78.832 Z-2.775
X48.766 Y78.804
X48.774 Y78.786
X48.782 Y78.768
X48.789 Y78.75
X48.795 Y78.733
X48.8 Y78.715
X48.804 Y78.697
X48.807 Y78.679
X48.809 Y78.662
X48.811 Y78.644
X48.812 Y78.626
X48.811 Y78.608
Y78.591
X48.801 Y78.52
X48.781 Y78.378 Z-2.776
X48.771 Y78.307
X48.76 Y78.236
X48.73 Y78.023 Z-2.777
X48.719 Y77.952
X48.688 Y77.739
X48.678 Y77.668 Z-2.778
X48.668 Y77.597
X48.658 Y77.526
X48.647 Y77.455
X48.637 Y77.384
X48.627 Y77.313 Z-2.779
X48.606 Y77.171
X48.596 Y77.1
X48.585 Y77.029
X48.575 Y76.958 Z-2.78
X48.555 Y76.816
X48.544 Y76.745
X48.534 Y76.674
X48.522 Y76.603
X48.518 Y76.585 Z-2.781
X48.512 Y76.568
X48.506 Y76.55
X48.499 Y76.532
X48.484 Y76.502
X48.475 Y76.487
X48.466 Y76.472
X48.458 Y76.461
X48.445 Y76.444
X48.43 Y76.426
X48.413 Y76.408
X48.395 Y76.392
X48.393 Y76.39
X48.376 Y76.376
X48.359 Y76.364
X48.341 Y76.353
X48.324 Y76.343
X48.298 Y76.33
X48.272 Y76.319 Z-2.782
X48.253 Y76.313
X48.236 Y76.308
X48.218 Y76.303
X48.2 Y76.3
X48.182 Y76.298
X48.165 Y76.296
X48.147 Y76.295
X48.112
X46.758 Z-2.786
X46.756 Y76.294
X46.727 Y76.248
X46.729 Y76.247
X46.744
X46.907
X46.942 Y76.245
X46.96 Y76.244
X46.978 Y76.241
X46.996 Y76.237
X47.013 Y76.233
X47.031 Y76.228
X47.049 Y76.222
X47.066 Y76.215
X47.084 Y76.207
X47.102 Y76.198
X47.12 Y76.187
X47.135 Y76.177
X47.163 Y76.157
X47.177 Y76.145
X47.19 Y76.132
X47.214 Y76.106
X47.228 Y76.089
X47.24 Y76.072
X47.251 Y76.054
X47.261 Y76.037
X47.262 Y76.035
X47.271 Y76.018
X47.279 Y76.
X47.285 Y75.982
X47.291 Y75.964
X47.296 Y75.947
X47.3 Y75.929
X47.304 Y75.911
X47.306 Y75.893
X47.308 Y75.876
Y75.858
Y75.822
Y75.299
X47.31 Y75.297
X47.642
X47.644 Y75.299
Y75.822
Y75.858
Y75.876
X47.646 Y75.893
X47.648 Y75.911
X47.652 Y75.929
X47.656 Y75.947
X47.661 Y75.964
X47.672 Y75.997
X47.679 Y76.013
X47.686 Y76.029
X47.69 Y76.035
X47.7 Y76.053
X47.711 Y76.071
X47.724 Y76.089
X47.738 Y76.106
X47.757 Y76.127
X47.772 Y76.142
X47.787 Y76.155
X47.802 Y76.167
X47.817 Y76.177
X47.828 Y76.185
X47.846 Y76.195
X47.864 Y76.205
X47.881 Y76.213
X47.899 Y76.22
X47.917 Y76.227
X47.934 Y76.232
X47.952 Y76.237
X47.97 Y76.24
X47.988 Y76.243
X48.005 Y76.245
X48.023 Y76.246
X48.041 Y76.247
X49.245
X49.263 Y76.246
X49.281 Y76.245
X49.298 Y76.243
X49.316 Y76.24
X49.334 Y76.237
X49.351 Y76.232
X49.369 Y76.227
X49.387 Y76.221
X49.405 Y76.213
X49.422 Y76.205
X49.44 Y76.196
X49.458 Y76.185
X49.47 Y76.177
X49.484 Y76.167
X49.499 Y76.155
X49.514 Y76.142
X49.529 Y76.128
X49.549 Y76.106
X49.563 Y76.089
X49.575 Y76.071
X49.587 Y76.053
X49.597 Y76.035
X49.599 Y76.03
X49.607 Y76.014
X49.614 Y75.997
X49.621 Y75.981
X49.626 Y75.964
X49.631 Y75.947
X49.635 Y75.929
X49.638 Y75.911
X49.641 Y75.893
X49.642 Y75.876
X49.643 Y75.858
Y75.822
Y75.299
X49.645 Y75.297
X49.979
X49.981 Y75.299
Y75.822
Y75.858
X49.982 Y75.876
X49.983 Y75.893
X49.986 Y75.911
X49.989 Y75.929
X49.993 Y75.947
X49.998 Y75.964
X50.003 Y75.981
X50.009 Y75.998
X50.017 Y76.014
X50.025 Y76.031
X50.027 Y76.035
X50.037 Y76.053
X50.048 Y76.071
X50.061 Y76.089
X50.075 Y76.106
X50.095 Y76.129
X50.11 Y76.143
X50.125 Y76.155
X50.139 Y76.167
X50.154 Y76.177
X50.166 Y76.185
X50.184 Y76.196
X50.202 Y76.205
X50.219 Y76.214
X50.237 Y76.221
X50.255 Y76.227
X50.273 Y76.232
X50.29 Y76.237
X50.308 Y76.24
X50.326 Y76.243
X50.343 Y76.245
X50.361 Y76.246
X50.379 Y76.247
X51.513
X51.583
X51.601 Y76.246
X51.619 Y76.245
X51.637 Y76.243
X51.654 Y76.24
X51.672 Y76.236
X51.69 Y76.231
X51.707 Y76.226
X51.725 Y76.219
X51.743 Y76.212
X51.761 Y76.203
X51.778 Y76.194
X51.796 Y76.183
X51.804 Y76.177
X51.82 Y76.166
X51.836 Y76.154
X51.851 Y76.14
X51.867 Y76.124
X51.883 Y76.106
X51.897 Y76.089
X51.91 Y76.071
X51.921 Y76.053
X51.931 Y76.035
X51.938 Y76.023
X51.95 Y75.994
X51.961 Y75.964
X51.965 Y75.947
X51.97 Y75.929
X51.973 Y75.911
X51.975 Y75.893
X51.977 Y75.876
X51.978 Y75.858
Y75.822
Y75.299
X51.98 Y75.297
X52.314
X52.315 Y75.299
Y75.822
Y75.858
X52.316 Y75.876
X52.318 Y75.893
X52.32 Y75.911
X52.323 Y75.929
X52.327 Y75.947
X52.332 Y75.964
X52.338 Y75.982
X52.345 Y76.
X52.353 Y76.018
X52.362 Y76.035
X52.363 Y76.038
X52.373 Y76.055
X52.384 Y76.072
X52.396 Y76.089
X52.41 Y76.106
X52.421 Y76.119
X52.434 Y76.132
X52.447 Y76.145
X52.461 Y76.157
X52.489 Y76.177
X52.505 Y76.188
X52.522 Y76.198
X52.54 Y76.207
X52.558 Y76.215
X52.575 Y76.222
X52.593 Y76.228
X52.611 Y76.233
X52.629 Y76.238
X52.646 Y76.241
X52.664 Y76.244
X52.682 Y76.245
X52.717 Y76.247
X53.851
X53.922
X53.939 Y76.246
X53.957 Y76.245
X53.975 Y76.242
X53.992 Y76.239
X54.01 Y76.236
X54.028 Y76.231
X54.046 Y76.225
X54.063 Y76.219
X54.081 Y76.211
X54.099 Y76.203
X54.116 Y76.193
X54.134 Y76.182
X54.141 Y76.177
X54.157 Y76.166
X54.173 Y76.153
X54.189 Y76.139
X54.205 Y76.123
X54.22 Y76.106
X54.234 Y76.089
X54.247 Y76.071
X54.258 Y76.053
X54.268 Y76.035
X54.276 Y76.02
X54.288 Y75.992
X54.298 Y75.964
X54.303 Y75.947
X54.307 Y75.929
X54.31 Y75.911
X54.312 Y75.893
X54.314 Y75.876
X54.315 Y75.858
Y75.822
Y75.299
X54.317 Y75.297
X54.65
X54.651 Y75.299
Y75.822
Y75.858
X54.652 Y75.876
X54.654 Y75.893
X54.656 Y75.911
X54.659 Y75.929
X54.663 Y75.947
X54.668 Y75.964
X54.674 Y75.982
X54.681 Y76.
X54.689 Y76.018
X54.698 Y76.035
X54.701 Y76.042
X54.71 Y76.058
X54.721 Y76.074
X54.733 Y76.09
X54.746 Y76.106
X54.758 Y76.12
X54.772 Y76.134
X54.785 Y76.147
X54.798 Y76.158
X54.824 Y76.177
X54.843 Y76.189
X54.86 Y76.199
X54.878 Y76.208
X54.896 Y76.216
X54.914 Y76.223
X54.931 Y76.229
X54.949 Y76.234
X54.967 Y76.238
X54.984 Y76.241
X55.002 Y76.244
X55.02 Y76.246
X55.055 Y76.247
X55.224
X55.226 Y76.248
X55.195 Y76.294
X55.193 Y76.295
X53.851
X53.815
X53.798
X53.78 Y76.297
X53.762 Y76.299
X53.744 Y76.303
X53.727 Y76.307
X53.709 Y76.312
X53.686 Y76.319
X53.662 Y76.329
X53.638 Y76.341
X53.62 Y76.351
X53.603 Y76.362
X53.585 Y76.374
X53.567 Y76.388
X53.565 Y76.39
X53.547 Y76.407
X53.529 Y76.426
X53.514 Y76.443
X53.5 Y76.461
X53.496 Y76.467
X53.486 Y76.483
X53.476 Y76.499
X53.468 Y76.516
X53.46 Y76.532
X53.453 Y76.55
X53.446 Y76.568
X53.441 Y76.585
X53.436 Y76.603
X53.426 Y76.669
X53.414 Y76.745
X53.394 Y76.887
X53.384 Y76.958
X53.373 Y77.029
X53.355 Y77.157
X53.342 Y77.242
X53.332 Y77.313
X53.322 Y77.384
X53.312 Y77.455
X53.291 Y77.597
X53.271 Y77.739
X53.261 Y77.81
X53.25 Y77.881
X53.24 Y77.952
X53.23 Y78.023
X53.22 Y78.094
X53.213 Y78.14
X53.21 Y78.165
X53.179 Y78.378
X53.169 Y78.449
X53.158 Y78.52
X53.149 Y78.591
Y78.608
X53.148 Y78.626
X53.149 Y78.644
X53.151 Y78.662
X53.153 Y78.679
X53.156 Y78.697
X53.16 Y78.715
X53.165 Y78.733
X53.171 Y78.75
X53.178 Y78.768
X53.186 Y78.786
X53.194 Y78.804
X53.203 Y78.82
X53.213 Y78.835
X53.227 Y78.855
X53.242 Y78.875
X53.262 Y78.896
X53.284 Y78.918
X53.312 Y78.946
X53.355 Y78.988
X53.383 Y79.017
X53.426 Y79.059
X53.455 Y79.088
X53.496 Y79.129
X53.526 Y79.159
X53.567 Y79.2
X53.669 Y79.301
X53.78 Y79.411
X53.883 Y79.514
X53.955 Y79.584
X54.026 Y79.655
X54.097 Y79.726
X54.143 Y79.772
X54.145 Y79.774
X54.257 Y80.811
Y80.813
Y82.521
X54.255 Y82.523
X47.704
X47.702 Y82.521
Y80.813
Y80.811
Y80.809
X47.803 Y79.786
X47.805 Y79.784
X47.863 Y79.726
X48.041 Y79.55
X48.148 Y79.443
X48.182 Y79.409
X48.22 Y79.372
X48.324 Y79.268
X48.395 Y79.198
X48.434 Y79.159
X48.505 Y79.088
X48.577 Y79.017
X48.608 Y78.986
X48.648 Y78.946
X48.678 Y78.916
X48.699 Y78.895
X48.718 Y78.875
X48.735 Y78.853
X48.749 Y78.832
X48.766 Y78.804
X48.774 Y78.786
X48.782 Y78.768
X48.789 Y78.75
X48.795 Y78.733
X48.8 Y78.715
X48.804 Y78.697
X48.807 Y78.679
X48.809 Y78.662
X48.811 Y78.644
X48.812 Y78.626
X48.811 Y78.608
Y78.591
X48.801 Y78.52
X48.781 Y78.378
X48.771 Y78.307
X48.76 Y78.236
X48.73 Y78.023
X48.719 Y77.952
X48.688 Y77.739
X48.678 Y77.668
X48.668 Y77.597
X48.658 Y77.526
X48.647 Y77.455
X48.637 Y77.384
X48.627 Y77.313
X48.606 Y77.171
X48.596 Y77.1
X48.585 Y77.029
X48.575 Y76.958
X48.555 Y76.816
X48.544 Y76.745
X48.534 Y76.674
X48.522 Y76.603
X48.518 Y76.585
X48.512 Y76.568
X48.506 Y76.55
X48.499 Y76.532
X48.484 Y76.502
X48.475 Y76.487
X48.466 Y76.472
X48.458 Y76.461
X48.445 Y76.444
X48.43 Y76.426
X48.413 Y76.408
X48.395 Y76.392
X48.393 Y76.39
X48.376 Y76.376
X48.359 Y76.364
X48.341 Y76.353
X48.324 Y76.343
X48.298 Y76.33
X48.272 Y76.319
X48.253 Y76.313
X48.236 Y76.308
X48.218 Y76.303
X48.2 Y76.3
X48.182 Y76.298
X48.165 Y76.296
X48.147 Y76.295
X48.112
X46.758
X46.756 Y76.294
X46.727 Y76.248
X46.729 Y76.247
X46.744
X46.775 Z-2.78
X46.801 Z-2.762
X46.818 Z-2.736
X46.824 Z-2.706
G0 Z5.
X48.277
Z-0.928
G1 Z-2.577 F200.
X48.271 Z-2.607 F17.
X48.255 Z-2.632
X48.23 Z-2.65
X48.2 Z-2.657
X48.041 Z-2.662
X48.023 Y76.246 Z-2.663
X48.005 Y76.245
X47.988 Y76.243 Z-2.664
X47.97 Y76.24 Z-2.665
X47.952 Y76.237
X47.934 Y76.232 Z-2.666
X47.917 Y76.227 Z-2.667
X47.899 Y76.22
X47.881 Y76.213 Z-2.668
X47.864 Y76.205 Z-2.669
X47.846 Y76.195
X47.828 Y76.185 Z-2.67
X47.817 Y76.177 Z-2.671
X47.802 Y76.167
X47.787 Y76.155 Z-2.672
X47.772 Y76.142 Z-2.673
X47.757 Y76.127
X47.738 Y76.106 Z-2.674
X47.724 Y76.089 Z-2.675
X47.711 Y76.071 Z-2.676
X47.7 Y76.053 Z-2.677
X47.69 Y76.035
X47.686 Y76.029
X47.679 Y76.013 Z-2.678
X47.672 Y75.997 Z-2.679
X47.661 Y75.964 Z-2.68
X47.656 Y75.947 Z-2.681
X47.652 Y75.929
X47.648 Y75.911 Z-2.682
X47.646 Y75.893
X47.644 Y75.876 Z-2.683
Y75.858 Z-2.684
Y75.822 Z-2.685
Y75.299 Z-2.703
X47.642 Y75.297
X47.31 Z-2.715
X47.308 Y75.299
Y75.822 Z-2.733
Y75.858 Z-2.734
Y75.876 Z-2.735
X47.306 Y75.893 Z-2.736
X47.304 Y75.911
X47.3 Y75.929 Z-2.737
X47.296 Y75.947 Z-2.738
X47.291 Y75.964
X47.285 Y75.982 Z-2.739
X47.279 Y76. Z-2.74
X47.271 Y76.018
X47.262 Y76.035 Z-2.741
X47.261 Y76.037
X47.251 Y76.054 Z-2.742
X47.24 Y76.072
X47.228 Y76.089 Z-2.743
X47.214 Y76.106 Z-2.744
X47.19 Y76.132 Z-2.745
X47.177 Y76.145 Z-2.746
X47.163 Y76.157
X47.135 Y76.177 Z-2.748
X47.12 Y76.187
X47.102 Y76.198 Z-2.749
X47.084 Y76.207 Z-2.75
X47.066 Y76.215
X47.049 Y76.222 Z-2.751
X47.031 Y76.228 Z-2.752
X47.013 Y76.233
X46.996 Y76.237 Z-2.753
X46.978 Y76.241 Z-2.754
X46.96 Y76.244
X46.942 Y76.245 Z-2.755
X46.907 Y76.247 Z-2.756
X46.747 Z-2.762
X46.744
X46.907 F200.
X46.942 Y76.245
X46.96 Y76.244
X46.978 Y76.241
X46.996 Y76.237
X47.013 Y76.233
X47.031 Y76.228 Z-2.763
X47.049 Y76.222
X47.066 Y76.215
X47.084 Y76.207
X47.102 Y76.198
X47.12 Y76.187
X47.135 Y76.177
X47.163 Y76.157
X47.177 Y76.145
X47.19 Y76.132
X47.214 Y76.106
X47.228 Y76.089
X47.24 Y76.072
X47.251 Y76.054
X47.261 Y76.037
X47.262 Y76.035
X47.271 Y76.018
X47.279 Y76.
X47.285 Y75.982
X47.291 Y75.964 Z-2.764
X47.296 Y75.947
X47.3 Y75.929
X47.304 Y75.911
X47.306 Y75.893
X47.308 Y75.876
Y75.858
Y75.822
Y75.299 Z-2.765
X47.31 Y75.297
X47.642 Z-2.766
X47.644 Y75.299
Y75.822 Z-2.768
Y75.858
Y75.876
X47.646 Y75.893
X47.648 Y75.911
X47.652 Y75.929
X47.656 Y75.947
X47.661 Y75.964
X47.672 Y75.997
X47.679 Y76.013
X47.686 Y76.029
X47.69 Y76.035
X47.7 Y76.053
X47.711 Y76.071
X47.724 Y76.089
X47.738 Y76.106
X47.757 Y76.127
X47.772 Y76.142
X47.787 Y76.155 Z-2.769
X47.802 Y76.167
X47.817 Y76.177
X47.828 Y76.185
X47.846 Y76.195
X47.864 Y76.205
X47.881 Y76.213
X47.899 Y76.22
X47.917 Y76.227
X47.934 Y76.232
X47.952 Y76.237
X47.97 Y76.24
X47.988 Y76.243
X48.005 Y76.245
X48.023 Y76.246
X48.041 Y76.247
X49.245 Z-2.772
X49.263 Y76.246 Z-2.773
X49.281 Y76.245
X49.298 Y76.243
X49.316 Y76.24
X49.334 Y76.237
X49.351 Y76.232
X49.369 Y76.227
X49.387 Y76.221
X49.405 Y76.213
X49.422 Y76.205
X49.44 Y76.196
X49.458 Y76.185
X49.47 Y76.177
X49.484 Y76.167
X49.499 Y76.155
X49.514 Y76.142
X49.529 Y76.128
X49.549 Y76.106
X49.563 Y76.089
X49.575 Y76.071
X49.587 Y76.053 Z-2.774
X49.597 Y76.035
X49.599 Y76.03
X49.607 Y76.014
X49.614 Y75.997
X49.621 Y75.981
X49.626 Y75.964
X49.631 Y75.947
X49.635 Y75.929
X49.638 Y75.911
X49.641 Y75.893
X49.642 Y75.876
X49.643 Y75.858
Y75.822
Y75.299 Z-2.776
X49.645 Y75.297
X49.979
X49.981 Y75.299
Y75.822 Z-2.778
Y75.858
X49.982 Y75.876
X49.983 Y75.893
X49.986 Y75.911
X49.989 Y75.929
X49.993 Y75.947
X49.998 Y75.964
X50.003 Y75.981
X50.009 Y75.998
X50.017 Y76.014
X50.025 Y76.031
X50.027 Y76.035
X50.037 Y76.053
X50.048 Y76.071 Z-2.779
X50.061 Y76.089
X50.075 Y76.106
X50.095 Y76.129
X50.11 Y76.143
X50.125 Y76.155
X50.139 Y76.167
X50.154 Y76.177
X50.166 Y76.185
X50.184 Y76.196
X50.202 Y76.205
X50.219 Y76.214
X50.237 Y76.221
X50.255 Y76.227
X50.273 Y76.232
X50.29 Y76.237
X50.308 Y76.24
X50.326 Y76.243
X50.343 Y76.245
X50.361 Y76.246 Z-2.78
X50.379 Y76.247
X51.513 Z-2.783
X51.583
X51.601 Y76.246
X51.619 Y76.245
X51.637 Y76.243
X51.654 Y76.24
X51.672 Y76.236
X51.69 Y76.231
X51.707 Y76.226
X51.725 Y76.219
X51.743 Y76.212
X51.761 Y76.203
X51.778 Y76.194
X51.796 Y76.183
X51.804 Y76.177
X51.82 Y76.166
X51.836 Y76.154
X51.851 Y76.14 Z-2.784
X51.867 Y76.124
X51.883 Y76.106
X51.897 Y76.089
X51.91 Y76.071
X51.921 Y76.053
X51.931 Y76.035
X51.938 Y76.023
X51.95 Y75.994
X51.961 Y75.964
X51.965 Y75.947
X51.97 Y75.929
X51.973 Y75.911
X51.975 Y75.893
X51.977 Y75.876
X51.978 Y75.858
Y75.822
Y75.299 Z-2.786
X51.98 Y75.297
X52.314 Z-2.787
X52.315 Y75.299
Y75.822 Z-2.788
Y75.858
X52.316 Y75.876
X52.318 Y75.893
X52.32 Y75.911
X52.323 Y75.929
X52.327 Y75.947
X52.332 Y75.964
X52.338 Y75.982 Z-2.789
X52.345 Y76.
X52.353 Y76.018
X52.362 Y76.035
X52.363 Y76.038
X52.373 Y76.055
X52.384 Y76.072
X52.396 Y76.089
X52.41 Y76.106
X52.421 Y76.119
X52.434 Y76.132
X52.447 Y76.145
X52.461 Y76.157
X52.489 Y76.177
X52.505 Y76.188
X52.522 Y76.198
X52.54 Y76.207
X52.558 Y76.215
X52.575 Y76.222
X52.593 Y76.228
X52.611 Y76.233 Z-2.79
X52.629 Y76.238
X52.646 Y76.241
X52.664 Y76.244
X52.682 Y76.245
X52.717 Y76.247
X53.851 Z-2.793
X53.922
X53.939 Y76.246
X53.957 Y76.245
X53.975 Y76.242
X53.992 Y76.239
X54.01 Y76.236
X54.028 Y76.231
X54.046 Y76.225
X54.063 Y76.219
X54.081 Y76.211
X54.099 Y76.203
X54.116 Y76.193 Z-2.794
X54.134 Y76.182
X54.141 Y76.177
X54.157 Y76.166
X54.173 Y76.153
X54.189 Y76.139
X54.205 Y76.123
X54.22 Y76.106
X54.234 Y76.089
X54.247 Y76.071
X54.258 Y76.053
X54.268 Y76.035
X54.276 Y76.02
X54.288 Y75.992
X54.298 Y75.964
X54.303 Y75.947
X54.307 Y75.929
X54.31 Y75.911
X54.312 Y75.893 Z-2.795
X54.314 Y75.876
X54.315 Y75.858
Y75.822
Y75.299 Z-2.796
X54.317 Y75.297
X54.65 Z-2.797
X54.651 Y75.299
Y75.822 Z-2.798
Y75.858
X54.652 Y75.876 Z-2.799
X54.654 Y75.893
X54.656 Y75.911
X54.659 Y75.929
X54.663 Y75.947
X54.668 Y75.964
X54.674 Y75.982
X54.681 Y76.
X54.689 Y76.018
X54.698 Y76.035
X54.701 Y76.042
X54.71 Y76.058
X54.721 Y76.074
X54.733 Y76.09
X54.746 Y76.106
X54.758 Y76.12
X54.772 Y76.134
X54.785 Y76.147
X54.798 Y76.158
X54.824 Y76.177
X54.843 Y76.189 Z-2.8
X54.86 Y76.199
X54.878 Y76.208
X54.896 Y76.216
X54.914 Y76.223
X54.931 Y76.229
X54.949 Y76.234
X54.967 Y76.238
X54.984 Y76.241
X55.002 Y76.244
X55.02 Y76.246
X55.055 Y76.247
X55.224 Z-2.801
X55.226 Y76.248
X55.195 Y76.294
X55.193 Y76.295
X53.851 Z-2.804
X53.815
X53.798
X53.78 Y76.297
X53.762 Y76.299
X53.744 Y76.303 Z-2.805
X53.727 Y76.307
X53.709 Y76.312
X53.686 Y76.319
X53.662 Y76.329
X53.638 Y76.341
X53.62 Y76.351
X53.603 Y76.362
X53.585 Y76.374
X53.567 Y76.388
X53.565 Y76.39
X53.547 Y76.407
X53.529 Y76.426
X53.514 Y76.443
X53.5 Y76.461
X53.496 Y76.467
X53.486 Y76.483
X53.476 Y76.499
X53.468 Y76.516
X53.46 Y76.532 Z-2.806
X53.453 Y76.55
X53.446 Y76.568
X53.441 Y76.585
X53.436 Y76.603
X53.426 Y76.669
X53.414 Y76.745
X53.394 Y76.887
X53.384 Y76.958 Z-2.807
X53.373 Y77.029
X53.355 Y77.157
X53.342 Y77.242
X53.332 Y77.313 Z-2.808
X53.322 Y77.384
X53.312 Y77.455
X53.291 Y77.597
X53.271 Y77.739 Z-2.809
X53.261 Y77.81
X53.25 Y77.881
X53.24 Y77.952
X53.23 Y78.023 Z-2.81
X53.22 Y78.094
X53.213 Y78.14
X53.21 Y78.165
X53.179 Y78.378
X53.169 Y78.449 Z-2.811
X53.158 Y78.52
X53.149 Y78.591
Y78.608
X53.148 Y78.626
X53.149 Y78.644
X53.151 Y78.662
X53.153 Y78.679
X53.156 Y78.697
X53.16 Y78.715
X53.165 Y78.733
X53.171 Y78.75
X53.178 Y78.768 Z-2.812
X53.186 Y78.786
X53.194 Y78.804
X53.203 Y78.82
X53.213 Y78.835
X53.227 Y78.855
X53.242 Y78.875
X53.262 Y78.896
X53.284 Y78.918
X53.312 Y78.946
X53.355 Y78.988
X53.383 Y79.017
X53.426 Y79.059 Z-2.813
X53.455 Y79.088
X53.496 Y79.129
X53.526 Y79.159
X53.567 Y79.2
X53.669 Y79.301
X53.78 Y79.411 Z-2.814
X53.883 Y79.514
X53.955 Y79.584
X54.026 Y79.655 Z-2.815
X54.097 Y79.726
X54.143 Y79.772
X54.145 Y79.774
X54.257 Y80.811 Z-2.818
Y80.813
Y82.521 Z-2.822
X54.255 Y82.523
X47.704 Z-2.84
X47.702 Y82.521
Y80.813 Z-2.844
Y80.811
Y80.809
X47.803 Y79.786 Z-2.847
X47.805 Y79.784
X47.863 Y79.726
X48.041 Y79.55 Z-2.848
X48.148 Y79.443
X48.182 Y79.409
X48.22 Y79.372 Z-2.849
X48.324 Y79.268
X48.395 Y79.198
X48.434 Y79.159
X48.505 Y79.088 Z-2.85
X48.577 Y79.017
X48.608 Y78.986
X48.648 Y78.946
X48.678 Y78.916
X48.699 Y78.895
X48.718 Y78.875
X48.735 Y78.853
X48.749 Y78.832 Z-2.851
X48.766 Y78.804
X48.774 Y78.786
X48.782 Y78.768
X48.789 Y78.75
X48.795 Y78.733
X48.8 Y78.715
X48.804 Y78.697
X48.807 Y78.679
X48.809 Y78.662
X48.811 Y78.644
X48.812 Y78.626
X48.811 Y78.608
Y78.591
X48.801 Y78.52
X48.781 Y78.378 Z-2.852
X48.771 Y78.307
X48.76 Y78.236
X48.73 Y78.023 Z-2.853
X48.719 Y77.952
X48.688 Y77.739
X48.678 Y77.668 Z-2.854
X48.668 Y77.597
X48.658 Y77.526
X48.647 Y77.455
X48.637 Y77.384
X48.627 Y77.313 Z-2.855
X48.606 Y77.171
X48.596 Y77.1
X48.585 Y77.029
X48.575 Y76.958 Z-2.856
X48.555 Y76.816
X48.544 Y76.745
X48.534 Y76.674
X48.522 Y76.603 Z-2.857
X48.518 Y76.585
X48.512 Y76.568
X48.506 Y76.55
X48.499 Y76.532
X48.484 Y76.502
X48.475 Y76.487
X48.466 Y76.472
X48.458 Y76.461
X48.445 Y76.444
X48.43 Y76.426
X48.413 Y76.408
X48.395 Y76.392
X48.393 Y76.39
X48.376 Y76.376
X48.359 Y76.364
X48.341 Y76.353
X48.324 Y76.343
X48.298 Y76.33
X48.272 Y76.319 Z-2.858
X48.253 Y76.313
X48.236 Y76.308
X48.218 Y76.303
X48.2 Y76.3
X48.182 Y76.298
X48.165 Y76.296
X48.147 Y76.295
X48.112
X46.758 Z-2.862
X46.756 Y76.294
X46.727 Y76.248
X46.729 Y76.247
X46.744
X46.907
X46.942 Y76.245
X46.96 Y76.244
X46.978 Y76.241
X46.996 Y76.237
X47.013 Y76.233
X47.031 Y76.228
X47.049 Y76.222
X47.066 Y76.215
X47.084 Y76.207
X47.102 Y76.198
X47.12 Y76.187
X47.135 Y76.177
X47.163 Y76.157
X47.177 Y76.145
X47.19 Y76.132
X47.214 Y76.106
X47.228 Y76.089
X47.24 Y76.072
X47.251 Y76.054
X47.261 Y76.037
X47.262 Y76.035
X47.271 Y76.018
X47.279 Y76.
X47.285 Y75.982
X47.291 Y75.964
X47.296 Y75.947
X47.3 Y75.929
X47.304 Y75.911
X47.306 Y75.893
X47.308 Y75.876
Y75.858
Y75.822
Y75.299
X47.31 Y75.297
X47.642
X47.644 Y75.299
Y75.822
Y75.858
Y75.876
X47.646 Y75.893
X47.648 Y75.911
X47.652 Y75.929
X47.656 Y75.947
X47.661 Y75.964
X47.672 Y75.997
X47.679 Y76.013
X47.686 Y76.029
X47.69 Y76.035
X47.7 Y76.053
X47.711 Y76.071
X47.724 Y76.089
X47.738 Y76.106
X47.757 Y76.127
X47.772 Y76.142
X47.787 Y76.155
X47.802 Y76.167
X47.817 Y76.177
X47.828 Y76.185
X47.846 Y76.195
X47.864 Y76.205
X47.881 Y76.213
X47.899 Y76.22
X47.917 Y76.227
X47.934 Y76.232
X47.952 Y76.237
X47.97 Y76.24
X47.988 Y76.243
X48.005 Y76.245
X48.023 Y76.246
X48.041 Y76.247
X49.245
X49.263 Y76.246
X49.281 Y76.245
X49.298 Y76.243
X49.316 Y76.24
X49.334 Y76.237
X49.351 Y76.232
X49.369 Y76.227
X49.387 Y76.221
X49.405 Y76.213
X49.422 Y76.205
X49.44 Y76.196
X49.458 Y76.185
X49.47 Y76.177
X49.484 Y76.167
X49.499 Y76.155
X49.514 Y76.142
X49.529 Y76.128
X49.549 Y76.106
X49.563 Y76.089
X49.575 Y76.071
X49.587 Y76.053
X49.597 Y76.035
X49.599 Y76.03
X49.607 Y76.014
X49.614 Y75.997
X49.621 Y75.981
X49.626 Y75.964
X49.631 Y75.947
X49.635 Y75.929
X49.638 Y75.911
X49.641 Y75.893
X49.642 Y75.876
X49.643 Y75.858
Y75.822
Y75.299
X49.645 Y75.297
X49.979
X49.981 Y75.299
Y75.822
Y75.858
X49.982 Y75.876
X49.983 Y75.893
X49.986 Y75.911
X49.989 Y75.929
X49.993 Y75.947
X49.998 Y75.964
X50.003 Y75.981
X50.009 Y75.998
X50.017 Y76.014
X50.025 Y76.031
X50.027 Y76.035
X50.037 Y76.053
X50.048 Y76.071
X50.061 Y76.089
X50.075 Y76.106
X50.095 Y76.129
X50.11 Y76.143
X50.125 Y76.155
X50.139 Y76.167
X50.154 Y76.177
X50.166 Y76.185
X50.184 Y76.196
X50.202 Y76.205
X50.219 Y76.214
X50.237 Y76.221
X50.255 Y76.227
X50.273 Y76.232
X50.29 Y76.237
X50.308 Y76.24
X50.326 Y76.243
X50.343 Y76.245
X50.361 Y76.246
X50.379 Y76.247
X51.513
X51.583
X51.601 Y76.246
X51.619 Y76.245
X51.637 Y76.243
X51.654 Y76.24
X51.672 Y76.236
X51.69 Y76.231
X51.707 Y76.226
X51.725 Y76.219
X51.743 Y76.212
X51.761 Y76.203
X51.778 Y76.194
X51.796 Y76.183
X51.804 Y76.177
X51.82 Y76.166
X51.836 Y76.154
X51.851 Y76.14
X51.867 Y76.124
X51.883 Y76.106
X51.897 Y76.089
X51.91 Y76.071
X51.921 Y76.053
X51.931 Y76.035
X51.938 Y76.023
X51.95 Y75.994
X51.961 Y75.964
X51.965 Y75.947
X51.97 Y75.929
X51.973 Y75.911
X51.975 Y75.893
X51.977 Y75.876
X51.978 Y75.858
Y75.822
Y75.299
X51.98 Y75.297
X52.314
X52.315 Y75.299
Y75.822
Y75.858
X52.316 Y75.876
X52.318 Y75.893
X52.32 Y75.911
X52.323 Y75.929
X52.327 Y75.947
X52.332 Y75.964
X52.338 Y75.982
X52.345 Y76.
X52.353 Y76.018
X52.362 Y76.035
X52.363 Y76.038
X52.373 Y76.055
X52.384 Y76.072
X52.396 Y76.089
X52.41 Y76.106
X52.421 Y76.119
X52.434 Y76.132
X52.447 Y76.145
X52.461 Y76.157
X52.489 Y76.177
X52.505 Y76.188
X52.522 Y76.198
X52.54 Y76.207
X52.558 Y76.215
X52.575 Y76.222
X52.593 Y76.228
X52.611 Y76.233
X52.629 Y76.238
X52.646 Y76.241
X52.664 Y76.244
X52.682 Y76.245
X52.717 Y76.247
X53.851
X53.922
X53.939 Y76.246
X53.957 Y76.245
X53.975 Y76.242
X53.992 Y76.239
X54.01 Y76.236
X54.028 Y76.231
X54.046 Y76.225
X54.063 Y76.219
X54.081 Y76.211
X54.099 Y76.203
X54.116 Y76.193
X54.134 Y76.182
X54.141 Y76.177
X54.157 Y76.166
X54.173 Y76.153
X54.189 Y76.139
X54.205 Y76.123
X54.22 Y76.106
X54.234 Y76.089
X54.247 Y76.071
X54.258 Y76.053
X54.268 Y76.035
X54.276 Y76.02
X54.288 Y75.992
X54.298 Y75.964
X54.303 Y75.947
X54.307 Y75.929
X54.31 Y75.911
X54.312 Y75.893
X54.314 Y75.876
X54.315 Y75.858
Y75.822
Y75.299
X54.317 Y75.297
X54.65
X54.651 Y75.299
Y75.822
Y75.858
X54.652 Y75.876
X54.654 Y75.893
X54.656 Y75.911
X54.659 Y75.929
X54.663 Y75.947
X54.668 Y75.964
X54.674 Y75.982
X54.681 Y76.
X54.689 Y76.018
X54.698 Y76.035
X54.701 Y76.042
X54.71 Y76.058
X54.721 Y76.074
X54.733 Y76.09
X54.746 Y76.106
X54.758 Y76.12
X54.772 Y76.134
X54.785 Y76.147
X54.798 Y76.158
X54.824 Y76.177
X54.843 Y76.189
X54.86 Y76.199
X54.878 Y76.208
X54.896 Y76.216
X54.914 Y76.223
X54.931 Y76.229
X54.949 Y76.234
X54.967 Y76.238
X54.984 Y76.241
X55.002 Y76.244
X55.02 Y76.246
X55.055 Y76.247
X55.224
X55.226 Y76.248
X55.195 Y76.294
X55.193 Y76.295
X53.851
X53.815
X53.798
X53.78 Y76.297
X53.762 Y76.299
X53.744 Y76.303
X53.727 Y76.307
X53.709 Y76.312
X53.686 Y76.319
X53.662 Y76.329
X53.638 Y76.341
X53.62 Y76.351
X53.603 Y76.362
X53.585 Y76.374
X53.567 Y76.388
X53.565 Y76.39
X53.547 Y76.407
X53.529 Y76.426
X53.514 Y76.443
X53.5 Y76.461
X53.496 Y76.467
X53.486 Y76.483
X53.476 Y76.499
X53.468 Y76.516
X53.46 Y76.532
X53.453 Y76.55
X53.446 Y76.568
X53.441 Y76.585
X53.436 Y76.603
X53.426 Y76.669
X53.414 Y76.745
X53.394 Y76.887
X53.384 Y76.958
X53.373 Y77.029
X53.355 Y77.157
X53.342 Y77.242
X53.332 Y77.313
X53.322 Y77.384
X53.312 Y77.455
X53.291 Y77.597
X53.271 Y77.739
X53.261 Y77.81
X53.25 Y77.881
X53.24 Y77.952
X53.23 Y78.023
X53.22 Y78.094
X53.213 Y78.14
X53.21 Y78.165
X53.179 Y78.378
X53.169 Y78.449
X53.158 Y78.52
X53.149 Y78.591
Y78.608
X53.148 Y78.626
X53.149 Y78.644
X53.151 Y78.662
X53.153 Y78.679
X53.156 Y78.697
X53.16 Y78.715
X53.165 Y78.733
X53.171 Y78.75
X53.178 Y78.768
X53.186 Y78.786
X53.194 Y78.804
X53.203 Y78.82
X53.213 Y78.835
X53.227 Y78.855
X53.242 Y78.875
X53.262 Y78.896
X53.284 Y78.918
X53.312 Y78.946
X53.355 Y78.988
X53.383 Y79.017
X53.426 Y79.059
X53.455 Y79.088
X53.496 Y79.129
X53.526 Y79.159
X53.567 Y79.2
X53.669 Y79.301
X53.78 Y79.411
X53.883 Y79.514
X53.955 Y79.584
X54.026 Y79.655
X54.097 Y79.726
X54.143 Y79.772
X54.145 Y79.774
X54.257 Y80.811
Y80.813
Y82.521
X54.255 Y82.523
X47.704
X47.702 Y82.521
Y80.813
Y80.811
Y80.809
X47.803 Y79.786
X47.805 Y79.784
X47.863 Y79.726
X48.041 Y79.55
X48.148 Y79.443
X48.182 Y79.409
X48.22 Y79.372
X48.324 Y79.268
X48.395 Y79.198
X48.434 Y79.159
X48.505 Y79.088
X48.577 Y79.017
X48.608 Y78.986
X48.648 Y78.946
X48.678 Y78.916
X48.699 Y78.895
X48.718 Y78.875
X48.735 Y78.853
X48.749 Y78.832
X48.766 Y78.804
X48.774 Y78.786
X48.782 Y78.768
X48.789 Y78.75
X48.795 Y78.733
X48.8 Y78.715
X48.804 Y78.697
X48.807 Y78.679
X48.809 Y78.662
X48.811 Y78.644
X48.812 Y78.626
X48.811 Y78.608
Y78.591
X48.801 Y78.52
X48.781 Y78.378
X48.771 Y78.307
X48.76 Y78.236
X48.73 Y78.023
X48.719 Y77.952
X48.688 Y77.739
X48.678 Y77.668
X48.668 Y77.597
X48.658 Y77.526
X48.647 Y77.455
X48.637 Y77.384
X48.627 Y77.313
X48.606 Y77.171
X48.596 Y77.1
X48.585 Y77.029
X48.575 Y76.958
X48.555 Y76.816
X48.544 Y76.745
X48.534 Y76.674
X48.522 Y76.603
X48.518 Y76.585
X48.512 Y76.568
X48.506 Y76.55
X48.499 Y76.532
X48.484 Y76.502
X48.475 Y76.487
X48.466 Y76.472
X48.458 Y76.461
X48.445 Y76.444
X48.43 Y76.426
X48.413 Y76.408
X48.395 Y76.392
X48.393 Y76.39
X48.376 Y76.376
X48.359 Y76.364
X48.341 Y76.353
X48.324 Y76.343
X48.298 Y76.33
X48.272 Y76.319
X48.253 Y76.313
X48.236 Y76.308
X48.218 Y76.303
X48.2 Y76.3
X48.182 Y76.298
X48.165 Y76.296
X48.147 Y76.295
X48.112
X46.758
X46.756 Y76.294
X46.727 Y76.248
X46.729 Y76.247
X46.744
X46.775 Z-2.856
X46.801 Z-2.838
X46.818 Z-2.812
X46.824 Z-2.782
G0 Z5.
X48.277
Z-0.928
G1 Z-2.643 F200.
X48.271 Z-2.673 F17.
X48.255 Z-2.699
X48.23 Z-2.716
X48.2 Z-2.723
X48.041 Z-2.729
X48.023 Y76.246
X48.005 Y76.245 Z-2.73
X47.988 Y76.243 Z-2.731
X47.97 Y76.24
X47.952 Y76.237 Z-2.732
X47.934 Y76.232 Z-2.733
X47.917 Y76.227
X47.899 Y76.22 Z-2.734
X47.881 Y76.213
X47.864 Y76.205 Z-2.735
X47.846 Y76.195 Z-2.736
X47.828 Y76.185 Z-2.737
X47.817 Y76.177
X47.802 Y76.167 Z-2.738
X47.787 Y76.155
X47.772 Y76.142 Z-2.739
X47.757 Y76.127 Z-2.74
X47.738 Y76.106 Z-2.741
X47.724 Y76.089 Z-2.742
X47.711 Y76.071
X47.7 Y76.053 Z-2.743
X47.69 Y76.035 Z-2.744
X47.686 Y76.029
X47.679 Y76.013 Z-2.745
X47.672 Y75.997
X47.661 Y75.964 Z-2.746
X47.656 Y75.947 Z-2.747
X47.652 Y75.929 Z-2.748
X47.648 Y75.911
X47.646 Y75.893 Z-2.749
X47.644 Y75.876 Z-2.75
Y75.858
Y75.822 Z-2.751
Y75.299 Z-2.77
X47.642 Y75.297
X47.31 Z-2.781
X47.308 Y75.299 Z-2.782
Y75.822 Z-2.8
Y75.858 Z-2.801
Y75.876 Z-2.802
X47.306 Y75.893
X47.304 Y75.911 Z-2.803
X47.3 Y75.929 Z-2.804
X47.296 Y75.947
X47.291 Y75.964 Z-2.805
X47.285 Y75.982
X47.279 Y76. Z-2.806
X47.271 Y76.018 Z-2.807
X47.262 Y76.035 Z-2.808
X47.261 Y76.037
X47.251 Y76.054
X47.24 Y76.072 Z-2.809
X47.228 Y76.089 Z-2.81
X47.214 Y76.106 Z-2.811
X47.19 Y76.132 Z-2.812
X47.177 Y76.145
X47.163 Y76.157 Z-2.813
X47.135 Y76.177 Z-2.814
X47.12 Y76.187 Z-2.815
X47.102 Y76.198 Z-2.816
X47.084 Y76.207
X47.066 Y76.215 Z-2.817
X47.049 Y76.222 Z-2.818
X47.031 Y76.228
X47.013 Y76.233 Z-2.819
X46.996 Y76.237 Z-2.82
X46.978 Y76.241
X46.96 Y76.244 Z-2.821
X46.942 Y76.245
X46.907 Y76.247 Z-2.823
X46.747 Z-2.828
X46.744
X46.907 Z-2.829 F200.
X46.942 Y76.245
X46.96 Y76.244
X46.978 Y76.241
X46.996 Y76.237
X47.013 Y76.233
X47.031 Y76.228
X47.049 Y76.222
X47.066 Y76.215
X47.084 Y76.207
X47.102 Y76.198
X47.12 Y76.187
X47.135 Y76.177
X47.163 Y76.157
X47.177 Y76.145 Z-2.83
X47.19 Y76.132
X47.214 Y76.106
X47.228 Y76.089
X47.24 Y76.072
X47.251 Y76.054
X47.261 Y76.037
X47.262 Y76.035
X47.271 Y76.018
X47.279 Y76.
X47.285 Y75.982
X47.291 Y75.964
X47.296 Y75.947
X47.3 Y75.929
X47.304 Y75.911
X47.306 Y75.893
X47.308 Y75.876
Y75.858
Y75.822
Y75.299 Z-2.832
X47.31 Y75.297
X47.642 Z-2.833
X47.644 Y75.299
Y75.822 Z-2.834
Y75.858
Y75.876
X47.646 Y75.893
X47.648 Y75.911
X47.652 Y75.929
X47.656 Y75.947
X47.661 Y75.964
X47.672 Y75.997 Z-2.835
X47.679 Y76.013
X47.686 Y76.029
X47.69 Y76.035
X47.7 Y76.053
X47.711 Y76.071
X47.724 Y76.089
X47.738 Y76.106
X47.757 Y76.127
X47.772 Y76.142
X47.787 Y76.155
X47.802 Y76.167
X47.817 Y76.177
X47.828 Y76.185
X47.846 Y76.195
X47.864 Y76.205
X47.881 Y76.213
X47.899 Y76.22
X47.917 Y76.227 Z-2.836
X47.934 Y76.232
X47.952 Y76.237
X47.97 Y76.24
X47.988 Y76.243
X48.005 Y76.245
X48.023 Y76.246
X48.041 Y76.247
X49.245 Z-2.839
X49.263 Y76.246
X49.281 Y76.245
X49.298 Y76.243
X49.316 Y76.24
X49.334 Y76.237
X49.351 Y76.232
X49.369 Y76.227
X49.387 Y76.221
X49.405 Y76.213
X49.422 Y76.205
X49.44 Y76.196 Z-2.84
X49.458 Y76.185
X49.47 Y76.177
X49.484 Y76.167
X49.499 Y76.155
X49.514 Y76.142
X49.529 Y76.128
X49.549 Y76.106
X49.563 Y76.089
X49.575 Y76.071
X49.587 Y76.053
X49.597 Y76.035
X49.599 Y76.03
X49.607 Y76.014
X49.614 Y75.997
X49.621 Y75.981
X49.626 Y75.964
X49.631 Y75.947
X49.635 Y75.929
X49.638 Y75.911
X49.641 Y75.893 Z-2.841
X49.642 Y75.876
X49.643 Y75.858
Y75.822
Y75.299 Z-2.842
X49.645 Y75.297
X49.979 Z-2.843
X49.981 Y75.299
Y75.822 Z-2.844
Y75.858
X49.982 Y75.876 Z-2.845
X49.983 Y75.893
X49.986 Y75.911
X49.989 Y75.929
X49.993 Y75.947
X49.998 Y75.964
X50.003 Y75.981
X50.009 Y75.998
X50.017 Y76.014
X50.025 Y76.031
X50.027 Y76.035
X50.037 Y76.053
X50.048 Y76.071
X50.061 Y76.089
X50.075 Y76.106
X50.095 Y76.129
X50.11 Y76.143
X50.125 Y76.155
X50.139 Y76.167
X50.154 Y76.177
X50.166 Y76.185 Z-2.846
X50.184 Y76.196
X50.202 Y76.205
X50.219 Y76.214
X50.237 Y76.221
X50.255 Y76.227
X50.273 Y76.232
X50.29 Y76.237
X50.308 Y76.24
X50.326 Y76.243
X50.343 Y76.245
X50.361 Y76.246
X50.379 Y76.247
X51.513 Z-2.849
X51.583
X51.601 Y76.246
X51.619 Y76.245
X51.637 Y76.243
X51.654 Y76.24
X51.672 Y76.236 Z-2.85
X51.69 Y76.231
X51.707 Y76.226
X51.725 Y76.219
X51.743 Y76.212
X51.761 Y76.203
X51.778 Y76.194
X51.796 Y76.183
X51.804 Y76.177
X51.82 Y76.166
X51.836 Y76.154
X51.851 Y76.14
X51.867 Y76.124
X51.883 Y76.106
X51.897 Y76.089
X51.91 Y76.071
X51.921 Y76.053
X51.931 Y76.035
X51.938 Y76.023
X51.95 Y75.994 Z-2.851
X51.961 Y75.964
X51.965 Y75.947
X51.97 Y75.929
X51.973 Y75.911
X51.975 Y75.893
X51.977 Y75.876
X51.978 Y75.858
Y75.822
Y75.299 Z-2.852
X51.98 Y75.297
X52.314 Z-2.853
X52.315 Y75.299
Y75.822 Z-2.855
Y75.858
X52.316 Y75.876
X52.318 Y75.893
X52.32 Y75.911
X52.323 Y75.929
X52.327 Y75.947
X52.332 Y75.964
X52.338 Y75.982
X52.345 Y76.
X52.353 Y76.018
X52.362 Y76.035
X52.363 Y76.038
X52.373 Y76.055
X52.384 Y76.072
X52.396 Y76.089
X52.41 Y76.106
X52.421 Y76.119 Z-2.856
X52.434 Y76.132
X52.447 Y76.145
X52.461 Y76.157
X52.489 Y76.177
X52.505 Y76.188
X52.522 Y76.198
X52.54 Y76.207
X52.558 Y76.215
X52.575 Y76.222
X52.593 Y76.228
X52.611 Y76.233
X52.629 Y76.238
X52.646 Y76.241
X52.664 Y76.244
X52.682 Y76.245
X52.717 Y76.247
X53.851 Z-2.859
X53.922 Z-2.86
X53.939 Y76.246
X53.957 Y76.245
X53.975 Y76.242
X53.992 Y76.239
X54.01 Y76.236
X54.028 Y76.231
X54.046 Y76.225
X54.063 Y76.219
X54.081 Y76.211
X54.099 Y76.203
X54.116 Y76.193
X54.134 Y76.182
X54.141 Y76.177
X54.157 Y76.166
X54.173 Y76.153
X54.189 Y76.139
X54.205 Y76.123
X54.22 Y76.106
X54.234 Y76.089 Z-2.861
X54.247 Y76.071
X54.258 Y76.053
X54.268 Y76.035
X54.276 Y76.02
X54.288 Y75.992
X54.298 Y75.964
X54.303 Y75.947
X54.307 Y75.929
X54.31 Y75.911
X54.312 Y75.893
X54.314 Y75.876
X54.315 Y75.858
Y75.822
Y75.299 Z-2.863
X54.317 Y75.297
X54.65 Z-2.864
X54.651 Y75.299
Y75.822 Z-2.865
Y75.858
X54.652 Y75.876
X54.654 Y75.893
X54.656 Y75.911
X54.659 Y75.929
X54.663 Y75.947
X54.668 Y75.964
X54.674 Y75.982
X54.681 Y76.
X54.689 Y76.018
X54.698 Y76.035 Z-2.866
X54.701 Y76.042
X54.71 Y76.058
X54.721 Y76.074
X54.733 Y76.09
X54.746 Y76.106
X54.758 Y76.12
X54.772 Y76.134
X54.785 Y76.147
X54.798 Y76.158
X54.824 Y76.177
X54.843 Y76.189
X54.86 Y76.199
X54.878 Y76.208
X54.896 Y76.216
X54.914 Y76.223
X54.931 Y76.229
X54.949 Y76.234
X54.967 Y76.238
X54.984 Y76.241
X55.002 Y76.244 Z-2.867
X55.02 Y76.246
X55.055 Y76.247
X55.224
X55.226 Y76.248
X55.195 Y76.294
X55.193 Y76.295
X53.851 Z-2.871
X53.815
X53.798
X53.78 Y76.297
X53.762 Y76.299
X53.744 Y76.303
X53.727 Y76.307
X53.709 Y76.312
X53.686 Y76.319
X53.662 Y76.329
X53.638 Y76.341
X53.62 Y76.351
X53.603 Y76.362
X53.585 Y76.374 Z-2.872
X53.567 Y76.388
X53.565 Y76.39
X53.547 Y76.407
X53.529 Y76.426
X53.514 Y76.443
X53.5 Y76.461
X53.496 Y76.467
X53.486 Y76.483
X53.476 Y76.499
X53.468 Y76.516
X53.46 Y76.532
X53.453 Y76.55
X53.446 Y76.568
X53.441 Y76.585
X53.436 Y76.603
X53.426 Y76.669
X53.414 Y76.745 Z-2.873
X53.394 Y76.887
X53.384 Y76.958
X53.373 Y77.029
X53.355 Y77.157 Z-2.874
X53.342 Y77.242
X53.332 Y77.313
X53.322 Y77.384
X53.312 Y77.455 Z-2.875
X53.291 Y77.597
X53.271 Y77.739
X53.261 Y77.81 Z-2.876
X53.25 Y77.881
X53.24 Y77.952
X53.23 Y78.023
X53.22 Y78.094
X53.213 Y78.14
X53.21 Y78.165
X53.179 Y78.378 Z-2.877
X53.169 Y78.449
X53.158 Y78.52
X53.149 Y78.591 Z-2.878
Y78.608
X53.148 Y78.626
X53.149 Y78.644
X53.151 Y78.662
X53.153 Y78.679
X53.156 Y78.697
X53.16 Y78.715
X53.165 Y78.733
X53.171 Y78.75
X53.178 Y78.768
X53.186 Y78.786
X53.194 Y78.804
X53.203 Y78.82
X53.213 Y78.835
X53.227 Y78.855
X53.242 Y78.875
X53.262 Y78.896
X53.284 Y78.918 Z-2.879
X53.312 Y78.946
X53.355 Y78.988
X53.383 Y79.017
X53.426 Y79.059
X53.455 Y79.088
X53.496 Y79.129
X53.526 Y79.159
X53.567 Y79.2 Z-2.88
X53.669 Y79.301
X53.78 Y79.411
X53.883 Y79.514 Z-2.881
X53.955 Y79.584
X54.026 Y79.655
X54.097 Y79.726 Z-2.882
X54.143 Y79.772
X54.145 Y79.774
X54.257 Y80.811 Z-2.885
Y80.813
Y82.521 Z-2.889
X54.255 Y82.523
X47.704 Z-2.906
X47.702 Y82.521
Y80.813 Z-2.911
Y80.811
Y80.809
X47.803 Y79.786 Z-2.914
X47.805 Y79.784
X47.863 Y79.726
X48.041 Y79.55
X48.148 Y79.443 Z-2.915
X48.182 Y79.409
X48.22 Y79.372
X48.324 Y79.268
X48.395 Y79.198 Z-2.916
X48.434 Y79.159
X48.505 Y79.088
X48.577 Y79.017
X48.608 Y78.986 Z-2.917
X48.648 Y78.946
X48.678 Y78.916
X48.699 Y78.895
X48.718 Y78.875
X48.735 Y78.853
X48.749 Y78.832
X48.766 Y78.804
X48.774 Y78.786
X48.782 Y78.768
X48.789 Y78.75
X48.795 Y78.733
X48.8 Y78.715
X48.804 Y78.697
X48.807 Y78.679 Z-2.918
X48.809 Y78.662
X48.811 Y78.644
X48.812 Y78.626
X48.811 Y78.608
Y78.591
X48.801 Y78.52
X48.781 Y78.378
X48.771 Y78.307 Z-2.919
X48.76 Y78.236
X48.73 Y78.023
X48.719 Y77.952
X48.688 Y77.739 Z-2.92
X48.678 Y77.668
X48.668 Y77.597
X48.658 Y77.526 Z-2.921
X48.647 Y77.455
X48.637 Y77.384
X48.627 Y77.313
X48.606 Y77.171 Z-2.922
X48.596 Y77.1
X48.585 Y77.029
X48.575 Y76.958
X48.555 Y76.816 Z-2.923
X48.544 Y76.745
X48.534 Y76.674
X48.522 Y76.603
X48.518 Y76.585
X48.512 Y76.568
X48.506 Y76.55
X48.499 Y76.532
X48.484 Y76.502
X48.475 Y76.487
X48.466 Y76.472
X48.458 Y76.461
X48.445 Y76.444 Z-2.924
X48.43 Y76.426
X48.413 Y76.408
X48.395 Y76.392
X48.393 Y76.39
X48.376 Y76.376
X48.359 Y76.364
X48.341 Y76.353
X48.324 Y76.343
X48.298 Y76.33
X48.272 Y76.319
X48.253 Y76.313
X48.236 Y76.308
X48.218 Y76.303
X48.2 Y76.3
X48.182 Y76.298
X48.165 Y76.296
X48.147 Y76.295
X48.112 Z-2.925
X46.758 Z-2.928
X46.756 Y76.294
X46.727 Y76.248
X46.729 Y76.247
X46.744
X46.907
X46.942 Y76.245
X46.96 Y76.244
X46.978 Y76.241
X46.996 Y76.237
X47.013 Y76.233
X47.031 Y76.228
X47.049 Y76.222
X47.066 Y76.215
X47.084 Y76.207
X47.102 Y76.198
X47.12 Y76.187
X47.135 Y76.177
X47.163 Y76.157
X47.177 Y76.145
X47.19 Y76.132
X47.214 Y76.106
X47.228 Y76.089
X47.24 Y76.072
X47.251 Y76.054
X47.261 Y76.037
X47.262 Y76.035
X47.271 Y76.018
X47.279 Y76.
X47.285 Y75.982
X47.291 Y75.964
X47.296 Y75.947
X47.3 Y75.929
X47.304 Y75.911
X47.306 Y75.893
X47.308 Y75.876
Y75.858
Y75.822
Y75.299
X47.31 Y75.297
X47.642
X47.644 Y75.299
Y75.822
Y75.858
Y75.876
X47.646 Y75.893
X47.648 Y75.911
X47.652 Y75.929
X47.656 Y75.947
X47.661 Y75.964
X47.672 Y75.997
X47.679 Y76.013
X47.686 Y76.029
X47.69 Y76.035
X47.7 Y76.053
X47.711 Y76.071
X47.724 Y76.089
X47.738 Y76.106
X47.757 Y76.127
X47.772 Y76.142
X47.787 Y76.155
X47.802 Y76.167
X47.817 Y76.177
X47.828 Y76.185
X47.846 Y76.195
X47.864 Y76.205
X47.881 Y76.213
X47.899 Y76.22
X47.917 Y76.227
X47.934 Y76.232
X47.952 Y76.237
X47.97 Y76.24
X47.988 Y76.243
X48.005 Y76.245
X48.023 Y76.246
X48.041 Y76.247
X49.245
X49.263 Y76.246
X49.281 Y76.245
X49.298 Y76.243
X49.316 Y76.24
X49.334 Y76.237
X49.351 Y76.232
X49.369 Y76.227
X49.387 Y76.221
X49.405 Y76.213
X49.422 Y76.205
X49.44 Y76.196
X49.458 Y76.185
X49.47 Y76.177
X49.484 Y76.167
X49.499 Y76.155
X49.514 Y76.142
X49.529 Y76.128
X49.549 Y76.106
X49.563 Y76.089
X49.575 Y76.071
X49.587 Y76.053
X49.597 Y76.035
X49.599 Y76.03
X49.607 Y76.014
X49.614 Y75.997
X49.621 Y75.981
X49.626 Y75.964
X49.631 Y75.947
X49.635 Y75.929
X49.638 Y75.911
X49.641 Y75.893
X49.642 Y75.876
X49.643 Y75.858
Y75.822
Y75.299
X49.645 Y75.297
X49.979
X49.981 Y75.299
Y75.822
Y75.858
X49.982 Y75.876
X49.983 Y75.893
X49.986 Y75.911
X49.989 Y75.929
X49.993 Y75.947
X49.998 Y75.964
X50.003 Y75.981
X50.009 Y75.998
X50.017 Y76.014
X50.025 Y76.031
X50.027 Y76.035
X50.037 Y76.053
X50.048 Y76.071
X50.061 Y76.089
X50.075 Y76.106
X50.095 Y76.129
X50.11 Y76.143
X50.125 Y76.155
X50.139 Y76.167
X50.154 Y76.177
X50.166 Y76.185
X50.184 Y76.196
X50.202 Y76.205
X50.219 Y76.214
X50.237 Y76.221
X50.255 Y76.227
X50.273 Y76.232
X50.29 Y76.237
X50.308 Y76.24
X50.326 Y76.243
X50.343 Y76.245
X50.361 Y76.246
X50.379 Y76.247
X51.513
X51.583
X51.601 Y76.246
X51.619 Y76.245
X51.637 Y76.243
X51.654 Y76.24
X51.672 Y76.236
X51.69 Y76.231
X51.707 Y76.226
X51.725 Y76.219
X51.743 Y76.212
X51.761 Y76.203
X51.778 Y76.194
X51.796 Y76.183
X51.804 Y76.177
X51.82 Y76.166
X51.836 Y76.154
X51.851 Y76.14
X51.867 Y76.124
X51.883 Y76.106
X51.897 Y76.089
X51.91 Y76.071
X51.921 Y76.053
X51.931 Y76.035
X51.938 Y76.023
X51.95 Y75.994
X51.961 Y75.964
X51.965 Y75.947
X51.97 Y75.929
X51.973 Y75.911
X51.975 Y75.893
X51.977 Y75.876
X51.978 Y75.858
Y75.822
Y75.299
X51.98 Y75.297
X52.314
X52.315 Y75.299
Y75.822
Y75.858
X52.316 Y75.876
X52.318 Y75.893
X52.32 Y75.911
X52.323 Y75.929
X52.327 Y75.947
X52.332 Y75.964
X52.338 Y75.982
X52.345 Y76.
X52.353 Y76.018
X52.362 Y76.035
X52.363 Y76.038
X52.373 Y76.055
X52.384 Y76.072
X52.396 Y76.089
X52.41 Y76.106
X52.421 Y76.119
X52.434 Y76.132
X52.447 Y76.145
X52.461 Y76.157
X52.489 Y76.177
X52.505 Y76.188
X52.522 Y76.198
X52.54 Y76.207
X52.558 Y76.215
X52.575 Y76.222
X52.593 Y76.228
X52.611 Y76.233
X52.629 Y76.238
X52.646 Y76.241
X52.664 Y76.244
X52.682 Y76.245
X52.717 Y76.247
X53.851
X53.922
X53.939 Y76.246
X53.957 Y76.245
X53.975 Y76.242
X53.992 Y76.239
X54.01 Y76.236
X54.028 Y76.231
X54.046 Y76.225
X54.063 Y76.219
X54.081 Y76.211
X54.099 Y76.203
X54.116 Y76.193
X54.134 Y76.182
X54.141 Y76.177
X54.157 Y76.166
X54.173 Y76.153
X54.189 Y76.139
X54.205 Y76.123
X54.22 Y76.106
X54.234 Y76.089
X54.247 Y76.071
X54.258 Y76.053
X54.268 Y76.035
X54.276 Y76.02
X54.288 Y75.992
X54.298 Y75.964
X54.303 Y75.947
X54.307 Y75.929
X54.31 Y75.911
X54.312 Y75.893
X54.314 Y75.876
X54.315 Y75.858
Y75.822
Y75.299
X54.317 Y75.297
X54.65
X54.651 Y75.299
Y75.822
Y75.858
X54.652 Y75.876
X54.654 Y75.893
X54.656 Y75.911
X54.659 Y75.929
X54.663 Y75.947
X54.668 Y75.964
X54.674 Y75.982
X54.681 Y76.
X54.689 Y76.018
X54.698 Y76.035
X54.701 Y76.042
X54.71 Y76.058
X54.721 Y76.074
X54.733 Y76.09
X54.746 Y76.106
X54.758 Y76.12
X54.772 Y76.134
X54.785 Y76.147
X54.798 Y76.158
X54.824 Y76.177
X54.843 Y76.189
X54.86 Y76.199
X54.878 Y76.208
X54.896 Y76.216
X54.914 Y76.223
X54.931 Y76.229
X54.949 Y76.234
X54.967 Y76.238
X54.984 Y76.241
X55.002 Y76.244
X55.02 Y76.246
X55.055 Y76.247
X55.224
X55.226 Y76.248
X55.195 Y76.294
X55.193 Y76.295
X53.851
X53.815
X53.798
X53.78 Y76.297
X53.762 Y76.299
X53.744 Y76.303
X53.727 Y76.307
X53.709 Y76.312
X53.686 Y76.319
X53.662 Y76.329
X53.638 Y76.341
X53.62 Y76.351
X53.603 Y76.362
X53.585 Y76.374
X53.567 Y76.388
X53.565 Y76.39
X53.547 Y76.407
X53.529 Y76.426
X53.514 Y76.443
X53.5 Y76.461
X53.496 Y76.467
X53.486 Y76.483
X53.476 Y76.499
X53.468 Y76.516
X53.46 Y76.532
X53.453 Y76.55
X53.446 Y76.568
X53.441 Y76.585
X53.436 Y76.603
X53.426 Y76.669
X53.414 Y76.745
X53.394 Y76.887
X53.384 Y76.958
X53.373 Y77.029
X53.355 Y77.157
X53.342 Y77.242
X53.332 Y77.313
X53.322 Y77.384
X53.312 Y77.455
X53.291 Y77.597
X53.271 Y77.739
X53.261 Y77.81
X53.25 Y77.881
X53.24 Y77.952
X53.23 Y78.023
X53.22 Y78.094
X53.213 Y78.14
X53.21 Y78.165
X53.179 Y78.378
X53.169 Y78.449
X53.158 Y78.52
X53.149 Y78.591
Y78.608
X53.148 Y78.626
X53.149 Y78.644
X53.151 Y78.662
X53.153 Y78.679
X53.156 Y78.697
X53.16 Y78.715
X53.165 Y78.733
X53.171 Y78.75
X53.178 Y78.768
X53.186 Y78.786
X53.194 Y78.804
X53.203 Y78.82
X53.213 Y78.835
X53.227 Y78.855
X53.242 Y78.875
X53.262 Y78.896
X53.284 Y78.918
X53.312 Y78.946
X53.355 Y78.988
X53.383 Y79.017
X53.426 Y79.059
X53.455 Y79.088
X53.496 Y79.129
X53.526 Y79.159
X53.567 Y79.2
X53.669 Y79.301
X53.78 Y79.411
X53.883 Y79.514
X53.955 Y79.584
X54.026 Y79.655
X54.097 Y79.726
X54.143 Y79.772
X54.145 Y79.774
X54.257 Y80.811
Y80.813
Y82.521
X54.255 Y82.523
X47.704
X47.702 Y82.521
Y80.813
Y80.811
Y80.809
X47.803 Y79.786
X47.805 Y79.784
X47.863 Y79.726
X48.041 Y79.55
X48.148 Y79.443
X48.182 Y79.409
X48.22 Y79.372
X48.324 Y79.268
X48.395 Y79.198
X48.434 Y79.159
X48.505 Y79.088
X48.577 Y79.017
X48.608 Y78.986
X48.648 Y78.946
X48.678 Y78.916
X48.699 Y78.895
X48.718 Y78.875
X48.735 Y78.853
X48.749 Y78.832
X48.766 Y78.804
X48.774 Y78.786
X48.782 Y78.768
X48.789 Y78.75
X48.795 Y78.733
X48.8 Y78.715
X48.804 Y78.697
X48.807 Y78.679
X48.809 Y78.662
X48.811 Y78.644
X48.812 Y78.626
X48.811 Y78.608
Y78.591
X48.801 Y78.52
X48.781 Y78.378
X48.771 Y78.307
X48.76 Y78.236
X48.73 Y78.023
X48.719 Y77.952
X48.688 Y77.739
X48.678 Y77.668
X48.668 Y77.597
X48.658 Y77.526
X48.647 Y77.455
X48.637 Y77.384
X48.627 Y77.313
X48.606 Y77.171
X48.596 Y77.1
X48.585 Y77.029
X48.575 Y76.958
X48.555 Y76.816
X48.544 Y76.745
X48.534 Y76.674
X48.522 Y76.603
X48.518 Y76.585
X48.512 Y76.568
X48.506 Y76.55
X48.499 Y76.532
X48.484 Y76.502
X48.475 Y76.487
X48.466 Y76.472
X48.458 Y76.461
X48.445 Y76.444
X48.43 Y76.426
X48.413 Y76.408
X48.395 Y76.392
X48.393 Y76.39
X48.376 Y76.376
X48.359 Y76.364
X48.341 Y76.353
X48.324 Y76.343
X48.298 Y76.33
X48.272 Y76.319
X48.253 Y76.313
X48.236 Y76.308
X48.218 Y76.303
X48.2 Y76.3
X48.182 Y76.298
X48.165 Y76.296
X48.147 Y76.295
X48.112
X46.758
X46.756 Y76.294
X46.727 Y76.248
X46.729 Y76.247
X46.744
X46.775 Z-2.922
X46.801 Z-2.905
X46.818 Z-2.879
X46.824 Z-2.848
G0 Z5.
X48.279 Y76.249
Z-0.928
G1 Z-2.743 F200.
X48.273 Z-2.773 F17.
X48.256 Z-2.799
X48.231 Z-2.816
X48.202 Z-2.823
X48.041 Z-2.829
X48.015 Y76.248 Z-2.83
X47.993 Y76.246 Z-2.831
X47.97 Y76.243
X47.952 Y76.239 Z-2.832
X47.934 Y76.235 Z-2.833
X47.917 Y76.229
X47.899 Y76.223 Z-2.834
X47.881 Y76.216 Z-2.835
X47.864 Y76.208
X47.846 Y76.198 Z-2.836
X47.828 Y76.188 Z-2.837
X47.812 Y76.177
X47.785 Y76.156 Z-2.839
X47.771 Y76.144
X47.757 Y76.131 Z-2.84
X47.735 Y76.106 Z-2.841
X47.721 Y76.089 Z-2.842
X47.708 Y76.071 Z-2.843
X47.697 Y76.053
X47.687 Y76.035 Z-2.844
X47.686 Y76.034
X47.678 Y76.017 Z-2.845
X47.67 Y75.999
X47.664 Y75.982 Z-2.846
X47.658 Y75.964 Z-2.847
X47.653 Y75.947
X47.649 Y75.929 Z-2.848
X47.646 Y75.911 Z-2.849
X47.643 Y75.893
X47.642 Y75.876 Z-2.85
X47.641 Y75.858 Z-2.851
Y75.822 Z-2.852
Y75.301 Z-2.87
X47.639 Y75.3
X47.312 Z-2.882
X47.311 Y75.301
Y75.822 Z-2.9
Y75.858 Z-2.901
X47.31 Y75.876 Z-2.902
X47.308 Y75.893
X47.306 Y75.911 Z-2.903
X47.303 Y75.929 Z-2.904
X47.299 Y75.947
X47.294 Y75.964 Z-2.905
X47.288 Y75.982
X47.281 Y76. Z-2.906
X47.274 Y76.018 Z-2.907
X47.265 Y76.035
X47.261 Y76.042 Z-2.908
X47.252 Y76.058
X47.242 Y76.074 Z-2.909
X47.23 Y76.09 Z-2.91
X47.217 Y76.106
X47.204 Y76.121 Z-2.911
X47.19 Y76.135 Z-2.912
X47.165 Y76.158 Z-2.913
X47.14 Y76.177 Z-2.914
X47.12 Y76.19 Z-2.915
X47.102 Y76.201 Z-2.916
X47.084 Y76.21
X47.066 Y76.218 Z-2.917
X47.049 Y76.225 Z-2.918
X47.031 Y76.231
X47.013 Y76.236 Z-2.919
X46.996 Y76.24 Z-2.92
X46.978 Y76.243
X46.957 Y76.246 Z-2.921
X46.937 Y76.248 Z-2.922
X46.907 Y76.249 Z-2.923
X46.747 Z-2.928
X46.744
X46.907 Z-2.929 F200.
X46.937 Y76.248
X46.957 Y76.246
X46.978 Y76.243
X46.996 Y76.24
X47.013 Y76.236
X47.031 Y76.231
X47.049 Y76.225
X47.066 Y76.218
X47.084 Y76.21
X47.102 Y76.201
X47.12 Y76.19
X47.14 Y76.177 Z-2.93
X47.165 Y76.158
X47.19 Y76.135
X47.204 Y76.121
