(1001)
(T1  D=0.396 CR=0. - ZMIN=-3.928 - FLAT END MILL)
G0 G90 G94 G17
G21
G53 G0 Z0.

(0.4MM  FLATEND  HORIZONTAL)
M5
M9
T1
S16500 M3
G4 P4.
G55
G0 X51.28 Y74.241
Z15.
Z-1.871
G1 Z-2.826 F142.
X51.279 Z-2.838
X51.273 Y74.242 Z-2.849
X51.265 Z-2.858
X51.254 Z-2.863
X51.242 Y74.241 Z-2.866
G3 X51.277 Y73.867 Z-2.886 I0.017 J-0.187
X51.242 Y74.241 Z-2.907 I-0.017 J0.187
X51.277 Y73.867 Z-2.928 I0.017 J-0.187
X51.242 Y74.241 Z-2.948 I-0.017 J0.187
X51.277 Y73.867 Z-2.969 I0.017 J-0.187
X51.242 Y74.241 Z-2.99 I-0.017 J0.187
X51.277 Y73.867 Z-3.01 I0.017 J-0.187
X51.242 Y74.241 Z-3.031 I-0.017 J0.187
X51.277 Y73.867 Z-3.052 I0.017 J-0.187
X51.285 Y74.24 Z-3.071 I-0.017 J0.187
G1 X51.248 Y74.238
X51.215 Y74.222
X51.191 Y74.195
X51.179 Y74.161
X51.181 Y74.124
X51.196 Y74.091
X51.223 Y74.067
X51.258 Y74.054
X51.267 Y74.053
X51.302 Y74.04
X51.329 Y74.015
X51.344 Y73.981
X51.345 Y73.944
X51.331 Y73.909
X51.306 Y73.882
X51.272 Y73.868
X51.234 Y73.867
X51.16 Y73.877
X51.147 Y73.876
X51.064 Y73.861
X50.98 Y73.855
X50.896 Y73.86
X50.813 Y73.876
X50.799 Y73.877
X50.685 Y73.862
X50.571 Y73.838
G3 X50.277 Y73.751 I0.398 J-1.889
X49.998 Y73.624 I0.895 J-2.33
G1 X49.987 Y73.616
X49.913 Y73.544
X49.873 Y73.513
X49.829 Y73.485
X49.777 Y73.46
X49.723 Y73.439
X49.714 Y73.434
G3 X49.188 Y72.789 I1.453 J-1.72
G1 X49.186 Y72.784
X49.182 Y72.761
X49.178 Y72.739
X49.18 Y72.729
X49.19 Y72.725
X49.199 Y72.731
X49.237 Y72.8
X49.279 Y72.867
X49.417 Y73.045
X49.491 Y73.13
X49.573 Y73.208
X49.613 Y73.241
X49.65 Y73.276
X49.745 Y73.376
X49.796 Y73.421
X49.853 Y73.46
X49.92 Y73.494
X49.99 Y73.521
X50.06 Y73.547
X50.129 Y73.579
X50.241 Y73.629
X50.357 Y73.669
X50.475 Y73.701
X50.594 Y73.729
X50.67 Y73.739
X50.746 Y73.751
X50.885 Y73.782
X50.956 Y73.791
X51.028 Y73.79
X51.118 Y73.775
X51.206 Y73.749
X51.218 Y73.746
X51.303 Y73.737
X51.388 Y73.724
X51.615 Y73.664
X51.727 Y73.627
X51.834 Y73.579
X51.879 Y73.554
X51.925 Y73.533
X52.02 Y73.499
X52.067 Y73.48
X52.112 Y73.456
X52.169 Y73.418
X52.221 Y73.373
X52.268 Y73.323
X52.31 Y73.27
X52.315 Y73.264
X52.378 Y73.213
X52.438 Y73.158
X52.588 Y72.988
X52.657 Y72.899
X52.719 Y72.804
X52.739 Y72.768
X52.759 Y72.732
X52.768 Y72.726
X52.779 Y72.73
X52.781 Y72.741
X52.773 Y72.787
X52.771 Y72.793
G3 X52.25 Y73.43 I-2.008 J-1.11
G1 X52.24 Y73.436
X52.145 Y73.477
X52.1 Y73.503
X52.057 Y73.533
X52.011 Y73.576
X51.968 Y73.623
X51.957 Y73.632
X51.899 Y73.664
X51.839 Y73.691
X51.717 Y73.742
G3 X51.308 Y73.855 I-0.704 J-1.747
G1 X51.234 Y73.867
X51.21 Y73.877
X51.191 Y73.896
X51.181 Y73.921
X51.169 Y73.946
X51.146 Y73.961
X51.118 Y73.962
X51.05 Y73.949
X50.98 Y73.945
X50.908 Y73.949
X50.836 Y73.963
X50.792 Y73.967
X50.672 Y73.951
X50.552 Y73.926
G3 X50.246 Y73.836 I0.417 J-1.977
X49.956 Y73.703 I0.923 J-2.409
G1 X49.921 Y73.677
X49.857 Y73.615
X49.822 Y73.588
X49.785 Y73.564
X49.738 Y73.541
X49.69 Y73.523
X49.659 Y73.506
G3 X49.35 Y73.196 I1.544 J-1.85
G1 X49.283 Y73.11
X49.221 Y73.02
X49.109 Y72.832
X49.098 Y72.798
X49.082 Y72.725
X49.057 Y72.654
X49.023 Y72.587
X48.98 Y72.524
X48.968 Y72.502
G3 X48.886 Y72.166 I1.931 J-0.648
X48.851 Y71.822 I3.229 J-0.5
G1 X48.854 Y71.802
X48.874 Y71.72
X48.882 Y71.635
X48.877 Y71.55
X48.86 Y71.467
X48.858 Y71.46
X48.856 Y71.454
X48.853 Y71.438
Y70.779
X48.856 Y70.761
X48.876 Y70.675
X48.883 Y70.586
X48.876 Y70.497
X48.856 Y70.41
X48.853 Y70.393
Y70.211
X48.857 Y70.195
X48.869 Y70.183
X48.885 Y70.179
X48.963
X48.979 Y70.183
X48.991 Y70.195
X48.995 Y70.211
Y70.392
X48.992 Y70.41
G2 Y70.761 I0.551 J0.176
G1 X48.995 Y70.778
X48.994 Y71.439
X48.992 Y71.455
G2 X49.001 Y71.82 I0.546 J0.168
G1 X49.005 Y71.84
X49.015 Y71.94
X49.029 Y72.04
X49.048 Y72.138
X49.075 Y72.235
X49.088 Y72.286
X49.097 Y72.338
X49.105 Y72.39
X49.119 Y72.441
X49.139 Y72.493
X49.164 Y72.542
X49.194 Y72.589
X49.228 Y72.633
X49.262 Y72.676
X49.291 Y72.722
X49.351 Y72.813
X49.483 Y72.984
X49.554 Y73.066
X49.632 Y73.141
X49.676 Y73.177
X49.718 Y73.216
X49.801 Y73.306
X49.847 Y73.347
X49.898 Y73.382
X49.94 Y73.403
X49.984 Y73.42
X50.073 Y73.45
X50.112 Y73.466
X50.149 Y73.486
X50.186 Y73.506
X50.225 Y73.523
X50.436 Y73.597
X50.544 Y73.628
X50.655 Y73.648
X50.711 Y73.654
X50.768 Y73.663
X50.893 Y73.692
X50.957 Y73.701
X51.021 Y73.7
X51.064 Y73.695
X51.107 Y73.685
X51.191 Y73.663
X51.234 Y73.654
X51.279 Y73.65
X51.323 Y73.646
X51.366 Y73.637
X51.584 Y73.58
X51.691 Y73.544
X51.793 Y73.498
X51.843 Y73.471
X51.894 Y73.448
X51.981 Y73.418
X52.025 Y73.401
X52.066 Y73.379
X52.139 Y73.327
X52.204 Y73.264
X52.265 Y73.198
X52.33 Y73.137
X52.409 Y73.061
X52.481 Y72.978
X52.613 Y72.804
X52.653 Y72.74
X52.671 Y72.707
X52.693 Y72.676
X52.749 Y72.609
X52.776 Y72.574
X52.799 Y72.537
X52.827 Y72.478
X52.846 Y72.415
X52.859 Y72.351
X52.866 Y72.286
X52.868 Y72.271
X52.907 Y72.145
X52.926 Y72.082
X52.937 Y72.017
X52.945 Y71.935
X52.952 Y71.852
X52.957 Y71.833
G2 X52.972 Y71.453 I-0.534 J-0.212
G1 X52.97 Y71.436
Y70.779
X52.973 Y70.761
G2 Y70.41 I-0.555 J-0.176
G1 X52.97 Y70.392
Y70.211
X52.974 Y70.195
X52.986 Y70.183
X53.002 Y70.179
X53.082
X53.098 Y70.183
X53.11 Y70.195
X53.114 Y70.211
Y70.393
X53.112 Y70.41
X53.091 Y70.497
X53.084 Y70.586
X53.091 Y70.675
X53.112 Y70.762
X53.114 Y70.779
Y71.43
X53.112 Y71.447
X53.091 Y71.534
X53.083 Y71.623
X53.089 Y71.712
X53.109 Y71.799
X53.112 Y71.819
G3 X53.076 Y72.167 I-3.12 J-0.142
X52.993 Y72.507 I-2.126 J-0.338
G1 X52.98 Y72.531
G2 X52.861 Y72.801 I0.437 J0.353
G1 X52.85 Y72.835
G3 X52.305 Y73.501 I-2.093 J-1.157
G1 X52.275 Y73.519
X52.191 Y73.555
X52.151 Y73.578
X52.114 Y73.604
X52.073 Y73.641
X52.036 Y73.682
X52.002 Y73.71
X51.941 Y73.743
X51.878 Y73.772
X51.75 Y73.825
G3 X51.322 Y73.944 I-0.737 J-1.831
G1 X51.245 Y73.957
X51.167 Y73.967
X51.125 Y73.963
X51.118 Y73.962
X51.088 Y73.961
X51.06 Y73.972
X51.038 Y73.993
X51.018 Y74.015
X50.992 Y74.03
X50.963 Y74.035
X50.908 Y74.04
X50.854 Y74.052
X50.824 Y74.057
X50.793
X50.663 Y74.04
X50.534 Y74.014
G3 X50.212 Y73.919 I0.432 J-2.049
X49.907 Y73.779 I0.995 J-2.579
G1 X49.881 Y73.763
X49.859 Y73.742
X49.815 Y73.7
X49.767 Y73.663
X49.714 Y73.631
X49.658 Y73.607
X49.629 Y73.594
X49.603 Y73.576
G3 X49.283 Y73.251 I1.505 J-1.803
X49.029 Y72.873 I1.976 J-1.601
G1 X49.016 Y72.844
X49.009 Y72.813
X48.995 Y72.75
X48.973 Y72.688
X48.944 Y72.63
X48.907 Y72.577
X48.894 Y72.557
X48.884 Y72.535
G3 X48.776 Y72.028 I2.185 J-0.733
G1 X48.767 Y71.925
X48.761 Y71.821
Y71.819
Y71.818
X48.768 Y71.777
X48.785 Y71.707
X48.792 Y71.635
X48.788 Y71.563
X48.774 Y71.492
X48.771 Y71.485
X48.769 Y71.478
X48.763 Y71.439
Y70.777
X48.77 Y70.736
X48.787 Y70.662
X48.793 Y70.586
X48.787 Y70.511
X48.77 Y70.437
X48.763 Y70.395
Y70.121
X48.767 Y70.105
X48.779 Y70.093
X48.795 Y70.089
X49.053
X49.069 Y70.093
X49.081 Y70.105
X49.085 Y70.121
Y70.394
X49.078 Y70.436
G2 Y70.735 I0.464 J0.15
G1 X49.085 Y70.776
X49.084 Y71.441
X49.078 Y71.481
X49.061 Y71.558
X49.057 Y71.637
X49.066 Y71.716
X49.087 Y71.792
X49.095 Y71.829
X49.106 Y71.934
X49.123 Y72.038
X49.147 Y72.14
X49.176 Y72.242
X49.184 Y72.284
X49.196 Y72.365
X49.219 Y72.444
X49.256 Y72.517
X49.304 Y72.583
X49.337 Y72.625
X49.365 Y72.67
X49.423 Y72.759
X49.549 Y72.923
X49.617 Y73.001
X49.691 Y73.073
X49.74 Y73.113
X49.785 Y73.155
X49.859 Y73.236
X49.899 Y73.273
X49.944 Y73.304
X50.018 Y73.34
X50.098 Y73.363
X50.128 Y73.372
X50.156 Y73.387
X50.21 Y73.418
X50.311 Y73.463
X50.416 Y73.499
X50.523 Y73.528
X50.631 Y73.553
X50.711 Y73.563
X50.751 Y73.567
X50.791 Y73.575
X50.901 Y73.602
X50.957 Y73.611
X51.014
X51.053 Y73.606
X51.092 Y73.596
X51.169 Y73.575
X51.212 Y73.566
X51.257 Y73.562
X51.301 Y73.558
X51.345 Y73.55
X51.552 Y73.496
X51.654 Y73.462
X51.753 Y73.418
X51.807 Y73.388
X51.864 Y73.362
X51.943 Y73.336
X51.983 Y73.321
X52.02 Y73.302
X52.065 Y73.271
X52.107 Y73.236
X52.145 Y73.196
X52.178 Y73.152
X52.197 Y73.128
X52.221 Y73.108
X52.271 Y73.069
X52.346 Y72.997
X52.414 Y72.917
X52.541 Y72.751
X52.575 Y72.695
X52.606 Y72.637
X52.633 Y72.602
X52.672 Y72.559
X52.706 Y72.512
X52.735 Y72.461
X52.757 Y72.408
X52.77 Y72.345
X52.776 Y72.281
X52.782 Y72.245
X52.819 Y72.127
X52.837 Y72.067
X52.848 Y72.006
X52.855 Y71.922
X52.863 Y71.837
X52.872 Y71.803
G2 X52.886 Y71.478 I-0.448 J-0.182
G1 X52.88 Y71.438
Y70.777
X52.887 Y70.736
G2 Y70.436 I-0.469 J-0.15
G1 X52.88 Y70.394
Y70.121
X52.884 Y70.105
X52.896 Y70.093
X52.912 Y70.089
X53.172
X53.188 Y70.093
X53.2 Y70.105
X53.204 Y70.121
Y70.395
X53.198 Y70.436
X53.18 Y70.51
X53.174 Y70.586
X53.18 Y70.661
X53.198 Y70.735
X53.204 Y70.777
Y71.432
X53.198 Y71.474
X53.18 Y71.548
X53.173 Y71.623
X53.178 Y71.699
X53.195 Y71.773
X53.201 Y71.797
X53.202 Y71.82
G3 X53.164 Y72.185 I-3.195 J-0.145
X53.077 Y72.541 I-2.257 J-0.365
G1 X53.067 Y72.564
X53.053 Y72.584
G2 X52.95 Y72.816 I0.363 J0.299
G1 X52.943 Y72.848
X52.93 Y72.877
G3 X52.362 Y73.571 I-2.182 J-1.206
G1 X52.336 Y73.589
X52.308 Y73.603
X52.236 Y73.633
X52.202 Y73.652
X52.17 Y73.675
X52.134 Y73.708
X52.1 Y73.745
X52.079 Y73.766
X52.054 Y73.784
X51.969 Y73.83
X51.88 Y73.87
X51.699 Y73.939
X51.52 Y73.994
X51.428 Y74.016
X51.336 Y74.033
X51.251 Y74.047
X51.166 Y74.057
X51.137
X51.108 Y74.052
X51.045 Y74.039
X50.981 Y74.035
X50.963
X50.934 Y74.043
X50.91 Y74.062
X50.897 Y74.09
X50.885 Y74.118
X50.862 Y74.138
X50.833 Y74.147
X50.792
G3 X50.505 Y74.103 I0.139 J-1.84
X50.226 Y74.022 I0.679 J-2.86
G1 X50.132 Y73.987
X50.04 Y73.946
X49.86 Y73.856
X49.825 Y73.834
X49.794 Y73.805
X49.758 Y73.769
X49.717 Y73.738
X49.673 Y73.711
X49.625 Y73.691
X49.585 Y73.673
X49.549 Y73.649
G3 X49.214 Y73.308 I1.581 J-1.895
X48.947 Y72.912 I2.067 J-1.676
G1 X48.93 Y72.872
X48.92 Y72.83
X48.909 Y72.777
X48.892 Y72.727
X48.868 Y72.679
X48.837 Y72.634
X48.815 Y72.6
X48.798 Y72.562
G3 X48.71 Y72.201 I2.118 J-0.711
X48.672 Y71.831 I3.359 J-0.533
G1 X48.673 Y71.789
X48.682 Y71.748
X48.696 Y71.691
X48.702 Y71.633
X48.699 Y71.574
X48.687 Y71.517
X48.685 Y71.511
X48.683 Y71.505
X48.676 Y71.472
X48.673 Y71.437
Y70.779
X48.676 Y70.743
X48.684 Y70.707
X48.698 Y70.647
X48.703 Y70.587
X48.699 Y70.526
X48.685 Y70.466
X48.676 Y70.43
X48.673 Y70.392
Y70.031
X48.677 Y70.015
X48.689 Y70.003
X48.705 Y69.999
X49.143
X49.159 Y70.003
X49.171 Y70.015
X49.175 Y70.031
Y70.392
X49.172 Y70.429
X49.164 Y70.465
X49.149 Y70.524
X49.145 Y70.586
X49.149 Y70.647
X49.163 Y70.706
X49.172 Y70.742
X49.175 Y70.779
X49.174 Y71.438
X49.172 Y71.474
X49.164 Y71.509
X49.15 Y71.571
X49.147 Y71.635
X49.154 Y71.698
X49.171 Y71.76
X49.18 Y71.792
X49.185 Y71.824
X49.194 Y71.914
X49.207 Y72.004
X49.225 Y72.093
X49.249 Y72.18
X49.256 Y72.199
X49.263 Y72.218
X49.274 Y72.276
X49.283 Y72.343
X49.304 Y72.407
X49.335 Y72.467
X49.375 Y72.522
X49.382 Y72.529
X49.389 Y72.537
X49.423 Y72.58
X49.511 Y72.724
X49.558 Y72.794
X49.612 Y72.859
X49.68 Y72.933
X49.751 Y73.004
X49.793 Y73.039
X49.834 Y73.073
X49.871 Y73.113
X49.918 Y73.167
X49.974 Y73.212
X50.037 Y73.246
X50.105 Y73.268
X50.162 Y73.288
X50.224 Y73.323
X50.288 Y73.354
X50.48 Y73.422
X50.578 Y73.45
X50.678 Y73.468
X50.732 Y73.474
X50.785 Y73.479
X50.838 Y73.492
X50.907 Y73.511
X50.979 Y73.518
X51.05 Y73.512
X51.119 Y73.493
X51.174 Y73.479
X51.249 Y73.473
X51.323 Y73.462
X51.521 Y73.411
X51.618 Y73.378
X51.711 Y73.337
X51.758 Y73.311
X51.804 Y73.286
X51.858 Y73.267
X51.929 Y73.243
X51.996 Y73.208
X52.055 Y73.161
X52.102 Y73.103
X52.132 Y73.066
X52.168 Y73.036
X52.206 Y73.007
X52.24 Y72.974
X52.371 Y72.827
X52.433 Y72.749
X52.487 Y72.666
X52.509 Y72.627
X52.531 Y72.588
X52.568 Y72.54
X52.6 Y72.504
X52.629 Y72.465
X52.652 Y72.424
X52.671 Y72.379
X52.682 Y72.327
X52.686 Y72.274
X52.694 Y72.224
X52.731 Y72.111
X52.748 Y72.054
X52.758 Y71.995
X52.766 Y71.912
X52.774 Y71.829
X52.779 Y71.798
X52.789 Y71.768
G2 X52.801 Y71.506 I-0.366 J-0.147
G1 X52.793 Y71.471
X52.79 Y71.436
Y70.779
X52.793 Y70.743
X52.801 Y70.707
X52.815 Y70.647
X52.82 Y70.586
X52.815 Y70.525
X52.801 Y70.465
X52.793 Y70.429
X52.79 Y70.392
Y70.031
X52.794 Y70.015
X52.806 Y70.003
X52.822 Y69.999
X53.262
X53.278 Y70.003
X53.29 Y70.015
X53.294 Y70.031
Y70.392
X53.292 Y70.429
X53.283 Y70.465
X53.269 Y70.524
X53.264 Y70.585
X53.269 Y70.646
X53.283 Y70.706
X53.292 Y70.742
X53.294 Y70.779
Y71.429
X53.291 Y71.467
X53.283 Y71.503
X53.268 Y71.563
X53.263 Y71.624
X53.267 Y71.685
X53.281 Y71.744
X53.29 Y71.785
X53.291 Y71.827
G3 X53.253 Y72.202 I-3.264 J-0.149
X53.163 Y72.567 I-2.325 J-0.377
G1 X53.146 Y72.607
X53.121 Y72.643
X53.091 Y72.686
X53.067 Y72.733
X53.049 Y72.783
X53.038 Y72.835
X53.028 Y72.877
X53.011 Y72.916
G3 X52.416 Y73.643 I-2.286 J-1.264
G1 X52.381 Y73.668
X52.342 Y73.686
X52.282 Y73.711
X52.227 Y73.745
X52.195 Y73.774
X52.167 Y73.806
X52.138 Y73.835
X52.104 Y73.859
X52.014 Y73.908
X51.92 Y73.951
X51.729 Y74.024
G3 X51.452 Y74.104 I-0.884 J-2.541
X51.168 Y74.147 I-0.42 J-1.811
G1 X51.127
X51.088 Y74.14
X51.035 Y74.129
X50.981 Y74.125
X50.927 Y74.128
X50.874 Y74.139
X50.833 Y74.147
X50.808 Y74.154
X50.786 Y74.17
X50.772 Y74.192
X50.756 Y74.213
X50.732 Y74.227
X50.705 Y74.229
G3 X50.286 Y74.135 I0.258 J-2.138
X49.803 Y73.928 I0.976 J-2.944
G1 X49.765 Y73.903
X49.733 Y73.872
X49.702 Y73.84
X49.667 Y73.812
X49.629 Y73.79
X49.588 Y73.774
X49.544 Y73.755
X49.505 Y73.729
G3 X49.212 Y73.448 I1.882 J-2.255
X48.966 Y73.124 I1.716 J-1.558
G1 X48.912 Y73.033
X48.86 Y72.94
X48.842 Y72.897
X48.832 Y72.851
X48.824 Y72.806
X48.809 Y72.762
X48.789 Y72.721
X48.762 Y72.684
X48.736 Y72.647
X48.718 Y72.606
G3 X48.641 Y72.329 I2.591 J-0.869
X48.596 Y72.045 I2.264 J-0.503
G1 X48.587 Y71.935
X48.582 Y71.826
X48.581 Y71.816
Y71.806
X48.584 Y71.766
X48.594 Y71.727
X48.606 Y71.682
X48.612 Y71.635
X48.61 Y71.588
X48.601 Y71.542
X48.598 Y71.533
X48.595 Y71.525
X48.586 Y71.488
X48.583 Y71.451
Y70.765
X48.587 Y70.725
X48.596 Y70.687
X48.609 Y70.637
X48.613 Y70.585
X48.608 Y70.534
X48.596 Y70.484
X48.586 Y70.446
X48.583 Y70.407
Y69.941
X48.587 Y69.925
X48.599 Y69.913
X48.615 Y69.909
X49.233
X49.249 Y69.913
X49.261 Y69.925
X49.265 Y69.941
Y70.407
X49.262 Y70.446
X49.252 Y70.485
X49.237 Y70.552
X49.236 Y70.62
X49.251 Y70.686
X49.261 Y70.725
X49.265 Y70.764
X49.264 Y71.453
X49.261 Y71.491
X49.252 Y71.529
X49.24 Y71.58
X49.237 Y71.632
X49.243 Y71.685
X49.258 Y71.735
X49.268 Y71.769
X49.274 Y71.805
X49.294 Y71.981
X49.311 Y72.068
X49.335 Y72.153
X49.344 Y72.178
X49.352 Y72.202
X49.36 Y72.233
X49.363 Y72.265
X49.371 Y72.324
X49.39 Y72.381
X49.419 Y72.432
X49.458 Y72.478
X49.495 Y72.525
X49.581 Y72.668
X49.626 Y72.735
X49.678 Y72.798
X49.743 Y72.869
X49.811 Y72.937
X49.856 Y72.975
X49.902 Y73.012
X49.941 Y73.056
X49.979 Y73.101
X50.025 Y73.138
X50.077 Y73.165
X50.134 Y73.182
X50.164 Y73.19
X50.192 Y73.202
X50.255 Y73.238
X50.319 Y73.27
X50.501 Y73.335
X50.594 Y73.362
X50.69 Y73.379
X50.748 Y73.385
X50.807 Y73.391
X50.865 Y73.406
X50.919 Y73.422
X50.976 Y73.428
X51.032 Y73.424
X51.087 Y73.409
X51.092 Y73.407
X51.096 Y73.405
X51.152 Y73.391
X51.227 Y73.385
X51.302 Y73.375
X51.49 Y73.326
X51.582 Y73.296
X51.671 Y73.257
X51.722 Y73.229
X51.774 Y73.201
X51.802 Y73.188
X51.832 Y73.18
X51.888 Y73.163
X51.94 Y73.135
X51.985 Y73.098
X52.022 Y73.053
X52.041 Y73.028
X52.064 Y73.006
X52.188 Y72.896
X52.248 Y72.837
X52.301 Y72.773
X52.357 Y72.698
X52.41 Y72.62
X52.435 Y72.576
X52.459 Y72.531
X52.478 Y72.504
X52.501 Y72.48
X52.527 Y72.451
X52.551 Y72.42
X52.57 Y72.387
X52.585 Y72.351
X52.594 Y72.307
X52.597 Y72.263
X52.605 Y72.21
X52.641 Y72.098
X52.658 Y72.042
X52.669 Y71.985
X52.677 Y71.895
X52.686 Y71.806
X52.692 Y71.772
X52.703 Y71.74
X52.72 Y71.688
X52.728 Y71.634
X52.725 Y71.579
X52.712 Y71.526
X52.703 Y71.488
X52.7 Y71.45
Y70.764
X52.703 Y70.725
X52.713 Y70.687
X52.726 Y70.637
X52.73 Y70.586
X52.726 Y70.535
X52.713 Y70.486
X52.703 Y70.447
X52.7 Y70.407
Y69.941
X52.704 Y69.925
X52.716 Y69.913
X52.732 Y69.909
X53.352
X53.368 Y69.913
X53.38 Y69.925
X53.384 Y69.941
Y70.407
X53.381 Y70.447
X53.371 Y70.485
X53.359 Y70.534
X53.354 Y70.585
X53.358 Y70.636
X53.371 Y70.685
X53.381 Y70.724
X53.384 Y70.765
Y71.444
X53.381 Y71.485
X53.371 Y71.524
X53.358 Y71.574
X53.353 Y71.625
X53.357 Y71.677
X53.37 Y71.727
X53.379 Y71.764
X53.382 Y71.802
X53.378 Y71.88
X53.371 Y71.957
G3 X53.329 Y72.289 I-2.172 J-0.105
X53.243 Y72.612 I-2.764 J-0.567
G1 X53.224 Y72.655
X53.196 Y72.693
X53.172 Y72.726
X53.152 Y72.762
X53.137 Y72.8
X53.128 Y72.84
X53.127 Y72.85
X53.126 Y72.859
X53.116 Y72.903
X53.098 Y72.945
G3 X52.938 Y73.205 I-2.821 J-1.559
X52.748 Y73.443 I-1.733 J-1.185
G1 X52.609 Y73.587
X52.461 Y73.723
X52.423 Y73.749
X52.38 Y73.768
X52.338 Y73.785
X52.299 Y73.807
X52.263 Y73.835
X52.232 Y73.868
X52.231 Y73.87
X52.23 Y73.871
X52.199 Y73.903
X52.164 Y73.928
G3 X51.824 Y74.088 I-1.054 J-1.802
X51.463 Y74.191 I-0.899 J-2.467
G1 X51.312 Y74.22
X51.158 Y74.238
X51.115 Y74.237
X51.072 Y74.229
X51.027 Y74.219
X50.981 Y74.215
X50.935 Y74.218
X50.891 Y74.228
X50.846 Y74.238
X50.801
X50.705 Y74.229
X50.677 Y74.231
X50.652 Y74.244
X50.633 Y74.265
X50.614 Y74.286
X50.589 Y74.298
X50.56 Y74.299
G3 X50.257 Y74.221 I0.384 J-2.133
X49.766 Y74.01 I1.013 J-3.032
G1 X49.711 Y73.974
X49.663 Y73.928
X49.615 Y73.886
X49.588 Y73.87
X49.558 Y73.858
X49.554 Y73.857
X49.55 Y73.856
X49.503 Y73.838
X49.462 Y73.81
G3 X49.151 Y73.514 I2.084 J-2.498
X48.89 Y73.172 I1.743 J-1.602
G1 X48.834 Y73.077
X48.78 Y72.981
X48.756 Y72.923
X48.743 Y72.862
X48.737 Y72.827
X48.726 Y72.795
X48.71 Y72.764
X48.688 Y72.737
X48.659 Y72.697
X48.638 Y72.652
G3 X48.555 Y72.356 I2.945 J-0.988
X48.506 Y72.053 I2.293 J-0.525
G1 X48.496 Y71.922
X48.491 Y71.79
X48.495 Y71.746
X48.507 Y71.704
X48.518 Y71.665
X48.521 Y71.626
X48.518 Y71.586
X48.508 Y71.547
X48.497 Y71.507
X48.493 Y71.466
Y70.749
X48.497 Y70.705
X48.509 Y70.663
X48.52 Y70.625
X48.523 Y70.585
X48.519 Y70.545
X48.508 Y70.507
X48.497 Y70.467
X48.493 Y70.425
Y69.851
X48.497 Y69.835
X48.509 Y69.823
X48.525 Y69.819
X49.323
X49.339 Y69.823
X49.351 Y69.835
X49.355 Y69.85
Y70.423
X49.351 Y70.467
X49.339 Y70.509
X49.328 Y70.547
X49.325 Y70.587
X49.329 Y70.626
X49.339 Y70.664
X49.351 Y70.706
X49.355 Y70.749
X49.354 Y71.468
X49.351 Y71.511
X49.339 Y71.552
X49.329 Y71.59
X49.327 Y71.63
X49.332 Y71.67
X49.344 Y71.708
X49.356 Y71.745
X49.362 Y71.784
X49.371 Y71.899
X49.378 Y71.957
X49.389 Y72.013
X49.414 Y72.101
X49.442 Y72.187
X49.45 Y72.222
X49.453 Y72.257
X49.458 Y72.302
X49.472 Y72.344
X49.495 Y72.383
X49.524 Y72.417
X49.547 Y72.441
X49.566 Y72.468
X49.648 Y72.607
X49.693 Y72.674
X49.744 Y72.736
X49.805 Y72.805
X49.87 Y72.87
X49.92 Y72.911
X49.97 Y72.952
X49.993 Y72.975
X50.013 Y73.001
X50.038 Y73.033
X50.07 Y73.06
X50.106 Y73.08
X50.145 Y73.093
X50.152 Y73.094
X50.158 Y73.095
X50.191 Y73.104
X50.222 Y73.117
X50.285 Y73.153
X50.35 Y73.185
X50.523 Y73.248
X50.611 Y73.274
X50.701 Y73.291
X50.766 Y73.297
X50.831 Y73.303
X50.863 Y73.31
X50.894 Y73.321
X50.933 Y73.333
X50.974 Y73.339
X51.015 Y73.336
X51.055 Y73.325
X51.061 Y73.322
X51.068 Y73.319
X51.098 Y73.309
X51.129 Y73.303
X51.205 Y73.297
X51.243 Y73.294
X51.281 Y73.287
X51.459 Y73.242
X51.546 Y73.214
X51.63 Y73.177
X51.687 Y73.146
X51.744 Y73.115
X51.776 Y73.102
X51.809 Y73.093
X51.85 Y73.081
X51.888 Y73.061
X51.921 Y73.035
X51.949 Y73.001
X51.951 Y72.998
X51.953 Y72.994
X51.972 Y72.969
X51.995 Y72.946
X52.123 Y72.834
X52.179 Y72.78
X52.228 Y72.72
X52.282 Y72.649
X52.333 Y72.575
X52.361 Y72.524
X52.389 Y72.474
X52.41 Y72.444
X52.435 Y72.418
X52.473 Y72.374
X52.499 Y72.322
X52.505 Y72.289
X52.507 Y72.255
X52.515 Y72.196
X52.552 Y72.086
X52.569 Y72.031
X52.579 Y71.974
X52.589 Y71.878
X52.598 Y71.782
X52.605 Y71.745
X52.619 Y71.709
X52.632 Y71.672
X52.638 Y71.632
X52.636 Y71.592
X52.627 Y71.553
X52.625 Y71.548
X52.623 Y71.544
X52.613 Y71.505
X52.61 Y71.465
Y70.749
X52.614 Y70.705
X52.626 Y70.663
X52.637 Y70.625
X52.64 Y70.586
X52.637 Y70.547
X52.626 Y70.51
X52.614 Y70.468
X52.61 Y70.425
Y69.851
X52.614 Y69.835
X52.626 Y69.823
X52.642 Y69.819
X53.442
X53.458 Y69.823
X53.47 Y69.835
X53.474 Y69.851
Y70.423
X53.47 Y70.466
X53.458 Y70.509
X53.446 Y70.56
Y70.612
X53.459 Y70.663
X53.47 Y70.705
X53.474 Y70.749
Y71.46
X53.47 Y71.505
X53.458 Y71.548
X53.447 Y71.584
X53.442 Y71.621
X53.444 Y71.658
X53.453 Y71.694
X53.455 Y71.7
X53.458 Y71.707
X53.468 Y71.746
X53.472 Y71.787
X53.468 Y71.874
X53.461 Y71.962
G3 X53.419 Y72.299 I-2.291 J-0.111
X53.332 Y72.628 I-2.695 J-0.537
G1 X53.303 Y72.695
X53.262 Y72.756
X53.233 Y72.802
X53.217 Y72.854
X53.216 Y72.861
X53.215 Y72.868
X53.201 Y72.932
X53.174 Y72.993
G3 X53.009 Y73.259 I-2.819 J-1.558
X52.814 Y73.504 I-1.81 J-1.244
G1 X52.67 Y73.653
X52.518 Y73.792
X52.467 Y73.828
X52.409 Y73.853
X52.352 Y73.88
X52.327 Y73.898
X52.306 Y73.921
X52.254 Y73.973
X52.194 Y74.015
X52.096 Y74.068
X51.995 Y74.115
X51.788 Y74.194
G3 X51.487 Y74.281 I-0.933 J-2.683
X51.178 Y74.327 I-0.459 J-2.01
G1 X51.109 Y74.326
X51.041 Y74.314
X50.982 Y74.305
X50.952 Y74.307
X50.922 Y74.313
X50.852 Y74.326
X50.78 Y74.327
X50.67 Y74.316
X50.56 Y74.299
X50.534 Y74.3
X50.509 Y74.31
X50.491 Y74.329
X50.472 Y74.348
X50.447 Y74.358
X50.421
G3 X50.138 Y74.277 I0.589 J-2.611
G1 X50.033 Y74.239
X49.93 Y74.195
X49.783 Y74.122
X49.64 Y74.04
X49.618 Y74.022
X49.603 Y73.997
X49.587 Y73.973
X49.564 Y73.955
X49.542 Y73.945
X49.518 Y73.94
X49.494 Y73.936
X49.472 Y73.927
X49.443 Y73.91
X49.418 Y73.889
X49.37 Y73.845
G3 X49.179 Y73.673 I2.4 J-2.859
X49.004 Y73.485 I1.639 J-1.7
G1 X48.995 Y73.473
X48.986 Y73.461
G3 X48.811 Y73.21 I5.009 J-3.675
X48.662 Y72.943 I1.755 J-1.159
G1 X48.653 Y72.914
X48.654 Y72.883
Y72.852
X48.644 Y72.823
X48.631 Y72.804
X48.615 Y72.788
X48.598 Y72.773
X48.584 Y72.754
X48.57 Y72.726
X48.56 Y72.695
X48.542 Y72.634
G3 X48.444 Y72.237 I2.416 J-0.811
X48.406 Y71.83 I2.907 J-0.478
G1 X48.402 Y71.764
X48.403 Y71.731
X48.413 Y71.7
X48.425 Y71.67
X48.431 Y71.638
X48.43 Y71.605
X48.422 Y71.574
X48.408 Y71.529
X48.403 Y71.483
X48.408 Y70.689
X48.413 Y70.662
X48.424 Y70.636
X48.435 Y70.61
X48.437 Y70.582
X48.432 Y70.558
X48.423 Y70.535
X48.413 Y70.513
X48.408 Y70.489
X48.407 Y70.454
Y70.42
X48.403 Y69.75
X48.407 Y69.736
X48.419 Y69.726
X48.434 Y69.724
X48.453 Y69.728
X48.473 Y69.73
X49.381
X49.397 Y69.728
X49.414 Y69.724
X49.429 Y69.726
X49.44 Y69.736
X49.445 Y69.751
G3 X49.44 Y70.469 I-57.361 J0.009
G1 X49.436 Y70.502
X49.423 Y70.534
X49.412 Y70.566
X49.411 Y70.6
X49.417 Y70.623
X49.427 Y70.644
X49.436 Y70.666
X49.44 Y70.689
X49.444 Y71.485
X49.44 Y71.533
X49.425 Y71.579
X49.417 Y71.604
X49.415 Y71.631
X49.418 Y71.657
X49.428 Y71.682
X49.441 Y71.716
X49.447 Y71.753
X49.451 Y71.828
X49.466 Y71.936
X49.489 Y72.043
X49.513 Y72.125
X49.538 Y72.206
X49.542 Y72.234
X49.543 Y72.262
X49.545 Y72.29
X49.554 Y72.317
X49.565 Y72.334
X49.579 Y72.349
X49.609 Y72.377
X49.614 Y72.383
X49.663 Y72.457
X49.707 Y72.533
X49.754 Y72.607
X49.81 Y72.675
X49.868 Y72.74
X49.929 Y72.802
X49.984 Y72.848
X50.039 Y72.893
X50.064 Y72.918
X50.085 Y72.947
X50.102 Y72.969
X50.122 Y72.987
X50.146 Y73.001
X50.172 Y73.01
X50.225 Y73.025
X50.275 Y73.047
X50.372 Y73.097
X50.452 Y73.132
X50.535 Y73.159
X50.705 Y73.2
X50.753 Y73.208
X50.8 Y73.211
X50.848 Y73.215
X50.895 Y73.226
X50.939 Y73.244
X50.961 Y73.251
X50.985 Y73.252
X51.026 Y73.241
X51.066 Y73.226
X51.113 Y73.215
X51.162 Y73.211
X51.211 Y73.209
X51.259 Y73.2
X51.427 Y73.158
X51.51 Y73.132
X51.59 Y73.097
X51.653 Y73.063
X51.716 Y73.028
X51.751 Y73.014
X51.789 Y73.005
X51.819 Y72.997
X51.846 Y72.983
X51.869 Y72.962
X51.887 Y72.937
X51.895 Y72.924
X51.904 Y72.912
X51.968 Y72.851
X52.035 Y72.794
X52.099 Y72.734
X52.156 Y72.666
X52.208 Y72.599
X52.256 Y72.529
X52.297 Y72.454
X52.319 Y72.417
X52.344 Y72.383
X52.383 Y72.343
X52.401 Y72.322
X52.414 Y72.298
X52.419 Y72.279
X52.42 Y72.259
Y72.22
X52.421 Y72.216
X52.437 Y72.153
X52.458 Y72.092
X52.477 Y72.029
X52.49 Y71.966
X52.503 Y71.841
X52.509 Y71.778
X52.52 Y71.717
X52.528 Y71.691
X52.54 Y71.667
X52.55 Y71.642
X52.552 Y71.615
X52.547 Y71.59
X52.538 Y71.566
X52.528 Y71.542
X52.524 Y71.517
X52.525 Y70.689
X52.53 Y70.66
X52.542 Y70.633
X52.553 Y70.605
X52.554 Y70.575
X52.549 Y70.553
X52.539 Y70.532
X52.529 Y70.511
X52.525 Y70.489
X52.524 Y70.454
Y70.42
X52.52 Y69.75
X52.524 Y69.736
X52.536 Y69.726
X52.551 Y69.724
X52.57 Y69.728
X52.59 Y69.73
X53.498
X53.516 Y69.728
X53.534 Y69.724
X53.549 Y69.726
X53.56 Y69.736
X53.564 Y69.75
G3 X53.56 Y70.469 I-57.46 J0.009
G1 X53.556 Y70.499
X53.545 Y70.526
X53.534 Y70.554
X53.53 Y70.583
X53.533 Y70.609
X53.543 Y70.634
X53.553 Y70.658
X53.559 Y70.683
X53.56 Y70.691
Y70.698
Y71.516
X53.555 Y71.545
X53.543 Y71.572
X53.532 Y71.6
X53.529 Y71.629
X53.532 Y71.651
X53.54 Y71.673
X53.555 Y71.715
X53.56 Y71.74
Y71.767
X53.558 Y71.819
G3 X53.52 Y72.229 I-2.947 J-0.061
X53.422 Y72.629 I-2.54 J-0.411
G1 X53.403 Y72.694
X53.379 Y72.757
X53.364 Y72.778
X53.346 Y72.794
X53.328 Y72.81
X53.314 Y72.831
X53.306 Y72.855
X53.304 Y72.881
X53.301 Y72.931
X53.298 Y72.942
X53.294 Y72.953
X53.222 Y73.089
X53.145 Y73.222
X53.141 Y73.228
X53.137 Y73.235
X53.014 Y73.405
X52.949 Y73.487
X52.88 Y73.565
G3 X52.548 Y73.885 I-2.877 J-2.654
G1 X52.499 Y73.917
X52.445 Y73.937
X52.418 Y73.945
X52.393 Y73.959
X52.371 Y73.977
X52.355 Y74.
X52.342 Y74.02
X52.326 Y74.037
G3 X52.079 Y74.174 I-0.976 J-1.46
X51.817 Y74.279 I-1.251 J-2.738
X51.457 Y74.379 I-0.938 J-2.697
X51.085 Y74.42 I-0.4 J-1.937
G1 X51.059 Y74.416
X51.034 Y74.405
X51.01 Y74.394
X50.983 Y74.391
X50.959 Y74.394
X50.935 Y74.402
X50.888 Y74.418
X50.875 Y74.419
X50.861
G3 X50.421 Y74.358 I0.148 J-2.672
G1 X50.391 Y74.357
X50.363 Y74.367
X50.341 Y74.387
X50.318 Y74.408
X50.29 Y74.417
X50.26 Y74.415
X50.207 Y74.401
X50.107 Y74.367
X50.057 Y74.35
X49.986 Y74.321
X49.889 Y74.281
X49.59 Y74.121
X49.574 Y74.11
X49.558 Y74.095
X49.549 Y74.083
X49.54 Y74.071
X49.527 Y74.047
X49.516 Y74.037
X49.508 Y74.032
X49.499 Y74.03
X49.471 Y74.027
X49.449 Y74.021
X49.429 Y74.013
X49.409 Y74.001
X49.309 Y73.917
X49.159 Y73.791
X49.139 Y73.771
X48.931 Y73.546
X48.91 Y73.517
X48.733 Y73.271
X48.576 Y72.983
X48.568 Y72.965
X48.563 Y72.946
X48.561 Y72.921
Y72.908
X48.563 Y72.88
X48.561 Y72.869
X48.555 Y72.858
X48.549 Y72.852
X48.532 Y72.839
X48.515 Y72.821
X48.503 Y72.804
X48.492 Y72.782
X48.421 Y72.571
X48.407 Y72.521
X48.359 Y72.321
X48.343 Y72.221
X48.322 Y72.071
X48.311 Y71.832
Y71.721
X48.314 Y71.696
X48.32 Y71.677
X48.328 Y71.658
X48.338 Y71.639
X48.341 Y71.63
Y71.617
X48.338 Y71.608
X48.325 Y71.583
X48.32 Y71.571
X48.317 Y71.558
X48.313 Y71.533
Y70.683
X48.316 Y70.658
X48.321 Y70.639
X48.329 Y70.62
X48.341 Y70.599
X48.342 Y70.589
X48.341 Y70.577
X48.339 Y70.57
X48.326 Y70.545
X48.319 Y70.527
X48.315 Y70.508
X48.313 Y70.495
X48.312 Y70.42
X48.313 Y69.645
X48.316 Y69.62
X48.32 Y69.602
X48.324 Y69.592
X48.331 Y69.577
X48.356 Y69.601
X48.412 Y69.629
X48.473 Y69.638
X49.381
X49.44 Y69.629
X49.494 Y69.601
X49.516 Y69.579
X49.518
X49.524 Y69.591
X49.531 Y69.612
X49.534 Y69.633
X49.535 Y69.645
Y70.47
Y70.495
X49.53 Y70.52
X49.524 Y70.539
X49.507 Y70.574
X49.505 Y70.586
X49.507 Y70.597
X49.508 Y70.601
X49.519 Y70.62
X49.527 Y70.639
X49.532 Y70.658
X49.535 Y70.683
Y71.533
X49.531 Y71.558
X49.527 Y71.571
X49.508 Y71.615
Y71.626
X49.51 Y71.637
X49.523 Y71.661
X49.532 Y71.683
X49.538 Y71.708
X49.546 Y71.821
X49.552 Y71.871
X49.56 Y71.921
X49.569 Y71.971
X49.581 Y72.021
X49.594 Y72.071
X49.63 Y72.183
X49.635 Y72.208
Y72.227
X49.634 Y72.255
X49.636 Y72.268
X49.64 Y72.276
X49.648 Y72.285
X49.665 Y72.299
X49.68 Y72.313
X49.693 Y72.329
X49.788 Y72.487
X49.88 Y72.611
X49.991 Y72.731
X50.129 Y72.851
X50.145 Y72.871
X50.157 Y72.892
X50.164 Y72.903
X50.173 Y72.911
X50.182 Y72.916
X50.192 Y72.918
X50.207 Y72.919
X50.231 Y72.923
X50.248 Y72.928
X50.257 Y72.932
X50.415 Y73.012
X50.571 Y73.07
X50.725 Y73.107
X50.906 Y73.131
X50.925 Y73.136
X50.943 Y73.143
X50.965 Y73.155
X50.978 Y73.157
X50.99 Y73.156
X50.999 Y73.153
X51.018 Y73.143
X51.037 Y73.135
X51.056 Y73.131
X51.236 Y73.108
X51.396 Y73.068
X51.547 Y73.012
X51.712 Y72.929
X51.736 Y72.921
X51.754 Y72.918
X51.776 Y72.915
X51.787 Y72.911
X51.798 Y72.902
X51.804 Y72.892
X51.816 Y72.871
X51.823 Y72.86
X51.837 Y72.844
X51.971 Y72.727
X52.079 Y72.61
X52.175 Y72.481
X52.262 Y72.334
X52.272 Y72.321
X52.288 Y72.305
X52.303 Y72.292
X52.315 Y72.283
X52.322 Y72.273
X52.325 Y72.264
X52.326 Y72.252
X52.325 Y72.227
X52.326 Y72.208
X52.328 Y72.196
X52.396 Y71.952
X52.424 Y71.721
X52.427 Y71.696
X52.433 Y71.677
X52.436 Y71.671
X52.455 Y71.633
X52.457 Y71.623
X52.456 Y71.612
X52.453 Y71.603
X52.444 Y71.587
X52.436 Y71.564
X52.432 Y71.546
X52.429 Y71.521
X52.43 Y70.683
X52.433 Y70.658
X52.438 Y70.639
X52.446 Y70.62
X52.457 Y70.598
X52.46 Y70.587
X52.458 Y70.575
X52.453 Y70.564
X52.442 Y70.542
X52.435 Y70.52
X52.432 Y70.508
X52.43 Y70.495
X52.429 Y70.42
X52.43 Y69.645
X52.432 Y69.62
X52.438 Y69.601
X52.447 Y69.578
X52.449 Y69.577
X52.473 Y69.601
X52.529 Y69.629
X52.59 Y69.638
X53.498
X53.56 Y69.628
X53.615 Y69.6
X53.636 Y69.578
X53.639 Y69.581
X53.647 Y69.602
X53.652 Y69.62
X53.655 Y69.645
Y70.47
X53.654 Y70.493
X53.651 Y70.516
X53.646 Y70.533
X53.641 Y70.545
X53.627 Y70.574
X53.625 Y70.583
X53.626 Y70.595
X53.63 Y70.605
X53.642 Y70.629
X53.648 Y70.646
X53.653 Y70.67
X53.655 Y70.695
Y71.521
X53.653 Y71.547
X53.647 Y71.571
X53.642 Y71.583
X53.626 Y71.614
X53.624 Y71.624
Y71.636
X53.628 Y71.646
X53.64 Y71.671
X53.647 Y71.689
X53.651 Y71.708
X53.652 Y71.721
X53.653 Y71.821
X53.646 Y71.971
X53.641 Y72.071
X53.611 Y72.271
X53.603 Y72.321
X53.551 Y72.537
X53.542 Y72.571
X53.471 Y72.783
X53.463 Y72.802
X53.451 Y72.821
X53.401 Y72.871
X53.396 Y72.88
X53.394 Y72.893
X53.396 Y72.927
X53.395 Y72.946
X53.389 Y72.971
X53.385 Y72.983
X53.379 Y72.996
X53.227 Y73.271
X53.215 Y73.289
X53.033 Y73.54
X52.82 Y73.771
X52.802 Y73.788
X52.561 Y73.993
X52.54 Y74.006
X52.522 Y74.014
X52.498 Y74.021
X52.475 Y74.024
X52.464 Y74.025
X52.453 Y74.029
X52.444 Y74.037
X52.437 Y74.045
X52.423 Y74.071
X52.409 Y74.09
X52.395 Y74.104
X52.378 Y74.116
X52.253 Y74.189
X52.194 Y74.221
X52.093 Y74.271
X52.054 Y74.289
X51.954 Y74.331
X51.904 Y74.35
X51.804 Y74.385
X51.754 Y74.401
X51.605 Y74.442
X51.455 Y74.474
X51.405 Y74.482
X51.255 Y74.502
X51.087 Y74.515
X51.068 Y74.514
X51.043 Y74.509
X51.031 Y74.505
X51.018 Y74.5
X50.993 Y74.488
X50.984 Y74.486
X50.971
X50.962 Y74.49
X50.943 Y74.5
X50.925 Y74.507
X50.906 Y74.512
X50.881 Y74.515
X50.856 Y74.514
X50.706 Y74.503
X50.556 Y74.482
X50.494 Y74.471
X50.357 Y74.442
X50.26 Y74.415
X50.248 Y74.406
X50.247 Y74.39
X50.257 Y74.378
X51.31 Y73.878
X51.326
G3 X51.193 Y74.23 Z-3.091 I-0.066 J0.176
X51.326 Y73.878 Z-3.112 I0.066 J-0.176
X51.193 Y74.23 Z-3.133 I-0.066 J0.176
X51.326 Y73.878 Z-3.153 I0.066 J-0.176
X51.285 Y74.24 Z-3.171 I-0.066 J0.176
G1 X51.248 Y74.238
X51.215 Y74.222
X51.191 Y74.195
X51.179 Y74.161
X51.181 Y74.124
X51.196 Y74.091
X51.223 Y74.067
X51.258 Y74.054
X51.267 Y74.053
X51.302 Y74.04
X51.329 Y74.015
X51.344 Y73.981
X51.345 Y73.944
X51.331 Y73.909
X51.306 Y73.882
X51.272 Y73.868
X51.234 Y73.867
X51.16 Y73.877
X51.147 Y73.876
X51.064 Y73.861
X50.98 Y73.855
X50.896 Y73.86
X50.813 Y73.876
X50.799 Y73.877
X50.685 Y73.862
X50.571 Y73.838
G3 X50.277 Y73.751 I0.398 J-1.889
X49.998 Y73.624 I0.895 J-2.33
G1 X49.987 Y73.616
X49.913 Y73.544
X49.873 Y73.513
X49.829 Y73.485
X49.777 Y73.46
X49.723 Y73.439
X49.714 Y73.434
G3 X49.188 Y72.789 I1.453 J-1.72
G1 X49.186 Y72.784
X49.182 Y72.761
X49.178 Y72.739
X49.18 Y72.729
X49.19 Y72.725
X49.199 Y72.731
X49.237 Y72.8
X49.279 Y72.867
X49.417 Y73.045
X49.491 Y73.13
X49.573 Y73.208
X49.613 Y73.241
X49.65 Y73.276
X49.745 Y73.376
X49.796 Y73.421
X49.853 Y73.46
X49.92 Y73.494
X49.99 Y73.521
X50.06 Y73.547
X50.129 Y73.579
X50.241 Y73.629
X50.357 Y73.669
X50.475 Y73.701
X50.594 Y73.729
X50.67 Y73.739
X50.746 Y73.751
X50.885 Y73.782
X50.956 Y73.791
X51.028 Y73.79
X51.118 Y73.775
X51.206 Y73.749
X51.218 Y73.746
X51.303 Y73.737
X51.388 Y73.724
X51.615 Y73.664
X51.727 Y73.627
X51.834 Y73.579
X51.879 Y73.554
X51.925 Y73.533
X52.02 Y73.499
X52.067 Y73.48
X52.112 Y73.456
X52.169 Y73.418
X52.221 Y73.373
X52.268 Y73.323
X52.31 Y73.27
X52.315 Y73.264
X52.378 Y73.213
X52.438 Y73.158
X52.588 Y72.988
X52.657 Y72.899
X52.719 Y72.804
X52.739 Y72.768
X52.759 Y72.732
X52.768 Y72.726
X52.779 Y72.73
X52.781 Y72.741
X52.773 Y72.787
X52.771 Y72.793
G3 X52.25 Y73.43 I-2.008 J-1.11
G1 X52.24 Y73.436
X52.145 Y73.477
X52.1 Y73.503
X52.057 Y73.533
X52.011 Y73.576
X51.968 Y73.623
X51.957 Y73.632
X51.899 Y73.664
X51.839 Y73.691
X51.717 Y73.742
G3 X51.308 Y73.855 I-0.704 J-1.747
G1 X51.234 Y73.867
X51.21 Y73.877
X51.191 Y73.896
X51.181 Y73.921
X51.169 Y73.946
X51.146 Y73.961
X51.118 Y73.962
X51.05 Y73.949
X50.98 Y73.945
X50.908 Y73.949
X50.836 Y73.963
X50.792 Y73.967
X50.672 Y73.951
X50.552 Y73.926
G3 X50.246 Y73.836 I0.417 J-1.977
X49.956 Y73.703 I0.923 J-2.409
G1 X49.921 Y73.677
X49.857 Y73.615
X49.822 Y73.588
X49.785 Y73.564
X49.738 Y73.541
X49.69 Y73.523
X49.659 Y73.506
G3 X49.35 Y73.196 I1.544 J-1.85
G1 X49.283 Y73.11
X49.221 Y73.02
X49.109 Y72.832
X49.098 Y72.798
X49.082 Y72.725
X49.057 Y72.654
X49.023 Y72.587
X48.98 Y72.524
X48.968 Y72.502
G3 X48.886 Y72.166 I1.931 J-0.648
X48.851 Y71.822 I3.229 J-0.5
G1 X48.854 Y71.802
X48.874 Y71.72
X48.882 Y71.635
X48.877 Y71.55
X48.86 Y71.467
X48.858 Y71.46
X48.856 Y71.454
X48.853 Y71.438
Y70.779
X48.856 Y70.761
X48.876 Y70.675
X48.883 Y70.586
X48.876 Y70.497
X48.856 Y70.41
X48.853 Y70.393
Y70.211
X48.857 Y70.195
X48.869 Y70.183
X48.885 Y70.179
X48.963
X48.979 Y70.183
X48.991 Y70.195
X48.995 Y70.211
Y70.392
X48.992 Y70.41
G2 Y70.761 I0.551 J0.176
G1 X48.995 Y70.778
X48.994 Y71.439
X48.992 Y71.455
G2 X49.001 Y71.82 I0.546 J0.168
G1 X49.005 Y71.84
X49.015 Y71.94
X49.029 Y72.04
X49.048 Y72.138
X49.075 Y72.235
X49.088 Y72.286
X49.097 Y72.338
X49.105 Y72.39
X49.119 Y72.441
X49.139 Y72.493
X49.164 Y72.542
X49.194 Y72.589
X49.228 Y72.633
X49.262 Y72.676
X49.291 Y72.722
X49.351 Y72.813
X49.483 Y72.984
X49.554 Y73.066
X49.632 Y73.141
X49.676 Y73.177
X49.718 Y73.216
X49.801 Y73.306
X49.847 Y73.347
X49.898 Y73.382
X49.94 Y73.403
X49.984 Y73.42
X50.073 Y73.45
X50.112 Y73.466
X50.149 Y73.486
X50.186 Y73.506
X50.225 Y73.523
X50.436 Y73.597
X50.544 Y73.628
X50.655 Y73.648
X50.711 Y73.654
X50.768 Y73.663
X50.893 Y73.692
X50.957 Y73.701
X51.021 Y73.7
X51.064 Y73.695
X51.107 Y73.685
X51.191 Y73.663
X51.234 Y73.654
X51.279 Y73.65
X51.323 Y73.646
X51.366 Y73.637
X51.584 Y73.58
X51.691 Y73.544
X51.793 Y73.498
X51.843 Y73.471
X51.894 Y73.448
X51.981 Y73.418
X52.025 Y73.401
X52.066 Y73.379
X52.139 Y73.327
X52.204 Y73.264
X52.265 Y73.198
X52.33 Y73.137
X52.409 Y73.061
X52.481 Y72.978
X52.613 Y72.804
X52.653 Y72.74
X52.671 Y72.707
X52.693 Y72.676
X52.749 Y72.609
X52.776 Y72.574
X52.799 Y72.537
X52.827 Y72.478
X52.846 Y72.415
X52.859 Y72.351
X52.866 Y72.286
X52.868 Y72.271
X52.907 Y72.145
X52.926 Y72.082
X52.937 Y72.017
X52.945 Y71.935
X52.952 Y71.852
X52.957 Y71.833
G2 X52.972 Y71.453 I-0.534 J-0.212
G1 X52.97 Y71.436
Y70.779
X52.973 Y70.761
G2 Y70.41 I-0.555 J-0.176
G1 X52.97 Y70.392
Y70.211
X52.974 Y70.195
X52.986 Y70.183
X53.002 Y70.179
X53.082
X53.098 Y70.183
X53.11 Y70.195
X53.114 Y70.211
Y70.393
X53.112 Y70.41
X53.091 Y70.497
X53.084 Y70.586
X53.091 Y70.675
X53.112 Y70.762
X53.114 Y70.779
Y71.43
X53.112 Y71.447
X53.091 Y71.534
X53.083 Y71.623
X53.089 Y71.712
X53.109 Y71.799
X53.112 Y71.819
G3 X53.076 Y72.167 I-3.12 J-0.142
X52.993 Y72.507 I-2.126 J-0.338
G1 X52.98 Y72.531
G2 X52.861 Y72.801 I0.437 J0.353
G1 X52.85 Y72.835
G3 X52.305 Y73.501 I-2.093 J-1.157
G1 X52.275 Y73.519
X52.191 Y73.555
X52.151 Y73.578
X52.114 Y73.604
X52.073 Y73.641
X52.036 Y73.682
X52.002 Y73.71
X51.941 Y73.743
X51.878 Y73.772
X51.75 Y73.825
G3 X51.322 Y73.944 I-0.737 J-1.831
G1 X51.245 Y73.957
X51.167 Y73.967
X51.125 Y73.963
X51.118 Y73.962
X51.088 Y73.961
X51.06 Y73.972
X51.038 Y73.993
X51.018 Y74.015
X50.992 Y74.03
X50.963 Y74.035
X50.908 Y74.04
X50.854 Y74.052
X50.824 Y74.057
X50.793
X50.663 Y74.04
X50.534 Y74.014
G3 X50.212 Y73.919 I0.432 J-2.049
X49.907 Y73.779 I0.995 J-2.579
G1 X49.881 Y73.763
X49.859 Y73.742
X49.815 Y73.7
X49.767 Y73.663
X49.714 Y73.631
X49.658 Y73.607
X49.629 Y73.594
X49.603 Y73.576
G3 X49.283 Y73.251 I1.505 J-1.803
X49.029 Y72.873 I1.976 J-1.601
G1 X49.016 Y72.844
X49.009 Y72.813
X48.995 Y72.75
X48.973 Y72.688
X48.944 Y72.63
X48.907 Y72.577
X48.894 Y72.557
X48.884 Y72.535
G3 X48.776 Y72.028 I2.185 J-0.733
G1 X48.767 Y71.925
X48.761 Y71.821
Y71.819
Y71.818
X48.768 Y71.777
X48.785 Y71.707
X48.792 Y71.635
X48.788 Y71.563
X48.774 Y71.492
X48.771 Y71.485
X48.769 Y71.478
X48.763 Y71.439
Y70.777
X48.77 Y70.736
X48.787 Y70.662
X48.793 Y70.586
X48.787 Y70.511
X48.77 Y70.437
X48.763 Y70.395
Y70.121
X48.767 Y70.105
X48.779 Y70.093
X48.795 Y70.089
X49.053
X49.069 Y70.093
X49.081 Y70.105
X49.085 Y70.121
Y70.394
X49.078 Y70.436
G2 Y70.735 I0.464 J0.15
G1 X49.085 Y70.776
X49.084 Y71.441
X49.078 Y71.481
X49.061 Y71.558
X49.057 Y71.637
X49.066 Y71.716
X49.087 Y71.792
X49.095 Y71.829
X49.106 Y71.934
X49.123 Y72.038
X49.147 Y72.14
X49.176 Y72.242
X49.184 Y72.284
X49.196 Y72.365
X49.219 Y72.444
X49.256 Y72.517
X49.304 Y72.583
X49.337 Y72.625
X49.365 Y72.67
X49.423 Y72.759
X49.549 Y72.923
X49.617 Y73.001
X49.691 Y73.073
X49.74 Y73.113
X49.785 Y73.155
X49.859 Y73.236
X49.899 Y73.273
X49.944 Y73.304
X50.018 Y73.34
X50.098 Y73.363
X50.128 Y73.372
X50.156 Y73.387
X50.21 Y73.418
X50.311 Y73.463
X50.416 Y73.499
X50.523 Y73.528
X50.631 Y73.553
X50.711 Y73.563
X50.751 Y73.567
X50.791 Y73.575
X50.901 Y73.602
X50.957 Y73.611
X51.014
X51.053 Y73.606
X51.092 Y73.596
X51.169 Y73.575
X51.212 Y73.566
X51.257 Y73.562
X51.301 Y73.558
X51.345 Y73.55
X51.552 Y73.496
X51.654 Y73.462
X51.753 Y73.418
X51.807 Y73.388
X51.864 Y73.362
X51.943 Y73.336
X51.983 Y73.321
X52.02 Y73.302
X52.065 Y73.271
X52.107 Y73.236
X52.145 Y73.196
X52.178 Y73.152
X52.197 Y73.128
X52.221 Y73.108
X52.271 Y73.069
X52.346 Y72.997
X52.414 Y72.917
X52.541 Y72.751
X52.575 Y72.695
X52.606 Y72.637
X52.633 Y72.602
X52.672 Y72.559
X52.706 Y72.512
X52.735 Y72.461
X52.757 Y72.408
X52.77 Y72.345
X52.776 Y72.281
X52.782 Y72.245
X52.819 Y72.127
X52.837 Y72.067
X52.848 Y72.006
X52.855 Y71.922
X52.863 Y71.837
X52.872 Y71.803
G2 X52.886 Y71.478 I-0.448 J-0.182
G1 X52.88 Y71.438
Y70.777
X52.887 Y70.736
G2 Y70.436 I-0.469 J-0.15
G1 X52.88 Y70.394
Y70.121
X52.884 Y70.105
X52.896 Y70.093
X52.912 Y70.089
X53.172
X53.188 Y70.093
X53.2 Y70.105
X53.204 Y70.121
Y70.395
X53.198 Y70.436
X53.18 Y70.51
X53.174 Y70.586
X53.18 Y70.661
X53.198 Y70.735
X53.204 Y70.777
Y71.432
X53.198 Y71.474
X53.18 Y71.548
X53.173 Y71.623
X53.178 Y71.699
X53.195 Y71.773
X53.201 Y71.797
X53.202 Y71.82
G3 X53.164 Y72.185 I-3.195 J-0.145
X53.077 Y72.541 I-2.257 J-0.365
G1 X53.067 Y72.564
X53.053 Y72.584
G2 X52.95 Y72.816 I0.363 J0.299
G1 X52.943 Y72.848
X52.93 Y72.877
G3 X52.362 Y73.571 I-2.182 J-1.206
G1 X52.336 Y73.589
X52.308 Y73.603
X52.236 Y73.633
X52.202 Y73.652
X52.17 Y73.675
X52.134 Y73.708
X52.1 Y73.745
X52.079 Y73.766
X52.054 Y73.784
X51.969 Y73.83
X51.88 Y73.87
X51.699 Y73.939
X51.52 Y73.994
X51.428 Y74.016
X51.336 Y74.033
X51.251 Y74.047
X51.166 Y74.057
X51.137
X51.108 Y74.052
X51.045 Y74.039
X50.981 Y74.035
X50.963
X50.934 Y74.043
X50.91 Y74.062
X50.897 Y74.09
X50.885 Y74.118
X50.862 Y74.138
X50.833 Y74.147
X50.792
G3 X50.505 Y74.103 I0.139 J-1.84
X50.226 Y74.022 I0.679 J-2.86
G1 X50.132 Y73.987
X50.04 Y73.946
X49.86 Y73.856
X49.825 Y73.834
X49.794 Y73.805
X49.758 Y73.769
X49.717 Y73.738
X49.673 Y73.711
X49.625 Y73.691
X49.585 Y73.673
X49.549 Y73.649
G3 X49.214 Y73.308 I1.581 J-1.895
X48.947 Y72.912 I2.067 J-1.676
G1 X48.93 Y72.872
X48.92 Y72.83
X48.909 Y72.777
X48.892 Y72.727
X48.868 Y72.679
X48.837 Y72.634
X48.815 Y72.6
X48.798 Y72.562
G3 X48.71 Y72.201 I2.118 J-0.711
X48.672 Y71.831 I3.359 J-0.533
G1 X48.673 Y71.789
X48.682 Y71.748
X48.696 Y71.691
X48.702 Y71.633
X48.699 Y71.574
X48.687 Y71.517
X48.685 Y71.511
X48.683 Y71.505
X48.676 Y71.472
X48.673 Y71.437
Y70.779
X48.676 Y70.743
X48.684 Y70.707
X48.698 Y70.647
X48.703 Y70.587
X48.699 Y70.526
X48.685 Y70.466
X48.676 Y70.43
X48.673 Y70.392
Y70.031
X48.677 Y70.015
X48.689 Y70.003
X48.705 Y69.999
X49.143
X49.159 Y70.003
X49.171 Y70.015
X49.175 Y70.031
Y70.392
X49.172 Y70.429
X49.164 Y70.465
X49.149 Y70.524
X49.145 Y70.586
X49.149 Y70.647
X49.163 Y70.706
X49.172 Y70.742
X49.175 Y70.779
X49.174 Y71.438
X49.172 Y71.474
X49.164 Y71.509
X49.15 Y71.571
X49.147 Y71.635
X49.154 Y71.698
X49.171 Y71.76
X49.18 Y71.792
X49.185 Y71.824
X49.194 Y71.914
X49.207 Y72.004
X49.225 Y72.093
X49.249 Y72.18
X49.256 Y72.199
X49.263 Y72.218
X49.274 Y72.276
X49.283 Y72.343
X49.304 Y72.407
X49.335 Y72.467
X49.375 Y72.522
X49.382 Y72.529
X49.389 Y72.537
X49.423 Y72.58
X49.511 Y72.724
X49.558 Y72.794
X49.612 Y72.859
X49.68 Y72.933
X49.751 Y73.004
X49.793 Y73.039
X49.834 Y73.073
X49.871 Y73.113
X49.918 Y73.167
X49.974 Y73.212
X50.037 Y73.246
X50.105 Y73.268
X50.162 Y73.288
X50.224 Y73.323
X50.288 Y73.354
X50.48 Y73.422
X50.578 Y73.45
X50.678 Y73.468
X50.732 Y73.474
X50.785 Y73.479
X50.838 Y73.492
X50.907 Y73.511
X50.979 Y73.518
X51.05 Y73.512
X51.119 Y73.493
X51.174 Y73.479
X51.249 Y73.473
X51.323 Y73.462
X51.521 Y73.411
X51.618 Y73.378
X51.711 Y73.337
X51.758 Y73.311
X51.804 Y73.286
X51.858 Y73.267
X51.929 Y73.243
X51.996 Y73.208
X52.055 Y73.161
X52.102 Y73.103
X52.132 Y73.066
X52.168 Y73.036
X52.206 Y73.007
X52.24 Y72.974
X52.371 Y72.827
X52.433 Y72.749
X52.487 Y72.666
X52.509 Y72.627
X52.531 Y72.588
X52.568 Y72.54
X52.6 Y72.504
X52.629 Y72.465
X52.652 Y72.424
X52.671 Y72.379
X52.682 Y72.327
X52.686 Y72.274
X52.694 Y72.224
X52.731 Y72.111
X52.748 Y72.054
X52.758 Y71.995
X52.766 Y71.912
X52.774 Y71.829
X52.779 Y71.798
X52.789 Y71.768
G2 X52.801 Y71.506 I-0.366 J-0.147
G1 X52.793 Y71.471
X52.79 Y71.436
Y70.779
X52.793 Y70.743
X52.801 Y70.707
X52.815 Y70.647
X52.82 Y70.586
X52.815 Y70.525
X52.801 Y70.465
X52.793 Y70.429
X52.79 Y70.392
Y70.031
X52.794 Y70.015
X52.806 Y70.003
X52.822 Y69.999
X53.262
X53.278 Y70.003
X53.29 Y70.015
X53.294 Y70.031
Y70.392
X53.292 Y70.429
X53.283 Y70.465
X53.269 Y70.524
X53.264 Y70.585
X53.269 Y70.646
X53.283 Y70.706
X53.292 Y70.742
X53.294 Y70.779
Y71.429
X53.291 Y71.467
X53.283 Y71.503
X53.268 Y71.563
X53.263 Y71.624
X53.267 Y71.685
X53.281 Y71.744
X53.29 Y71.785
X53.291 Y71.827
G3 X53.253 Y72.202 I-3.264 J-0.149
X53.163 Y72.567 I-2.325 J-0.377
G1 X53.146 Y72.607
X53.121 Y72.643
X53.091 Y72.686
X53.067 Y72.733
X53.049 Y72.783
X53.038 Y72.835
X53.028 Y72.877
X53.011 Y72.916
G3 X52.416 Y73.643 I-2.286 J-1.264
G1 X52.381 Y73.668
X52.342 Y73.686
X52.282 Y73.711
X52.227 Y73.745
X52.195 Y73.774
X52.167 Y73.806
X52.138 Y73.835
X52.104 Y73.859
X52.014 Y73.908
X51.92 Y73.951
X51.729 Y74.024
G3 X51.452 Y74.104 I-0.884 J-2.541
X51.168 Y74.147 I-0.42 J-1.811
G1 X51.127
X51.088 Y74.14
X51.035 Y74.129
X50.981 Y74.125
X50.927 Y74.128
X50.874 Y74.139
X50.833 Y74.147
X50.808 Y74.154
X50.786 Y74.17
X50.772 Y74.192
X50.756 Y74.213
X50.732 Y74.227
X50.705 Y74.229
G3 X50.286 Y74.135 I0.258 J-2.138
X49.803 Y73.928 I0.976 J-2.944
G1 X49.765 Y73.903
X49.733 Y73.872
X49.702 Y73.84
X49.667 Y73.812
X49.629 Y73.79
X49.588 Y73.774
X49.544 Y73.755
X49.505 Y73.729
G3 X49.212 Y73.448 I1.882 J-2.255
X48.966 Y73.124 I1.716 J-1.558
G1 X48.912 Y73.033
X48.86 Y72.94
X48.842 Y72.897
X48.832 Y72.851
X48.824 Y72.806
X48.809 Y72.762
X48.789 Y72.721
X48.762 Y72.684
X48.736 Y72.647
X48.718 Y72.606
G3 X48.641 Y72.329 I2.591 J-0.869
X48.596 Y72.045 I2.264 J-0.503
G1 X48.587 Y71.935
X48.582 Y71.826
X48.581 Y71.816
Y71.806
X48.584 Y71.766
X48.594 Y71.727
X48.606 Y71.682
X48.612 Y71.635
X48.61 Y71.588
X48.601 Y71.542
X48.598 Y71.533
X48.595 Y71.525
X48.586 Y71.488
X48.583 Y71.451
Y70.765
X48.587 Y70.725
X48.596 Y70.687
X48.609 Y70.637
X48.613 Y70.585
X48.608 Y70.534
X48.596 Y70.484
X48.586 Y70.446
X48.583 Y70.407
Y69.941
X48.587 Y69.925
X48.599 Y69.913
X48.615 Y69.909
X49.233
X49.249 Y69.913
X49.261 Y69.925
X49.265 Y69.941
Y70.407
X49.262 Y70.446
X49.252 Y70.485
X49.237 Y70.552
X49.236 Y70.62
X49.251 Y70.686
X49.261 Y70.725
X49.265 Y70.764
X49.264 Y71.453
X49.261 Y71.491
X49.252 Y71.529
X49.24 Y71.58
X49.237 Y71.632
X49.243 Y71.685
X49.258 Y71.735
X49.268 Y71.769
X49.274 Y71.805
X49.294 Y71.981
X49.311 Y72.068
X49.335 Y72.153
X49.344 Y72.178
X49.352 Y72.202
X49.36 Y72.233
X49.363 Y72.265
X49.371 Y72.324
X49.39 Y72.381
X49.419 Y72.432
X49.458 Y72.478
X49.495 Y72.525
X49.581 Y72.668
X49.626 Y72.735
X49.678 Y72.798
X49.743 Y72.869
X49.811 Y72.937
X49.856 Y72.975
X49.902 Y73.012
X49.941 Y73.056
X49.979 Y73.101
X50.025 Y73.138
X50.077 Y73.165
X50.134 Y73.182
X50.164 Y73.19
X50.192 Y73.202
X50.255 Y73.238
X50.319 Y73.27
X50.501 Y73.335
X50.594 Y73.362
X50.69 Y73.379
X50.748 Y73.385
X50.807 Y73.391
X50.865 Y73.406
X50.919 Y73.422
X50.976 Y73.428
X51.032 Y73.424
X51.087 Y73.409
X51.092 Y73.407
X51.096 Y73.405
X51.152 Y73.391
X51.227 Y73.385
X51.302 Y73.375
X51.49 Y73.326
X51.582 Y73.296
X51.671 Y73.257
X51.722 Y73.229
X51.774 Y73.201
X51.802 Y73.188
X51.832 Y73.18
X51.888 Y73.163
X51.94 Y73.135
X51.985 Y73.098
X52.022 Y73.053
X52.041 Y73.028
X52.064 Y73.006
X52.188 Y72.896
X52.248 Y72.837
X52.301 Y72.773
X52.357 Y72.698
X52.41 Y72.62
X52.435 Y72.576
X52.459 Y72.531
X52.478 Y72.504
X52.501 Y72.48
X52.527 Y72.451
X52.551 Y72.42
X52.57 Y72.387
X52.585 Y72.351
X52.594 Y72.307
X52.597 Y72.263
X52.605 Y72.21
X52.641 Y72.098
X52.658 Y72.042
X52.669 Y71.985
X52.677 Y71.895
X52.686 Y71.806
X52.692 Y71.772
X52.703 Y71.74
X52.72 Y71.688
X52.728 Y71.634
X52.725 Y71.579
X52.712 Y71.526
X52.703 Y71.488
X52.7 Y71.45
Y70.764
X52.703 Y70.725
X52.713 Y70.687
X52.726 Y70.637
X52.73 Y70.586
X52.726 Y70.535
X52.713 Y70.486
X52.703 Y70.447
X52.7 Y70.407
Y69.941
X52.704 Y69.925
X52.716 Y69.913
X52.732 Y69.909
X53.352
X53.368 Y69.913
X53.38 Y69.925
X53.384 Y69.941
Y70.407
X53.381 Y70.447
X53.371 Y70.485
X53.359 Y70.534
X53.354 Y70.585
X53.358 Y70.636
X53.371 Y70.685
X53.381 Y70.724
X53.384 Y70.765
Y71.444
X53.381 Y71.485
X53.371 Y71.524
X53.358 Y71.574
X53.353 Y71.625
X53.357 Y71.677
X53.37 Y71.727
X53.379 Y71.764
X53.382 Y71.802
X53.378 Y71.88
X53.371 Y71.957
G3 X53.329 Y72.289 I-2.172 J-0.105
X53.243 Y72.612 I-2.764 J-0.567
G1 X53.224 Y72.655
X53.196 Y72.693
X53.172 Y72.726
X53.152 Y72.762
X53.137 Y72.8
X53.128 Y72.84
X53.127 Y72.85
X53.126 Y72.859
X53.116 Y72.903
X53.098 Y72.945
G3 X52.938 Y73.205 I-2.821 J-1.559
X52.748 Y73.443 I-1.733 J-1.185
G1 X52.609 Y73.587
X52.461 Y73.723
X52.423 Y73.749
X52.38 Y73.768
X52.338 Y73.785
X52.299 Y73.807
X52.263 Y73.835
X52.232 Y73.868
X52.231 Y73.87
X52.23 Y73.871
X52.199 Y73.903
X52.164 Y73.928
G3 X51.824 Y74.088 I-1.054 J-1.802
X51.463 Y74.191 I-0.899 J-2.467
G1 X51.312 Y74.22
X51.158 Y74.238
X51.115 Y74.237
X51.072 Y74.229
X51.027 Y74.219
X50.981 Y74.215
X50.935 Y74.218
X50.891 Y74.228
X50.846 Y74.238
X50.801
X50.705 Y74.229
X50.677 Y74.231
X50.652 Y74.244
X50.633 Y74.265
X50.614 Y74.286
X50.589 Y74.298
X50.56 Y74.299
G3 X50.257 Y74.221 I0.384 J-2.133
X49.766 Y74.01 I1.013 J-3.032
G1 X49.711 Y73.974
X49.663 Y73.928
X49.615 Y73.886
X49.588 Y73.87
X49.558 Y73.858
X49.554 Y73.857
X49.55 Y73.856
X49.503 Y73.838
X49.462 Y73.81
G3 X49.151 Y73.514 I2.084 J-2.498
X48.89 Y73.172 I1.743 J-1.602
G1 X48.834 Y73.077
X48.78 Y72.981
X48.756 Y72.923
X48.743 Y72.862
X48.737 Y72.827
X48.726 Y72.795
X48.71 Y72.764
X48.688 Y72.737
X48.659 Y72.697
X48.638 Y72.652
G3 X48.555 Y72.356 I2.945 J-0.988
X48.506 Y72.053 I2.293 J-0.525
G1 X48.496 Y71.922
X48.491 Y71.79
X48.495 Y71.746
X48.507 Y71.704
X48.518 Y71.665
X48.521 Y71.626
X48.518 Y71.586
X48.508 Y71.547
X48.497 Y71.507
X48.493 Y71.466
Y70.749
X48.497 Y70.705
X48.509 Y70.663
X48.52 Y70.625
X48.523 Y70.585
X48.519 Y70.545
X48.508 Y70.507
X48.497 Y70.467
X48.493 Y70.425
Y69.851
X48.497 Y69.835
X48.509 Y69.823
X48.525 Y69.819
X49.323
X49.339 Y69.823
X49.351 Y69.835
X49.355 Y69.85
Y70.423
X49.351 Y70.467
X49.339 Y70.509
X49.328 Y70.547
X49.325 Y70.587
X49.329 Y70.626
X49.339 Y70.664
X49.351 Y70.706
X49.355 Y70.749
X49.354 Y71.468
X49.351 Y71.511
X49.339 Y71.552
X49.329 Y71.59
X49.327 Y71.63
X49.332 Y71.67
X49.344 Y71.708
X49.356 Y71.745
X49.362 Y71.784
X49.371 Y71.899
X49.378 Y71.957
X49.389 Y72.013
X49.414 Y72.101
X49.442 Y72.187
X49.45 Y72.222
X49.453 Y72.257
X49.458 Y72.302
X49.472 Y72.344
X49.495 Y72.383
X49.524 Y72.417
X49.547 Y72.441
X49.566 Y72.468
X49.648 Y72.607
X49.693 Y72.674
X49.744 Y72.736
X49.805 Y72.805
X49.87 Y72.87
X49.92 Y72.911
X49.97 Y72.952
X49.993 Y72.975
X50.013 Y73.001
X50.038 Y73.033
X50.07 Y73.06
X50.106 Y73.08
X50.145 Y73.093
X50.152 Y73.094
X50.158 Y73.095
X50.191 Y73.104
X50.222 Y73.117
X50.285 Y73.153
X50.35 Y73.185
X50.523 Y73.248
X50.611 Y73.274
X50.701 Y73.291
X50.766 Y73.297
X50.831 Y73.303
X50.863 Y73.31
X50.894 Y73.321
X50.933 Y73.333
X50.974 Y73.339
X51.015 Y73.336
X51.055 Y73.325
X51.061 Y73.322
X51.068 Y73.319
X51.098 Y73.309
X51.129 Y73.303
X51.205 Y73.297
X51.243 Y73.294
X51.281 Y73.287
X51.459 Y73.242
X51.546 Y73.214
X51.63 Y73.177
X51.687 Y73.146
X51.744 Y73.115
X51.776 Y73.102
X51.809 Y73.093
X51.85 Y73.081
X51.888 Y73.061
X51.921 Y73.035
X51.949 Y73.001
X51.951 Y72.998
X51.953 Y72.994
X51.972 Y72.969
X51.995 Y72.946
X52.123 Y72.834
X52.179 Y72.78
X52.228 Y72.72
X52.282 Y72.649
X52.333 Y72.575
X52.361 Y72.524
X52.389 Y72.474
X52.41 Y72.444
X52.435 Y72.418
X52.473 Y72.374
X52.499 Y72.322
X52.505 Y72.289
X52.507 Y72.255
X52.515 Y72.196
X52.552 Y72.086
X52.569 Y72.031
X52.579 Y71.974
X52.589 Y71.878
X52.598 Y71.782
X52.605 Y71.745
X52.619 Y71.709
X52.632 Y71.672
X52.638 Y71.632
X52.636 Y71.592
X52.627 Y71.553
X52.625 Y71.548
X52.623 Y71.544
X52.613 Y71.505
X52.61 Y71.465
Y70.749
X52.614 Y70.705
X52.626 Y70.663
X52.637 Y70.625
X52.64 Y70.586
X52.637 Y70.547
X52.626 Y70.51
X52.614 Y70.468
X52.61 Y70.425
Y69.851
X52.614 Y69.835
X52.626 Y69.823
X52.642 Y69.819
X53.442
X53.458 Y69.823
X53.47 Y69.835
X53.474 Y69.851
Y70.423
X53.47 Y70.466
X53.458 Y70.509
X53.446 Y70.56
Y70.612
X53.459 Y70.663
X53.47 Y70.705
X53.474 Y70.749
Y71.46
X53.47 Y71.505
X53.458 Y71.548
X53.447 Y71.584
X53.442 Y71.621
X53.444 Y71.658
X53.453 Y71.694
X53.455 Y71.7
X53.458 Y71.707
X53.468 Y71.746
X53.472 Y71.787
X53.468 Y71.874
X53.461 Y71.962
G3 X53.419 Y72.299 I-2.291 J-0.111
X53.332 Y72.628 I-2.695 J-0.537
G1 X53.303 Y72.695
X53.262 Y72.756
X53.233 Y72.802
X53.217 Y72.854
X53.216 Y72.861
X53.215 Y72.868
X53.201 Y72.932
X53.174 Y72.993
G3 X53.009 Y73.259 I-2.819 J-1.558
X52.814 Y73.504 I-1.81 J-1.244
G1 X52.67 Y73.653
X52.518 Y73.792
X52.467 Y73.828
X52.409 Y73.853
X52.352 Y73.88
X52.327 Y73.898
X52.306 Y73.921
X52.254 Y73.973
X52.194 Y74.015
X52.096 Y74.068
X51.995 Y74.115
X51.788 Y74.194
G3 X51.487 Y74.281 I-0.933 J-2.683
X51.178 Y74.327 I-0.459 J-2.01
G1 X51.109 Y74.326
X51.041 Y74.314
X50.982 Y74.305
X50.952 Y74.307
X50.922 Y74.313
X50.852 Y74.326
X50.78 Y74.327
X50.67 Y74.316
X50.56 Y74.299
X50.534 Y74.3
X50.509 Y74.31
X50.491 Y74.329
X50.472 Y74.348
X50.447 Y74.358
X50.421
G3 X50.138 Y74.277 I0.589 J-2.611
G1 X50.033 Y74.239
X49.93 Y74.195
X49.783 Y74.122
X49.64 Y74.04
X49.618 Y74.022
X49.603 Y73.997
X49.587 Y73.973
X49.564 Y73.955
X49.542 Y73.945
X49.518 Y73.94
X49.494 Y73.936
X49.472 Y73.927
X49.443 Y73.91
X49.418 Y73.889
X49.37 Y73.845
G3 X49.179 Y73.673 I2.4 J-2.859
X49.004 Y73.485 I1.639 J-1.7
G1 X48.995 Y73.473
X48.986 Y73.461
G3 X48.811 Y73.21 I5.009 J-3.675
X48.662 Y72.943 I1.755 J-1.159
G1 X48.653 Y72.914
X48.654 Y72.883
Y72.852
X48.644 Y72.823
X48.631 Y72.804
X48.615 Y72.788
X48.598 Y72.773
X48.584 Y72.754
X48.57 Y72.726
X48.56 Y72.695
X48.542 Y72.634
G3 X48.444 Y72.237 I2.416 J-0.811
X48.406 Y71.83 I2.907 J-0.478
G1 X48.402 Y71.764
X48.403 Y71.731
X48.413 Y71.7
X48.425 Y71.67
X48.431 Y71.638
X48.43 Y71.605
X48.422 Y71.574
X48.408 Y71.529
X48.403 Y71.483
X48.408 Y70.689
X48.413 Y70.662
X48.424 Y70.636
X48.435 Y70.61
X48.437 Y70.582
X48.432 Y70.558
X48.423 Y70.535
X48.413 Y70.513
X48.408 Y70.489
X48.407 Y70.454
Y70.42
X48.403 Y69.75
X48.407 Y69.736
X48.419 Y69.726
X48.434 Y69.724
X48.453 Y69.728
X48.473 Y69.73
X49.381
X49.397 Y69.728
X49.414 Y69.724
X49.429 Y69.726
X49.44 Y69.736
X49.445 Y69.751
G3 X49.44 Y70.469 I-57.361 J0.009
G1 X49.436 Y70.502
X49.423 Y70.534
X49.412 Y70.566
X49.411 Y70.6
X49.417 Y70.623
X49.427 Y70.644
X49.436 Y70.666
X49.44 Y70.689
X49.444 Y71.485
X49.44 Y71.533
X49.425 Y71.579
X49.417 Y71.604
X49.415 Y71.631
X49.418 Y71.657
X49.428 Y71.682
X49.441 Y71.716
X49.447 Y71.753
X49.451 Y71.828
X49.466 Y71.936
X49.489 Y72.043
X49.513 Y72.125
X49.538 Y72.206
X49.542 Y72.234
X49.543 Y72.262
X49.545 Y72.29
X49.554 Y72.317
X49.565 Y72.334
X49.579 Y72.349
X49.609 Y72.377
X49.614 Y72.383
X49.663 Y72.457
X49.707 Y72.533
X49.754 Y72.607
X49.81 Y72.675
X49.868 Y72.74
X49.929 Y72.802
X49.984 Y72.848
X50.039 Y72.893
X50.064 Y72.918
X50.085 Y72.947
X50.102 Y72.969
X50.122 Y72.987
X50.146 Y73.001
X50.172 Y73.01
X50.225 Y73.025
X50.275 Y73.047
X50.372 Y73.097
X50.452 Y73.132
X50.535 Y73.159
X50.705 Y73.2
X50.753 Y73.208
X50.8 Y73.211
X50.848 Y73.215
X50.895 Y73.226
X50.939 Y73.244
X50.961 Y73.251
X50.985 Y73.252
X51.026 Y73.241
X51.066 Y73.226
X51.113 Y73.215
X51.162 Y73.211
X51.211 Y73.209
X51.259 Y73.2
X51.427 Y73.158
X51.51 Y73.132
X51.59 Y73.097
X51.653 Y73.063
X51.716 Y73.028
X51.751 Y73.014
X51.789 Y73.005
X51.819 Y72.997
X51.846 Y72.983
X51.869 Y72.962
X51.887 Y72.937
X51.895 Y72.924
X51.904 Y72.912
X51.968 Y72.851
X52.035 Y72.794
X52.099 Y72.734
X52.156 Y72.666
X52.208 Y72.599
X52.256 Y72.529
X52.297 Y72.454
X52.319 Y72.417
X52.344 Y72.383
X52.383 Y72.343
X52.401 Y72.322
X52.414 Y72.298
X52.419 Y72.279
X52.42 Y72.259
Y72.22
X52.421 Y72.216
X52.437 Y72.153
X52.458 Y72.092
X52.477 Y72.029
X52.49 Y71.966
X52.503 Y71.841
X52.509 Y71.778
X52.52 Y71.717
X52.528 Y71.691
X52.54 Y71.667
X52.55 Y71.642
X52.552 Y71.615
X52.547 Y71.59
X52.538 Y71.566
X52.528 Y71.542
X52.524 Y71.517
X52.525 Y70.689
X52.53 Y70.66
X52.542 Y70.633
X52.553 Y70.605
X52.554 Y70.575
X52.549 Y70.553
X52.539 Y70.532
X52.529 Y70.511
X52.525 Y70.489
X52.524 Y70.454
Y70.42
X52.52 Y69.75
X52.524 Y69.736
X52.536 Y69.726
X52.551 Y69.724
X52.57 Y69.728
X52.59 Y69.73
X53.498
X53.516 Y69.728
X53.534 Y69.724
X53.549 Y69.726
X53.56 Y69.736
X53.564 Y69.75
G3 X53.56 Y70.469 I-57.46 J0.009
G1 X53.556 Y70.499
X53.545 Y70.526
X53.534 Y70.554
X53.53 Y70.583
X53.533 Y70.609
X53.543 Y70.634
X53.553 Y70.658
X53.559 Y70.683
X53.56 Y70.691
Y70.698
Y71.516
X53.555 Y71.545
X53.543 Y71.572
X53.532 Y71.6
X53.529 Y71.629
X53.532 Y71.651
X53.54 Y71.673
X53.555 Y71.715
X53.56 Y71.74
Y71.767
X53.558 Y71.819
G3 X53.52 Y72.229 I-2.947 J-0.061
X53.422 Y72.629 I-2.54 J-0.411
G1 X53.403 Y72.694
X53.379 Y72.757
X53.364 Y72.778
X53.346 Y72.794
X53.328 Y72.81
X53.314 Y72.831
X53.306 Y72.855
X53.304 Y72.881
X53.301 Y72.931
X53.298 Y72.942
X53.294 Y72.953
X53.222 Y73.089
X53.145 Y73.222
X53.141 Y73.228
X53.137 Y73.235
X53.014 Y73.405
X52.949 Y73.487
X52.88 Y73.565
G3 X52.548 Y73.885 I-2.877 J-2.654
G1 X52.499 Y73.917
X52.445 Y73.937
X52.418 Y73.945
X52.393 Y73.959
X52.371 Y73.977
X52.355 Y74.
X52.342 Y74.02
X52.326 Y74.037
G3 X52.079 Y74.174 I-0.976 J-1.46
X51.817 Y74.279 I-1.251 J-2.738
X51.457 Y74.379 I-0.938 J-2.697
X51.085 Y74.42 I-0.4 J-1.937
G1 X51.059 Y74.416
X51.034 Y74.405
X51.01 Y74.394
X50.983 Y74.391
X50.959 Y74.394
X50.935 Y74.402
X50.888 Y74.418
X50.875 Y74.419
X50.861
G3 X50.421 Y74.358 I0.148 J-2.672
G1 X50.391 Y74.357
X50.363 Y74.367
X50.341 Y74.387
X50.318 Y74.408
X50.29 Y74.417
X50.26 Y74.415
X50.207 Y74.401
X50.107 Y74.367
X50.057 Y74.35
X49.986 Y74.321
X49.889 Y74.281
X49.59 Y74.121
X49.574 Y74.11
X49.558 Y74.095
X49.549 Y74.083
X49.54 Y74.071
X49.527 Y74.047
X49.516 Y74.037
X49.508 Y74.032
X49.499 Y74.03
X49.471 Y74.027
X49.449 Y74.021
X49.429 Y74.013
X49.409 Y74.001
X49.309 Y73.917
X49.159 Y73.791
X49.139 Y73.771
X48.931 Y73.546
X48.91 Y73.517
X48.733 Y73.271
X48.576 Y72.983
X48.568 Y72.965
X48.563 Y72.946
X48.561 Y72.921
Y72.908
X48.563 Y72.88
X48.561 Y72.869
X48.555 Y72.858
X48.549 Y72.852
X48.532 Y72.839
X48.515 Y72.821
X48.503 Y72.804
X48.492 Y72.782
X48.421 Y72.571
X48.407 Y72.521
X48.359 Y72.321
X48.343 Y72.221
X48.322 Y72.071
X48.311 Y71.832
Y71.721
X48.314 Y71.696
X48.32 Y71.677
X48.328 Y71.658
X48.338 Y71.639
X48.341 Y71.63
Y71.617
X48.338 Y71.608
X48.325 Y71.583
X48.32 Y71.571
X48.317 Y71.558
X48.313 Y71.533
Y70.683
X48.316 Y70.658
X48.321 Y70.639
X48.329 Y70.62
X48.341 Y70.599
X48.342 Y70.589
X48.341 Y70.577
X48.339 Y70.57
X48.326 Y70.545
X48.319 Y70.527
X48.315 Y70.508
X48.313 Y70.495
X48.312 Y70.42
X48.313 Y69.645
X48.316 Y69.62
X48.32 Y69.602
X48.324 Y69.592
X48.331 Y69.577
X48.356 Y69.601
X48.412 Y69.629
X48.473 Y69.638
X49.381
X49.44 Y69.629
X49.494 Y69.601
X49.516 Y69.579
X49.518
X49.524 Y69.591
X49.531 Y69.612
X49.534 Y69.633
X49.535 Y69.645
Y70.47
Y70.495
X49.53 Y70.52
X49.524 Y70.539
X49.507 Y70.574
X49.505 Y70.586
X49.507 Y70.597
X49.508 Y70.601
X49.519 Y70.62
X49.527 Y70.639
X49.532 Y70.658
X49.535 Y70.683
Y71.533
X49.531 Y71.558
X49.527 Y71.571
X49.508 Y71.615
Y71.626
X49.51 Y71.637
X49.523 Y71.661
X49.532 Y71.683
X49.538 Y71.708
X49.546 Y71.821
X49.552 Y71.871
X49.56 Y71.921
X49.569 Y71.971
X49.581 Y72.021
X49.594 Y72.071
X49.63 Y72.183
X49.635 Y72.208
Y72.227
X49.634 Y72.255
X49.636 Y72.268
X49.64 Y72.276
X49.648 Y72.285
X49.665 Y72.299
X49.68 Y72.313
X49.693 Y72.329
X49.788 Y72.487
X49.88 Y72.611
X49.991 Y72.731
X50.129 Y72.851
X50.145 Y72.871
X50.157 Y72.892
X50.164 Y72.903
X50.173 Y72.911
X50.182 Y72.916
X50.192 Y72.918
X50.207 Y72.919
X50.231 Y72.923
X50.248 Y72.928
X50.257 Y72.932
X50.415 Y73.012
X50.571 Y73.07
X50.725 Y73.107
X50.906 Y73.131
X50.925 Y73.136
X50.943 Y73.143
X50.965 Y73.155
X50.978 Y73.157
X50.99 Y73.156
X50.999 Y73.153
X51.018 Y73.143
X51.037 Y73.135
X51.056 Y73.131
X51.236 Y73.108
X51.396 Y73.068
X51.547 Y73.012
X51.712 Y72.929
X51.736 Y72.921
X51.754 Y72.918
X51.776 Y72.915
X51.787 Y72.911
X51.798 Y72.902
X51.804 Y72.892
X51.816 Y72.871
X51.823 Y72.86
X51.837 Y72.844
X51.971 Y72.727
X52.079 Y72.61
X52.175 Y72.481
X52.262 Y72.334
X52.272 Y72.321
X52.288 Y72.305
X52.303 Y72.292
X52.315 Y72.283
X52.322 Y72.273
X52.325 Y72.264
X52.326 Y72.252
X52.325 Y72.227
X52.326 Y72.208
X52.328 Y72.196
X52.396 Y71.952
X52.424 Y71.721
X52.427 Y71.696
X52.433 Y71.677
X52.436 Y71.671
X52.455 Y71.633
X52.457 Y71.623
X52.456 Y71.612
X52.453 Y71.603
X52.444 Y71.587
X52.436 Y71.564
X52.432 Y71.546
X52.429 Y71.521
X52.43 Y70.683
X52.433 Y70.658
X52.438 Y70.639
X52.446 Y70.62
X52.457 Y70.598
X52.46 Y70.587
X52.458 Y70.575
X52.453 Y70.564
X52.442 Y70.542
X52.435 Y70.52
X52.432 Y70.508
X52.43 Y70.495
X52.429 Y70.42
X52.43 Y69.645
X52.432 Y69.62
X52.438 Y69.601
X52.447 Y69.578
X52.449 Y69.577
X52.473 Y69.601
X52.529 Y69.629
X52.59 Y69.638
X53.498
X53.56 Y69.628
X53.615 Y69.6
X53.636 Y69.578
X53.639 Y69.581
X53.647 Y69.602
X53.652 Y69.62
X53.655 Y69.645
Y70.47
X53.654 Y70.493
X53.651 Y70.516
X53.646 Y70.533
X53.641 Y70.545
X53.627 Y70.574
X53.625 Y70.583
X53.626 Y70.595
X53.63 Y70.605
X53.642 Y70.629
X53.648 Y70.646
X53.653 Y70.67
X53.655 Y70.695
Y71.521
X53.653 Y71.547
X53.647 Y71.571
X53.642 Y71.583
X53.626 Y71.614
X53.624 Y71.624
Y71.636
X53.628 Y71.646
X53.64 Y71.671
X53.647 Y71.689
X53.651 Y71.708
X53.652 Y71.721
X53.653 Y71.821
X53.646 Y71.971
X53.641 Y72.071
X53.611 Y72.271
X53.603 Y72.321
X53.551 Y72.537
X53.542 Y72.571
X53.471 Y72.783
X53.463 Y72.802
X53.451 Y72.821
X53.401 Y72.871
X53.396 Y72.88
X53.394 Y72.893
X53.396 Y72.927
X53.395 Y72.946
X53.389 Y72.971
X53.385 Y72.983
X53.379 Y72.996
X53.227 Y73.271
X53.215 Y73.289
X53.033 Y73.54
X52.82 Y73.771
X52.802 Y73.788
X52.561 Y73.993
X52.54 Y74.006
X52.522 Y74.014
X52.498 Y74.021
X52.475 Y74.024
X52.464 Y74.025
X52.453 Y74.029
X52.444 Y74.037
X52.437 Y74.045
X52.423 Y74.071
X52.409 Y74.09
X52.395 Y74.104
X52.378 Y74.116
X52.253 Y74.189
X52.194 Y74.221
X52.093 Y74.271
X52.054 Y74.289
X51.954 Y74.331
X51.904 Y74.35
X51.804 Y74.385
X51.754 Y74.401
X51.605 Y74.442
X51.455 Y74.474
X51.405 Y74.482
X51.255 Y74.502
X51.087 Y74.515
X51.068 Y74.514
X51.043 Y74.509
X51.031 Y74.505
X51.018 Y74.5
X50.993 Y74.488
X50.984 Y74.486
X50.971
X50.962 Y74.49
X50.943 Y74.5
X50.925 Y74.507
X50.906 Y74.512
X50.881 Y74.515
X50.856 Y74.514
X50.706 Y74.503
X50.556 Y74.482
X50.494 Y74.471
X50.357 Y74.442
X50.26 Y74.415
X50.242 Y74.405
X50.232 Y74.387
X50.233 Y74.367
X50.238 Y74.348 Z-3.165
X50.242 Y74.334 Z-3.151
X50.243 Y74.328 Z-3.131
G0 Z5.
X51.378 Y74.985
Z-2.071
G1 Z-3.026 F142.
Y74.987 Z-3.038
X51.377 Y74.992 Z-3.049
X51.375 Y75. Z-3.058
X51.371 Y75.01 Z-3.063
X51.367 Y75.021 Z-3.066
G3 X51.02 Y74.875 Z-3.086 I-0.173 J-0.073
X51.367 Y75.021 Z-3.107 I0.173 J0.073
X51.02 Y74.875 Z-3.128 I-0.173 J-0.073
X51.367 Y75.021 Z-3.148 I0.173 J0.073
X51.02 Y74.875 Z-3.169 I-0.173 J-0.073
X51.367 Y75.021 Z-3.19 I0.173 J0.073
X51.02 Y74.875 Z-3.21 I-0.173 J-0.073
X51.382 Y74.948 Z-3.228 I0.173 J0.073
G1 X51.375 Y74.983
X51.356 Y75.012
X51.326 Y75.031
X51.292 Y75.038
X51.257 Y75.031
X51.228 Y75.012
X51.209 Y74.983
X51.202 Y74.948
X51.195 Y74.914
X51.175 Y74.884
X51.146 Y74.865
X51.112 Y74.858
X51.077 Y74.865
X51.048 Y74.884
X51.028 Y74.914
X51.021 Y74.948
Y75.259
X51.017 Y75.275
X51.006 Y75.286
X50.99 Y75.29
X50.968
X50.953 Y75.286
X50.941 Y75.275
X50.937 Y75.259
Y74.945
X50.941 Y74.927
X50.953 Y74.914
X50.97 Y74.907
X50.975 Y74.906
X50.986
X50.99 Y74.907
X51.006 Y74.914
X51.017 Y74.928
X51.021 Y74.945
Y74.948
X51.026 Y74.974
X51.04 Y74.996
X51.062 Y75.011
X51.083 Y75.026
X51.097 Y75.048
X51.103 Y75.074
X51.104 Y75.101
X51.111 Y75.349
X51.107 Y75.365
X51.096 Y75.376
X51.08 Y75.38
X50.878
X50.863 Y75.376
X50.851 Y75.365
X50.847 Y75.349
X50.848 Y74.899
X50.846 Y74.877
X50.843 Y74.854
X50.845 Y74.84
X50.854 Y74.829
X50.868 Y74.825
X50.902
X50.935 Y74.822
X50.949 Y74.819
X50.963 Y74.817
X51.001
X51.045 Y74.824
X51.089 Y74.825
X51.104 Y74.829
X51.114 Y74.84
X51.116 Y74.854
X51.104 Y74.964
X51.103 Y75.074
X51.11 Y75.103
X51.127 Y75.127
X51.152 Y75.143
X51.177 Y75.159
X51.194 Y75.184
X51.2 Y75.213
X51.201 Y75.439
X51.197 Y75.455
X51.186 Y75.466
X51.17 Y75.47
X50.788
X50.773 Y75.466
X50.761 Y75.455
X50.757 Y75.439
G3 X50.759 Y75.169 I16.181 J-0.001
G2 X50.761 Y74.899 I-16.179 J-0.269
G1 X50.759 Y74.861
X50.752 Y74.824
X50.741 Y74.787
X50.725 Y74.752
X50.724 Y74.74
X50.731 Y74.73
X50.743 Y74.726
X50.832 Y74.735
X50.877 Y74.737
X50.921 Y74.733
X50.935 Y74.73
X50.949 Y74.728
X50.984 Y74.725
X51.018 Y74.729
X51.067 Y74.736
X51.117 Y74.735
X51.216 Y74.726
X51.228 Y74.73
X51.235 Y74.74
X51.233 Y74.753
X51.218 Y74.788
X51.206 Y74.825
X51.199 Y74.864
X51.197 Y74.902
G2 X51.199 Y75.17 I15.969 J0.
G1 X51.2 Y75.213
X51.195 Y75.233
X51.181 Y75.247
X51.161 Y75.253
X51.141 Z-3.223
X51.127 Z-3.208
X51.121 Z-3.189
G0 Z5.
X53.635 Y73.522
Z-2.071
G1 Z-3.026 F142.
X53.637 Y73.521 Z-3.038
X53.641 Y73.517 Z-3.049
X53.647 Y73.512 Z-3.058
X53.656 Y73.505 Z-3.063
X53.666 Y73.499 Z-3.066
G3 X53.863 Y73.819 Z-3.086 I0.099 J0.16
X53.666 Y73.499 Z-3.107 I-0.099 J-0.16
X53.863 Y73.819 Z-3.128 I0.099 J0.16
X53.666 Y73.499 Z-3.148 I-0.099 J-0.16
X53.863 Y73.819 Z-3.169 I0.099 J0.16
X53.666 Y73.499 Z-3.19 I-0.099 J-0.16
X53.863 Y73.819 Z-3.21 I0.099 J0.16
X53.611 Y73.55 Z-3.228 I-0.099 J-0.16
G1 X53.638 Y73.525
X53.672 Y73.512
X53.709 Y73.513
X53.743 Y73.528
X53.768 Y73.555
X53.781 Y73.589
X53.78 Y73.626
X53.764 Y73.659
X53.749 Y73.693
X53.748 Y73.729
X53.761 Y73.764
X53.786 Y73.791
X53.82 Y73.806
X53.857 Y73.807
X53.891 Y73.794
X53.918 Y73.768
X53.967 Y73.69
X53.972 Y73.681
X53.976 Y73.672
X53.985 Y73.664
X53.997 Y73.665
X54.005 Y73.674
X54.047 Y73.772
X54.1 Y73.864
X54.102 Y73.876
X54.096 Y73.887
X54.085 Y73.891
X53.969 Y73.89
X53.853 Y73.894
X53.844 Y73.891
X53.839 Y73.882
X53.841 Y73.873
X53.907 Y73.783
X53.918 Y73.768
X53.929 Y73.743
Y73.715
X53.917 Y73.689
X53.906 Y73.664
X53.904 Y73.637
X53.912 Y73.61
X53.952 Y73.534
X54.013 Y73.42
X54.021 Y73.413
X54.032 Y73.415
X54.037 Y73.425
G2 X54.189 Y73.845 I0.941 J-0.103
G1 X54.235 Y73.902
X54.285 Y73.956
X54.289 Y73.966
X54.284 Y73.977
X54.274 Y73.981
G3 X53.961 Y73.979 I-0.003 J-18.29
G2 X53.652 Y74.02 I-0.017 J1.034
G1 X53.641 Y74.019
X53.635 Y74.01
X53.638 Y74.
X53.771 Y73.829
X53.835 Y73.741
X53.892 Y73.648
X53.912 Y73.61
X53.92 Y73.585
X53.918 Y73.558
X53.905 Y73.534
X53.892 Y73.51
X53.89 Y73.483
X53.897 Y73.457
X53.973 Y73.316
X53.992 Y73.276
X54.007 Y73.235
X54.037 Y73.153
X54.058 Y73.11
X54.079 Y73.066
X54.087 Y73.059
X54.097 Y73.061
X54.102 Y73.07
G3 X54.119 Y73.376 I-11.912 J0.843
G2 X54.195 Y73.673 I0.759 J-0.034
G1 X54.229 Y73.738
X54.268 Y73.8
X54.313 Y73.858
X54.362 Y73.913
X54.431 Y73.979
X54.5 Y74.046
X54.504 Y74.056
X54.5 Y74.067
X54.49 Y74.071
G3 X54.203 Y74.069 I-0.003 J-18.29
G2 X53.916 Y74.067 I-0.284 J18.288
G1 X53.81 Y74.074
X53.707 Y74.096
X53.607 Y74.131
X53.511 Y74.174
X53.463 Y74.202
X53.419 Y74.236
X53.338 Y74.311
X53.323 Y74.319
X53.307
X53.292 Y74.311
X53.282 Y74.301
X53.274 Y74.287
Y74.271
X53.282 Y74.257
X53.438 Y74.099
X53.512 Y74.018
X53.582 Y73.932
X53.678 Y73.801
X53.772 Y73.669
X53.828 Y73.584
X53.878 Y73.495
X53.897 Y73.457
X53.905 Y73.43
X53.903 Y73.402
X53.89 Y73.376
X53.878 Y73.351
X53.875 Y73.323
X53.883 Y73.296
X53.919 Y73.214
X53.947 Y73.129
X53.957 Y73.106
X54.002 Y73.019
X54.038 Y72.928
X54.101 Y72.742
X54.12 Y72.663
X54.137 Y72.584
X54.143 Y72.577
X54.153 Y72.578
X54.158 Y72.586
X54.217 Y73.446
X54.242 Y73.543
X54.277 Y73.637
X54.325 Y73.725
X54.386 Y73.805
X54.465 Y73.891
X54.549 Y73.973
X54.718 Y74.136
X54.723 Y74.146
X54.718 Y74.157
X54.708 Y74.161
G3 X54.312 Y74.159 I-0.006 J-34.842
G2 X53.916 Y74.157 I-0.39 J34.839
G1 X53.821 Y74.164
X53.728 Y74.184
X53.639 Y74.215
X53.552 Y74.254
X53.489 Y74.293
X53.432 Y74.339
X53.381 Y74.392
X53.333 Y74.447
X53.322 Y74.455
X53.308
X53.296 Y74.447
X53.224 Y74.367
X53.185 Y74.331
X53.142 Y74.299
X53.134 Y74.287
X53.133 Y74.273
X53.14 Y74.262
X53.19 Y74.222
X53.238 Y74.179
X53.384 Y74.026
X53.455 Y73.948
X53.52 Y73.865
X53.632 Y73.716
X53.686 Y73.64
X53.734 Y73.561
X53.853 Y73.351
X53.883 Y73.296
X53.891 Y73.267
X53.886 Y73.238
X53.871 Y73.213
X53.855 Y73.189
X53.849 Y73.16
X53.853 Y73.132
X53.861 Y73.104
X53.879 Y73.061
X53.923 Y72.976
X53.958 Y72.887
X54.015 Y72.714
G2 X54.084 Y72.434 I-1.775 J-0.588
X54.129 Y72.15 I-15.303 J-2.561
G1 X54.142 Y72.037
X54.146 Y71.924
X54.145 Y71.719
X54.142 Y71.677
X54.135 Y71.636
Y71.63
X54.142 Y71.574
X54.145 Y71.518
Y71.392
X54.149 Y71.384
X54.158 Y71.383
X54.163 Y71.391
X54.306 Y73.429
X54.327 Y73.515
X54.358 Y73.597
X54.399 Y73.675
X54.453 Y73.745
G2 X54.691 Y73.99 I2.907 J-2.586
G3 X54.938 Y74.226 I-23.851 J25.296
G1 X54.943 Y74.236
X54.938 Y74.247
X54.928 Y74.251
X53.916 Y74.247
X53.832 Y74.253
X53.749 Y74.271
X53.67 Y74.3
X53.593 Y74.335
X53.519 Y74.381
X53.453 Y74.439
X53.397 Y74.506
X53.352 Y74.581
X53.341 Y74.605
X53.33 Y74.629
X53.321 Y74.637
X53.309 Y74.638
X53.3 Y74.63
X53.253 Y74.54
X53.226 Y74.498
X53.193 Y74.46
X53.117 Y74.391
X53.076 Y74.361
X53.032 Y74.335
X53.009 Y74.324
X52.985 Y74.313
X52.976 Y74.304
X52.974 Y74.291
X52.981 Y74.279
X53.079 Y74.201
X53.127 Y74.162
X53.172 Y74.118
X53.314 Y73.969
X53.383 Y73.893
X53.447 Y73.812
X53.556 Y73.668
X53.609 Y73.595
X53.655 Y73.517
X53.77 Y73.317
X53.817 Y73.226
X53.853 Y73.132
X53.856 Y73.105
X53.849 Y73.079
X53.833 Y73.057
X53.818 Y73.035
X53.813 Y73.008
X53.82 Y72.982
X53.848 Y72.923
X53.871 Y72.862
X53.93 Y72.686
G2 X53.997 Y72.414 I-1.706 J-0.565
X54.04 Y72.137 I-16.573 J-2.741
G1 X54.052 Y72.033
X54.055 Y71.929
Y71.72
X54.052 Y71.683
X54.046 Y71.647
X54.047 Y71.617
X54.054 Y71.575
X54.057 Y71.533
X54.055 Y70.645
X54.051 Y70.62
X54.047 Y70.595
Y70.577
X54.058 Y70.476
X54.061 Y70.374
X54.06 Y70.171
G3 X54.063 Y69.895 I14.396 J0.024
G2 X54.056 Y69.62 I-3.015 J-0.063
G1 X54.053 Y69.594
X54.049 Y69.566
X54.051 Y69.549
X54.062 Y69.536
X54.079 Y69.531
X54.089
X54.106 Y69.535
X54.119 Y69.547
X54.124 Y69.563
X54.389 Y73.372
X54.4 Y73.444
X54.421 Y73.515
X54.452 Y73.582
X54.489 Y73.645
X54.52 Y73.685
X54.554 Y73.723
X55.122 Y74.281
X55.152 Y74.307
X55.182 Y74.334
X55.186 Y74.344
X55.182 Y74.353
X55.171 Y74.356
X55.11 Y74.344
X55.048 Y74.337
X53.916
X53.842 Y74.342
X53.77 Y74.359
X53.701 Y74.384
X53.634 Y74.415
X53.583 Y74.445
X53.537 Y74.483
X53.497 Y74.527
X53.446 Y74.599
X53.402 Y74.677
X53.38 Y74.73
X53.365 Y74.787
X53.357 Y74.844
X53.354 Y74.902
X53.356 Y75.08
X53.359 Y75.259
X53.354 Y75.275
X53.343 Y75.286
X53.327 Y75.29
X53.303
X53.287 Y75.286
X53.276 Y75.275
X53.271 Y75.259
X53.274 Y75.079
X53.276 Y74.899
X53.27 Y74.825
X53.253 Y74.752
X53.228 Y74.682
X53.196 Y74.614
X53.165 Y74.564
X53.128 Y74.519
X53.085 Y74.479
X53.013 Y74.428
X52.937 Y74.385
X52.903 Y74.371
X52.867 Y74.362
X52.793 Y74.349
X52.784 Y74.343
X52.781 Y74.333
X52.787 Y74.323
X52.862 Y74.268
X52.934 Y74.208
X53.075 Y74.086
X53.106 Y74.057
X53.245 Y73.912
X53.312 Y73.838
X53.374 Y73.759
X53.553 Y73.511
X53.577 Y73.474
X53.688 Y73.282
X53.738 Y73.183
X53.775 Y73.078
X53.785 Y73.047
X53.8 Y73.018
X53.82 Y72.982
X53.829 Y72.953
X53.825 Y72.924
X53.81 Y72.898
X53.795 Y72.874
X53.789 Y72.845
X53.793 Y72.816
X53.844 Y72.657
G2 X53.909 Y72.393 I-1.638 J-0.543
X53.951 Y72.124 I-18.299 J-2.989
G1 X53.962 Y72.029
X53.965 Y71.934
X53.964 Y71.72
X53.962 Y71.689
X53.957 Y71.658
X53.955 Y71.631
X53.958 Y71.603
X53.964 Y71.568
X53.967 Y71.533
X53.965 Y70.655
X53.962 Y70.632
X53.958 Y70.61
Y70.564
X53.969 Y70.466
X53.971 Y70.368
X53.97 Y70.171
G3 X53.973 Y69.898 I13.406 J0.022
G2 X53.966 Y69.626 I-2.942 J-0.065
G1 X53.963 Y69.597
X53.958 Y69.568
X53.956 Y69.547
X53.958 Y69.527
X53.962 Y69.5
X53.965 Y69.472
X53.97 Y69.456
X53.983 Y69.445
X53.999 Y69.441
X54.173
X54.19 Y69.445
X54.203 Y69.457
X54.208 Y69.473
X54.488 Y73.421
X54.505 Y73.484
X54.532 Y73.543
X54.567 Y73.598
X54.608 Y73.648
X55.179 Y74.212
X55.213 Y74.241
X55.247 Y74.27
X55.267 Y74.297
X55.278 Y74.33
X55.299 Y74.474
X55.297 Y74.486
X55.287 Y74.493
X55.275 Y74.491
X55.216 Y74.461
X55.185 Y74.448
X55.152 Y74.44
X55.101 Y74.431
X55.048 Y74.426
X53.916 Y74.427
X53.853 Y74.432
X53.791 Y74.446
X53.732 Y74.468
X53.675 Y74.495
X53.633 Y74.521
X53.594 Y74.553
X53.561 Y74.59
X53.519 Y74.652
X53.483 Y74.717
X53.464 Y74.761
X53.453 Y74.807
X53.446 Y74.855
X53.444 Y74.902
X53.446 Y75.125
X53.449 Y75.349
X53.444 Y75.365
X53.433 Y75.376
X53.417 Y75.38
X53.213
X53.197 Y75.376
X53.186 Y75.365
X53.181 Y75.349
X53.184 Y75.124
X53.186 Y74.899
X53.181 Y74.835
X53.166 Y74.773
X53.143 Y74.713
X53.116 Y74.655
X53.09 Y74.613
X53.058 Y74.576
X53.021 Y74.543
X52.961 Y74.501
X52.897 Y74.465
X52.853 Y74.447
X52.806 Y74.435
X52.759 Y74.429
X52.712 Y74.426
X52.606 Y74.429
X52.5 Y74.431
X52.49 Y74.427
X52.488 Y74.417
X52.494 Y74.408
X52.552 Y74.374
X52.605 Y74.333
X52.616 Y74.322
X52.626 Y74.312
X52.644 Y74.299
X52.715 Y74.265
X52.781 Y74.223
X52.842 Y74.173
X53.017 Y74.018
X53.04 Y73.996
X53.175 Y73.855
X53.241 Y73.783
X53.301 Y73.707
X53.48 Y73.458
X53.498 Y73.43
X53.594 Y73.26
X53.64 Y73.173
X53.679 Y73.083
X53.685 Y73.066
X53.69 Y73.047
X53.702 Y73.011
X53.719 Y72.977
X53.76 Y72.901
X53.792 Y72.821
X53.793 Y72.816
X53.796 Y72.788
X53.788 Y72.761
X53.77 Y72.74
X53.753 Y72.718
X53.745 Y72.691
X53.748 Y72.663
X53.759 Y72.629
G2 X53.822 Y72.372 I-1.571 J-0.52
X53.862 Y72.11 I-20.754 J-3.346
G1 X53.873 Y72.013
X53.875 Y71.915
X53.874 Y71.72
X53.872 Y71.694
X53.867 Y71.669
X53.865 Y71.629
X53.868 Y71.59
X53.874 Y71.562
X53.876 Y71.533
X53.875 Y70.664
X53.873 Y70.645
X53.87 Y70.627
X53.866 Y70.588
X53.869 Y70.548
X53.879 Y70.454
X53.881 Y70.36
X53.88 Y70.171
G3 X53.883 Y69.902 I13.571 J0.022
G2 X53.876 Y69.632 I-2.922 J-0.063
G1 X53.873 Y69.608
X53.869 Y69.584
X53.865 Y69.547
X53.87 Y69.509
X53.876 Y69.446
Y69.383
X53.88 Y69.367
X53.892 Y69.355
X53.908 Y69.351
X54.257
X54.274 Y69.355
X54.287 Y69.367
X54.292 Y69.383
X54.576 Y73.405
X54.59 Y73.456
X54.613 Y73.503
X54.642 Y73.548
X54.675 Y73.589
X55.241 Y74.147
X55.278 Y74.18
X55.316 Y74.212
X55.339 Y74.239
X55.356 Y74.271
X55.365 Y74.306
X55.533 Y75.44
X55.531 Y75.455
X55.521 Y75.466
X55.506 Y75.47
X55.459
X55.443 Y75.466
X55.432 Y75.455
X55.427 Y75.439
G3 X55.43 Y75.169 I16.181 J-0.001
G2 X55.432 Y74.899 I-16.179 J-0.269
G1 X55.425 Y74.825
X55.416 Y74.789
X55.402 Y74.754
X55.355 Y74.678
X55.297 Y74.61
X55.25 Y74.571
X55.197 Y74.544
X55.139 Y74.528
X55.094 Y74.521
X55.048 Y74.516
X53.916 Y74.517
X53.864 Y74.521
X53.813 Y74.534
X53.716 Y74.575
X53.665 Y74.608
X53.623 Y74.652
X53.59 Y74.703
X53.556 Y74.787
X53.536 Y74.875
X53.534 Y74.902
G2 X53.536 Y75.17 I15.969 J0.
G3 X53.539 Y75.439 I-15.967 J0.268
G1 X53.534 Y75.455
X53.523 Y75.466
X53.507 Y75.47
X53.123
X53.107 Y75.466
X53.096 Y75.455
X53.091 Y75.439
G3 X53.094 Y75.169 I16.181 J-0.001
G2 X53.096 Y74.899 I-16.179 J-0.269
G1 X53.091 Y74.846
X53.078 Y74.794
X53.036 Y74.697
X53.003 Y74.647
X52.96 Y74.605
X52.91 Y74.572
X52.827 Y74.539
X52.74 Y74.519
X52.712 Y74.516
G2 X52.419 Y74.519 I0.001 J19.093
G3 X52.126 Y74.521 I-0.294 J-19.091
G1 X52.117 Y74.517
X52.115 Y74.507
X52.121 Y74.499
X52.325 Y74.409
X52.423 Y74.355
X52.514 Y74.292
X52.539 Y74.271
X52.563 Y74.247
X52.584 Y74.23
X52.608 Y74.217
X52.655 Y74.195
X52.699 Y74.168
X52.831 Y74.061
X52.958 Y73.949
X52.974 Y73.934
X53.105 Y73.798
X53.169 Y73.729
X53.228 Y73.654
X53.407 Y73.405
X53.419 Y73.387
X53.513 Y73.221
X53.558 Y73.137
X53.596 Y73.05
X53.602 Y73.031
X53.606 Y73.011
X53.62 Y72.971
X53.64 Y72.934
X53.681 Y72.863
X53.71 Y72.786
X53.748 Y72.663
X53.749 Y72.643
X53.739 Y72.624
X53.722 Y72.613
X53.703 Y72.607 Z-3.223
X53.69 Y72.603 Z-3.208
X53.684 Y72.601 Z-3.189
G0 Z5.
X50.549 Y70.578
Z-2.071
G1 Z-3.026 F142.
X50.55 Y70.576 Z-3.038
Y70.571 Z-3.049
X50.552 Y70.563 Z-3.058
X50.554 Y70.552 Z-3.063
X50.558 Y70.541 Z-3.066
G3 X50.914 Y70.663 Z-3.086 I0.178 J0.061
X50.558 Y70.541 Z-3.107 I-0.178 J-0.061
X50.914 Y70.663 Z-3.128 I0.178 J0.061
X50.558 Y70.541 Z-3.148 I-0.178 J-0.061
X50.914 Y70.663 Z-3.169 I0.178 J0.061
X50.558 Y70.541 Z-3.19 I-0.178 J-0.061
X50.914 Y70.663 Z-3.21 I0.178 J0.061
X50.548 Y70.615 Z-3.228 I-0.178 J-0.061
G1 X50.553 Y70.579
X50.571 Y70.547
X50.599 Y70.525
X50.634 Y70.515
X50.67 Y70.518
X50.702 Y70.536
X50.725 Y70.564
X50.736 Y70.598
Y70.603
X50.747 Y70.637
X50.77 Y70.665
X50.801 Y70.682
X50.837 Y70.686
X50.871 Y70.677
X50.9 Y70.655
X50.918 Y70.624
X50.924 Y70.589
Y70.553
X50.929 Y70.537
X50.941 Y70.525
X50.957 Y70.521
X51.008
X51.024 Y70.525
X51.036 Y70.537
X51.041 Y70.553
X51.039 Y70.618
X51.035 Y70.683
X51.036 Y71.58
X51.034 Y71.631
X51.027 Y71.682
X51.022 Y71.696
X51.015 Y71.71
X51.001 Y71.724
X50.981 Y71.73
X50.961 Y71.726
X50.945 Y71.713
X50.936 Y71.7
X50.931 Y71.685
X50.927 Y71.644
Y71.602
X50.93 Y71.52
X50.929 Y70.683
X50.926 Y70.618
X50.924 Y70.589
X50.916 Y70.559
X50.898 Y70.534
X50.871 Y70.518
X50.851 Y70.504
X50.841 Y70.481
X50.845 Y70.456
X50.862 Y70.438
X50.886 Y70.431
X51.097
X51.113 Y70.435
X51.125 Y70.447
X51.129 Y70.463
X51.126 Y71.583
X51.12 Y71.653
X51.106 Y71.72
X51.092 Y71.754
X51.071 Y71.783
X51.042 Y71.805
X51.01 Y71.82
X50.973 Y71.825
X50.936 Y71.817
X50.904 Y71.798
X50.879 Y71.772
X50.86 Y71.741
X50.847 Y71.707
X50.839 Y71.661
X50.838 Y71.614
X50.84 Y71.52
X50.835 Y70.463
X50.839 Y70.447
X50.851 Y70.435
X50.867 Y70.431
X50.886
X50.913 Y70.425
X50.937 Y70.409
X50.953 Y70.386
X50.969 Y70.362
X50.993 Y70.346
X51.021 Y70.341
X51.187
X51.203 Y70.345
X51.215 Y70.357
X51.219 Y70.373
X51.216 Y71.587
X51.209 Y71.668
X51.191 Y71.748
X51.17 Y71.798
X51.137 Y71.843
X51.096 Y71.879
X51.044 Y71.904
X50.988 Y71.914
X50.931 Y71.908
X50.878 Y71.887
X50.833 Y71.854
X50.796 Y71.811
X50.77 Y71.761
X50.756 Y71.707
X50.749 Y71.649
X50.748 Y71.591
X50.745 Y70.373
X50.75 Y70.357
X50.761 Y70.345
X50.777 Y70.341
X51.021
X51.048 Y70.335
X51.072 Y70.319
X51.088 Y70.296
X51.104 Y70.272
X51.128 Y70.256
X51.156 Y70.251
X51.277
X51.293 Y70.255
X51.305 Y70.267
X51.309 Y70.283
X51.307 Y71.59
X51.296 Y71.692
X51.27 Y71.792
X51.241 Y71.854
X51.199 Y71.91
X51.146 Y71.954
G3 X50.841 Y71.97 I-0.165 J-0.245
X50.667 Y71.719 I0.159 J-0.297
G1 X50.659 Y71.653
X50.658 Y71.585
X50.655 Y70.283
X50.66 Y70.267
X50.671 Y70.255
X50.687 Y70.251
X51.156
X51.183 Y70.245
X51.207 Y70.229
X51.223 Y70.206
X51.239 Y70.182
X51.263 Y70.166
X51.291 Y70.161
X51.367
X51.383 Y70.165
X51.395 Y70.177
X51.399 Y70.193
X51.397 Y70.438
X51.395 Y70.683
X51.398 Y71.533
X51.399 Y71.554
X51.401 Y71.575
X51.399 Y71.614
X51.384 Y71.734
X51.377 Y71.77
G3 X51.17 Y72.041 I-0.442 J-0.124
X50.829 Y72.062 I-0.191 J-0.321
G1 X50.769 Y72.03
X50.715 Y71.988
X50.668 Y71.938
X50.63 Y71.881
X50.6 Y71.819
X50.581 Y71.754
X50.569 Y71.667
X50.568 Y71.58
X50.566 Y70.193
X50.57 Y70.177
X50.582 Y70.165
X50.597 Y70.161
X51.291
X51.318 Y70.155
X51.342 Y70.139
X51.358 Y70.116
X51.374 Y70.092
X51.398 Y70.076
X51.426 Y70.071
X51.457
X51.473 Y70.075
X51.485 Y70.087
X51.489 Y70.103
X51.486 Y70.309
Y70.515
G3 X51.485 Y71.046 I-11.381 J0.245
G2 X51.491 Y71.577 I7.218 J0.181
G1 X51.489 Y71.617
X51.473 Y71.752
X51.466 Y71.787
G3 X51.321 Y72.04 I-0.571 J-0.16
X51.065 Y72.177 I-0.343 J-0.331
X50.697 Y72.091 I-0.085 J-0.463
X50.493 Y71.773 I0.324 J-0.432
G1 X50.483 Y71.713
X50.48 Y71.652
Y71.52
X50.476 Y70.103
X50.48 Y70.087
X50.491 Y70.075
X50.507 Y70.071
X51.426
X51.455 Y70.065
X51.48 Y70.049
X51.497 Y70.025
X51.512 Y70.007
X51.534 Y70.
X51.556 Y70.005
X51.573 Y70.021
X51.579 Y70.043
X51.576 Y70.263
G2 Y70.513 I5.266 J0.137
G3 X51.574 Y71.046 I-10.687 J0.23
G2 X51.581 Y71.578 I6.35 J0.18
G1 X51.58 Y71.62
X51.561 Y71.77
X51.554 Y71.805
G3 X51.384 Y72.103 I-0.676 J-0.189
X51.081 Y72.266 I-0.404 J-0.389
X50.584 Y72.114 I-0.102 J-0.554
G1 X50.517 Y72.037
X50.462 Y71.951
X50.434 Y71.889
X50.413 Y71.824
X50.399 Y71.757
X50.39 Y71.639
Y71.52
X50.386 Y70.013
X50.39 Y69.997
X50.401 Y69.985
X50.417 Y69.981
X51.547
X51.563 Y69.985
X51.575 Y69.997
X51.579 Y70.013
Y70.043
X51.585 Y70.071
X51.6 Y70.094
X51.623 Y70.11
X51.646 Y70.126
X51.662 Y70.15
X51.667 Y70.178
X51.666 Y70.217
G2 Y70.511 I6.492 J0.154
G1 X51.669 Y70.559
Y70.608
X51.667 Y71.608
X51.659 Y71.698
X51.65 Y71.787
X51.643 Y71.823
X51.626 Y71.884
X51.605 Y71.943
X51.572 Y72.005
X51.533 Y72.063
G3 X51.242 Y72.309 I-0.575 J-0.385
X50.864 Y72.354 I-0.261 J-0.579
G1 X50.77 Y72.33
X50.68 Y72.292
X50.596 Y72.241
X50.522 Y72.178
X50.474 Y72.128
X50.43 Y72.074
X50.391 Y72.016
X50.36 Y71.954
X50.333 Y71.883
X50.317 Y71.808
X50.301 Y71.657
X50.299 Y71.589
X50.3 Y71.52
X50.296 Y70.608
Y70.552
X50.299 Y70.497
G2 X50.298 Y70.21 I-16.658 J-0.028
G3 X50.296 Y69.923 I21.024 J-0.29
G1 X50.3 Y69.907
X50.311 Y69.895
X50.327 Y69.891
X51.637
X51.653 Y69.895
X51.665 Y69.907
X51.669 Y69.923
G3 X51.667 Y70.178 I-12.418 J-0.001
G1 X51.672 Y70.205
X51.687 Y70.229
X51.71 Y70.245
X51.733 Y70.261
X51.748 Y70.285
X51.754 Y70.312
X51.755 Y70.509
X51.759 Y70.563
X51.758 Y70.617
X51.757 Y71.619
X51.748 Y71.712
X51.739 Y71.805
X51.731 Y71.84
X51.701 Y71.95
X51.69 Y71.98
X51.676 Y72.008
X51.595 Y72.132
X51.549 Y72.19
X51.499 Y72.244
G3 X51.157 Y72.434 I-0.524 J-0.541
X50.766 Y72.423 I-0.176 J-0.706
G1 X50.682 Y72.392
X50.602 Y72.351
X50.527 Y72.302
X50.459 Y72.243
X50.398 Y72.177
X50.345 Y72.105
G3 X50.232 Y71.843 I0.654 J-0.436
X50.209 Y71.559 I0.986 J-0.224
G1 X50.21 Y70.683
X50.205 Y70.633
X50.202 Y70.608
X50.204 Y70.582
X50.213 Y70.48
X50.214 Y70.377
X50.21 Y70.171
X50.208 Y70.002
X50.205 Y69.833
X50.21 Y69.817
X50.221 Y69.805
X50.237 Y69.801
X51.727
X51.743 Y69.805
X51.755 Y69.817
X51.759 Y69.833
G3 X51.756 Y70.171 I-15.32 J-0.001
G1 X51.754 Y70.312
X51.759 Y70.34
X51.775 Y70.364
X51.799 Y70.38
X51.822 Y70.396
X51.838 Y70.419
X51.844 Y70.447
X51.845 Y70.507
X51.849 Y70.567
X51.848 Y70.626
Y71.533
X51.85 Y71.556
X51.852 Y71.578
X51.851 Y71.628
X51.827 Y71.822
X51.82 Y71.858
X51.784 Y71.985
X51.774 Y72.015
X51.759 Y72.044
X51.669 Y72.183
X51.618 Y72.249
X51.561 Y72.309
X51.508 Y72.36
X51.45 Y72.406
X51.381 Y72.445
X51.309 Y72.477
X51.232 Y72.506
X51.151 Y72.525
X50.988 Y72.55
X50.982
X50.975
X50.809 Y72.524
X50.728 Y72.504
X50.649 Y72.475
X50.575 Y72.442
X50.504 Y72.402
X50.447 Y72.357
X50.396 Y72.308
X50.341 Y72.25
X50.292 Y72.187
X50.204 Y72.054
X50.182 Y72.005
X50.157 Y71.915
X50.14 Y71.823
X50.114 Y71.638
X50.112 Y71.588
X50.116 Y71.554
X50.118 Y71.52
X50.117 Y70.626
X50.115 Y69.743
X50.12 Y69.727
X50.131 Y69.715
X50.147 Y69.711
X51.817
X51.833 Y69.715
X51.845 Y69.727
X51.849 Y69.743
G3 X51.845 Y70.125 I-18.348 J-0.002
G2 X51.844 Y70.447 I9.003 J0.188
G1 X51.851 Y70.477
X51.869 Y70.501
X51.895 Y70.517
X51.922 Y70.532
X51.94 Y70.557
X51.946 Y70.587
X51.945 Y70.611
X51.94 Y70.647
X51.937 Y70.683
X51.938 Y71.533
X51.94 Y71.555
X51.942 Y71.577
X51.941 Y71.633
X51.928 Y71.737
X51.916 Y71.84
X51.908 Y71.876
X51.868 Y72.022
X51.856 Y72.053
X51.841 Y72.083
X51.741 Y72.235
X51.686 Y72.308
X51.624 Y72.374
X51.575 Y72.42
X51.525 Y72.465
X51.477 Y72.498
X51.365 Y72.549
X51.249 Y72.59
X51.131 Y72.622
X51.01 Y72.642
X50.95
X50.827 Y72.621
X50.707 Y72.588
X50.59 Y72.546
X50.477 Y72.494
X50.427 Y72.461
X50.34 Y72.378
X50.26 Y72.288
X50.187 Y72.192
X50.122 Y72.091
X50.098 Y72.039
X50.073 Y71.95
X50.053 Y71.859
X50.038 Y71.768
X50.028 Y71.676
X50.026 Y71.66
X50.024 Y71.644
X50.022 Y71.587
X50.026 Y71.554
X50.028 Y71.521
Y70.683
X50.025 Y70.647
X50.02 Y70.611
X50.021 Y70.555
X50.03 Y70.459
X50.032 Y70.363
X50.03 Y70.17
G2 X50.028 Y69.911 I-14.913 J0.002
G3 X50.025 Y69.652 I14.911 J-0.261
G1 X50.03 Y69.636
X50.041 Y69.625
X50.057 Y69.621
X51.908
X51.924 Y69.625
X51.935 Y69.636
X51.939 Y69.652
X51.938 Y70.505
X51.94 Y70.53
X51.944 Y70.555
X51.946 Y70.587
X51.951 Y70.614
X51.965 Y70.637
X51.987 Y70.654
X52.008 Y70.672
X52.022 Y70.695
X52.027 Y70.722
X52.028 Y71.533
X52.03 Y71.552
X52.032 Y71.575
X52.034 Y71.607
X52.031 Y71.64
X52.016 Y71.748
X52.004 Y71.858
X51.997 Y71.893
X51.977 Y71.966
G3 X51.878 Y72.197 I-0.915 J-0.256
G1 X51.814 Y72.292
X51.741 Y72.379
X51.661 Y72.461
X51.578 Y72.539
X51.527 Y72.573
X51.436 Y72.619
G3 X50.629 Y72.665 I-0.455 J-0.898
G1 X50.528 Y72.62
X50.429 Y72.571
X50.401 Y72.555
X50.376 Y72.536
G3 X50.192 Y72.345 I1.076 J-1.227
X50.039 Y72.128 I1.373 J-1.128
G1 X50.014 Y72.071
X49.966 Y71.879
X49.949 Y71.781
X49.938 Y71.683
X49.936 Y71.666
X49.934 Y71.65
X49.93 Y71.618
X49.932 Y71.585
X49.936 Y71.553
X49.938 Y71.521
Y70.683
X49.935 Y70.648
X49.93 Y70.614
X49.928 Y70.583
X49.931 Y70.552
X49.94 Y70.457
X49.942 Y70.361
X49.94 Y70.17
X49.938 Y69.645
X49.935 Y69.602
X49.928 Y69.558
X49.929 Y69.545
X49.938 Y69.535
X49.951 Y69.531
X52.014
X52.027 Y69.535
X52.035 Y69.545
X52.037 Y69.558
X52.03 Y69.602
X52.027 Y69.645
X52.028 Y70.503
X52.031 Y70.528
X52.034 Y70.552
X52.037 Y70.583
X52.035 Y70.614
X52.03 Y70.648
X52.027 Y70.683
Y70.722
X52.033 Y70.75
X52.049 Y70.774
X52.073 Y70.79
X52.096 Y70.806
X52.112 Y70.829
X52.118 Y70.857
Y71.533
X52.12 Y71.553
X52.123 Y71.573
X52.125 Y71.61
X52.121 Y71.647
X52.105 Y71.761
X52.093 Y71.875
X52.086 Y71.911
X52.056 Y72.018
X52.019 Y72.121
X51.97 Y72.218
X51.91 Y72.311
X51.844 Y72.4
X51.771 Y72.484
X51.69 Y72.56
X51.6 Y72.629
X51.502 Y72.687
G3 X51.091 Y72.813 I-0.573 J-1.13
G1 X50.979 Y72.82
X50.868 Y72.813
G3 X50.62 Y72.75 I0.134 J-1.045
X50.383 Y72.649 I1.487 J-3.813
G1 X50.354 Y72.632
X50.326 Y72.612
G3 X49.961 Y72.173 I1.207 J-1.376
G1 X49.96 Y72.171
X49.958 Y72.168
X49.941 Y72.136
X49.929 Y72.102
X49.879 Y71.897
X49.86 Y71.794
X49.849 Y71.689
X49.846 Y71.673
X49.843 Y71.657
X49.84 Y71.62
X49.842 Y71.582
X49.846 Y71.551
X49.847 Y71.521
X49.845 Y70.655
X49.843 Y70.637
X49.84 Y70.619
X49.837 Y70.586
X49.84 Y70.552
X49.849 Y70.457
X49.851 Y70.361
X49.85 Y70.17
X49.848 Y69.645
X49.845 Y69.606
X49.838 Y69.568
Y69.531
X49.843 Y69.501
X49.846 Y69.472
X49.85 Y69.456
X49.862 Y69.445
X49.878 Y69.441
X52.088
X52.104 Y69.445
X52.116 Y69.456
X52.122 Y69.472
X52.124 Y69.498
X52.128 Y69.523
X52.13 Y69.543
X52.128 Y69.563
X52.12 Y69.604
X52.117 Y69.645
X52.118 Y70.501
X52.121 Y70.527
X52.125 Y70.552
X52.127 Y70.586
X52.125 Y70.619
X52.12 Y70.651
X52.117 Y70.683
X52.118 Y70.857
X52.123 Y70.886
X52.139 Y70.91
X52.164 Y70.926
X52.188 Y70.942
X52.204 Y70.966
X52.209 Y70.995
X52.21 Y71.546
X52.212 Y71.613
X52.207 Y71.68
X52.181 Y71.893
X52.174 Y71.929
X52.129 Y72.089
X52.104 Y72.16
X52.069 Y72.227
G3 X51.909 Y72.456 I-1.901 J-1.159
X51.714 Y72.659 I-1.206 J-0.963
G1 X51.652 Y72.706
X51.584 Y72.746
G3 X51.331 Y72.849 I-0.753 J-1.485
X51.064 Y72.907 I-0.455 J-1.446
G1 X50.979 Y72.913
X50.894 Y72.907
G3 X50.615 Y72.843 I0.186 J-1.447
X50.351 Y72.733 I0.641 J-1.907
G1 X50.346 Y72.73
X50.341 Y72.728
X50.306 Y72.71
X50.275 Y72.686
X50.112 Y72.53
X50.037 Y72.446
X49.97 Y72.355
X49.924 Y72.283
X49.879 Y72.211
X49.857 Y72.172
X49.844 Y72.131
X49.806 Y71.988
X49.788 Y71.917
X49.775 Y71.845
X49.765 Y71.752
X49.752 Y71.659
X49.748 Y71.617
X49.752 Y71.576
X49.756 Y71.548
X49.757 Y71.521
X49.756 Y70.683
X49.755 Y70.673
X49.754 Y70.664
X49.75 Y70.589
X49.754 Y70.514
X49.76 Y70.428
X49.761 Y70.342
X49.76 Y70.17
X49.757 Y69.645
X49.755 Y69.615
X49.75 Y69.584
X49.746 Y69.55
X49.749 Y69.516
X49.755 Y69.47
X49.758 Y69.424
X49.757 Y69.403
Y69.383
X49.761 Y69.367
X49.773 Y69.355
X49.789 Y69.351
X52.179
X52.194 Y69.355
X52.206 Y69.367
X52.21 Y69.383
Y69.445
X52.216 Y69.507
X52.22 Y69.543
X52.216 Y69.579
X52.21 Y69.612
X52.207 Y69.645
X52.209 Y70.499
X52.21 Y70.506
X52.211 Y70.513
X52.214 Y70.589
X52.21 Y70.664
X52.209 Y70.674
Y70.683
Y70.995
X52.215 Y71.022
X52.231 Y71.046
X52.254 Y71.061
X52.278 Y71.077
X52.293 Y71.101
X52.299 Y71.128
X52.3 Y71.545
X52.302 Y71.558
X52.304 Y71.571
X52.306 Y71.623
X52.299 Y71.674
X52.287 Y71.733
X52.281 Y71.792
X52.27 Y71.911
X52.263 Y71.946
X52.232 Y72.054
X52.202 Y72.161
X52.186 Y72.207
X52.162 Y72.25
X52.109 Y72.331
X52.057 Y72.414
X51.991 Y72.503
X51.918 Y72.587
X51.839 Y72.665
X51.757 Y72.74
X51.75 Y72.747
X51.744 Y72.754
X51.703 Y72.786
X51.658 Y72.81
X51.506 Y72.879
X51.431 Y72.913
X51.352 Y72.941
X51.274 Y72.961
X51.195 Y72.975
X51.037 Y73.002
X50.981 Y73.008
X50.924 Y73.002
X50.764 Y72.975
X50.685 Y72.96
X50.606 Y72.94
X50.528 Y72.912
X50.453 Y72.877
X50.378 Y72.841
X50.301 Y72.81
X50.257 Y72.787
X50.218 Y72.756
X50.098 Y72.644
X50.039 Y72.587
X49.985 Y72.526
X49.935 Y72.461
X49.89 Y72.392
X49.799 Y72.255
X49.774 Y72.212
X49.759 Y72.164
X49.715 Y71.989
X49.693 Y71.901
X49.68 Y71.811
X49.673 Y71.741
X49.663 Y71.67
X49.658 Y71.616
X49.663 Y71.562
X49.666 Y71.541
X49.667 Y71.521
X49.666 Y70.673
X49.664 Y70.656
X49.661 Y70.638
X49.655 Y70.588
X49.66 Y70.538
X49.664 Y70.516
X49.666 Y70.496
Y69.637
X49.664 Y69.619
X49.661 Y69.6
X49.655 Y69.551
X49.66 Y69.501
X49.668 Y69.449
X49.669 Y69.397
X49.667 Y69.293
X49.671 Y69.277
X49.683 Y69.265
X49.699 Y69.261
X52.268
X52.284 Y69.265
X52.296 Y69.277
X52.3 Y69.293
X52.297 Y69.392
X52.298 Y69.441
X52.305 Y69.49
X52.311 Y69.541
X52.306 Y69.592
X52.3 Y69.618
X52.298 Y69.645
X52.3 Y70.508
X52.303 Y70.525
X52.305 Y70.537
X52.309 Y70.588
X52.304 Y70.64
X52.3 Y70.661
X52.298 Y70.683
X52.299 Y71.128
X52.305 Y71.157
X52.321 Y71.181
X52.345 Y71.197
X52.369 Y71.213
X52.385 Y71.237
X52.39 Y71.265
Y71.533
X52.394 Y71.558
X52.399 Y71.581
X52.409 Y71.606
X52.417 Y71.621
X52.403 Y71.646
X52.393 Y71.671
X52.387 Y71.696
X52.356 Y71.946
X52.29 Y72.183
X52.286 Y72.208
X52.285 Y72.233
X52.287 Y72.255
X52.266 Y72.271
X52.253 Y72.282
X52.236 Y72.301
X52.223 Y72.321
X52.136 Y72.467
X52.045 Y72.589
X51.941 Y72.701
X51.817 Y72.809
X51.804 Y72.821
X51.794 Y72.834
X51.785 Y72.846
X51.777 Y72.858
X51.768 Y72.875
X51.766 Y72.877
X51.742 Y72.879
X51.717 Y72.885
X51.692 Y72.894
X51.528 Y72.977
X51.38 Y73.032
X51.229 Y73.069
X51.056 Y73.09
X51.031 Y73.096
X51.006 Y73.105
X50.981 Y73.118
X50.978 Y73.117
X50.956 Y73.105
X50.931 Y73.096
X50.906 Y73.091
X50.731 Y73.068
X50.578 Y73.03
X50.43 Y72.975
X50.27 Y72.894
X50.245 Y72.885
X50.22 Y72.88
X50.195 Y72.878
X50.184 Y72.859
X50.177 Y72.847
X50.168 Y72.835
X50.154 Y72.821
X50.015 Y72.699
X49.911 Y72.586
X49.816 Y72.458
X49.729 Y72.312
X49.716 Y72.294
X49.701 Y72.277
X49.686 Y72.264
X49.673 Y72.255
X49.675 Y72.221
X49.673 Y72.196
X49.668 Y72.171
X49.635 Y72.071
X49.622 Y72.021
X49.608 Y71.964
X49.6 Y71.921
X49.592 Y71.871
X49.586 Y71.821
X49.578 Y71.708
X49.573 Y71.683
X49.565 Y71.657
X49.552 Y71.632
X49.547 Y71.623
X49.558 Y71.601
X49.564 Y71.586
X49.569 Y71.571
X49.574 Y71.546
X49.575 Y71.521
Y70.683
X49.572 Y70.658
X49.566 Y70.633
X49.558 Y70.611
X49.545 Y70.586
X49.558 Y70.56
X49.566 Y70.54
X49.571 Y70.52
X49.574 Y70.495
X49.575 Y70.17
Y69.645
X49.573 Y69.62
X49.567 Y69.596
X49.558 Y69.57
X49.545 Y69.546
X49.558 Y69.522
X49.564 Y69.508
X49.572 Y69.483
X49.575 Y69.458
X49.576 Y69.42
Y69.172
X49.578 Y69.17
X52.389
X52.391 Y69.172
Y69.445
X52.393 Y69.47
X52.4 Y69.499
X52.408 Y69.52
X52.42 Y69.544
Y69.545
X52.413 Y69.558
X52.403 Y69.579
X52.396 Y69.6
X52.392 Y69.62
X52.39 Y69.645
Y70.47
Y70.495
X52.394 Y70.52
X52.398 Y70.536
X52.407 Y70.561
X52.42 Y70.586
X52.408 Y70.607
X52.398 Y70.633
X52.393 Y70.658
X52.39 Y70.683
Y71.265
X52.385 Y71.285
X52.37 Y71.299
X52.351 Y71.305
X52.331 Z-3.223
X52.316 Z-3.208
X52.311 Z-3.189
G0 Z5.
X47.952 Y74.263
Z-2.071
G1 Z-3.026 F142.
X47.95 Y74.262 Z-3.038
X47.945 Y74.261 Z-3.049
X47.936 Y74.259 Z-3.058
X47.926 Y74.256 Z-3.063
X47.915 Y74.252 Z-3.066
G3 X48.061 Y73.905 Z-3.086 I0.073 J-0.173
X47.915 Y74.252 Z-3.107 I-0.073 J0.173
X48.061 Y73.905 Z-3.128 I0.073 J-0.173
X47.915 Y74.252 Z-3.148 I-0.073 J0.173
X48.061 Y73.905 Z-3.169 I0.073 J-0.173
X47.915 Y74.252 Z-3.19 I-0.073 J0.173
X48.061 Y73.905 Z-3.21 I0.073 J-0.173
X47.988 Y74.266 Z-3.228 I-0.073 J0.173
G1 X47.952 Y74.259
X47.922 Y74.239
X47.901 Y74.209
X47.894 Y74.173
X47.901 Y74.137
X47.921 Y74.106
X47.952 Y74.086
X47.988 Y74.078
X47.991
X48.027 Y74.071
X48.057 Y74.05
X48.077 Y74.019
X48.084 Y73.983
X48.076 Y73.947
X48.055 Y73.917
X48.025 Y73.897
X47.988 Y73.89
X47.875 Y73.891
X47.864 Y73.887
X47.858 Y73.876
X47.86 Y73.864
X47.913 Y73.771
X47.955 Y73.674
X47.963 Y73.665
X47.974 Y73.664
X47.983 Y73.671
X48.046 Y73.772
X48.115 Y73.868
X48.118 Y73.88
X48.112 Y73.89
X48.101 Y73.893
X47.988 Y73.89
X47.961 Y73.896
X47.938 Y73.912
X47.923 Y73.935
X47.908 Y73.959
X47.885 Y73.974
X47.857 Y73.98
X47.686 Y73.981
X47.675 Y73.977
X47.671 Y73.966
X47.675 Y73.956
G2 X47.923 Y73.423 I-0.668 J-0.635
G1 X47.928 Y73.414
X47.938 Y73.412
X47.947 Y73.419
X48.034 Y73.584
X48.079 Y73.666
X48.131 Y73.744
X48.225 Y73.873
X48.321 Y74.
X48.324 Y74.01
X48.318 Y74.019
X48.307 Y74.021
G2 X47.998 Y73.978 I-0.291 J0.978
G1 X47.857 Y73.98
X47.83 Y73.986
X47.806 Y74.002
X47.79 Y74.025
X47.775 Y74.049
X47.751 Y74.065
X47.724 Y74.07
G3 X47.465 Y74.071 I-0.265 J-62.364
G1 X47.456 Y74.067
X47.452 Y74.058
X47.456 Y74.049
X47.619 Y73.886
X47.671 Y73.828
X47.715 Y73.765
X47.753 Y73.698
G2 X47.835 Y73.389 I-0.761 J-0.369
G1 X47.858 Y73.062
X47.864 Y73.053
X47.874 Y73.052
X47.881 Y73.058
X47.931 Y73.188
X47.956 Y73.252
X47.987 Y73.314
X48.09 Y73.506
X48.144 Y73.601
X48.204 Y73.692
X48.319 Y73.855
X48.378 Y73.936
X48.443 Y74.012
X48.559 Y74.135
X48.676 Y74.257
X48.684 Y74.27
Y74.286
X48.676 Y74.3
X48.666 Y74.311
X48.652 Y74.319
X48.635
X48.621 Y74.311
X48.61 Y74.3
X48.599 Y74.289
G2 X48.054 Y74.068 I-0.538 J0.547
G3 X47.724 Y74.07 I-0.595 J-62.361
G1 X47.696 Y74.076
X47.674 Y74.092
X47.658 Y74.115
X47.643 Y74.138
X47.62 Y74.154
X47.593 Y74.159
G3 X47.25 Y74.161 I-0.347 J-34.641
G1 X47.24 Y74.157
X47.237 Y74.148
X47.24 Y74.139
X47.408 Y73.977
X47.491 Y73.895
X47.57 Y73.81
X47.618 Y73.749
X47.659 Y73.682
X47.693 Y73.612
X47.72 Y73.539
X47.74 Y73.463
X47.75 Y73.384
X47.802 Y72.578
X47.808 Y72.57
X47.817 Y72.569
X47.824 Y72.577
X47.878 Y72.794
X47.911 Y72.902
X47.952 Y73.006
X47.983 Y73.069
X48.009 Y73.134
X48.034 Y73.204
X48.066 Y73.271
X48.166 Y73.458
X48.218 Y73.551
X48.277 Y73.639
X48.389 Y73.799
X48.446 Y73.877
X48.509 Y73.951
X48.642 Y74.097
X48.711 Y74.169
X48.784 Y74.235
X48.801 Y74.249
X48.818 Y74.262
X48.825 Y74.274
Y74.288
X48.816 Y74.299
X48.773 Y74.332
X48.734 Y74.368
X48.662 Y74.447
X48.65 Y74.455
X48.636
X48.625 Y74.447
X48.576 Y74.391
X48.524 Y74.338
X48.466 Y74.291
X48.402 Y74.252
X48.316 Y74.214
X48.226 Y74.183
X48.134 Y74.163
X48.039 Y74.156
G2 X47.644 Y74.159 I0.004 J34.643
G1 X47.593
X47.565 Y74.165
X47.542 Y74.181
X47.526 Y74.204
X47.511 Y74.228
X47.488 Y74.244
X47.46 Y74.249
X47.034 Y74.251
X47.025 Y74.247
X47.021 Y74.238
X47.024 Y74.229
G3 X47.267 Y73.993 I6.66 J6.598
G2 X47.503 Y73.75 I-2.556 J-2.722
G1 X47.545 Y73.696
X47.581 Y73.638
X47.61 Y73.576
X47.634 Y73.512
X47.651 Y73.446
X47.66 Y73.378
X47.804 Y71.283
X47.809 Y71.275
X47.818
X47.823 Y71.283
X47.821 Y71.449
X47.822 Y71.533
X47.829 Y71.615
Y71.622
X47.818 Y71.715
X47.816 Y71.807
X47.823 Y71.993
G2 X47.858 Y72.317 I2.807 J-0.138
X47.926 Y72.636 I3.519 J-0.586
G1 X47.988 Y72.846
X48.027 Y72.948
X48.076 Y73.045
X48.093 Y73.085
X48.115 Y73.158
X48.145 Y73.228
X48.242 Y73.41
X48.293 Y73.5
X48.35 Y73.587
X48.458 Y73.742
X48.514 Y73.818
X48.575 Y73.89
X48.703 Y74.033
X48.769 Y74.104
X48.84 Y74.169
X48.909 Y74.224
X48.977 Y74.279
X48.984 Y74.29
X48.983 Y74.303
X48.974 Y74.313
X48.885 Y74.36
X48.843 Y74.387
X48.805 Y74.42
X48.737 Y74.495
X48.707 Y74.535
X48.682 Y74.579
X48.67 Y74.604
X48.658 Y74.629
X48.649 Y74.637
X48.637
X48.628 Y74.629
X48.581 Y74.539
X48.554 Y74.497
X48.52 Y74.458
X48.444 Y74.391
X48.361 Y74.332
X48.301 Y74.3
X48.237 Y74.276
X48.171 Y74.261
X48.109 Y74.252
X48.039 Y74.246
X47.46 Y74.249
X47.433 Y74.255
X47.41 Y74.27
X47.394 Y74.293
X47.379 Y74.316
X47.356 Y74.332
X47.328 Y74.337
X46.91 Y74.338
X46.859 Y74.343
X46.808 Y74.353
X46.798 Y74.35
X46.793 Y74.341
X46.797 Y74.331
X47.455 Y73.667
X47.49 Y73.615
X47.521 Y73.559
X47.545 Y73.499
X47.561 Y73.438
X47.566 Y73.405
X47.57 Y73.372
X47.835 Y69.563
X47.841 Y69.547
X47.854 Y69.535
X47.87 Y69.531
X47.897
X47.91 Y69.535
X47.919 Y69.545
X47.92 Y69.558
X47.913 Y69.61
X47.909 Y69.663
X47.911 Y70.503
X47.914 Y70.539
X47.92 Y70.574
Y70.598
X47.913 Y70.64
X47.91 Y70.683
Y71.533
X47.914 Y71.569
X47.919 Y71.605
X47.918 Y71.635
X47.908 Y71.723
X47.906 Y71.812
X47.913 Y71.989
G2 X47.947 Y72.304 I2.718 J-0.133
X48.013 Y72.613 I3.432 J-0.573
G1 X48.071 Y72.813
X48.108 Y72.91
X48.155 Y73.002
X48.179 Y73.057
X48.193 Y73.107
X48.211 Y73.155
X48.249 Y73.235
X48.291 Y73.312
X48.378 Y73.465
X48.427 Y73.545
X48.481 Y73.621
X48.594 Y73.772
X48.654 Y73.848
X48.719 Y73.919
X48.853 Y74.058
X48.922 Y74.125
X48.996 Y74.186
X49.147 Y74.305
X49.159 Y74.314
X49.171 Y74.323
X49.177 Y74.332
X49.175 Y74.343
X49.165 Y74.349
X49.089 Y74.362
X49.051 Y74.372
X49.016 Y74.387
X48.94 Y74.432
X48.869 Y74.483
X48.827 Y74.523
X48.79 Y74.568
X48.759 Y74.619
X48.729 Y74.686
X48.704 Y74.756
X48.688 Y74.828
X48.682 Y74.902
X48.685 Y75.08
X48.687 Y75.259
X48.683 Y75.275
X48.671 Y75.286
X48.655 Y75.29
X48.631
X48.615 Y75.286
X48.604 Y75.275
X48.6 Y75.259
X48.602 Y75.079
X48.604 Y74.899
X48.598 Y74.825
X48.582 Y74.753
X48.556 Y74.683
X48.525 Y74.616
X48.495 Y74.566
X48.458 Y74.52
X48.414 Y74.48
X48.343 Y74.429
X48.266 Y74.385
X48.212 Y74.363
X48.156 Y74.348
X48.098 Y74.339
X48.039 Y74.336
X47.328 Y74.337
X47.301 Y74.343
X47.277 Y74.359
X47.261 Y74.382
X47.246 Y74.405
X47.222 Y74.421
X47.195 Y74.427
X46.91
X46.862 Y74.429
X46.815 Y74.437
X46.769 Y74.45
X46.725 Y74.469
X46.697 Y74.484
X46.669 Y74.499
X46.657 Y74.501
X46.647 Y74.494
X46.644 Y74.482
X46.651 Y74.421
X46.656 Y74.369
X46.663 Y74.344
X46.677 Y74.323
X47.383 Y73.613
X47.413 Y73.569
X47.438 Y73.522
X47.459 Y73.473
X47.472 Y73.421
X47.752 Y69.473
X47.757 Y69.457
X47.77 Y69.445
X47.786 Y69.441
X47.971
X47.987 Y69.445
X47.999 Y69.456
