(1001)
(T1  D=0.1 CR=0. - ZMIN=-4.179 - FLAT END MILL)
G0 G90 G94 G17
G21
G53 G0 Z0.

(0.4MM  FLATEND  PARALLEL)
M5
M9
T1
S12000 M3
G4 P4.
G55
G0 X62.262 Y69.043
Z15.
Z0.978
G1 Z-2.918 F40.
X62.259 Z-2.925
X62.252 Z-2.928
X62.243
X62.242 Z-2.586
X61.537
Z-2.576
X61.535 Y69.068
X61.533 Y69.093
Z-2.586
X62.239
Z-2.928
X62.248
X62.251
X62.253 Z-2.927
X62.263 Y69.097
X62.268 Y69.108
Y69.128
X62.263 Y69.139
X62.253 Y69.143
X62.249
X62.247 Z-2.928
X62.245
X62.235
X62.234 Z-2.586
X61.529
Z-2.576
X61.528 Y69.168
X61.526 Y69.193
Z-2.586
X62.231
X62.232 Z-2.928
X62.241
X62.248 Z-2.925
X62.251 Z-2.918
G0 Z5.
X59.372 Y69.043
Z0.978
G1 Z-2.576 F40.
Z-2.586
X59.322
Z-2.576
Y69.068
Y69.093
Z-2.586
X59.371
X59.372 Z-2.576
Y69.118
Y69.143
Z-2.586
X59.322
Z-2.576
Y69.168
Y69.193
Z-2.586
X59.372
Z-2.576
G0 Z5.
X57.073 Y69.043
Z0.978
G1 Z-2.575 F40.
Z-2.576
Z-2.586
X57.022
Z-2.576
Y69.068
Y69.093
Z-2.586
X57.073
Z-2.576
Y69.118
Y69.143
Z-2.586
X57.022
Z-2.576
Y69.168
Y69.193
Z-2.586
X57.073
X57.074 Z-2.576
Z-2.575
G0 Z5.
X54.873 Y69.043
Z0.978
G1 Z-2.576 F40.
Z-2.586
X54.597
Z-3.428
X53.548
Z-3.418
Y69.068
Y69.093
Z-3.428
X54.601
Z-2.586
X54.876
X54.877 Z-2.576
X54.879 Y69.118
X54.88 Y69.143
X54.879 Z-2.586
X54.604
Z-3.428
X53.548
Z-3.418
Y69.193
Z-3.428
X54.607
X54.608 Z-2.586
X54.884
Z-2.576
X54.883 Z-2.57
X54.879 Z-2.565
X54.875 Z-2.562
X54.869 Z-2.561
X53.562 Y69.242 Z-2.562
X53.556 Y69.243 Z-2.563
X53.551 Z-2.567
X53.548 Z-2.571
X53.547 Z-2.577
X53.548 Z-3.418
Z-3.428
X54.611
Z-2.586
X62.227
X62.228 Z-2.928
X62.238
X62.24
X62.242 Z-2.927
X62.253 Y69.247
X62.257 Y69.258
Y69.278
X62.253 Y69.288
X62.242 Y69.293
X62.238
X62.236 Z-2.928
X62.233
X62.224
Z-2.586
X61.478
Z-2.576
X61.507 Y69.311
X61.517 Y69.343
Z-2.586
X62.22
Z-2.928
X62.229
X62.232
X62.234 Z-2.927
X62.244 Y69.347
X62.249 Y69.358
Y69.378
X62.244 Y69.389
X62.234 Y69.393
X62.231
X62.229 Z-2.928
X62.227
X62.217
X62.216 Z-2.586
X61.514
Z-2.576
X61.51 Y69.443
Z-2.586
X62.212
X62.213 Z-2.928
X62.223
X62.225
X62.227 Z-2.927
X62.238 Y69.447
X62.242 Y69.458
Y69.478
X62.238 Y69.489
X62.227 Y69.493
X62.223
X62.221 Z-2.928
X62.219
X62.209
Z-2.586
X61.507
Z-2.576
X61.505 Y69.518
X61.503 Y69.543
Z-2.586
X62.206
Z-2.928
X62.215
X62.217
X62.22 Z-2.927
X62.23 Y69.547
X62.235 Y69.558
Y69.578
X62.23 Y69.589
X62.22 Y69.593
X62.216
X62.214 Z-2.928
X62.212
X62.202
X62.201 Z-2.586
X61.499
Z-2.576
X61.496 Y69.643
Z-2.586
X62.198
Z-2.928
X62.207
X62.209
X62.212 Z-2.927
X62.222 Y69.647
X62.227 Y69.658
Y69.678
X62.222 Y69.689
X62.212 Y69.693
X62.208
X62.206 Z-2.928
X62.204
X62.194
Z-2.586
X61.492
Z-2.576
X61.49 Y69.718
X61.489 Y69.743
Z-2.586
X62.19
X62.191 Z-2.928
X62.2
X62.202
X62.204 Z-2.927
X62.215 Y69.747
X62.219 Y69.758
Y69.778
X62.215 Y69.789
X62.204 Y69.793
X62.201
X62.199 Z-2.928
X62.196
X62.187
Z-2.586
X61.485
Z-2.576
X61.482 Y69.843
Z-2.586
X62.183
Z-2.928
X62.193
X62.195
X62.198 Z-2.927
X62.208 Y69.847
X62.213 Y69.858
Y69.878
X62.208 Y69.888
X62.198 Y69.893
X62.194
X62.191 Z-2.928
X62.189
X62.18
X62.177 Z-2.586
X61.478
Z-2.576
X61.474 Y69.943
Z-2.586
X62.175
X62.176 Z-2.928
X62.186
X62.188
X62.19 Z-2.927
X62.201 Y69.947
X62.205 Y69.958
Y69.978
X62.201 Y69.988
X62.19 Y69.993
X62.186
X62.184 Z-2.928
X62.182
X62.172
X62.168 Z-2.586
X61.471
Z-2.576
X61.469 Y70.018
X61.467 Y70.043
Z-2.586
X62.168
X62.169 Z-2.928
X62.178
X62.18
X62.182 Z-2.927
X62.193 Y70.047
X62.197 Y70.058
Y70.078
X62.193 Y70.088
X62.182 Y70.093
X62.179
X62.177 Z-2.928
X62.174
X62.165
X62.164 Z-2.586
X61.464
Z-2.576
X61.462 Y70.118
X61.46 Y70.143
Z-2.586
X62.16
X62.161 Z-2.928
X62.171
X62.173
X62.175 Z-2.927
X62.186 Y70.147
X62.19 Y70.158
Y70.178
X62.186 Y70.189
X62.175 Y70.193
X62.171
X62.169 Z-2.928
X62.167
X62.157
Z-2.586
X61.456
Z-2.576
X61.455 Y70.218
X61.453 Y70.243
Z-2.586
X62.154
Z-2.928
X62.163
X62.165
X62.168 Z-2.927
X62.178 Y70.247
X62.183 Y70.258
Y70.278
X62.178 Y70.289
X62.168 Y70.293
X62.164
X62.162 Z-2.928
X62.159
X62.15
Z-2.586
X61.449
Z-2.576
G0 Z5.
X60.562 Y69.293
Z0.478
G1 Z-2.575 F40.
Z-2.576
X60.561 Z-2.586
X60.434
Z-2.576
X60.462 Y69.311
X60.473 Y69.343
Z-2.586
X60.523
Z-2.576
Y69.368
Y69.393
Z-2.586
X60.473
Z-2.576
Y69.418
Y69.443
Z-2.586
X60.523
Z-2.576
Y69.468
Y69.493
Z-2.586
X60.473
Z-2.576
Y69.518
Y69.543
Z-2.586
X60.522
X60.523 Z-2.576
Y69.568
Y69.593
X60.519 Z-2.586
X60.473
Z-2.576
Y69.618
Y69.643
Z-2.586
X60.523
Z-2.576
Y69.668
Y69.693
Z-2.586
X60.473
Z-2.576
Y69.743
Z-2.586
X60.523
Z-2.576
Y69.768
Y69.793
Z-2.586
X60.473
Z-2.576
Y69.843
Z-2.586
X60.522
X60.523 Z-2.576
Y69.868
Y69.893
Z-2.586
X60.473
Z-2.576
Y69.918
Y69.943
Z-2.586
X60.522
X60.523 Z-2.576
Y69.968
Y69.993
Z-2.586
X60.473
Z-2.576
Y70.043
Z-2.586
X60.523
Z-2.576
Y70.068
Y70.093
X60.522 Z-2.586
X60.473
Z-2.576
Y70.143
Z-2.586
X60.522
X60.523 Z-2.576
Y70.168
Y70.193
Z-2.586
X60.473
Z-2.576
Y70.218
Y70.243
Z-2.586
X60.523
Z-2.576
Y70.268
Y70.293
X60.522 Z-2.586
X60.473
Z-2.576
G0 Z5.
X58.263 Y69.293
Z0.478
G1 Z-2.576 F40.
Z-2.586
X58.134
Z-2.576
X58.162 Y69.311
X58.173 Y69.343
Z-2.586
X58.224
Z-2.576
Y69.393
Z-2.586
X58.173
Z-2.576
Y69.418
Y69.443
Z-2.586
X58.223
X58.224 Z-2.576
Y69.468
Y69.493
X58.223 Z-2.586
X58.173
Z-2.576
Y69.518
Y69.543
Z-2.586
X58.224
Z-2.576
Y69.568
Y69.593
Z-2.586
X58.173
Z-2.576
Y69.618
Y69.643
Z-2.586
X58.224
Z-2.576
Y69.693
Z-2.586
X58.173
Z-2.576
Y69.718
Y69.743
Z-2.586
X58.224
Z-2.576
Y69.768
Y69.793
Z-2.586
X58.173
Z-2.576
Y69.818
Y69.843
Z-2.586
X58.224
Z-2.576
Y69.868
Y69.893
X58.22 Z-2.586
X58.173
Z-2.576
Y69.918
Y69.943
Z-2.586
X58.224
Z-2.576
Y69.993
Z-2.586
X58.173
Z-2.576
Y70.018
Y70.043
Z-2.586
X58.224
Z-2.576
Y70.093
Z-2.586
X58.173
Z-2.576
Y70.118
Y70.143
Z-2.586
X58.224
Z-2.576
Y70.168
Y70.193
Z-2.586
X58.173
Z-2.576
Y70.218
Y70.243
Z-2.586
X58.223
X58.224 Z-2.576
Y70.268
Y70.293
Z-2.586
X58.173
Z-2.576
G0 Z5.
X55.962 Y69.293
Z0.478
G1 Z-2.575 F40.
Z-2.576
X55.961 Z-2.586
X55.833
Z-2.576
X55.861 Y69.311
X55.872 Y69.343
Z-2.586
X55.922
X55.923 Z-2.576
Y69.368
Y69.393
X55.922 Z-2.586
X55.872
Z-2.576
Y69.418
Y69.443
Z-2.586
X55.922
X55.923 Z-2.576
Y69.468
Y69.493
X55.922 Z-2.586
X55.872
Z-2.576
Y69.518
Y69.543
Z-2.586
X55.922
X55.923 Z-2.576
Y69.593
Z-2.586
X55.872
Z-2.576
Y69.618
Y69.643
Z-2.586
X55.922
X55.923 Z-2.576
Y69.668
Y69.693
X55.922 Z-2.586
X55.872
Z-2.576
Y69.718
Y69.743
Z-2.586
X55.923
Z-2.576
Y69.768
Y69.793
Z-2.586
X55.872
Z-2.576
Y69.818
Y69.843
Z-2.586
X55.923
Z-2.576
Y69.868
Y69.893
X55.922 Z-2.586
X55.872
Z-2.576
Y69.918
Y69.943
Z-2.586
X55.922
X55.923 Z-2.576
Y69.968
Y69.993
X55.922 Z-2.586
X55.872
Z-2.576
Y70.018
Y70.043
Z-2.586
X55.922
X55.923 Z-2.576
Y70.068
Y70.093
X55.922 Z-2.586
X55.872
Z-2.576
Y70.143
Z-2.586
X55.923
Z-2.576
Y70.168
Y70.193
X55.922 Z-2.586
X55.872
Z-2.576
Y70.218
Y70.243
Z-2.586
X55.922
X55.923 Z-2.576
Y70.268
Y70.293
Z-2.586
X55.872
Z-2.576
G0 Z5.
X54.935 Y69.293
Z0.478
G1 Z-2.576 F40.
Z-2.586
X54.615
Z-3.428
X53.548
Z-3.418
Y69.318
Y69.343
Z-3.428
X54.618
X54.619 Z-2.586
X54.896
X54.897 Z-2.576
X54.898 Y69.368
X54.9 Y69.393
Z-2.586
X54.622
Z-3.428
X53.548
Z-3.418
Y69.418
Y69.443
Z-3.428
X54.625
X54.626 Z-2.586
X54.899
X54.904 Z-2.576
X54.899 Y69.442 Z-2.571
X52.544 Y69.044
X52.539 Y69.043 Z-2.576
Z-3.418
Z-3.428
X49.428
Z-3.418
Y69.068
Y69.093
Z-3.428
X52.539
Z-3.418
Y69.118
Y69.143
X52.537 Z-3.428
X49.428
Z-3.418
Y69.168
Y69.193
Z-3.428
X52.537
X52.539 Z-3.418
Y69.218
Y69.243
Z-3.428
X49.428
Z-3.418
Y69.268
Y69.293
Z-3.428
X52.537
X52.539 Z-3.418
Y69.318
Y69.343
X52.537 Z-3.428
X49.428
Z-3.418
Y69.368
Y69.393
Z-3.428
X52.539
Z-3.418
Y69.418
Y69.443
X52.538 Z-3.428
X49.428
Z-3.418
G0 Z5.
X48.422 Y69.043
Z0.978
G1 Z-3.418 F40.
Z-3.428
X47.362
X47.36 Z-2.586
X46.966
Z-2.576
X46.964 Y69.068
X46.963 Y69.093
Z-2.586
X47.357
X47.359 Z-3.428
X48.422
Z-3.418
Y69.118
Y69.143
Z-3.428
X47.355
X47.352 Z-2.586
X46.959
Z-2.576
X46.957 Y69.168
X46.955 Y69.193
Z-2.586
X47.352
Z-3.428
X48.422
Z-3.418
G0 Z5.
X44.916 Y69.043
Z0.978
G1 Z-2.575 F40.
Z-2.576
X44.915 Z-2.586
X44.864
Z-2.576
Y69.068
Y69.093
Z-2.586
X44.916
Z-2.576
Y69.118 Z-2.581
Y69.143 Z-2.586
X44.864
Z-2.576
Y69.168
Y69.193
Z-2.586
X44.916
X44.917 Z-2.576
Z-2.575
G0 Z5.
X42.616 Y69.043
Z0.978
G1 Z-2.575 F40.
Z-2.576
Z-2.586
X42.564
Z-2.576
Y69.093
Z-2.586
X42.616
Z-2.576
Y69.118
Y69.143
Z-2.586
X42.564
Z-2.576
Y69.168
Y69.193
Z-2.586
X42.616
X42.617 Z-2.576
Z-2.575
G0 Z5.
X40.416 Y69.043
Z0.978
G1 Z-2.575 F40.
Z-2.576
Z-2.586
X39.721
Z-2.928
X39.712
X39.71
X39.707 Z-2.927
X39.697 Y69.047
X39.692 Y69.058
Y69.078
X39.697 Y69.089
X39.707 Y69.093
X39.711
X39.714 Z-2.928
X39.716
X39.725
Z-2.586
X40.419
X40.42 Z-2.576
X40.421 Y69.118
X40.423 Y69.143
Z-2.586
X39.729
X39.728 Z-2.928
X39.719
X39.717
X39.715 Z-2.927
X39.704 Y69.147
X39.7 Y69.158
Y69.178
X39.704 Y69.189
X39.715 Y69.193
X39.718
X39.72 Z-2.928
X39.722
X39.732
Z-2.586
X40.426
X40.427 Z-2.576
X40.422 Z-2.571
X39.726 Y69.243
X39.721 Z-2.576
Z-2.923
X39.726 Z-2.928
X39.735
X39.736 Z-2.586
X47.347
X47.348 Z-3.428
X48.422
Z-3.418
Y69.268
Y69.293
Z-3.428
X47.345
X47.344 Z-2.586
X47.021
Z-2.576
X47.05 Y69.311
X47.06 Y69.343
Z-2.586
X47.34
X47.341 Z-3.428
X48.422
Z-3.418
Y69.368
Y69.393
Z-3.428
X47.338
X47.337 Z-2.586
X47.057
Z-2.576
X47.055 Y69.418
X47.053 Y69.443
Z-2.586
X47.334
Z-3.428
X48.422
Z-3.418
X48.421 Z-2.574
X48.42 Z-2.568
X48.417 Z-2.564
X48.412 Z-2.56
X48.406 Z-2.559
X47.064 Y69.492 Z-2.561
X47.059 Y69.493 Z-2.562
X47.054 Z-2.565
X47.051 Z-2.57
X47.049 Z-2.576
X47.05 Z-2.586
X47.331
Z-3.428
X54.629
Z-2.586
X54.907
Z-2.576
X54.909 Y69.518
X54.911 Y69.543
X54.91 Z-2.586
X54.633
Z-3.428
X47.327
X47.326 Z-2.586
X47.046
Z-2.576
X47.044 Y69.568
X47.042 Y69.593
Z-2.586
X47.323
X47.324 Z-3.428
X54.636
X54.637 Z-2.586
X54.914
Z-2.576
X54.918 Y69.643
Z-2.586
X54.64
Z-3.428
X53.546
Z-3.418
Y69.668
Y69.693
Z-3.428
X54.64
X54.643 Z-2.586
X54.921
Z-2.576
X54.925 Y69.743
Z-2.586
X54.647
Z-3.428
X53.547
Z-3.418
X53.546 Y69.768
X53.547 Y69.793
Z-3.428
X54.648
X54.65 Z-2.586
X54.927
X54.928 Z-2.576
X54.93 Y69.818
X54.932 Y69.843
X54.931 Z-2.586
X54.654
X54.652 Z-3.428
X53.546
Z-3.418
Y69.868
X53.547 Y69.893
Z-3.428
X54.657
Z-2.586
X54.935
Z-2.576
X54.937 Y69.918
X54.939 Y69.943
X54.938 Z-2.586
X54.661
Z-3.428
X53.546
Z-3.418
Y69.968
X53.547 Y69.993
Z-3.428
X54.661
X54.664 Z-2.586
X54.942
X54.943 Z-2.576
X54.944 Y70.018
X54.946 Y70.043
Z-2.586
X54.668
X54.667 Z-3.428
X53.546
Z-3.418
Y70.068
X53.547 Y70.093
Z-3.428
X54.671
Z-2.586
X54.949
X54.95 Z-2.576
X54.952 Y70.118
X54.953 Y70.143
Z-2.586
X54.675
Z-3.428
X53.546
Z-3.418
Y70.193
Z-3.428
X54.676
X54.679 Z-2.586
X54.957
Z-2.576
X54.961 Y70.243
Z-2.586
X54.682
Z-3.428
X53.546
Z-3.418
Y70.268
X53.547 Y70.293
Z-3.428
X54.683
X54.686 Z-2.586
X54.964
Z-2.576
X54.96 Z-2.565
X54.949 Z-2.561
X53.561 Y70.342
X53.551 Y70.343 Z-2.565
X53.546 Z-2.576
Z-3.418
Z-3.428
X54.687
X54.689 Z-2.586
X62.146
Z-2.928
X62.156
X62.158
X62.161 Z-2.927
X62.171 Y70.347
X62.176 Y70.358
Y70.378
X62.171 Y70.388
X62.161 Y70.393
X62.157
X62.155 Z-2.928
X62.152
X62.142
X62.141 Z-2.586
X54.693
Z-3.428
X53.547
Z-3.418
X53.546 Y70.418
X53.547 Y70.443
Z-3.428
X54.696
Z-2.586
X54.973
X54.975 Z-2.576
X54.976 Y70.468
X54.978 Y70.493
Z-2.586
X54.7
Z-3.428
X53.545
Z-3.418
G0 Z5.
X52.539 Y69.643
Z0.381
G1 Z-3.418 F40.
X52.538 Z-3.428
X49.426
Z-3.418
X49.427 Y69.668
Y69.693
Z-3.428
X52.536
X52.538 Z-3.418
Y69.718
Y69.743
X52.537 Z-3.428
X49.427
Z-3.418
Y69.793
Z-3.428
X52.537
X52.538 Z-3.418
Y69.843
Z-3.428
X49.427
Z-3.418
Y69.868
Y69.893
Z-3.428
X52.536
X52.538 Z-3.418
Y69.918
Y69.943
X52.536 Z-3.428
X49.427
Z-3.418
Y69.993
Z-3.428
X52.537
X52.538 Z-3.418
Y70.018
Y70.043
X52.536 Z-3.428
X49.427
Z-3.418
Y70.093
Z-3.428
X52.537
X52.538 Z-3.418
Y70.143
Z-3.428
X49.427
Z-3.418
Y70.168
Y70.193
Z-3.428
X52.538
Z-3.418
Y70.243
Z-3.428
X49.427
Z-3.418
Y70.268
Y70.293
Z-3.428
X52.537
X52.538 Z-3.418
Y70.343
Z-3.428
X49.427
Z-3.418
Y70.393
Z-3.428
X52.538
Z-3.418
Y70.418
Y70.443
X52.537 Z-3.428
X49.427
Z-3.418
Y70.468
X49.425 Y70.493
Z-3.428
X52.539
Z-3.418
G0 Z5.
X48.422 Y69.643
Z0.381
G1 Z-3.418 F40.
Z-3.428
X47.32
X47.319 Z-2.586
X47.038
Z-2.576
X47.035 Y69.693
Z-2.586
X47.316
X47.317 Z-3.428
X48.42
X48.421 Z-3.418
Y69.743
Z-3.428
X47.313
X47.312 Z-2.586
X47.031
Z-2.576
X47.027 Y69.793
Z-2.586
X47.309
X47.31 Z-3.428
X48.421
Z-3.418
Y69.818
Y69.843
Z-3.428
X47.306
X47.305 Z-2.586
X47.024
Z-2.576
X47.022 Y69.868
X47.02 Y69.893
Z-2.586
X47.302
X47.303 Z-3.428
X48.421
Z-3.418
Y69.943
X48.42 Z-3.428
X47.299
Z-2.586
X47.017
Z-2.576
X47.015 Y69.968
X47.013 Y69.993
Z-2.586
X47.295
Z-3.428
X48.421
Z-3.418
Y70.043
X48.42 Z-3.428
X47.292
X47.29 Z-2.586
X47.009
Z-2.576
X47.007 Y70.068
X47.006 Y70.093
Z-2.586
X47.287
X47.288 Z-3.428
X48.42
X48.421 Z-3.418
Y70.118
Y70.143
Z-3.428
X47.285
X47.283 Z-2.586
X47.002
Z-2.576
X47. Y70.168
X46.998 Y70.193
Z-2.586
X47.278
X47.281 Z-3.428
X48.42
X48.421 Z-3.418
Y70.243
Z-3.428
X47.278
X47.274 Z-2.586
X46.995
Z-2.576
X46.993 Y70.268
X46.991 Y70.293
Z-2.586
X47.274
Z-3.428
X48.421
Z-3.418
G0 Z5.
X46.105 Y69.293
Z0.478
G1 Z-2.576 F40.
X46.104 Z-2.586
X45.976
Z-2.576
X46.004 Y69.311
X46.015 Y69.343
Z-2.586
X46.065
X46.066 Z-2.576
Y69.368
Y69.393
X46.065 Z-2.586
X46.015
Z-2.576
Y69.443
Z-2.586
X46.064
X46.066 Z-2.576
Y69.468
Y69.493
X46.065 Z-2.586
X46.015
Z-2.576
Y69.518
Y69.543
Z-2.586
X46.066
Z-2.576
Y69.568
Y69.593
Z-2.586
X46.015
Z-2.576
Y69.618
Y69.643
Z-2.586
X46.066
Z-2.576
Y69.668
Y69.693
Z-2.586
X46.015
Z-2.576
Y69.718
Y69.743
Z-2.586
X46.066
Z-2.576
Y69.793
Z-2.586
X46.015
Z-2.576
Y69.818
Y69.843
Z-2.586
X46.065
X46.066 Z-2.576
Y69.893
X46.065 Z-2.586
X46.015
Z-2.576
Y69.943
Z-2.586
X46.061
X46.066 Z-2.576
Y69.968
Y69.993
Z-2.586
X46.015
Z-2.576
Y70.043
Z-2.586
X46.066
Z-2.576
Y70.093
X46.065 Z-2.586
X46.015
Z-2.576
Y70.118
Y70.143
Z-2.586
X46.065
X46.066 Z-2.576
Y70.168
Y70.193
Z-2.586
X46.015
Z-2.576
Y70.218
Y70.243
Z-2.586
X46.066
Z-2.576
Y70.268
Y70.293
Z-2.586
X46.015
Z-2.576
G0 Z5.
X43.805 Y69.293
Z0.478
G1 Z-2.575 F40.
Z-2.576
X43.804 Z-2.586
X43.674
Z-2.576
X43.703 Y69.311
X43.713 Y69.343
Z-2.586
X43.766
Z-2.576
Y69.368
Y69.393
Z-2.586
X43.713
Z-2.576
Y69.418
Y69.443
Z-2.586
X43.766
Z-2.576
Y69.468
Y69.493
Z-2.586
X43.713
Z-2.576
Y69.543
Z-2.586
X43.765
X43.766 Z-2.576
Y69.568
Y69.593
Z-2.586
X43.713
Z-2.576
Y69.618
Y69.643
Z-2.586
X43.766
Z-2.576
Y69.668
Y69.693
Z-2.586
X43.713
Z-2.576
Y69.743
Z-2.586
X43.766
Z-2.576
Y69.768
Y69.793
Z-2.586
X43.713
Z-2.576
Y69.818
Y69.843
Z-2.586
X43.766
Z-2.576
Y69.868
Y69.893
Z-2.586
X43.713
Z-2.576
Y69.918
Y69.943
Z-2.586
X43.766
Z-2.576
Y69.968
Y69.993
Z-2.586
X43.713
Z-2.576
Y70.018
Y70.043
Z-2.586
X43.766
Z-2.576
Y70.068
Y70.093
Z-2.586
X43.713
Z-2.576
Y70.143
Z-2.586
X43.765
X43.766 Z-2.576
Y70.168
Y70.193
Z-2.586
X43.713
Z-2.576
Y70.218
Y70.243
Z-2.586
X43.765
X43.766 Z-2.576
Y70.268
Y70.293
Z-2.586
X43.713
Z-2.576
G0 Z5.
X41.505 Y69.293
Z0.478
G1 Z-2.576 F40.
Z-2.586
X41.376
Z-2.576
X41.404 Y69.311
X41.415 Y69.343
Z-2.586
X41.465
X41.466 Z-2.576
Y69.368
Y69.393
Z-2.586
X41.415
Z-2.576
Y69.443
Z-2.586
X41.465
X41.466 Z-2.576
Y69.468
Y69.493
Z-2.586
X41.415
Z-2.576
Y69.518
Y69.543
Z-2.586
X41.465
X41.466 Z-2.576
Y69.593
X41.465 Z-2.586
X41.415
Z-2.576
Y69.618
Y69.643
Z-2.586
X41.465
X41.466 Z-2.576
Y69.668
Y69.693
Z-2.586
X41.415
Z-2.576
Y69.743
Z-2.586
X41.466
Z-2.576
Y69.768
Y69.793
X41.465 Z-2.586
X41.415
Z-2.576
Y69.818
Y69.843
Z-2.586
X41.465
X41.466 Z-2.576
Y69.868
Y69.893
X41.465 Z-2.586
X41.415
Z-2.576
Y69.918
Y69.943
Z-2.586
X41.465
X41.466 Z-2.576
Y69.968
Y69.993
X41.465 Z-2.586
X41.415
Z-2.576
Y70.018
Y70.043
Z-2.586
X41.465
X41.466 Z-2.576
Y70.068
Y70.093
Z-2.586
X41.415
Z-2.576
Y70.118
Y70.143
Z-2.586
X41.465
X41.466 Z-2.576
Y70.193
X41.465 Z-2.586
X41.415
Z-2.576
Y70.218
Y70.243
Z-2.586
X41.465
X41.466 Z-2.576
Y70.293
X41.462 Z-2.586
X41.415
Z-2.576
G0 Z5.
X40.477 Y69.293
Z0.478
G1 Z-2.576 F40.
Z-2.586
X39.739
X39.738 Z-2.928
X39.729
X39.727
X39.725 Z-2.927
X39.714 Y69.297
X39.71 Y69.308
Y69.328
X39.714 Y69.339
X39.725 Y69.343
X39.729
X39.731 Z-2.928
X39.734
X39.742
X39.743 Z-2.586
X40.438
Z-2.576
X40.44 Y69.368
X40.442 Y69.393
X40.441 Z-2.586
X39.746
Z-2.928
X39.737
X39.735
X39.733 Z-2.927
X39.722 Y69.397
X39.718 Y69.408
Y69.428
X39.722 Y69.439
X39.733 Y69.443
X39.736
X39.738 Z-2.928
X39.741
X39.75
Z-2.586
X40.445
Z-2.576
X40.447 Y69.468
X40.449 Y69.493
X40.447 Z-2.586
X39.753
Z-2.928
X39.744
X39.742
X39.74 Z-2.927
X39.729 Y69.497
X39.725 Y69.508
Y69.528
X39.729 Y69.538
X39.74 Y69.543
X39.743
X39.745 Z-2.928
X39.747
X39.756
X39.757 Z-2.586
X40.452
X40.453 Z-2.576
X40.454 Y69.568
X40.456 Y69.593
X40.455 Z-2.586
X39.76
Z-2.928
X39.75
X39.748
X39.746 Z-2.927
X39.735 Y69.597
X39.731 Y69.608
Y69.628
X39.735 Y69.638
X39.746 Y69.643
X39.75
X39.752 Z-2.928
X39.754
X39.763
X39.764 Z-2.586
X40.459
X40.46 Z-2.576
X40.462 Y69.668
X40.463 Y69.693
Z-2.586
X39.767
X39.766 Z-2.928
X39.758
X39.756
X39.753 Z-2.927
X39.743 Y69.697
X39.738 Y69.708
Y69.728
X39.743 Y69.739
X39.753 Y69.743
X39.757
X39.759 Z-2.928
X39.761
X39.771
Z-2.586
X40.466
X40.467 Z-2.576
X40.469 Y69.768
X40.471 Y69.793
X40.47 Z-2.586
X39.774
Z-2.928
X39.765
X39.763
X39.761 Z-2.927
X39.75 Y69.797
X39.746 Y69.808
Y69.828
X39.75 Y69.839
X39.761 Y69.843
X39.764
X39.766 Z-2.928
X39.769
X39.778
Z-2.586
X40.474
Z-2.576
X40.476 Y69.868
X40.478 Y69.893
X40.477 Z-2.586
X39.782
X39.781 Z-2.928
X39.772
X39.77
X39.767 Z-2.927
X39.757 Y69.897
X39.752 Y69.908
Y69.928
X39.757 Y69.939
X39.767 Y69.943
X39.771
X39.773 Z-2.928
X39.775
X39.785
Z-2.586
X40.481
Z-2.576
X40.483 Y69.968
X40.485 Y69.993
X40.477 Z-2.586
X39.789
X39.788 Z-2.928
X39.779
X39.777
X39.775 Z-2.927
X39.764 Y69.997
X39.76 Y70.008
Y70.028
X39.764 Y70.038
X39.775 Y70.043
X39.778
X39.781 Z-2.928
X39.783
X39.792
Z-2.586
X40.489
Z-2.576
X40.491 Y70.068
X40.493 Y70.093
X40.492 Z-2.586
X39.796
X39.795 Z-2.928
X39.786
X39.783
X39.781 Z-2.927
X39.771 Y70.097
X39.766 Y70.108
Y70.128
X39.771 Y70.138
X39.781 Y70.143
X39.785
X39.787 Z-2.928
X39.789
X39.799
Z-2.586
X40.496
Z-2.576
X40.5 Y70.193
X40.499 Z-2.586
X39.803
X39.802 Z-2.928
X39.793
X39.791
X39.789 Z-2.927
X39.778 Y70.197
X39.774 Y70.208
Y70.228
X39.778 Y70.238
X39.789 Y70.243
X39.792
X39.794 Z-2.928
X39.797
X39.806
Z-2.586
X40.503
X40.504 Z-2.576
X40.506 Y70.268
X40.507 Y70.293
Z-2.586
X39.81
Z-2.928
X39.8
X39.798
X39.796 Z-2.927
X39.785 Y70.297
X39.781 Y70.308
Y70.328
X39.785 Y70.338
X39.796 Y70.343
X39.8
X39.802 Z-2.928
X39.804
X39.813
Z-2.586
X47.27
X47.271 Z-3.428
X48.421
Z-3.418
Y70.393
X48.42 Z-3.428
X47.267
X47.265 Z-2.586
X39.817
Z-2.928
X39.807
X39.805
X39.803 Z-2.927
X39.792 Y70.397
X39.788 Y70.408
Y70.428
X39.792 Y70.438
X39.803 Y70.443
X39.806
X39.808 Z-2.928
X39.811
X39.82
Z-2.586
X40.517
X40.518 Z-2.576
X40.519 Y70.468
X40.521 Y70.493
X40.52 Z-2.586
X39.824
Z-2.928
X39.814
X39.812
X39.81 Z-2.927
X39.799 Y70.497
X39.795 Y70.508
Y70.528
X39.799 Y70.538
X39.81 Y70.543
X39.813
X39.815 Z-2.928
X39.818
X39.825
X39.827 Z-2.586
X40.524
X40.525 Z-2.576
X40.526 Y70.568
X40.528 Y70.593
Z-2.586
X39.831
X39.83 Z-2.928
X39.822
X39.819
X39.817 Z-2.927
X39.807 Y70.597
X39.802 Y70.608
Y70.628
X39.807 Y70.638
X39.817 Y70.643
X39.821
X39.823 Z-2.928
X39.825
X39.834
Z-2.586
X40.532
Z-2.576
X40.536 Y70.693
X40.535 Z-2.586
X39.838
X39.837 Z-2.928
X39.829
X39.827
X39.824 Z-2.927
X39.814 Y70.697
X39.809 Y70.708
Y70.728
X39.814 Y70.738
X39.824 Y70.743
X39.828
X39.83 Z-2.928
X39.833
X39.841
X39.842 Z-2.586
X40.539
Z-2.576
X40.541 Y70.768
X40.543 Y70.793
Z-2.586
X39.845
X39.844 Z-2.928
X39.835
X39.833
X39.831 Z-2.927
X39.82 Y70.797
X39.816 Y70.808
Y70.828
X39.82 Y70.838
X39.831 Y70.843
X39.834
X39.837 Z-2.928
X39.839
X39.848
X39.849 Z-2.586
X40.542
X40.547 Z-2.576
X40.549 Y70.868
X40.55 Y70.893
Z-2.586
X39.852
X39.851 Z-2.928
X39.843
X39.841
X39.839 Z-2.927
X39.828 Y70.897
X39.824 Y70.908
Y70.928
X39.828 Y70.938
X39.839 Y70.943
X39.842
X39.844 Z-2.928
X39.846
X39.855
X39.856 Z-2.586
X40.554
Z-2.576
X40.556 Y70.968
X40.558 Y70.993
Z-2.586
X39.859
Z-2.928
X39.849
X39.847
X39.845 Z-2.927
X39.834 Y70.997
X39.83 Y71.008
Y71.028
X39.834 Y71.038
X39.845 Y71.043
X39.849
X39.851 Z-2.928
X39.853
X39.863
Z-2.586
X40.562
Z-2.576
X40.566 Y71.093
X40.565 Z-2.586
X39.866
Z-2.928
X39.857
X39.855
X39.852 Z-2.927
X39.842 Y71.097
X39.837 Y71.108
Y71.128
X39.842 Y71.138
X39.852 Y71.143
X39.856
X39.858 Z-2.928
X39.86
X39.87
Z-2.586
X40.569
X40.57 Z-2.576
X40.571 Y71.168
X40.573 Y71.193
X40.571 Z-2.586
X39.873
Z-2.928
X39.864
X39.862
X39.859 Z-2.927
X39.849 Y71.197
X39.844 Y71.208
Y71.228
X39.849 Y71.238
X39.859 Y71.243
X39.863
X39.865 Z-2.928
X39.867
X39.877
Z-2.586
X40.577
Z-2.576
X40.579 Y71.268 Z-2.581
X40.581 Y71.293 Z-2.586
X39.88
X39.876 Z-2.928
X39.871
X39.868
X39.866 Z-2.927
X39.856 Y71.297
X39.851 Y71.308
Y71.328
X39.856 Y71.338
X39.866 Y71.343
X39.871
X39.873 Z-2.928
X39.875
X39.883
X39.884 Z-2.586
X40.584
X40.587 Y71.368 Z-2.581
X40.589 Y71.393 Z-2.576
Z-2.586
X39.887
Z-2.928
X39.878
X39.875
X39.873 Z-2.927
X39.863 Y71.397
X39.858 Y71.408
Y71.428
X39.863 Y71.438
X39.873 Y71.443
X39.877
X39.879 Z-2.928
X39.881
X39.891
Z-2.586
X40.614
Z-2.576
G0 Z5.
X42.562 Y70.443
Z-0.112
G1 Z-2.576 F40.
Z-2.586
X42.615
Z-2.576
Y70.468
Y70.493
Z-2.586
X42.563
Z-2.576
Y70.543
Z-2.586
X42.615
Z-2.576
Y70.568
Y70.593
Z-2.586
X42.563
Z-2.576
Y70.643
Z-2.586
X42.615
Z-2.576
Y70.668
Y70.693
Z-2.586
X42.563
Z-2.576
Y70.743
Z-2.586
X42.615
Z-2.576
Y70.768
Y70.793
Z-2.586
X42.563
Z-2.576
Y70.818
Y70.843
Z-2.586
X42.615
Z-2.576
Y70.868
Y70.893
Z-2.586
X42.563
Z-2.576
Y70.943
Z-2.586
X42.615
Z-2.576
Y70.968
Y70.993
Z-2.586
X42.563
Z-2.576
Y71.018
Y71.043
Z-2.586
X42.615
Z-2.576
Y71.068
Y71.093
Z-2.586
X42.563
Z-2.576
Y71.143
Z-2.586
X42.615
Z-2.576
Y71.168
Y71.193
Z-2.586
X42.563
Z-2.576
Y71.243
Z-2.586
X42.615
Z-2.576
Y71.268
Y71.293
Z-2.586
X42.563
Z-2.576
Y71.343
Z-2.586
X42.615
Z-2.576
Y71.368
Y71.393
Z-2.586
X42.563
Z-2.576
X42.558 Y71.422
X42.538 Y71.443
Z-2.586
X42.639
X42.64 Z-2.576
Z-2.575
G0 Z5.
X44.862 Y70.443
Z-0.112
G1 Z-2.576 F40.
Z-2.586
X44.915
X44.916 Z-2.576
X44.915 Y70.468
Y70.493
Z-2.586
X44.863
Z-2.576
Y70.518
Y70.543
Z-2.586
X44.915
Z-2.576
Y70.568
Y70.593
X44.914 Z-2.586
X44.863
Z-2.576
Y70.618
Y70.643
Z-2.586
X44.915
Z-2.576
Y70.693
Z-2.586
X44.863
Z-2.576
Y70.718
Y70.743
Z-2.586
X44.915
Z-2.576
Y70.768
Y70.793
Z-2.586
X44.863
Z-2.576
Y70.818
Y70.843
Z-2.586
X44.915
Z-2.576
Y70.868
Y70.893
Z-2.586
X44.863
Z-2.576
Y70.943
Z-2.586
X44.915
Z-2.576
Y70.993
Z-2.586
X44.863
Z-2.576
Y71.018
Y71.043
Z-2.586
X44.915
Z-2.576
Y71.068
Y71.093
Z-2.586
X44.863
Z-2.576
Y71.143
Z-2.586
X44.915
Z-2.576
Y71.193
Z-2.586
X44.863
Z-2.576
Y71.243
Z-2.586
X44.915
Z-2.576
Y71.293
Z-2.586
X44.863
Z-2.576
Y71.343
Z-2.586
X44.915
Z-2.576
Y71.368
Y71.393
Z-2.586
X44.863
Z-2.576
X44.858 Y71.422
X44.838 Y71.443
Z-2.586
X44.94
Z-2.576
G0 Z5.
X46.979 Y70.443
Z-0.112
G1 Z-2.576 F40.
Z-2.586
X47.261
X47.264 Z-3.428
X48.421
Z-3.418
Y70.468
X48.422 Y70.493
Z-3.428
X47.26
X47.258 Z-2.586
X46.977
Z-2.576
X46.973 Y70.543
Z-2.586
X47.256
X47.257 Z-3.428
X54.703
Z-2.586
X54.982
Z-2.576
X54.984 Y70.568
X54.986 Y70.593
X54.985 Z-2.586
X54.707
Z-3.428
X47.253
X47.252 Z-2.586
X46.97
Z-2.576
X46.968 Y70.618
X46.966 Y70.643
Z-2.586
X47.249
X47.25 Z-3.428
X48.457
Z-3.418
X48.431 Y70.662
X48.421 Y70.693
Z-3.428
X47.246
X47.244 Z-2.586
X46.963
Z-2.576
X46.961 Y70.718
X46.959 Y70.743
Z-2.586
X47.241
X47.242 Z-3.428
X48.421
Z-3.418
Y70.768
Y70.793
X48.42 Z-3.428
X47.239
X47.237 Z-2.586
X46.956
Z-2.576
X46.954 Y70.818
X46.952 Y70.843
Z-2.586
X47.231
X47.235 Z-3.428
X48.42
X48.421 Z-3.418
Y70.868
Y70.893
Z-3.428
X47.232
X47.231 Z-2.586
X46.949
Z-2.576
X46.947 Y70.918
X46.945 Y70.943
Z-2.586
X47.228
Z-3.428
X48.42
X48.421 Z-3.418
Y70.993
X48.42 Z-3.428
X47.225
X47.223 Z-2.586
X46.942
Z-2.576
X46.94 Y71.018
X46.938 Y71.043
Z-2.586
X47.218
X47.221 Z-3.428
X48.421
Z-3.418
Y71.068
Y71.093
Z-3.428
X47.218
X47.214 Z-2.586
X46.935
Z-2.576
X46.933 Y71.118
X46.931 Y71.143
Z-2.586
X47.214
Z-3.428
X48.421
Z-3.418
Y71.168
Y71.193
Z-3.428
X47.211
X47.21 Z-2.586
X46.927
Z-2.576
X46.926 Y71.218
X46.924 Y71.243
Z-2.586
X47.206
X47.207 Z-3.428
X48.421
Z-3.418
Y71.268
Y71.293
Z-3.428
X47.203
X47.201 Z-2.586
X46.921
Z-2.576
X46.919 Y71.318
X46.917 Y71.343
Z-2.586
X47.197
X47.2 Z-3.428
X48.421
Z-3.418
Y71.368
Y71.393
Z-3.428
X47.196
X47.193 Z-2.586
X46.913
Z-2.576
X46.908 Y71.422
X46.888 Y71.443
Z-2.586
X47.193
Z-3.428
X48.421
Z-3.418
Y71.468
Y71.493
X48.42 Z-3.428
X47.189
X47.188 Z-2.586
X39.894
Z-2.928
X39.884
X39.882
X39.88 Z-2.927
X39.869 Y71.497
X39.865 Y71.508
Y71.528
X39.869 Y71.538
X39.88 Y71.543
X39.885
X39.887 Z-2.928
X39.889
X39.898
Z-2.586
X40.592
X40.6 Z-2.576
Y71.568
X40.602 Y71.593
Z-2.586
X39.902
X39.901 Z-2.928
X39.892
X39.89
X39.887 Z-2.927
X39.877 Y71.597
X39.872 Y71.608
Y71.628
X39.877 Y71.638
X39.887 Y71.643
X39.891
X39.893 Z-2.928
X39.895
X39.904
X39.905 Z-2.586
X40.605
X40.606 Z-2.576
X40.609 Y71.693
Z-2.586
X39.909
X39.908 Z-2.928
X39.899
X39.896
X39.894 Z-2.927
X39.884 Y71.697
X39.879 Y71.708
Y71.728
X39.884 Y71.738
X39.894 Y71.743
X39.898
X39.901 Z-2.928
X39.903
X39.912
Z-2.586
X40.613
Z-2.576
X40.617 Y71.793
X40.616 Z-2.586
X39.916
X39.915 Z-2.928
X39.906
X39.904
X39.902 Z-2.927
X39.891 Y71.797
X39.887 Y71.808
Y71.828
X39.891 Y71.838
X39.902 Y71.843
X39.905
X39.907 Z-2.928
X39.909
X39.919
Z-2.586
X40.618
X40.62 Z-2.576
X40.622 Y71.868
X40.624 Y71.893
Z-2.586
X39.923
Z-2.928
X39.913
X39.911
X39.909 Z-2.927
X39.898 Y71.897
X39.894 Y71.908
Y71.928
X39.898 Y71.938
X39.909 Y71.943
X39.912
X39.915 Z-2.928
X39.917
X39.925
X39.926 Z-2.586
X40.628
Z-2.576
X40.63 Y71.968
X40.632 Y71.993
Z-2.586
X39.93
X39.929 Z-2.928
X39.92
X39.918
X39.915 Z-2.927
X39.905 Y71.997
X39.9 Y72.008
Y72.028
X39.905 Y72.038
X39.915 Y72.043
X39.919
X39.921 Z-2.928
X39.924
X39.932
X39.933 Z-2.586
X40.635
X40.636 Z-2.576
X40.638 Y72.068
X40.64 Y72.093
Z-2.586
X39.937
Z-2.928
X39.928
X39.925
X39.923 Z-2.927
X39.913 Y72.097
X39.908 Y72.108
Y72.128
X39.913 Y72.138
X39.923 Y72.143
X39.926
X39.928 Z-2.928
X39.931
X39.938
X39.94 Z-2.586
X40.643
X40.644 Z-2.576
X40.646 Y72.168
X40.648 Y72.193
Z-2.586
X39.944
Z-2.928
X39.935
X39.933
X39.931 Z-2.927
X39.92 Y72.197
X39.916 Y72.208
Y72.228
X39.92 Y72.238
X39.931 Y72.243
X39.933
X39.935 Z-2.928
X39.937
X39.947
Z-2.586
X40.651
X40.652 Z-2.576
X40.656 Y72.293
Z-2.586
X39.951
Z-2.928
X39.941
X39.939
X39.937 Z-2.927
X39.926 Y72.297
X39.922 Y72.308
Y72.328
X39.926 Y72.338
X39.937 Y72.343
X39.94
X39.942 Z-2.928
X39.944
X39.954
Z-2.586
X40.659
X40.66 Z-2.576
X40.664 Y72.393
Z-2.586
X39.958
X39.957 Z-2.928
X39.949
X39.946
X39.944 Z-2.927
X39.934 Y72.397
X39.929 Y72.408
Y72.428
X39.934 Y72.438
X39.944 Y72.443
X39.947
X39.949 Z-2.928
X39.952
X39.961
X39.962 Z-2.586
X40.668
Z-2.576
X40.672 Y72.493
Z-2.586
X39.965
Z-2.928
X39.956
X39.953
X39.951 Z-2.927
X39.941 Y72.497
X39.936 Y72.508
Y72.528
X39.941 Y72.538
X39.951 Y72.543
X39.955
X39.957 Z-2.928
X39.959
X39.968
X39.969 Z-2.586
X40.69
Z-2.576
Z-2.575
G0 Z5.
X41.41 Y71.543
Z-0.428
G1 Z-2.576 F40.
Z-2.586
X41.463
X41.464 Z-2.576
X41.463 Y71.568
Y71.593
X41.462 Z-2.586
X41.412
Z-2.576
X41.411 Y71.618
X41.412 Y71.643
Z-2.586
X41.462
X41.463 Z-2.576
Y71.693
X41.462 Z-2.586
X41.412
Z-2.576
X41.411 Y71.718
Y71.743
Z-2.586
X41.462
Z-2.576
X41.463 Y71.768
Y71.793
X41.462 Z-2.586
X41.412
Z-2.576
X41.411 Y71.818
Y71.843
Z-2.586
X41.462
Z-2.576
X41.463 Y71.868
Y71.893
X41.462 Z-2.586
X41.411
Z-2.576
Y71.943
Z-2.586
X41.462
X41.463 Z-2.576
Y71.993
X41.462 Z-2.586
X41.411
Z-2.576
Y72.018
X41.412 Y72.043
Z-2.586
X41.462
X41.463 Z-2.576
Y72.093
X41.462 Z-2.586
X41.412
Z-2.576
X41.411 Y72.118
X41.412 Y72.143
Z-2.586
X41.462
X41.463 Z-2.576
Y72.193
X41.462 Z-2.586
X41.412
Z-2.576
X41.411 Y72.218
X41.412 Y72.243
Z-2.586
X41.462
X41.463 Z-2.576
Y72.293
X41.462 Z-2.586
X41.411
Z-2.576
Y72.318
X41.412 Y72.343
Z-2.586
X41.462
Z-2.576
X41.463 Y72.368
Y72.393
X41.462 Z-2.586
X41.412
Z-2.576
X41.411 Y72.418
Y72.443
Z-2.586
X41.462
X41.463 Z-2.576
Y72.468
X41.462 Y72.493
Z-2.586
X41.411
Z-2.576
X41.409 Y72.52
X41.394 Y72.543
Z-2.586
X41.479
Z-2.576
Z-2.575
G0 Z5.
X43.71 Y71.543
Z-0.428
G1 Z-2.576 F40.
Z-2.586
X43.763
X43.764 Z-2.576
X43.763 Y71.568
Y71.593
X43.762 Z-2.586
X43.711
Z-2.576
Y71.643
Z-2.586
X43.762
X43.763 Z-2.576
Y71.693
X43.762 Z-2.586
X43.711
Z-2.576
Y71.718
Y71.743
Z-2.586
X43.762
X43.763 Z-2.576
Y71.793
Z-2.586
X43.711
Z-2.576
Y71.818
Y71.843
Z-2.586
X43.762
X43.763 Z-2.576
Y71.893
X43.762 Z-2.586
X43.711
Z-2.576
Y71.918
Y71.943
Z-2.586
X43.762
X43.763 Z-2.576
Y71.993
X43.762 Z-2.586
X43.711
Z-2.576
Y72.043
Z-2.586
X43.762
X43.763 Z-2.576
Y72.093
X43.762 Z-2.586
X43.711
Z-2.576
Y72.118
Y72.143
Z-2.586
X43.762
X43.763 Z-2.576
Y72.193
X43.762 Z-2.586
X43.711
Z-2.576
Y72.218
Y72.243
Z-2.586
X43.762
X43.763 Z-2.576
Y72.293
X43.762 Z-2.586
X43.711
Z-2.576
Y72.318
Y72.343
X43.712 Z-2.586
X43.762
Z-2.576
X43.763 Y72.368
X43.762 Y72.393
Z-2.586
X43.711
Z-2.576
Y72.418
Y72.443
Z-2.586
X43.762
X43.763 Z-2.576
Y72.493
X43.762 Z-2.586
X43.711
Z-2.576
X43.709 Y72.52
X43.694 Y72.543
Z-2.586
X43.779
X43.78 Z-2.576
Z-2.575
G0 Z5.
X46.01 Y71.543
Z-0.428
G1 Z-2.576 F40.
Z-2.586
X46.065
Z-2.576
X46.064 Y71.568
Y71.593
X46.063 Z-2.586
X46.011
Z-2.576
Y71.618
Y71.643
Z-2.586
X46.064
Z-2.576
Y71.668
Y71.693
Z-2.586
X46.011
Z-2.576
Y71.743
Z-2.586
X46.063
X46.064 Z-2.576
Y71.768
Y71.793
X46.063 Z-2.586
X46.012
Z-2.576
X46.011 Y71.818
X46.012 Y71.843
Z-2.586
X46.063
X46.064 Z-2.576
Y71.868
Y71.893
X46.063 Z-2.586
X46.011
Z-2.576
Y71.943
Z-2.586
X46.064
Z-2.576
Y71.968
Y71.993
X46.063 Z-2.586
X46.011
Z-2.576
Y72.043
Z-2.586
X46.063
X46.064 Z-2.576
Y72.068
Y72.093
Z-2.586
X46.011
Z-2.576
Y72.118
Y72.143
Z-2.586
X46.064
Z-2.576
Y72.168
Y72.193
Z-2.586
X46.011
Z-2.576
Y72.218
Y72.243
Z-2.586
X46.063
X46.064 Z-2.576
Y72.268
Y72.293
X46.063 Z-2.586
X46.011
Z-2.576
Y72.343
Z-2.586
X46.064
Z-2.576
Y72.368
Y72.393
X46.063 Z-2.586
X46.011
Z-2.576
Y72.443
Z-2.586
X46.063
X46.064 Z-2.576
Y72.468
Y72.493
Z-2.586
X46.011
Z-2.576
X46.009 Y72.52
X45.994 Y72.543
Z-2.586
X46.079
X46.081 Z-2.576
G0 Z5.
X46.898 Y71.543
Z-0.428
G1 Z-2.576 F40.
Z-2.586
X47.183
X47.186 Z-3.428
X48.425
X48.426 Z-3.418
G0 Z5.
X49.391 Y70.643
Z-0.348
G1 Z-3.418 F40.
Z-3.428
X52.574
Z-3.418
X52.547 Y70.662
X52.538 Y70.693
X52.536 Z-3.428
X49.427
Z-3.418
Y70.718
Y70.743
Z-3.428
X52.536
X52.538 Z-3.418
Y70.768
Y70.793
X52.536 Z-3.428
X49.427
Z-3.418
Y70.818
Y70.843
Z-3.428
X52.536
X52.538 Z-3.418
Y70.868
Y70.893
Z-3.428
X49.427
Z-3.418
Y70.918
Y70.943
Z-3.428
X52.537
X52.538 Z-3.418
Y70.968
Y70.993
X52.536 Z-3.428
X49.427
Z-3.418
Y71.018
Y71.043
Z-3.428
X52.536
X52.538 Z-3.418
Y71.068
Y71.093
Z-3.428
X49.427
Z-3.418
Y71.118
Y71.143
Z-3.428
X52.536
X52.538 Z-3.418
Y71.168
Y71.193
X52.536 Z-3.428
X49.427
Z-3.418
Y71.218
Y71.243
Z-3.428
X52.536
X52.538 Z-3.418
Y71.268
Y71.293
X52.536 Z-3.428
X49.427
Z-3.418
Y71.343
Z-3.428
X52.538
Z-3.418
Y71.368
Y71.393
X52.536 Z-3.428
X49.427
Z-3.418
Y71.418
Y71.443
Z-3.428
X52.536
X52.538 Z-3.418
Y71.468
Y71.493
X52.536 Z-3.428
X49.427
Z-3.418
Y71.518
X49.422 Y71.543
Z-3.428
X52.543
Z-3.418
G0 Z5.
X53.51 Y70.643
Z-0.348
G1 Z-3.418 F40.
Z-3.428
X54.71
Z-2.586
X54.989
Z-2.576
X54.991 Y70.668
X54.993 Y70.693
Z-2.586
X54.714
Z-3.428
X53.546
Z-3.418
Y70.743
Z-3.428
X54.717
Z-2.586
X54.997
Z-2.576
X55.001 Y70.793
Z-2.586
X54.721
Z-3.428
X53.546
Z-3.418
Y70.818
Y70.843
Z-3.428
X54.724
Z-2.586
X55.005
Z-2.576
X55.007 Y70.868
X55.009 Y70.893
Z-2.586
X54.728
Z-3.428
X53.547
Z-3.418
X53.546 Y70.918
Y70.943
Z-3.428
X54.731
X54.732 Z-2.586
X55.012
Z-2.576
X55.014 Y70.968
X55.016 Y70.993
Z-2.586
X54.735
Z-3.428
X53.546
Z-3.418
Y71.043
Z-3.428
X54.738
X54.739 Z-2.586
X55.018
X55.02 Z-2.576
X55.022 Y71.068
X55.024 Y71.093
Z-2.586
X54.742
Z-3.428
X53.547
Z-3.418
X53.546 Y71.118
Y71.143
Z-3.428
X54.746
Z-2.586
X55.027
X55.028 Z-2.576
X55.03 Y71.168
X55.032 Y71.193
X55.029 Z-2.586
X54.749
Z-3.428
X53.546
Z-3.418
Y71.243
Z-3.428
X54.753
Z-2.586
X55.035
Z-2.576
X55.037 Y71.268
X55.039 Y71.293
Z-2.586
X54.756
Z-3.428
X53.546
Z-3.418
Y71.318
X53.547 Y71.343
Z-3.428
X54.758
X54.76 Z-2.586
X55.043
Z-2.576
X55.045 Y71.368
X55.047 Y71.393
X55.046 Z-2.586
X54.763
Z-3.428
X53.546
Z-3.418
Y71.443
Z-3.428
X54.763
X54.767 Z-2.586
X55.072
X55.073 Z-2.576
Z-2.575
G0 Z5.
X57.022 Y70.443
Z-0.112
G1 Z-2.576 F40.
Z-2.586
X57.072
X57.073 Z-2.576
X57.072 Y70.468
Y70.493
Z-2.586
X57.023
Z-2.576
X57.022 Y70.518
X57.023 Y70.543
Z-2.586
X57.072
Z-2.576
Y70.568
Y70.593
Z-2.586
X57.022
Z-2.576
Y70.643
Z-2.586
X57.072
Z-2.576
Y70.668
Y70.693
Z-2.586
X57.022
Z-2.576
Y70.743
Z-2.586
X57.072
Z-2.576
Y70.768
Y70.793
Z-2.586
X57.023
Z-2.576
X57.022 Y70.818
Y70.843
Z-2.586
X57.072
Z-2.576
Y70.868
Y70.893
Z-2.586
X57.023
Z-2.576
X57.022 Y70.918
Y70.943
Z-2.586
X57.072
Z-2.576
Y70.993
Z-2.586
X57.022
Z-2.576
Y71.018
Y71.043
Z-2.586
X57.072
Z-2.576
Y71.068
Y71.093
Z-2.586
X57.023
Z-2.576
X57.022 Y71.118
Y71.143
Z-2.586
X57.072
Z-2.576
Y71.168
Y71.193
Z-2.586
X57.023
Z-2.576
X57.022 Y71.218
Y71.243
Z-2.586
X57.072
Z-2.576
Y71.268
Y71.293
Z-2.586
X57.023
Z-2.576
X57.022 Y71.318
Y71.343
Z-2.586
X57.072
Z-2.576
Y71.368
Y71.393
Z-2.586
X57.023
Z-2.576
X57.017 Y71.422
X56.997 Y71.443
Z-2.586
X57.097
Z-2.576
G0 Z5.
X59.321 Y70.443
Z-0.112
G1 Z-2.576 F40.
Z-2.586
X59.373
Z-2.576
X59.372 Y70.468
Y70.493
Z-2.586
X59.321
Z-2.576
Y70.518
Y70.543
Z-2.586
X59.372
Z-2.576
Y70.568
Y70.593
Z-2.586
X59.321
Z-2.576
Y70.618
Y70.643
Z-2.586
X59.372
Z-2.576
Y70.693
Z-2.586
X59.321
Z-2.576
Y70.718
Y70.743
Z-2.586
X59.37
X59.372 Z-2.576
Y70.768
Y70.793
Z-2.586
X59.321
Z-2.576
Y70.843
Z-2.586
X59.371
X59.372 Z-2.576
Y70.868
Y70.893
Z-2.586
X59.321
Z-2.576
Y70.918
Y70.943
Z-2.586
X59.372
Z-2.576
Y70.968
Y70.993
Z-2.586
X59.321
Z-2.576
Y71.018
Y71.043
Z-2.586
X59.372
Z-2.576
Y71.068
Y71.093
X59.371 Z-2.586
X59.321
Z-2.576
Y71.118
Y71.143
Z-2.586
X59.372
Z-2.576
Y71.168
Y71.193
Z-2.586
X59.321
Z-2.576
Y71.218
Y71.243
Z-2.586
X59.372
Z-2.576
Y71.268
Y71.293
Z-2.586
X59.321
Z-2.576
Y71.343
Z-2.586
X59.372
Z-2.576
Y71.368
Y71.393
Z-2.586
X59.321
Z-2.576
X59.316 Y71.422
X59.296 Y71.443
Z-2.586
X59.397
Z-2.576
G0 Z5.
X61.436 Y70.443
Z-0.112
G1 Z-2.576 F40.
Z-2.586
X62.139
Z-2.928
X62.148
X62.15
X62.153 Z-2.927
X62.163 Y70.447
X62.168 Y70.458
Y70.478
X62.163 Y70.488
X62.153 Y70.493
X62.149
X62.147 Z-2.928
X62.145
X62.135
Z-2.586
X61.434
Z-2.576
X61.432 Y70.518
X61.43 Y70.543
Z-2.586
X62.13
X62.131 Z-2.928
X62.141
X62.143
X62.145 Z-2.927
X62.156 Y70.547
X62.16 Y70.558
Y70.578
X62.156 Y70.588
X62.145 Y70.593
X62.142
X62.139 Z-2.928
X62.137
X62.128
X62.127 Z-2.586
X61.427
Z-2.576
X61.425 Y70.618
X61.424 Y70.643
Z-2.586
X62.123
X62.124 Z-2.928
X62.133
X62.135
X62.137 Z-2.927
X62.148 Y70.647
X62.152 Y70.658
Y70.678
X62.148 Y70.688
X62.137 Y70.693
X62.134
X62.132 Z-2.928
X62.13
X62.12
Z-2.586
X61.42
Z-2.576
X61.418 Y70.718
X61.417 Y70.743
Z-2.586
X62.115
X62.116 Z-2.928
X62.126
X62.128
X62.13 Z-2.927
X62.141 Y70.747
X62.145 Y70.758
Y70.778
X62.141 Y70.788
X62.13 Y70.793
X62.127
X62.125 Z-2.928
X62.122
X62.113
X62.112 Z-2.586
X61.413
Z-2.576
X61.411 Y70.818
X61.41 Y70.843
Z-2.586
X62.109
Z-2.928
X62.118
X62.12
X62.123 Z-2.927
X62.133 Y70.847
X62.138 Y70.858
Y70.878
X62.133 Y70.888
X62.123 Y70.893
X62.119
X62.117 Z-2.928
X62.115
X62.105
X62.103 Z-2.586
X61.406
Z-2.576
X61.404 Y70.918
X61.403 Y70.943
Z-2.586
X62.101
X62.102 Z-2.928
X62.111
X62.113
X62.115 Z-2.927
X62.126 Y70.947
X62.13 Y70.958
Y70.978
X62.126 Y70.988
X62.115 Y70.993
X62.112
X62.11 Z-2.928
X62.108
X62.098
X62.097 Z-2.586
X61.399
Z-2.576
X61.398 Y71.018
X61.396 Y71.043
Z-2.586
X62.093
X62.094 Z-2.928
X62.103
X62.105
X62.108 Z-2.927
X62.118 Y71.047
X62.123 Y71.058
Y71.078
X62.118 Y71.088
X62.108 Y71.093
X62.104
X62.102 Z-2.928
X62.099
X62.09
Z-2.586
X61.393
Z-2.576
X61.391 Y71.118
X61.389 Y71.143
Z-2.586
X62.086
X62.087 Z-2.928
X62.096
X62.098
X62.1 Z-2.927
X62.111 Y71.147
X62.115 Y71.158
Y71.178
X62.111 Y71.188
X62.1 Y71.193
X62.097
X62.095 Z-2.928
X62.093
X62.083
Z-2.586
X61.386
Z-2.576
X61.384 Y71.218
X61.382 Y71.243
Z-2.586
X62.079
Z-2.928
X62.089
X62.091
X62.093 Z-2.927
X62.104 Y71.247
X62.108 Y71.258
Y71.278
X62.104 Y71.288
X62.093 Y71.293
X62.089
X62.087 Z-2.928
X62.085
X62.076
X62.075 Z-2.586
X61.379
Z-2.576
X61.377 Y71.318
X61.375 Y71.343
Z-2.586
X62.07
X62.072 Z-2.928
X62.082
X62.084
X62.086 Z-2.927
X62.097 Y71.347
X62.101 Y71.358
Y71.378
X62.097 Y71.388
X62.086 Y71.393
X62.082
X62.079 Z-2.928
X62.077
X62.068
Z-2.586
X61.372
Z-2.576
X61.366 Y71.422
X61.346 Y71.443
Z-2.586
X62.064
X62.065 Z-2.928
X62.074
X62.076
X62.079 Z-2.927
X62.089 Y71.447
X62.094 Y71.458
Y71.478
X62.089 Y71.488
X62.079 Y71.493
X62.075
X62.073 Z-2.928
X62.07
X62.061
X62.06 Z-2.586
X54.771
X54.768 Z-3.428
X53.546
Z-3.418
Y71.518
X53.541 Y71.543
Z-3.428
X54.774
Z-2.586
X55.05
X55.058 Z-2.576
Y71.568
X55.06 Y71.593
Z-2.586
X54.778
X54.777 Z-3.428
X47.182
X47.181 Z-2.586
X46.897
Z-2.576
X46.895 Y71.618
X46.893 Y71.643
Z-2.586
X47.177
X47.179 Z-3.428
X54.781
Z-2.586
X55.063
X55.064 Z-2.576
X55.066 Y71.668
X55.067 Y71.693
Z-2.586
X54.785
X54.782 Z-3.428
X53.526
Z-3.418
X53.541 Y71.716
X53.544 Y71.743
Z-3.428
X54.788
Z-2.586
X55.071
Z-2.576
X55.073 Y71.768
X55.075 Y71.793
X55.073 Z-2.586
X54.792
X54.791 Z-3.428
X53.544
Z-3.418
Y71.818
Y71.843
Z-3.428
X54.795
Z-2.586
X55.078
Z-2.576
X55.08 Y71.868
X55.082 Y71.893
Z-2.586
X54.799
Z-3.428
X53.541
Z-3.418
X53.538 Y71.943
Z-3.428
X54.802
Z-2.586
X55.086
Z-2.576
X55.088 Y71.968
X55.09 Y71.993
Z-2.586
X54.806
Z-3.428
X53.536
Z-3.418
X53.535 Y72.018
X53.534 Y72.043
Z-3.428
X54.809
Z-2.586
X55.094
Z-2.576
X55.096 Y72.068
X55.098 Y72.093
X55.097 Z-2.586
X54.813
Z-3.428
X53.529
X53.524 Y72.118 Z-3.423
X53.521 Y72.143 Z-3.418
Z-3.428
X54.816
Z-2.586
X55.102
Z-2.576
X55.104 Y72.168
X55.106 Y72.193
Z-2.586
X54.82
Z-3.428
X53.513
Z-3.418
X53.51 Y72.218
X53.506 Y72.243
Z-3.428
X54.823
X54.824 Z-2.586
X55.11
Z-2.576
X55.114 Y72.293
Z-2.586
X54.827
Z-3.428
X53.499
Z-3.418
X53.493 Y72.318
X53.487 Y72.343
Z-3.428
X54.83
X54.831 Z-2.586
X55.118
Z-2.576
X55.12 Y72.368
X55.122 Y72.393
Z-2.586
X54.834
Z-3.428
X53.475
Z-3.418
X53.462 Y72.443
Z-3.428
X54.838
Z-2.586
X55.126
Z-2.576
X55.128 Y72.468 Z-2.581
X55.13 Y72.493 Z-2.586
X54.841
Z-3.428
X53.45
Z-3.418
X53.444 Y72.518
X53.437 Y72.543
Z-3.428
X54.845
Z-2.586
X55.148
X55.149 Z-2.576
G0 Z5.
X55.869 Y71.543
Z-0.428
G1 Z-2.576 F40.
Z-2.586
X55.92
X55.921 Z-2.576
X55.92 Y71.568
Y71.593
X55.919 Z-2.586
X55.87
Z-2.576
Y71.618
Y71.643
Z-2.586
X55.92
Z-2.576
Y71.668
Y71.693
X55.919 Z-2.586
X55.87
Z-2.576
Y71.718
Y71.743
Z-2.586
X55.92
Z-2.576
Y71.768
Y71.793
Z-2.586
X55.87
Z-2.576
Y71.818
Y71.843
Z-2.586
X55.919
X55.92 Z-2.576
Y71.868
Y71.893
Z-2.586
X55.87
Z-2.576
Y71.918
Y71.943
Z-2.586
X55.919
X55.92 Z-2.576
Y71.968
Y71.993
X55.919 Z-2.586
X55.87
Z-2.576
Y72.018
Y72.043
Z-2.586
X55.919
X55.92 Z-2.576
Y72.093
Z-2.586
X55.87
Z-2.576
Y72.118
Y72.143
Z-2.586
X55.92
Z-2.576
Y72.168
Y72.193
Z-2.586
X55.87
Z-2.576
Y72.218
Y72.243
Z-2.586
X55.919
X55.92 Z-2.576
Y72.268
Y72.293
Z-2.586
X55.87
Z-2.576
Y72.343
Z-2.586
X55.919
X55.92 Z-2.576
Y72.368
Y72.393
Z-2.586
X55.87
Z-2.576
Y72.443
Z-2.586
X55.92
Z-2.576
Y72.468
Y72.493
X55.919 Z-2.586
X55.87
Z-2.576
X55.868 Y72.52
X55.853 Y72.543
Z-2.586
X55.937
Z-2.576
G0 Z5.
X58.17 Y71.543
Z-0.428
G1 Z-2.576 F40.
Z-2.586
X58.222
Z-2.576
X58.221 Y71.568
Y71.593
Z-2.586
X58.171
Z-2.576
Y71.618
Y71.643
Z-2.586
X58.221
Z-2.576
Y71.693
Z-2.586
X58.171
Z-2.576
Y71.718
Y71.743
Z-2.586
X58.221
Z-2.576
Y71.793
Z-2.586
X58.171
Z-2.576
Y71.818
Y71.843
Z-2.586
X58.221
Z-2.576
Y71.893
Z-2.586
X58.171
Z-2.576
Y71.918
Y71.943
Z-2.586
X58.221
Z-2.576
Y71.968
Y71.993
Z-2.586
X58.171
Z-2.576
Y72.018
Y72.043
Z-2.586
X58.221
Z-2.576
Y72.093
Z-2.586
X58.171
Z-2.576
Y72.118
Y72.143
Z-2.586
X58.22
X58.221 Z-2.576
Y72.168
Y72.193
Z-2.586
X58.171
Z-2.576
Y72.218
Y72.243
Z-2.586
X58.221
Z-2.576
Y72.268
Y72.293
X58.22 Z-2.586
X58.171
Z-2.576
Y72.318
Y72.343
Z-2.586
X58.221
Z-2.576
Y72.393
Z-2.586
X58.171
Z-2.576
Y72.418
Y72.443
Z-2.586
X58.221
Z-2.576
Y72.468
Y72.493
Z-2.586
X58.171
Z-2.576
X58.169 Y72.52
X58.154 Y72.543
Z-2.586
X58.238
Z-2.576
G0 Z5.
X60.469 Y71.543
Z-0.428
G1 Z-2.576 F40.
Z-2.586
X60.521
Z-2.576
X60.52 Y71.568
Y71.593
X60.519 Z-2.586
X60.47
Z-2.576
Y71.618
Y71.643
Z-2.586
X60.52
Z-2.576
Y71.668
Y71.693
X60.519 Z-2.586
X60.47
Z-2.576
Y71.743
Z-2.586
X60.52
Z-2.576
Y71.768
Y71.793
Z-2.586
X60.47
Z-2.576
Y71.843
Z-2.586
X60.519
X60.52 Z-2.576
Y71.868
Y71.893
Z-2.586
X60.47
Z-2.576
Y71.918
Y71.943
Z-2.586
X60.519
X60.52 Z-2.576
Y71.968
Y71.993
X60.519 Z-2.586
X60.47
Z-2.576
Y72.043
Z-2.586
X60.52
Z-2.576
Y72.068
Y72.093
Z-2.586
X60.47
Z-2.576
Y72.118
Y72.143
Z-2.586
X60.519
X60.52 Z-2.576
Y72.168
Y72.193
X60.519 Z-2.586
X60.47
Z-2.576
Y72.243
Z-2.586
X60.519
X60.52 Z-2.576
Y72.268
Y72.293
Z-2.586
X60.47
Z-2.576
Y72.318
Y72.343
Z-2.586
X60.519
X60.52 Z-2.576
Y72.368
Y72.393
X60.519 Z-2.586
X60.47
Z-2.576
Y72.418
Y72.443
Z-2.586
X60.52
Z-2.576
Y72.468
Y72.493
Z-2.586
X60.47
Z-2.576
X60.468 Y72.52
X60.453 Y72.543
Z-2.586
X60.536
X60.537 Z-2.576
G0 Z5.
X61.357 Y71.543
Z-0.428
G1 Z-2.576 F40.
Z-2.586
X62.056
X62.057 Z-2.928
X62.066
X62.068
X62.07 Z-2.927
X62.081 Y71.547
X62.085 Y71.558
Y71.578
X62.081 Y71.588
X62.07 Y71.593
X62.067
X62.065 Z-2.928
X62.063
X62.053
Z-2.586
X61.355
Z-2.576
X61.353 Y71.618
X61.352 Y71.643
Z-2.586
X62.049
X62.05 Z-2.928
X62.059
X62.062
X62.064 Z-2.927
X62.074 Y71.647
X62.079 Y71.658
Y71.678
X62.074 Y71.688
X62.064 Y71.693
X62.059
X62.057 Z-2.928
X62.055
X62.046
X62.045 Z-2.586
X61.348
Z-2.576
X61.346 Y71.718
X61.345 Y71.743
Z-2.586
X62.042
Z-2.928
X62.051
X62.053
X62.056 Z-2.927
X62.066 Y71.747
X62.071 Y71.758
Y71.778
X62.066 Y71.788
X62.056 Y71.793
X62.053
X62.051 Z-2.928
X62.048
X62.039
X62.038 Z-2.586
X61.341
Z-2.576
X61.339 Y71.818
X61.337 Y71.843
Z-2.586
X62.033
X62.035 Z-2.928
X62.045
X62.047
X62.049 Z-2.927
X62.06 Y71.847
X62.064 Y71.858
Y71.878
X62.06 Y71.888
X62.049 Y71.893
X62.045
X62.043 Z-2.928
X62.041
X62.031
X62.03 Z-2.586
X61.334
Z-2.576
X61.332 Y71.918
X61.33 Y71.943
Z-2.586
X62.027
Z-2.928
X62.037
X62.039
X62.042 Z-2.927
X62.052 Y71.947
X62.057 Y71.958
Y71.978
X62.052 Y71.988
X62.042 Y71.993
X62.038
X62.036 Z-2.928
X62.033
X62.024
X62.023 Z-2.586
X61.327
Z-2.576
X61.325 Y72.018
X61.323 Y72.043
Z-2.586
X62.02
Z-2.928
X62.029
X62.031
X62.034 Z-2.927
X62.044 Y72.047
X62.049 Y72.058
Y72.078
X62.044 Y72.088
X62.034 Y72.093
X62.03
X62.028 Z-2.928
X62.025
X62.016
Z-2.586
X61.319
Z-2.576
X61.318 Y72.118
X61.316 Y72.143
Z-2.586
X62.012
X62.013 Z-2.928
X62.022
X62.024
X62.026 Z-2.927
X62.037 Y72.147
X62.041 Y72.158
Y72.178
X62.037 Y72.188
X62.026 Y72.193
X62.022
X62.02 Z-2.928
X62.018
X62.009
X62.008 Z-2.586
X61.312
Z-2.576
X61.311 Y72.218
X61.309 Y72.243
Z-2.586
X62.005
Z-2.928
X62.014
X62.017
X62.019 Z-2.927
X62.029 Y72.247
X62.034 Y72.258
Y72.278
X62.029 Y72.288
X62.019 Y72.293
X62.016
X62.013 Z-2.928
X62.011
X62.001
Z-2.586
X61.305
Z-2.576
X61.303 Y72.318
X61.302 Y72.343
Z-2.586
X61.996
X61.998 Z-2.928
X62.007
X62.009
X62.011 Z-2.927
X62.022 Y72.347
X62.026 Y72.358
Y72.378
X62.022 Y72.388
X62.011 Y72.393
X62.008
X62.006 Z-2.928
X62.004
X61.994
X61.993 Z-2.586
X61.298
Z-2.576
X61.296 Y72.418
X61.295 Y72.443
Z-2.586
X61.99
Z-2.928
X62.
X62.002
X62.004 Z-2.927
X62.015 Y72.447
X62.019 Y72.458
Y72.478
X62.015 Y72.488
X62.004 Y72.493
X62.001
X61.999 Z-2.928
X61.996
X61.987
X61.986 Z-2.586
X61.291
Z-2.576
X61.288 Y72.52
X61.273 Y72.543
Z-2.586
X61.983
Z-2.928
X61.992
X61.994
X61.997 Z-2.927
X62.007 Y72.547
X62.012 Y72.558
Y72.578
X62.007 Y72.588
X61.997 Y72.593
X61.993
X61.991 Z-2.928
X61.989
X61.979
X61.978 Z-2.586
X54.848
Z-3.428
X53.42
Z-3.418
X53.412 Y72.618
X53.403 Y72.643
Z-3.428
X54.852
Z-2.586
X55.145
X55.146 Z-2.576
X55.144 Y72.668
X55.146 Y72.693
X55.144 Z-2.586
X54.855
Z-3.428
X53.387
Z-3.418
X53.379 Y72.718
X53.37 Y72.743
Z-3.428
X54.859
Z-2.586
X55.15
X55.151 Z-2.576
Z-2.575
G0 Z5.
X57.018 Y72.643
Z-0.428
G1 Z-2.576 F40.
Z-2.586
X57.073
Z-2.576
X57.07 Y72.668
Y72.693
Z-2.586
X57.02
Z-2.576
Y72.718
Y72.743
Z-2.586
X57.07
Z-2.576
Y72.768
Y72.793
Z-2.586
X57.02
Z-2.576
Y72.818
Y72.843
Z-2.586
X57.07
Z-2.576
Y72.868
Y72.893
Z-2.586
X57.02
Z-2.576
Y72.943
Z-2.586
X57.07
Z-2.576
Y72.993
Z-2.586
X57.02
Z-2.576
Y73.018
Y73.043
Z-2.586
X57.07
Z-2.576
Y73.093
Z-2.586
X57.02
Z-2.576
Y73.118
Y73.143
Z-2.586
X57.07
Z-2.576
Y73.193
Z-2.586
X57.02
Z-2.576
Y73.218
Y73.243
Z-2.586
X57.07
Z-2.576
Y73.293
Z-2.586
X57.02
Z-2.576
Y73.318
Y73.343
Z-2.586
X57.07
Z-2.576
Y73.393
Z-2.586
X57.02
Z-2.576
Y73.418
Y73.443
Z-2.586
X57.07
Z-2.576
Y73.493
Z-2.586
X57.02
Z-2.576
Y73.518
Y73.543
Z-2.586
X57.07
Z-2.576
Y73.593
Z-2.586
X57.02
Z-2.576
Y73.619
X57.009 Y73.643
Z-2.586
X57.073
X57.082 Z-2.576
G0 Z5.
X59.316 Y72.643
Z-0.428
G1 Z-2.576 F40.
Z-2.586
X59.373
Z-2.576
X59.37 Y72.668
Y72.693
Z-2.586
X59.319
Z-2.576
Y72.718
Y72.743
Z-2.586
X59.37
Z-2.576
Y72.768
Y72.793
Z-2.586
X59.319
Z-2.576
Y72.818
Y72.843
Z-2.586
X59.37
Z-2.576
Y72.868
Y72.893
Z-2.586
X59.319
Z-2.576
Y72.943
Z-2.586
X59.37
Z-2.576
Y72.968
Y72.993
Z-2.586
X59.319
Z-2.576
Y73.018
Y73.043
Z-2.586
X59.37
Z-2.576
Y73.068
Y73.093
Z-2.586
X59.319
Z-2.576
Y73.118
Y73.143
Z-2.586
X59.37
Z-2.576
Y73.168
Y73.193
Z-2.586
X59.319
Z-2.576
Y73.218
Y73.243
Z-2.586
X59.37
Z-2.576
Y73.268
Y73.293
Z-2.586
X59.319
Z-2.576
Y73.318
Y73.343
Z-2.586
X59.37
Z-2.576
Y73.368
Y73.393
Z-2.586
X59.319
Z-2.576
Y73.418
Y73.443
Z-2.586
X59.37
Z-2.576
Y73.468
Y73.493
Z-2.586
X59.319
Z-2.576
Y73.518
Y73.543
Z-2.586
X59.37
Z-2.576
Y73.593
Z-2.586
X59.319
Z-2.576
X59.318 Y73.619
X59.308 Y73.643
Z-2.586
X59.382
Z-2.576
G0 Z5.
X61.277 Y72.643
Z-0.428
G1 Z-2.576 F40.
Z-2.586
X61.975
Z-2.928
X61.985
X61.987
X61.989 Z-2.927
X62. Y72.647
X62.004 Y72.658
Y72.678
X62. Y72.688
X61.989 Y72.693
X61.986
X61.984 Z-2.928
X61.982
X61.972
X61.971 Z-2.586
X61.277
Z-2.576
X61.275 Y72.718
X61.274 Y72.743
Z-2.586
X61.968
Z-2.928
X61.977
X61.98
X61.982 Z-2.927
X61.992 Y72.747
X61.997 Y72.758
Y72.778
X61.992 Y72.788
X61.982 Y72.793
X61.979
X61.976 Z-2.928
X61.974
X61.964
Z-2.586
X61.27
Z-2.576
X61.268 Y72.818
X61.267 Y72.843
Z-2.586
X61.959
X61.961 Z-2.928
X61.97
X61.972
X61.974 Z-2.927
X61.985 Y72.847
X61.989 Y72.858
Y72.878
X61.985 Y72.888
X61.974 Y72.893
X61.971
X61.969 Z-2.928
X61.967
X61.957
X61.955 Z-2.586
X61.263
Z-2.576
X61.261 Y72.918
X61.26 Y72.943
Z-2.586
X61.949
X61.953 Z-2.928
X61.963
X61.965
X61.967 Z-2.927
X61.978 Y72.947
X61.982 Y72.958
Y72.978
X61.978 Y72.988
X61.967 Y72.993
X61.963
X61.961 Z-2.928
X61.958
X61.949
Z-2.586
X61.256
Z-2.576
X61.254 Y73.018
X61.252 Y73.043
Z-2.586
X61.946
Z-2.928
X61.955
X61.957
X61.96 Z-2.927
X61.97 Y73.047
X61.975 Y73.058
Y73.078
X61.97 Y73.088
X61.96 Y73.093
X61.955
X61.953 Z-2.928
X61.951
X61.942
Z-2.586
X61.249
Z-2.576
X61.247 Y73.118
X61.245 Y73.143
Z-2.586
X61.938
Z-2.928
X61.948
X61.95
X61.952 Z-2.927
X61.963 Y73.147
X61.967 Y73.158
Y73.178
X61.963 Y73.188
X61.952 Y73.193
X61.948
X61.946 Z-2.928
X61.944
X61.935
X61.934 Z-2.586
X61.225
Z-2.576
X61.207 Y73.218
X61.188 Y73.243
Z-2.586
X61.93
X61.931 Z-2.928
X61.94
X61.943
X61.945 Z-2.927
X61.955 Y73.247
X61.96 Y73.258
Y73.278
X61.955 Y73.288
X61.945 Y73.293
X61.941
X61.939 Z-2.928
X61.936
X61.927
X61.926 Z-2.586
X61.148
Z-2.576
X61.127 Y73.318
X61.106 Y73.343
Z-2.586
X61.923
Z-2.928
X61.933
X61.935
X61.937 Z-2.927
X61.948 Y73.347
X61.952 Y73.358
Y73.378
X61.948 Y73.388
X61.937 Y73.393
X61.933
X61.931 Z-2.928
X61.929
X61.92
X61.919 Z-2.586
X61.063
Z-2.576
X61.041 Y73.418
X61.019 Y73.443
Z-2.586
X61.916
Z-2.928
X61.925
X61.927
X61.93 Z-2.927
X61.94 Y73.447
X61.945 Y73.458
Y73.478
X61.94 Y73.488
X61.93 Y73.493
X61.926
X61.924 Z-2.928
X61.921
X61.912
X61.911 Z-2.586
X60.975
Z-2.576
X60.953 Y73.518
X60.931 Y73.543
Z-2.586
X61.897
X61.898 Z-2.928
X61.91
X61.912
X61.914 Z-2.927
X61.925 Y73.547
X61.929 Y73.558
Y73.578
X61.925 Y73.588
X61.914 Y73.593
X61.866
X61.864 Z-2.928
X61.862
X61.849
X61.847 Z-2.586
X60.886
Z-2.576
X60.864 Y73.618
X60.842 Y73.643
Z-2.586
X61.798
X61.799 Z-2.928
X61.813
X61.82 Z-2.925
X61.823 Z-2.918
G0 Z5.
X52.55 Y71.693
Z-1.271
G1 Z-3.418 F40.
Z-3.428
X49.413
Z-3.418
X49.428 Y71.716
X49.432 Y71.743
Z-3.428
X52.53
Z-3.418
X52.527 Y71.768
X52.524 Y71.793
Z-3.428
X49.435
Z-3.418
X49.437 Y71.818
X49.439 Y71.843
Z-3.428
X52.516
X52.518 Z-3.418
X52.515 Y71.868
X52.512 Y71.893
Z-3.428
X49.446
Z-3.418
X49.45 Y71.918
X49.453 Y71.943
Z-3.428
X52.506
Z-3.418
X52.503 Y71.968
X52.497 Y71.993
Z-3.428
X49.463
Z-3.418
X49.469 Y72.018
X49.475 Y72.043
Z-3.428
X52.483
Z-3.418
X52.469 Y72.093
Z-3.428
X49.487
Z-3.418
X49.495 Y72.118
X49.503 Y72.143
Z-3.428
X52.455
Z-3.418
X52.448 Y72.168
X52.441 Y72.193
Z-3.428
X49.519
Z-3.418
X49.527 Y72.217
X49.524 Y72.243
Z-3.428
X52.435
Z-3.418
X52.46 Y72.273
X52.493 Y72.293
Z-3.428
X49.46
Z-3.418
G0 Z5.
X49.375 Y72.343
Z-1.271
G1 Z-3.418 F40.
Z-3.428
X52.577
Z-3.418
G0 Z5.
X52.661 Y72.393
Z-1.271
G1 Z-3.418 F40.
Z-3.428
X52.443
Z-3.418
X52.42 Y72.38
X52.398 Y72.372
X52.375 Y72.376
X52.353 Y72.393
Z-3.428
X49.605
Z-3.418
X49.62 Y72.418
X49.635 Y72.443
Z-3.428
X52.323
Z-3.418
X52.294 Y72.493
X52.293 Z-3.428
X49.664
Z-3.418
X49.679 Y72.518
X49.694 Y72.543
Z-3.428
X52.264
Z-3.418
X52.246 Y72.568
X52.227 Y72.593
Z-3.428
X49.731
Z-3.418
X49.75 Y72.618
X49.769 Y72.643
Z-3.428
X52.19
Z-3.418
X52.171 Y72.668
X52.151 Y72.693
X52.146 Z-3.428
X49.808
Z-3.418
X49.831 Y72.718
X49.854 Y72.743
Z-3.428
X52.104
Z-3.418
X52.081 Y72.768
X52.058 Y72.793
Z-3.428
X49.901
Z-3.418
X49.927 Y72.819
X49.955 Y72.843
Z-3.428
X52.002
X52.004 Z-3.418
X51.975 Y72.868
X51.946 Y72.893
Z-3.428
X50.012
Z-3.418
X50.039 Y72.916
X50.061 Y72.943
Z-3.428
X51.901
Z-3.418
Y72.969
X51.912 Y72.993
Z-3.428
X50.054
Z-3.418
X50.04 Y73.018
X50.026 Y73.043
Z-3.428
X50.154
Z-3.418
X50.139 Y73.068
X50.124 Y73.093
Z-3.428
X49.997
Z-3.418
X49.983 Y73.118
X49.969 Y73.143
Z-3.428
X50.096
Z-3.418
X50.082 Y73.168
X50.068 Y73.193
X50.063 Z-3.428
X49.941
Z-3.418
X49.927 Y73.218
X49.912 Y73.243
Z-3.428
X50.039
Z-3.418
X50.025 Y73.268
X50.011 Y73.293
Z-3.428
X49.884
Z-3.418
X49.87 Y73.318
X49.856 Y73.343
Z-3.428
X49.983
Z-3.418
X49.969 Y73.368
X49.954 Y73.393
Z-3.428
X49.828
Z-3.418
X49.813 Y73.418
X49.799 Y73.443
Z-3.428
X49.925
X49.926 Z-3.418
X49.912 Y73.468
X49.898 Y73.493
X49.897 Z-3.428
X49.771
Z-3.418
X49.757 Y73.518
X49.743 Y73.543
Z-3.428
X49.869
Z-3.418
X49.855 Y73.568
X49.841 Y73.593
Z-3.428
X49.714
Z-3.418
X49.7 Y73.618
X49.686 Y73.643
Z-3.428
X49.812
X49.813 Z-3.418
X49.798 Y73.668
X49.784 Y73.693
Z-3.428
X49.658
Z-3.418
X49.643 Y73.718
X49.629 Y73.743
Z-3.428
X49.756
Z-3.418
X49.742 Y73.768
X49.727 Y73.793
Z-3.428
X49.601
Z-3.418
X49.587 Y73.818
X49.573 Y73.843
Z-3.428
X49.699
Z-3.418
X49.685 Y73.868
X49.671 Y73.893
X49.67 Z-3.428
X49.544
Z-3.418
G0 Z5.
X50.236 Y73.043
Z-1.271
G1 Z-3.418 F40.
Z-3.428
X51.725
Z-3.418
X51.747 Y73.032
X51.768 Y73.025
X51.789 Y73.028
X51.811 Y73.043
Z-3.428
X51.94
X51.941 Z-3.418
X51.955 Y73.068
X51.969 Y73.093
Z-3.428
X51.84
Z-3.418
X51.854 Y73.118
X51.869 Y73.143
Z-3.428
X51.998
Z-3.418
X52.026 Y73.193
Z-3.428
X51.897
Z-3.418
X51.911 Y73.218
X51.926 Y73.243
Z-3.428
X52.054
X52.055 Z-3.418
X52.083 Y73.293
Z-3.428
X51.954
Z-3.418
X51.968 Y73.318
X51.983 Y73.343
Z-3.428
X52.111
X52.112 Z-3.418
X52.14 Y73.393
Z-3.428
X52.011
Z-3.418
X52.039 Y73.443
Z-3.428
X52.168
Z-3.418
X52.197 Y73.493
Z-3.428
X52.068
Z-3.418
X52.096 Y73.543
Z-3.428
X52.225
Z-3.418
X52.24 Y73.568
X52.254 Y73.593
X52.253 Z-3.428
X52.125
Z-3.418
X52.139 Y73.618
X52.153 Y73.643
Z-3.428
X52.282
Z-3.418
X52.311 Y73.693
X52.31 Z-3.428
X52.182
Z-3.418
X52.21 Y73.743
Z-3.428
X52.339
Z-3.418
X52.353 Y73.768
X52.368 Y73.793
X52.366 Z-3.428
X52.238
Z-3.418
X52.267 Y73.843
Z-3.428
X52.396
Z-3.418
X52.41 Y73.868
X52.425 Y73.893
Z-3.428
X52.295
Z-3.418
G0 Z5.
X51.628 Y73.093
Z-1.271
G1 Z-3.418 F40.
Z-3.428
X50.335
Z-3.418
X50.336 Z-3.413
X50.339 Y73.095 Z-3.408
X50.343 Y73.096 Z-3.404
X50.349 Y73.099 Z-3.403
X50.442 Y73.137
X50.447 Y73.139 Z-3.404
X50.452 Y73.141 Z-3.408
X50.455 Y73.142 Z-3.413
X50.456 Y73.143 Z-3.418
Z-3.428
X51.507
Z-3.418
X51.506 Z-3.413
X51.503 Y73.144 Z-3.408
X51.499 Y73.146 Z-3.404
X51.493 Y73.147 Z-3.403
X51.36 Y73.188 Z-3.401
X51.354 Y73.19 Z-3.402
X51.35 Y73.192 Z-3.405
X51.346 Y73.193 Z-3.41
X51.345 Z-3.415
Z-3.418
Z-3.428
X50.618
Z-3.418
G0 Z5.
X50.9 Y73.243
Z-1.271
G1 Z-3.418 F40.
Z-3.428
X51.06
Z-3.418
X51.04 Y73.264
X51.034 Y73.293
Z-3.428
X50.926
Z-3.418
Y73.343
Z-3.428
X51.034
Z-3.418
Y73.393
Z-3.428
X50.926
Z-3.418
Y73.418
Y73.443
Z-3.428
X51.034
Z-3.418
Y73.468
Y73.493
Z-3.428
X50.926
Z-3.418
Y73.518
Y73.543
Z-3.428
X51.03
X51.034 Z-3.418
Y73.568
Y73.593
Z-3.428
X50.926
Z-3.418
Y73.618
Y73.643
Z-3.428
X51.034
Z-3.418
Y73.668
Y73.693
X51.03 Z-3.428
X50.926
Z-3.418
Y73.718
Y73.743
Z-3.428
X51.034
Z-3.418
Y73.768
Y73.793
Z-3.428
X50.926
Z-3.418
Y73.818
Y73.843
Z-3.428
X51.034
Z-3.418
Y73.868
Y73.893
Z-3.428
X50.926
Z-3.418
Y73.918
Y73.943
Z-3.428
X51.034
Z-3.418
Y73.968
Y73.993
Z-3.428
X50.926
Z-3.418
Y74.043
Z-3.428
X51.034
Z-3.418
Y74.093
Z-3.428
X50.926
Z-3.418
Y74.118
Y74.143
Z-3.428
X51.034
Z-3.418
Y74.168
Y74.193
Z-3.428
X50.926
Z-3.418
Y74.218
Y74.243
Z-3.428
X51.034
Z-3.418
Y74.268
Y74.293
Z-3.428
X50.926
Z-3.418
Y74.318
Y74.343
Z-3.428
X51.034
Z-3.418
X51.036 Y74.37
X51.05 Y74.393
Z-3.428
X50.91
Z-3.418
G0 Z5.
X49.508 Y72.393
Z-1.271
G1 Z-3.418 F40.
X49.5 Z-3.428
X49.291
Z-3.418
G0 Z5.
X49.206 Y72.443
Z-1.271
G1 Z-3.418 F40.
Z-3.428
X49.423
Z-3.418
X49.419 Y72.445 Z-3.413
X49.343 Y72.49
X49.338 Y72.493 Z-3.418
Z-3.428
X49.122
Z-3.418
G0 Z5.
X49.037 Y72.543
Z-1.271
G1 Z-3.418 F40.
Z-3.428
X49.253
X49.254 Z-3.418
G0 Z5.
X49.169 Y72.593
Z-1.271
G1 Z-3.418 F40.
X49.168 Z-3.428
X48.952
Z-3.418
G0 Z5.
X48.868 Y72.643
Z-1.271
G1 Z-3.418 F40.
Z-3.428
X49.084
Z-3.418
X49.08 Y72.645 Z-3.413
X49.003 Y72.69
X48.999 Y72.693 Z-3.418
Z-3.428
X48.783
Z-3.418
G0 Z5.
X48.698 Y72.743
Z-1.271
G1 Z-3.418 F40.
Z-3.428
X48.914
Z-3.418
G0 Z5.
X48.437 Y71.693
Z-1.031
G1 Z-3.418 F40.
Z-3.428
X47.175
Z-2.586
X46.89
Z-2.576
X46.888 Y71.718
X46.886 Y71.743
Z-2.586
X47.167
X47.172 Z-3.428
X48.419
Z-3.418
Y71.793
X48.418 Z-3.428
X47.168
X47.165 Z-2.586
X46.883
Z-2.576
X46.881 Y71.818
X46.879 Y71.843
Z-2.586
X47.164
X47.165 Z-3.428
X48.419
Z-3.418
X48.42 Y71.868
X48.422 Y71.893
X48.421 Z-3.428
X47.161
X47.16 Z-2.586
X46.876
Z-2.576
X46.872 Y71.943
Z-2.586
X47.153
X47.157 Z-3.428
X48.424
Z-3.418
X48.427 Y71.993
X48.426 Z-3.428
X47.154
X47.151 Z-2.586
X46.869
Z-2.576
X46.865 Y72.043
Z-2.586
X47.15
Z-3.428
X48.429
Z-3.418
X48.431 Y72.068
X48.434 Y72.093
Z-3.428
X47.147
X47.146 Z-2.586
X46.862
Z-2.576
X46.86 Y72.118
X46.858 Y72.143
Z-2.586
X47.141
X47.143 Z-3.428
X48.441
X48.442 Z-3.418
X48.445 Y72.168
X48.449 Y72.193
X48.445 Z-3.428
X47.14
Z-2.586
X46.855
Z-2.576
X46.853 Y72.218
X46.851 Y72.243
Z-2.586
X47.134
X47.136 Z-3.428
X48.456
Z-3.418
X48.46 Y72.268
X48.464 Y72.293
X48.463 Z-3.428
X47.133
X47.129 Z-2.586
X46.848
Z-2.576
X46.846 Y72.318
X46.844 Y72.343
Z-2.586
X47.126
X47.129 Z-3.428
X48.475
X48.476 Z-3.418
X48.488 Y72.393
X48.487 Z-3.428
X47.126
X47.123 Z-2.586
X46.841
Z-2.576
X46.837 Y72.443
Z-2.586
X47.122
Z-3.428
X48.499
Z-3.418
X48.506 Y72.468
X48.511 Y72.493
Z-3.428
X47.119
X47.115 Z-2.586
X46.834
Z-2.576
X46.831 Y72.52
X46.816 Y72.543
Z-2.586
X47.114
X47.115 Z-3.428
X48.525
X48.526 Z-3.418
X48.534 Y72.568
X48.542 Y72.593
Z-3.428
X47.112
X47.11 Z-2.586
X39.972
Z-2.928
X39.963
X39.961
X39.958 Z-2.927
X39.948 Y72.597
X39.943 Y72.608
Y72.628
X39.948 Y72.638
X39.958 Y72.643
X39.962
X39.964 Z-2.928
X39.966
X39.975
X39.976 Z-2.586
X40.688
Z-2.576
X40.686 Y72.668
X40.688 Y72.693
X40.684 Z-2.586
X39.979
X39.978 Z-2.928
X39.97
X39.968
X39.965 Z-2.927
X39.955 Y72.697
X39.95 Y72.708
Y72.728
X39.955 Y72.738
X39.965 Y72.743
X39.968
X39.971 Z-2.928
X39.973
X39.982
X39.983 Z-2.586
X40.693
Z-2.576
X40.695 Y72.768
X40.697 Y72.793
Z-2.586
X39.986
Z-2.928
X39.977
X39.975
X39.973 Z-2.927
X39.962 Y72.797
X39.958 Y72.808
Y72.828
X39.962 Y72.838
X39.973 Y72.843
X39.976
X39.978 Z-2.928
X39.981
X39.99
Z-2.586
X40.702
Z-2.576
X40.704 Y72.868
X40.706 Y72.893
Z-2.586
X39.993
Z-2.928
X39.984
X39.982
X39.98 Z-2.927
X39.969 Y72.897
X39.965 Y72.908
Y72.928
X39.969 Y72.938
X39.98 Y72.943
X39.983
X39.985 Z-2.928
X39.987
X39.996
X39.997 Z-2.586
X40.711
Z-2.576
X40.713 Y72.968
X40.715 Y72.993
Z-2.586
X40.
X39.999 Z-2.928
X39.991
X39.989
X39.987 Z-2.927
X39.976 Y72.997
X39.972 Y73.008
Y73.028
X39.976 Y73.038
X39.987 Y73.043
X39.99
X39.992 Z-2.928
X39.994
X40.004
Z-2.586
X40.72
Z-2.576
X40.723 Y73.068
X40.725 Y73.093
X40.724 Z-2.586
X40.007
Z-2.928
X39.998
X39.996
X39.994 Z-2.927
X39.983 Y73.097
X39.979 Y73.108
Y73.128
X39.983 Y73.138
X39.994 Y73.143
X39.997
X40. Z-2.928
X40.002
X40.011
Z-2.586
X40.73
Z-2.576
X40.733 Y73.168
X40.736 Y73.193
Z-2.586
X40.014
Z-2.928
X40.005
X40.003
X40.001 Z-2.927
X39.99 Y73.197
X39.986 Y73.208
Y73.228
X39.99 Y73.238
X40.001 Y73.243
X40.004
X40.006 Z-2.928
X40.008
X40.018
Z-2.586
X40.744
Z-2.576
X40.756 Y73.271
X40.777 Y73.293
Z-2.586
X40.022
X40.021 Z-2.928
X40.012
X40.009
X40.007 Z-2.927
X39.997 Y73.297
X39.992 Y73.308
Y73.328
X39.997 Y73.338
X40.007 Y73.343
X40.011
X40.013 Z-2.928
X40.015
X40.025
Z-2.586
X40.827
Z-2.576
X40.877 Y73.393
Z-2.586
X40.029
X40.028 Z-2.928
X40.019
X40.017
X40.015 Z-2.927
X40.004 Y73.397
X40. Y73.408
Y73.428
X40.004 Y73.438
X40.015 Y73.443
X40.019
X40.021 Z-2.928
X40.023
X40.032
Z-2.586
X40.926
X40.927 Z-2.576
X40.951 Y73.468
X40.976 Y73.493
Z-2.586
X40.036
X40.035 Z-2.928
X40.026
X40.024
X40.022 Z-2.927
X40.011 Y73.497
X40.007 Y73.508
Y73.528
X40.011 Y73.538
X40.022 Y73.543
X40.033
X40.036 Z-2.928
X40.038
X40.05
Z-2.586
X41.025
X41.026 Z-2.576
X41.051 Y73.568
X41.076 Y73.593
Z-2.586
X40.099
Z-2.928
X40.086
X40.084
X40.081 Z-2.927
X40.071 Y73.597
X40.066 Y73.608
Y73.628
X40.071 Y73.638
X40.081 Y73.643
X40.131
X40.133 Z-2.928
X40.135
X40.148
X40.149 Z-2.586
X41.126
Z-2.576
G0 Z5.
X42.558 Y72.643
Z-0.428
G1 Z-2.576 F40.
Z-2.586
X42.616
Z-2.576
X42.613 Y72.668
Y72.693
Z-2.586
X42.561
Z-2.576
X42.56 Y72.718
Y72.743
Z-2.586
X42.613
Z-2.576
Y72.768
Y72.793
Z-2.586
X42.56
Z-2.576
Y72.843
Z-2.586
X42.612
X42.613 Z-2.576
Y72.868
Y72.893
Z-2.586
X42.56
Z-2.576
Y72.943
Z-2.586
X42.613
Z-2.576
Y72.968
Y72.993
Z-2.586
X42.56
Z-2.576
Y73.043
Z-2.586
X42.612
X42.613 Z-2.576
Y73.068
Y73.093
Z-2.586
X42.56
Z-2.576
Y73.143
Z-2.586
X42.613
Z-2.576
Y73.168
Y73.193
X42.612 Z-2.586
X42.56
Z-2.576
Y73.243
Z-2.586
X42.613
Z-2.576
Y73.268
Y73.293
X42.612 Z-2.586
X42.56
Z-2.576
Y73.343
Z-2.586
X42.613
Z-2.576
Y73.368
Y73.393
X42.612 Z-2.586
X42.56
Z-2.576
Y73.443
Z-2.586
X42.613
Z-2.576
Y73.468
Y73.493
Z-2.586
X42.56
Z-2.576
Y73.543
Z-2.586
X42.612
X42.613 Z-2.576
Y73.568
Y73.593
Z-2.586
X42.56
Z-2.576
Y73.619
X42.549 Y73.643
Z-2.586
X42.624
Z-2.576
G0 Z5.
X44.858 Y72.643
Z-0.428
G1 Z-2.576 F40.
Z-2.586
X44.915
X44.916 Z-2.576
X44.913 Y72.668
Y72.693
Z-2.586
X44.861
Z-2.576
X44.86 Y72.718
X44.861 Y72.743
Z-2.586
X44.913
Z-2.576
Y72.768
Y72.793
Z-2.586
X44.86
Z-2.576
Y72.843
Z-2.586
X44.912
X44.913 Z-2.576
Y72.868
Y72.893
Z-2.586
X44.86
Z-2.576
Y72.918
X44.861 Y72.943
Z-2.586
X44.913
Z-2.576
Y72.993
Z-2.586
X44.86
Z-2.576
Y73.043
Z-2.586
X44.913
Z-2.576
Y73.093
Z-2.586
X44.86
Z-2.576
Y73.143
Z-2.586
X44.912
X44.913 Z-2.576
Y73.168
Y73.193
X44.911 Z-2.586
X44.86
Z-2.576
Y73.243
Z-2.586
X44.913
Z-2.576
Y73.268
Y73.293
Z-2.586
X44.86
Z-2.576
Y73.343
Z-2.586
X44.913
Z-2.576
Y73.393
Z-2.586
X44.86
Z-2.576
Y73.443
Z-2.586
X44.913
Z-2.576
Y73.468
Y73.493
X44.912 Z-2.586
X44.86
Z-2.576
Y73.543
Z-2.586
X44.912
X44.913 Z-2.576
Y73.568
Y73.593
Z-2.586
X44.86
Z-2.576
Y73.619
X44.849 Y73.643
Z-2.586
X44.924
Z-2.576
G0 Z5.
X46.818 Y72.643
Z-0.428
G1 Z-2.576 F40.
Z-2.586
X47.106
X47.108 Z-3.428
X48.559
Z-3.418
X48.568 Y72.668
X48.576 Y72.693
X48.575 Z-3.428
X47.104
X47.103 Z-2.586
X46.819
Z-2.576
X46.815 Y72.743
Z-2.586
X47.097
X47.101 Z-3.428
X48.593
Z-3.418
G0 Z5.
X48.83 Y72.793
Z-1.271
G1 Z-3.418 F40.
X48.825 Z-3.428
X47.097
X47.096 Z-2.586
X46.812
Z-2.576
X46.81 Y72.818
X46.808 Y72.843
Z-2.586
X47.092
X47.094 Z-3.428
X48.745
Z-3.418
X48.708 Y72.865
X48.675 Y72.893
X48.674 Z-3.428
X47.09
X47.088 Z-2.586
X46.804
Z-2.576
X46.801 Y72.943
Z-2.586
X47.086
X47.087 Z-3.428
X48.676
X48.677 Z-3.418
X48.704 Y72.993
Z-3.428
X47.083
X47.082 Z-2.586
X46.797
Z-2.576
X46.796 Y73.018
X46.794 Y73.043
Z-2.586
X47.075
X47.08 Z-3.428
X48.731
X48.732 Z-3.418
X48.759 Y73.093
Z-3.428
X47.076
X47.075 Z-2.586
X46.79
Z-2.576
X46.787 Y73.143
Z-2.586
X47.072
X47.073 Z-3.428
X48.786
X48.787 Z-3.418
X48.814 Y73.193
Z-3.428
X47.069
X47.068 Z-2.586
X46.766
Z-2.576
X46.748 Y73.218
X46.73 Y73.243
Z-2.586
X47.065
Z-3.428
X48.846
Z-3.418
X48.864 Y73.268
X48.882 Y73.293
X48.878 Z-3.428
X47.062
X47.061 Z-2.586
X46.689
Z-2.576
X46.668 Y73.318
X46.647 Y73.343
Z-2.586
X47.054
X47.055 Z-3.428
X48.918
Z-3.418
X48.954 Y73.393
Z-3.428
X47.01
X47.009 Z-2.586
X46.604
Z-2.576
X46.582 Y73.418
X46.56 Y73.443
Z-2.586
X46.96
Z-3.428
X48.989
X48.99 Z-3.418
X49.009 Y73.469
X49.03 Y73.493
X49.029 Z-3.428
X46.911
X46.908 Z-2.586
X46.517
Z-2.576
X46.494 Y73.518
X46.472 Y73.543
Z-2.586
X46.858
X46.861 Z-3.428
X49.076
Z-3.418
X49.099 Y73.568
X49.122 Y73.593
Z-3.428
X46.812
X46.81 Z-2.586
X46.428
Z-2.576
X46.405 Y73.618
X46.383 Y73.643
Z-2.586
X46.76
X46.762 Z-3.428
X49.168
Z-3.418
X49.192 Y73.668
X49.215 Y73.693
X49.214 Z-3.428
X46.713
X46.711 Z-2.586
X40.198
Z-2.928
X40.184
X40.182
X40.18 Z-2.927
X40.169 Y73.697
X40.165 Y73.708
Y73.728
X40.169 Y73.738
X40.18 Y73.743
X40.229
X40.232 Z-2.928
X40.234
X40.247
Z-2.586
X41.273
X41.274 Z-2.576
X41.269 Y73.768
X41.278 Y73.793
Z-2.586
X40.297
Z-2.928
X40.283
X40.281
X40.279 Z-2.927
X40.268 Y73.797
X40.264 Y73.808
Y73.828
X40.268 Y73.838
X40.279 Y73.843
X40.328
X40.33 Z-2.928
X40.332
X40.345
X40.346 Z-2.586
X41.328
Z-2.576
X41.354 Y73.868
X41.38 Y73.893
Z-2.586
X40.396
X40.395 Z-2.928
X40.382
X40.38
X40.378 Z-2.927
X40.367 Y73.897
X40.363 Y73.908
Y73.928
X40.367 Y73.938
X40.378 Y73.943
X40.427
X40.429 Z-2.928
X40.431
X40.445
Z-2.586
X41.427
Z-2.576
X41.432 Y73.968
X41.438 Y73.993
X41.437 Z-2.586
X40.494
Z-2.928
X40.481
X40.479
X40.476 Z-2.927
X40.466 Y73.997
X40.461 Y74.008
Y74.028
X40.466 Y74.038
X40.476 Y74.043
X40.526
X40.528 Z-2.928
X40.53
X40.544
Z-2.586
X41.447
Z-2.576
X41.452 Y74.068
X41.457 Y74.093
X41.456 Z-2.586
X40.593
Z-2.928
X40.58
X40.578
X40.576 Z-2.927
X40.565 Y74.097
X40.561 Y74.108
Y74.128
X40.565 Y74.138
X40.576 Y74.143
X40.625
X40.627 Z-2.928
X40.629
X40.643
Z-2.586
X41.466
X41.471 Y74.168 Z-2.581
X41.475 Y74.193 Z-2.576
X41.474 Z-2.586
X40.692
Z-2.928
X40.679
X40.677
X40.675 Z-2.927
X40.664 Y74.197
X40.66 Y74.208
Y74.228
X40.664 Y74.238
X40.675 Y74.243
X40.724
X40.726 Z-2.928
X40.728
X40.742
Z-2.586
X41.484
Z-2.576
X41.488 Y74.268
X41.492 Y74.293
Z-2.586
X40.791
Z-2.928
X40.778
X40.776
X40.774 Z-2.927
X40.763 Y74.297
X40.759 Y74.308
Y74.328
X40.763 Y74.338
X40.774 Y74.343
X40.807
X40.809 Z-2.928
X40.811
X40.821
Z-2.586
X41.493
X41.501 Z-2.576
X41.509 Y74.393
Z-2.586
X40.828
Z-2.928
X40.819
X40.817
X40.814 Z-2.927
X40.804 Y74.397
X40.799 Y74.408
Y74.428
X40.804 Y74.438
X40.814 Y74.443
X40.821
X40.823 Z-2.928
X40.826
X40.835
Z-2.586
X41.515
X41.518 Z-2.576
X41.526 Y74.493
Z-2.586
X40.843
X40.842 Z-2.928
X40.833
X40.831
X40.828 Z-2.927
X40.818 Y74.497
X40.813 Y74.508
Y74.528
X40.818 Y74.538
X40.828 Y74.543
X40.836
X40.838 Z-2.928
X40.84
X40.849
X40.85 Z-2.586
X41.533
X41.535 Z-2.576
X41.539 Y74.568
X41.543 Y74.593
Z-2.586
X40.857
X40.856 Z-2.928
X40.848
X40.845
X40.843 Z-2.927
X40.833 Y74.597
X40.828 Y74.608
Y74.628
X40.833 Y74.638
X40.843 Y74.643
X40.851
X40.853 Z-2.928
X40.855
X40.864
Z-2.586
X41.551
X41.552 Z-2.576
X41.556 Y74.668 Z-2.581
X41.56 Y74.693 Z-2.586
X40.872
X40.871 Z-2.928
X40.862
X40.859
X40.857 Z-2.927
X40.847 Y74.697
X40.842 Y74.708
Y74.728
X40.847 Y74.738
X40.857 Y74.743
X40.865
X40.867 Z-2.928
X40.869
X40.879
Z-2.586
X41.572
Z-2.576
Z-2.575
G0 Z5.
X43.705 Y73.743
Z-0.428
G1 Z-2.576 F40.
Z-2.586
X43.766
Z-2.576
X43.761 Y73.768
Y73.793
Z-2.586
X43.71
Z-2.576
Y73.818
Y73.843
Z-2.586
X43.761
Z-2.576
Y73.893
Z-2.586
X43.71
Z-2.576
Y73.918
Y73.943
Z-2.586
X43.761
Y73.968
Y73.993
X43.71
Z-2.576
Y74.018
Y74.043
Z-2.586
X43.76
X43.761 Z-2.576
Y74.068
Y74.093
X43.757 Z-2.586
X43.71
Z-2.576
Y74.143
Z-2.586
X43.761
Z-2.576
Y74.168
Y74.193
Z-2.586
X43.71
Z-2.576
Y74.243
Z-2.586
X43.761
Z-2.576
Y74.268
Y74.293
Z-2.586
X43.71
Z-2.576
Y74.318
Y74.343
Z-2.586
X43.761
Z-2.576
Y74.368
Y74.393
Z-2.586
X43.71
Z-2.576
Y74.418
Y74.443
Z-2.586
X43.76
X43.761 Z-2.576
Y74.468
Y74.493
Z-2.586
X43.71
Z-2.576
Y74.518
Y74.543
Z-2.586
X43.761
Z-2.576
Y74.568
Y74.593
X43.757 Z-2.586
X43.71
Z-2.576
Y74.643
Z-2.586
X43.761
Z-2.576
Y74.668
Y74.693
Z-2.586
X43.71
Z-2.576
Y74.718
X43.703 Y74.743
Z-2.586
X43.768
Z-2.576
G0 Z5.
X46.25 Y73.743
Z-0.428
G1 Z-2.576 F40.
Z-2.586
X46.66
X46.663 Z-3.428
X49.27
Z-3.418
X49.33 Y73.793
X49.329 Z-3.428
X46.613
Z-2.586
X46.246
Z-2.576
X46.224 Y73.818
X46.201 Y73.843
Z-2.586
X46.561
X46.564 Z-3.428
X49.389
Z-3.418
X49.418 Y73.868
X49.448 Y73.893
X49.446 Z-3.428
X46.514
X46.512 Z-2.586
X46.155
Z-2.576
X46.132 Y73.918
X46.109 Y73.943
Z-2.586
X46.463
X46.465 Z-3.428
X49.642
X49.643 Z-3.418
X49.63 Y73.966
X49.625 Y73.993
Z-3.428
X46.415
X46.414 Z-2.586
X46.063
Z-2.576
X46.04 Y74.018
X46.017 Y74.043
Z-2.586
X46.363
X46.366 Z-3.428
X49.673
Z-3.418
X49.677 Y74.045 Z-3.413
X49.762 Y74.091
X49.767 Y74.093 Z-3.418
X49.766 Z-3.428
X46.316
X46.315 Z-2.586
X46.
Z-2.576
X45.997 Y74.118
X45.994 Y74.143
Z-2.586
X46.265
X46.267 Z-3.428
X49.86
Z-3.418
G0 Z5.
X49.96 Y74.193
Z-1.271
G1 Z-3.418 F40.
Z-3.428
X46.251
X46.25 Z-2.586
X45.987
Z-2.576
X45.983 Y74.218
X45.98 Y74.243
Z-2.586
X46.245
X46.248 Z-3.428
X50.08
Z-3.418
G0 Z5.
X50.225 Y74.293
Z-1.271
G1 Z-3.418 F40.
Z-3.428
X46.243
X46.242 Z-2.586
X45.973
Z-2.576
X45.97 Y74.318
X45.966 Y74.343
Z-2.586
X46.237
X46.238 Z-3.428
X50.409
Z-3.418
G0 Z5.
X50.701 Y74.393
Z-1.271
G1 Z-3.418 F40.
Z-3.428
X46.233
X46.232 Z-2.586
X45.96
Z-2.576
G0 Z5.
X52.527 Y72.443
Z-1.271
G1 Z-3.418 F40.
Z-3.428
X52.745
Z-3.418
G0 Z5.
X52.829 Y72.493
Z-1.271
G1 Z-3.418 F40.
Z-3.428
X52.611
Z-3.418
G0 Z5.
X52.695 Y72.543
Z-1.271
G1 Z-3.418 F40.
Z-3.428
X52.913
Z-3.418
G0 Z5.
X52.997 Y72.593
Z-1.271
G1 Z-3.418 F40.
Z-3.428
X52.779
Z-3.418
X52.78 Z-3.413
X52.783 Y72.595 Z-3.408
X52.787 Y72.598 Z-3.404
X52.792 Y72.601 Z-3.403
X52.851 Y72.635
X52.856 Y72.638 Z-3.404
X52.86 Y72.641 Z-3.408
X52.863 Y72.642 Z-3.413
X52.864 Y72.643 Z-3.418
Z-3.428
X53.08
X53.081 Z-3.418
G0 Z5.
X53.165 Y72.693
Z-1.271
G1 Z-3.418 F40.
Z-3.428
X52.948
Z-3.418
X52.949 Z-3.413
X52.952 Y72.695 Z-3.408
X52.956 Y72.698 Z-3.404
X52.961 Y72.701 Z-3.403
X53.02 Y72.735
X53.025 Y72.738 Z-3.404
X53.029 Y72.741 Z-3.408
X53.031 Y72.742 Z-3.413
X53.032 Y72.743 Z-3.418
Z-3.428
X53.249
Z-3.418
X53.248 Z-3.413
X53.245 Y72.744 Z-3.408
X53.24 Y72.746 Z-3.404
X53.235 Y72.748 Z-3.403
X53.131 Y72.788
X53.125 Y72.79 Z-3.404
X53.121 Y72.791 Z-3.408
X53.118 Y72.792 Z-3.413
X53.117 Y72.793 Z-3.418
Z-3.428
X54.862
Z-2.586
X55.156
X55.157 Z-2.576
X55.159 Y72.818
X55.162 Y72.843
Z-2.586
X54.866
Z-3.428
X53.201
Z-3.418
G0 Z5.
X53.278 Y72.893
Z-1.271
G1 Z-3.418 F40.
Z-3.428
X54.869
Z-2.586
X55.167
Z-2.576
X55.17 Y72.918
X55.172 Y72.943
Z-2.586
X54.874
X54.873 Z-3.428
X53.284
Z-3.418
X53.27 Y72.968
X53.257 Y72.993
Z-3.428
X54.876
X54.877 Z-2.586
X55.177
Z-2.576
X55.18 Y73.018
X55.182 Y73.043
Z-2.586
X54.88
Z-3.428
X53.229
Z-3.418
X53.215 Y73.068
X53.201 Y73.093
Z-3.428
X54.883
X54.884 Z-2.586
X55.188
Z-2.576
X55.19 Y73.118
X55.193 Y73.143
X55.191 Z-2.586
X54.887
Z-3.428
X53.174
Z-3.418
X53.146 Y73.193
Z-3.428
X54.891
Z-2.586
X55.198
Z-2.576
X55.201 Y73.218
X55.203 Y73.243
Z-2.586
X54.894
Z-3.428
X53.114
Z-3.418
X53.078 Y73.293
Z-3.428
X54.898
Z-2.586
X55.234
X55.236 Z-2.576
X55.261 Y73.318
X55.285 Y73.343
Z-2.586
X54.904
X54.902 Z-3.428
X53.042
Z-3.418
X53.006 Y73.393
Z-3.428
X54.949
Z-2.586
X55.335
Z-2.576
X55.36 Y73.418
X55.385 Y73.443
X55.384 Z-2.586
X54.999
X54.998 Z-3.428
X52.97
Z-3.418
X52.951 Y73.469
X52.929 Y73.493
Z-3.428
X55.048
X55.049 Z-2.586
X55.434
Z-2.576
X55.459 Y73.518
X55.484 Y73.543
Z-2.586
X55.1
X55.098 Z-3.428
X52.883
Z-3.418
X52.86 Y73.568
X52.837 Y73.593
Z-3.428
X55.144
X55.15 Z-2.586
X55.533
X55.534 Z-2.576
X55.558 Y73.618
X55.583 Y73.643
Z-2.586
X55.201
X55.199 Z-3.428
X52.79
Z-3.418
X52.767 Y73.668
X52.744 Y73.693
Z-3.428
X55.249
X55.251 Z-2.587
X61.749 Z-2.586
Z-2.928
X61.763
X61.766
X61.768 Z-2.927
X61.778 Y73.697
X61.783 Y73.708
Y73.728
X61.778 Y73.738
X61.768 Y73.743
X61.718
X61.716 Z-2.928
X61.714
X61.7
Z-2.586
X60.707
Z-2.576
X60.712 Y73.768
X60.703 Y73.793
Z-2.586
X61.65
Z-2.928
X61.664
X61.666
X61.668 Z-2.927
X61.679 Y73.797
X61.683 Y73.808
Y73.828
X61.679 Y73.838
X61.668 Y73.843
X61.619
X61.617 Z-2.928
X61.614
X61.601
Z-2.586
X60.658
Z-2.576
X60.635 Y73.868
X60.611 Y73.893
Z-2.586
X61.551
Z-2.928
X61.565
X61.567
X61.569 Z-2.927
X61.58 Y73.897
X61.584 Y73.908
Y73.928
X61.58 Y73.938
X61.569 Y73.943
X61.52
X61.517 Z-2.928
X61.515
X61.502
Z-2.586
X60.565
Z-2.576
X60.542 Y73.968
X60.519 Y73.993
Z-2.586
X61.452
Z-2.928
X61.466
X61.468
X61.47 Z-2.927
X61.481 Y73.997
X61.485 Y74.008
Y74.028
X61.481 Y74.038
X61.47 Y74.043
X61.42
X61.418 Z-2.928
X61.416
X61.403
Z-2.586
X60.473
Z-2.576
X60.46 Y74.066
X60.457 Y74.093
Z-2.586
X61.352
X61.353 Z-2.928
X61.367
X61.369
X61.371 Z-2.927
X61.382 Y74.097
X61.386 Y74.108
Y74.128
X61.382 Y74.138
X61.371 Y74.143
X61.322
X61.32 Z-2.928
X61.317
X61.303
X61.302 Z-2.586
X60.451
Z-2.576
X60.447 Y74.168
X60.444 Y74.193
Z-2.586
X61.253
X61.254 Z-2.928
X61.267
X61.269
X61.271 Z-2.927
X61.282 Y74.197
X61.286 Y74.208
Y74.228
X61.282 Y74.238
X61.271 Y74.243
X61.222
X61.22 Z-2.928
X61.217
X61.204
X61.203 Z-2.586
X60.437
Z-2.576
X60.434 Y74.268
X60.43 Y74.293
Z-2.586
X61.153
X61.154 Z-2.928
X61.168
X61.17
X61.173 Z-2.927
X61.183 Y74.297
X61.188 Y74.308
Y74.328
X61.183 Y74.338
X61.173 Y74.343
X61.139
X61.137 Z-2.928
X61.134
X61.125
X61.124 Z-2.586
X60.423
Z-2.576
X60.42 Y74.368
X60.416 Y74.393
Z-2.586
X61.117
Z-2.928
X61.127
X61.129
X61.131 Z-2.927
X61.142 Y74.397
X61.146 Y74.408
Y74.428
X61.142 Y74.438
X61.131 Y74.443
X61.124
X61.122 Z-2.928
X61.12
X61.11
Z-2.586
X60.409
Z-2.576
X60.406 Y74.468
X60.402 Y74.493
Z-2.586
X61.103
Z-2.928
X61.113
X61.115
X61.117 Z-2.927
X61.128 Y74.497
X61.132 Y74.508
Y74.528
X61.128 Y74.538
X61.117 Y74.543
X61.11
X61.108 Z-2.928
X61.106
X61.096
X61.095 Z-2.586
X60.395
Z-2.576
X60.392 Y74.568
X60.388 Y74.593
Z-2.586
X61.088
X61.089 Z-2.928
X61.099
X61.101
X61.103 Z-2.927
X61.114 Y74.597
X61.118 Y74.608
Y74.628
X61.114 Y74.638
X61.103 Y74.643
X61.095
X61.093 Z-2.928
X61.091
X61.082
X61.081 Z-2.586
X60.381
Z-2.576
X60.378 Y74.668
X60.374 Y74.693
Z-2.586
X61.074
X61.075 Z-2.928
X61.084
X61.086
X61.089 Z-2.927
X61.099 Y74.697
X61.104 Y74.708
Y74.728
X61.099 Y74.738
X61.089 Y74.743
X61.081
X61.079 Z-2.928
X61.077
X61.068
X61.067 Z-2.586
X60.363
Z-2.576
G0 Z5.
X58.225 Y73.743
Z-0.428
G1 Z-2.576 F40.
Z-2.586
X58.165
Z-2.576
X58.17 Y73.768
Y73.793
Z-2.586
X58.22
Z-2.576
Y73.818
Y73.843
X58.219 Z-2.586
X58.17
Z-2.576
Y73.893
Z-2.586
X58.22
Z-2.576
Y73.943
Z-2.586
X58.17
Z-2.576
Y73.968
Y73.993
Z-2.586
X58.22
Z-2.576
Y74.018
Y74.043
Z-2.586
X58.17
Z-2.576
Y74.068
Y74.093
Z-2.586
X58.219
X58.22 Z-2.576
Y74.143
Z-2.586
X58.17
Z-2.576
Y74.168
Y74.193
Z-2.586
X58.219
X58.22 Z-2.576
Y74.218
Y74.243
Z-2.586
X58.17
Z-2.576
Y74.268
Y74.293
Z-2.586
X58.22
Z-2.576
Y74.318
Y74.343
Z-2.586
X58.17
Z-2.576
Y74.393
Z-2.586
X58.22
Z-2.576
Y74.443
X58.219 Z-2.586
X58.17
Z-2.576
Y74.468
Y74.493
Z-2.586
X58.22
Z-2.576
Y74.543
X58.219 Z-2.586
X58.17
Z-2.576
Y74.568
Y74.593
Z-2.586
X58.22
Z-2.576
Y74.618
Y74.643
Z-2.586
X58.17
Z-2.576
Y74.668
Y74.693
Z-2.586
X58.219
X58.22 Z-2.576
Y74.718
X58.227 Y74.743
X58.226 Z-2.586
X58.163
Z-2.576
G0 Z5.
X55.732 Y73.743
Z-0.428
G1 Z-2.575 F40.
Z-2.576
Z-2.586
X55.302
X55.3 Z-3.428
X52.688
Z-3.418
X52.629 Y73.793
Z-3.428
X55.351
X55.352 Z-2.586
X55.736
Z-2.576
X55.761 Y73.818
X55.786 Y73.843
Z-2.586
X55.403
Z-3.428
X52.57
Z-3.418
X52.511 Y73.893
Z-3.428
X55.455
X55.456 Z-2.586
X55.837
X55.838 Z-2.576
X55.862 Y73.916
X55.884 Y73.943
Z-2.586
X55.509
Z-3.428
X52.324
Z-3.418
X52.337 Y73.966
X52.34 Y73.993
Z-3.428
X55.563
Z-2.586
X55.895
Z-2.576
X55.9 Y74.018
X55.905 Y74.043
X55.901 Z-2.586
X55.622
Z-3.428
X52.29
Z-3.418
X52.289 Z-3.412
X52.286 Y74.045 Z-3.408
X52.282 Y74.048 Z-3.404
X52.277 Y74.05 Z-3.403
X52.217 Y74.085
X52.212 Y74.088 Z-3.404
X52.207 Y74.091 Z-3.408
X52.205 Y74.092 Z-3.413
X52.204 Y74.093 Z-3.418
Z-3.428
X55.663
X55.666 Z-2.586
X55.915
Z-2.576
X55.92 Y74.118
X55.924 Y74.143
Z-2.586
X55.673
Z-3.428
X52.107
Z-3.418
G0 Z5.
X52.002 Y74.193
Z-1.271
G1 Z-3.418 F40.
Z-3.428
X55.681
Z-2.586
X55.933
Z-2.576
X55.938 Y74.218
X55.942 Y74.243
Z-2.586
X55.688
Z-3.428
X51.883
Z-3.418
G0 Z5.
X51.738 Y74.293
Z-1.271
G1 Z-3.418 F40.
Z-3.428
X55.695
X55.696 Z-2.586
X55.95
X55.951 Z-2.576
X55.959 Y74.343
Z-2.586
X55.703
Z-3.428
X51.553
Z-3.418
G0 Z5.
X51.26 Y74.393
Z-1.271
G1 Z-3.418 F40.
Z-3.428
X55.71
Z-2.586
X55.967
X55.968 Z-2.576
X55.976 Y74.443
Z-2.586
X55.718
Z-3.428
X46.227
X46.224 Z-2.586
X45.953
Z-2.576
X45.949 Y74.468
X45.946 Y74.493
Z-2.586
X46.219
X46.221 Z-3.428
X55.725
Z-2.586
X55.984
X55.985 Z-2.576
X55.993 Y74.543
Z-2.586
X55.733
X55.732 Z-3.428
X46.215
X46.214 Z-2.586
X45.939
Z-2.576
X45.935 Y74.568
X45.932 Y74.593
Z-2.586
X46.208
X46.209 Z-3.428
X55.74
Z-2.586
X56.001
X56.006 Y74.618 Z-2.581
X56.01 Y74.643 Z-2.576
Z-2.586
X55.747
Z-3.428
X46.203
X46.201 Z-2.586
X45.925
Z-2.576
X45.922 Y74.668
X45.918 Y74.693
Z-2.586
X46.195
X46.196 Z-3.428
X55.755
Z-2.586
X56.019
X56.023 Y74.718 Z-2.581
X56.03 Y74.743 Z-2.576
Z-2.586
X55.762
Z-3.428
X46.19
X46.189 Z-2.586
X45.907
Z-2.576
G0 Z5.
X40.867 Y74.793
Z-0.555
G1 Z-2.918 F40.
X40.87 Z-2.925
X40.877 Z-2.928
X40.886
Z-2.586
X46.182
X46.183 Z-3.428
X55.769
X55.77 Z-2.586
X61.06
Z-2.928
X61.069
X61.072
X61.074 Z-2.927
X61.084 Y74.797
X61.089 Y74.808
Y74.828
X61.084 Y74.838
X61.074 Y74.843
X61.067
X61.065 Z-2.928
X61.063
X61.053
X61.052 Z-2.586
X60.342
Z-2.576
X60.35 Y74.867
X60.347 Y74.893
Z-2.586
X61.045
X61.046 Z-2.928
X61.056
X61.058
X61.06 Z-2.927
X61.071 Y74.897
X61.075 Y74.908
Y74.928
X61.071 Y74.938
X61.06 Y74.943
X61.053
X61.051 Z-2.928
X61.049
X61.039
X61.038 Z-2.586
X60.34
Z-2.576
X60.333 Y74.993
Z-2.586
X61.031
X61.032 Z-2.928
X61.042
X61.044
X61.046 Z-2.927
X61.057 Y74.997
X61.061 Y75.008
Y75.028
X61.057 Y75.038
X61.046 Y75.043
X61.039
X61.036 Z-2.928
X61.034
X61.025
X61.024 Z-2.586
X60.326
Z-2.576
X60.318 Y75.093
Z-2.586
X61.017
Z-2.928
X61.026
X61.029
X61.031 Z-2.927
X61.041 Y75.097
X61.046 Y75.108
Y75.128
X61.041 Y75.138
X61.031 Y75.143
X61.024
X61.021 Z-2.928
X61.019
X61.01
X61.009 Z-2.586
X60.311
Z-2.576
X60.304 Y75.193
Z-2.586
X61.002
X61.003 Z-2.928
X61.013
X61.015
X61.017 Z-2.927
X61.028 Y75.197
X61.032 Y75.208
Y75.228
X61.028 Y75.238
X61.017 Y75.243
X61.01
X61.007 Z-2.928
X61.005
X60.996
Z-2.586
X60.297
Z-2.576
X60.293 Y75.268
X60.29 Y75.293
Z-2.586
X60.988
X60.989 Z-2.928
X60.998
X61.
X61.002 Z-2.927
X61.013 Y75.297
X61.017 Y75.308
Y75.328
X61.013 Y75.338
X61.002 Y75.343
X60.996
X60.993 Z-2.928
X60.991
X60.981
Z-2.586
X60.283
Z-2.576
X60.279 Y75.368
X60.276 Y75.393
Z-2.586
X60.973
X60.974 Z-2.928
X60.984
X60.986
X60.988 Z-2.927
X60.999 Y75.397
X61.003 Y75.408
Y75.428
X60.999 Y75.438
X60.988 Y75.443
X60.981
X60.979 Z-2.928
X60.977
X60.967
X60.966 Z-2.586
X60.268
Z-2.576
X60.265 Y75.468
X60.261 Y75.493
Z-2.586
X60.959
X60.96 Z-2.928
X60.969
X60.971
X60.973 Z-2.927
X60.984 Y75.497
X60.988 Y75.508
Y75.528
X60.984 Y75.538
X60.973 Y75.543
X60.967
X60.964 Z-2.928
X60.962
X60.953
X60.952 Z-2.586
X60.254
Z-2.576
X60.25 Y75.568
X60.247 Y75.593
Z-2.586
X60.944
X60.945 Z-2.928
X60.955
X60.957
X60.959 Z-2.927
X60.97 Y75.597
X60.974 Y75.608
Y75.628
X60.97 Y75.638
X60.959 Y75.643
X60.951
X60.949 Z-2.928
X60.947
X60.938
Z-2.586
X60.24
X60.239 Z-2.576
X60.236 Y75.668
X60.232 Y75.693
Z-2.586
X60.931
Z-2.928
X60.94
X60.942
X60.945 Z-2.927
X60.955 Y75.697
X60.96 Y75.708
Y75.728
X60.955 Y75.738
X60.945 Y75.743
X60.937
X60.935 Z-2.928
X60.933
X60.924
X60.923 Z-2.586
X60.225
Z-2.576
X60.221 Y75.768
X60.218 Y75.793
Z-2.586
X60.916
Z-2.928
X60.926
X60.928
X60.931 Z-2.927
X60.941 Y75.797
X60.946 Y75.808
Y75.828
X60.941 Y75.838
X60.931 Y75.843
X60.924
X60.921 Z-2.928
X60.919
X60.909
Z-2.586
X60.209
Z-2.576
G0 Z5.
X59.378 Y74.843
Z-0.428
G1 Z-2.575 F40.
Z-2.576
X59.377 Z-2.586
X59.31
Z-2.576
X59.318 Y74.867
Y74.893
Z-2.586
X59.368
X59.369 Z-2.576
X59.37 Y74.918
X59.369 Y74.943
Z-2.586
X59.319
Z-2.576
X59.318 Y74.968
Y74.993
X59.319 Z-2.586
X59.369
Z-2.576
X59.37 Y75.018
X59.369 Y75.043
Z-2.586
X59.318
Z-2.576
Y75.093
Z-2.586
X59.367
X59.37 Z-2.576
Y75.118
Y75.143
X59.369 Z-2.586
X59.318
Z-2.576
Y75.193
Z-2.586
X59.369
X59.37 Z-2.576
Y75.218
X59.369 Y75.243
Z-2.586
X59.318
Z-2.576
Y75.268
Y75.293
Z-2.586
X59.369
Z-2.576
X59.37 Y75.318
Y75.343
Z-2.586
X59.319
Z-2.576
X59.318 Y75.368
Y75.393
Z-2.586
X59.369
X59.37 Z-2.576
Y75.418
Y75.443
X59.368 Z-2.586
X59.319
Z-2.576
X59.318 Y75.468
X59.319 Y75.493
Z-2.586
X59.369
X59.37 Z-2.576
Y75.518
X59.369 Y75.543
Z-2.586
X59.318
Z-2.576
Y75.568
Y75.593
Z-2.586
X59.369
X59.37 Z-2.576
Y75.618
Y75.643
Z-2.586
X59.318
Z-2.576
Y75.693
Z-2.586
X59.369
Z-2.576
X59.37 Y75.718
Y75.743
X59.369 Z-2.586
X59.318
Z-2.576
Y75.768
X59.319 Y75.793
Z-2.586
X59.369
Z-2.576
X59.37 Y75.818
X59.374 Y75.843
X59.373 Z-2.586
X59.314
Z-2.576
G0 Z5.
X57.078 Y74.843
Z-0.428
G1 Z-2.576 F40.
X57.076 Z-2.586
X57.012
Z-2.576
X57.02 Y74.867
Y74.893
Z-2.586
X57.069
Z-2.576
X57.07 Y74.918
Y74.943
X57.069 Z-2.586
X57.02
Z-2.576
Y74.968
Y74.993
Z-2.586
X57.069
Z-2.576
X57.07 Y75.018
Y75.043
X57.069 Z-2.586
X57.02
Z-2.576
Y75.068
Y75.093
Z-2.586
X57.069
X57.07 Z-2.576
Y75.143
X57.069 Z-2.586
X57.02
Z-2.576
Y75.168
Y75.193
Z-2.586
X57.069
X57.07 Z-2.576
Y75.243
X57.069 Z-2.586
X57.02
Z-2.576
Y75.268
Y75.293
Z-2.586
X57.069
X57.07 Z-2.576
Y75.318
X57.069 Y75.343
Z-2.586
X57.02
Z-2.576
Y75.368
Y75.393
Z-2.586
X57.069
Z-2.576
X57.07 Y75.418
X57.069 Y75.443
Z-2.586
X57.02
Z-2.576
Y75.468
Y75.493
Z-2.586
X57.069
X57.07 Z-2.576
Y75.518
X57.069 Y75.543
Z-2.586
X57.02
Z-2.576
Y75.568
Y75.593
Z-2.586
X57.069
X57.07 Z-2.576
Y75.643
X57.069 Z-2.586
X57.02
Z-2.576
Y75.668
Y75.693
Z-2.586
X57.069
Z-2.576
X57.07 Y75.718
Y75.743
X57.069 Z-2.586
X57.02
Z-2.576
Y75.768
Y75.793
Z-2.586
X57.069
Z-2.576
X57.07 Y75.818
X57.073 Y75.843
Z-2.586
X57.016
Z-2.576
G0 Z5.
X56.058 Y74.843
Z-0.428
G1 Z-2.575 F40.
Z-2.576
X56.057 Z-2.586
X55.777
Z-3.428
X46.177
X46.176 Z-2.586
X45.884
Z-2.576
X45.892 Y74.867
X45.889 Y74.893
Z-2.586
X46.169
X46.17 Z-3.428
X55.784
Z-2.586
X56.053
Z-2.576
X56.057 Y74.918
X56.061 Y74.943
Z-2.586
X55.792
Z-3.428
X46.164
X46.163 Z-2.586
X45.882
Z-2.576
X45.879 Y74.968
X45.875 Y74.993
Z-2.586
X46.156
X46.157 Z-3.428
X46.959
X46.961 Z-3.929
X47.991
Z-3.428
X49.294
X49.296 Z-3.929
X50.327
X50.328 Z-3.428
X51.629
X51.63 Z-3.929
X52.662
X52.663 Z-3.428
X53.967
Z-3.929
X54.998
X54.999 Z-3.428
X55.799
Z-2.586
X56.069
Z-2.576
X56.074 Y75.018
X56.078 Y75.043
Z-2.586
X55.807
X55.806 Z-3.428
X54.999
Z-3.929
X53.967
Z-3.428
X52.663
X52.662 Z-3.929
X51.63
X51.629 Z-3.428
X50.328
X50.327 Z-3.929
X49.296
X49.294 Z-3.428
X47.991
Z-3.929
X46.961
X46.959 Z-3.428
X46.15
X46.146 Z-2.586
X45.868
Z-2.576
X45.864 Y75.068
X45.861 Y75.093
Z-2.586
X46.142
X46.143 Z-3.428
X46.959
X46.961 Z-3.929
X47.991
Z-3.428
X49.294
X49.296 Z-3.929
X50.327
X50.328 Z-3.428
X51.629
X51.63 Z-3.929
X52.663
Z-3.428
X53.967
Z-3.929
X54.998
X54.999 Z-3.428
X55.814
Z-2.586
X56.086
Z-2.576
X56.091 Y75.118
X56.095 Y75.143
X56.094 Z-2.586
X55.821
Z-3.428
X54.999
X54.998 Z-3.929
X53.967
X53.966 Z-3.428
X52.663
Z-3.929
X51.63
X51.629 Z-3.428
X50.328
X50.327 Z-3.929
X49.296
X49.294 Z-3.428
X47.991
Z-3.929
X46.961
X46.959 Z-3.428
X46.136
X46.135 Z-2.586
X45.854
Z-2.576
X45.85 Y75.168
X45.847 Y75.193
Z-2.586
X46.128
X46.129 Z-3.428
X46.959
X46.961 Z-3.929
X47.991
Z-3.428
X49.294
X49.295 Z-3.929
X50.328
Z-3.428
X51.629
X51.63 Z-3.929
X52.663
Z-3.428
X53.967
Z-3.929
X54.999
Z-3.428
X55.829
Z-2.586
X56.103
Z-2.576
X56.107 Y75.218
X56.111 Y75.243
Z-2.586
X55.836
Z-3.428
X54.999
Z-3.929
X53.967
Z-3.428
X52.663
X52.662 Z-3.929
X51.63
X51.629 Z-3.428
X50.328
Z-3.929
X49.296
X49.294 Z-3.428
X47.991
Z-3.929
X46.961
X46.959 Z-3.428
X46.122
X46.121 Z-2.586
X45.84
X45.839 Z-2.576
X45.836 Y75.268
X45.832 Y75.293
Z-2.586
X46.114
X46.115 Z-3.428
X46.959
X46.961 Z-3.929
X47.991
Z-3.428
X49.294
X49.296 Z-3.929
X50.327
X50.328 Z-3.428
X51.629
X51.63 Z-3.929
X52.663
Z-3.428
X53.967
Z-3.929
X54.997
X54.999 Z-3.428
X55.843
X55.844 Z-2.586
X56.116
X56.12 Z-2.576
X56.124 Y75.318
X56.128 Y75.343
Z-2.586
X55.851
Z-3.428
X54.999
Z-3.929
X53.967
Z-3.428
X52.663
Z-3.929
X51.63
X51.629 Z-3.428
X50.328
X50.327 Z-3.929
X49.296
X49.294 Z-3.428
X47.991
Z-3.929
X46.961
X46.959 Z-3.428
X46.108
Z-2.586
X45.825
Z-2.576
X45.821 Y75.368
X45.818 Y75.393
Z-2.586
X46.1
X46.102 Z-3.428
X46.959
X46.961 Z-3.929
X47.991
Z-3.428
X49.294
X49.296 Z-3.929
X50.327
X50.328 Z-3.428
X51.629
X51.63 Z-3.929
X52.663
Z-3.428
X53.966
X53.967 Z-3.929
X54.998
X54.999 Z-3.428
X55.858
Z-2.586
X56.137
Z-2.576
X56.142 Y75.418
X56.146 Y75.443
Z-2.586
X55.866
Z-3.428
X54.999
X54.998 Z-3.929
X53.967
X53.966 Z-3.428
X52.663
X52.662 Z-3.929
X51.63
X51.629 Z-3.428
X50.328
X50.327 Z-3.929
X49.296
X49.294 Z-3.428
X47.991
Z-3.929
X46.961
X46.959 Z-3.428
X46.095
X46.094 Z-2.586
X45.811
Z-2.576
X45.803 Y75.493
Z-2.586
X46.087
X46.088 Z-3.428
X46.959
X46.961 Z-3.929
X47.99
X47.991 Z-3.428
X49.294
X49.295 Z-3.929
X50.328
Z-3.428
X51.629
X51.63 Z-3.929
X52.663
Z-3.428
X53.967
Z-3.929
X54.999
Z-3.428
X55.873
Z-2.586
X56.154
X56.155 Z-2.576
X56.159 Y75.518
X56.163 Y75.543
Z-2.586
X55.881
X55.88 Z-3.428
X54.999
X54.998 Z-3.929
X53.967
Z-3.428
X52.663
X52.662 Z-3.929
X51.63
X51.629 Z-3.428
X50.328
X50.327 Z-3.929
X49.296
X49.294 Z-3.428
X47.991
Z-3.929
X46.961
X46.959 Z-3.428
X46.08
X46.079 Z-2.586
X45.796
Z-2.576
X45.793 Y75.568
X45.789 Y75.593
Z-2.586
X46.07
X46.073 Z-3.428
X46.959
X46.961 Z-3.929
X47.991
Z-3.428
X49.294
X49.296 Z-3.929
X50.328
Z-3.428
X51.629
X51.63 Z-3.929
X52.662
X52.663 Z-3.428
X53.967
Z-3.929
X54.999
Z-3.428
X55.888
Z-2.586
X56.171
X56.172 Z-2.576
X56.177 Y75.618
X56.181 Y75.643
Z-2.586
X55.895
Z-3.428
X54.999
Z-3.929
X53.967
Z-3.428
X52.663
X52.662 Z-3.929
X51.63
X51.629 Z-3.428
X50.328
X50.327 Z-3.929
X49.296
X49.294 Z-3.428
X47.991
Z-3.929
X46.961
X46.959 Z-3.428
X46.066
X46.065 Z-2.586
X45.782
Z-2.576
X45.778 Y75.668
X45.775 Y75.693
Z-2.586
X46.057
X46.059 Z-3.428
X46.959
X46.961 Z-3.929
X47.991
Z-3.428
X49.294
X49.296 Z-3.929
X50.327
X50.328 Z-3.428
X51.629
X51.63 Z-3.929
X52.663
Z-3.428
X53.967
Z-3.929
X54.998
X54.999 Z-3.428
X55.903
Z-2.586
X56.189
X56.19 Z-2.576
X56.194 Y75.718
X56.199 Y75.743
X56.198 Z-2.586
X55.91
Z-3.428
X54.999
X54.998 Z-3.929
X53.967
Z-3.428
X52.663
Z-3.929
X51.63
X51.629 Z-3.428
X50.328
Z-3.929
X49.296
X49.294 Z-3.428
X47.991
Z-3.929
X46.961
X46.959 Z-3.428
X46.052
X46.048 Z-2.586
X45.767
Z-2.576
X45.764 Y75.768
X45.76 Y75.793
Z-2.586
X46.044
X46.045 Z-3.428
X46.959
X46.961 Z-3.929
X47.991
Z-3.428
X49.294
X49.296 Z-3.929
X50.328
Z-3.428
X51.629
X51.63 Z-3.929
X52.662
X52.663 Z-3.428
X53.967
Z-3.929
X54.999
Z-3.428
X55.917
X55.918 Z-2.586
X56.207
Z-2.576
X56.212 Y75.818
X56.218 Y75.843
X56.217 Z-2.586
X55.92
X55.919 Z-3.428
X54.999
X54.998 Z-3.929
X53.967
Z-3.428
X52.663
Z-3.929
X51.63
X51.629 Z-3.428
X50.328
X50.327 Z-3.929
X49.296
X49.294 Z-3.428
X47.991
Z-3.929
X46.961
X46.959 Z-3.428
X46.042
X46.04 Z-2.586
X45.751
Z-2.576
G0 Z5.
X44.92 Y74.843
Z-0.428
G1 Z-2.575 F40.
Z-2.576
Z-2.586
X44.851
Z-2.576
X44.859 Y74.867
Y74.893
Z-2.586
X44.912
Z-2.576
Y74.943
Z-2.586
X44.86
Z-2.576
X44.859 Y74.968
Y74.993
Z-2.586
X44.911
X44.912 Z-2.576
Y75.043
Z-2.586
X44.859
Z-2.576
Y75.093
Z-2.586
X44.912
Z-2.576
Y75.118
Y75.143
X44.91 Z-2.586
X44.859
Z-2.576
Y75.168
X44.86 Y75.193
Z-2.586
X44.912
Z-2.576
Y75.218
Y75.243
X44.91 Z-2.586
X44.859
Z-2.576
Y75.293
Z-2.586
X44.912
Z-2.576
Y75.318
Y75.343
Z-2.586
X44.86
Z-2.576
X44.859 Y75.368
Y75.393
Z-2.586
X44.912
Z-2.576
Y75.418
Y75.443
Z-2.586
X44.859
Z-2.576
Y75.493
Z-2.586
X44.912
Z-2.576
Y75.518
Y75.543
Z-2.586
X44.86
Z-2.576
X44.859 Y75.568
X44.86 Y75.593
Z-2.586
X44.912
Z-2.576
Y75.618
Y75.643
Z-2.586
X44.859
Z-2.576
Y75.668
X44.86 Y75.693
Z-2.586
X44.912
Z-2.576
Y75.718
Y75.743
Z-2.586
X44.859
Z-2.576
Y75.793
Z-2.586
X44.912
Z-2.576
Y75.818
X44.916 Y75.843
X44.915 Z-2.586
X44.856
Z-2.576
G0 Z5.
X42.62 Y74.843
Z-0.428
G1 Z-2.575 F40.
Z-2.576
Z-2.586
X42.553
Z-2.576
X42.561 Y74.867
Y74.893
Z-2.586
X42.612
Z-2.576
Y74.918
Y74.943
Z-2.586
X42.561
Z-2.576
Y74.968
Y74.993
Z-2.586
X42.612
Z-2.576
Y75.018
Y75.043
Z-2.586
X42.561
Z-2.576
Y75.068
Y75.093
Z-2.586
X42.612
Z-2.576
Y75.118
Y75.143
Z-2.586
X42.561
Z-2.576
Y75.193
Z-2.586
X42.612
Z-2.576
Y75.218
Y75.243
Z-2.586
X42.561
Z-2.576
Y75.268
Y75.293
Z-2.586
X42.612
Z-2.576
Y75.318
Y75.343
Z-2.586
X42.561
Z-2.576
Y75.368
Y75.393
Z-2.586
X42.612
Z-2.576
Y75.418
Y75.443
Z-2.586
X42.561
Z-2.576
Y75.468
Y75.493
Z-2.586
X42.611
X42.612 Z-2.576
Y75.543
Z-2.586
X42.561
Z-2.576
Y75.568
Y75.593
Z-2.586
X42.612
Z-2.576
Y75.643
X42.611 Z-2.586
X42.561
Z-2.576
Y75.693
Z-2.586
X42.612
Z-2.576
Y75.743
X42.611 Z-2.586
X42.561
Z-2.576
Y75.768
Y75.793
Z-2.586
X42.612
Z-2.576
Y75.818
X42.616 Y75.843
Z-2.586
X42.557
Z-2.576
G0 Z5.
X41.599 Y74.843
Z-0.428
G1 Z-2.575 F40.
Z-2.576
X41.598 Z-2.586
X40.893
Z-2.928
X40.883
X40.881
X40.879 Z-2.927
X40.868 Y74.847
X40.864 Y74.858
Y74.878
X40.868 Y74.888
X40.879 Y74.893
X40.887
X40.889 Z-2.928
X40.891
X40.9
Z-2.586
X41.593
X41.594 Z-2.576
X41.602 Y74.943
Z-2.586
X40.908
X40.907 Z-2.928
X40.899
X40.896
X40.894 Z-2.927
X40.884 Y74.947
X40.879 Y74.958
Y74.978
X40.884 Y74.988
X40.894 Y74.993
X40.901
X40.903 Z-2.928
X40.905
X40.915
Z-2.586
X41.61
X41.611 Z-2.576
X41.615 Y75.018
X41.619 Y75.043
Z-2.586
X40.922
Z-2.928
X40.912
X40.91
X40.908 Z-2.927
X40.897 Y75.047
X40.893 Y75.058
Y75.078
X40.897 Y75.088
X40.908 Y75.093
X40.915
X40.918 Z-2.928
X40.92
X40.928
X40.929 Z-2.586
X41.627
X41.628 Z-2.576
X41.632 Y75.118
X41.636 Y75.143
Z-2.586
X40.937
Z-2.928
X40.927
X40.925
X40.923 Z-2.927
X40.912 Y75.147
X40.908 Y75.158
Y75.178
X40.912 Y75.188
X40.923 Y75.193
X40.93
X40.932 Z-2.928
X40.934
X40.944
Z-2.586
X41.644
X41.645 Z-2.576
X41.649 Y75.218
X41.653 Y75.243
Z-2.586
X40.951
X40.949 Z-2.928
X40.941
X40.939
X40.937 Z-2.927
X40.926 Y75.247
X40.922 Y75.258
Y75.278
X40.926 Y75.288
X40.937 Y75.293
X40.944
X40.946 Z-2.928
X40.948
X40.958
Z-2.586
X41.661
X41.662 Z-2.576
X41.666 Y75.318
X41.67 Y75.343
Z-2.586
X40.966
X40.965 Z-2.928
X40.956
X40.953
X40.951 Z-2.927
X40.941 Y75.347
X40.936 Y75.358
Y75.378
X40.941 Y75.388
X40.951 Y75.393
X40.959
X40.961 Z-2.928
X40.963
X40.972
X40.973 Z-2.586
X41.679
Z-2.576
X41.683 Y75.418
X41.687 Y75.443
Z-2.586
X40.98
X40.979 Z-2.928
X40.97
X40.968
X40.966 Z-2.927
X40.955 Y75.447
X40.951 Y75.458
Y75.478
X40.955 Y75.488
X40.966 Y75.493
X40.973
X40.975 Z-2.928
X40.978
X40.983
X40.987 Z-2.586
X41.695
X41.696 Z-2.576
X41.701 Y75.518
X41.705 Y75.543
X41.704 Z-2.586
X40.995
X40.994 Z-2.928
X40.985
X40.983
X40.981 Z-2.927
X40.97 Y75.547
X40.966 Y75.558
Y75.578
X40.97 Y75.588
X40.981 Y75.593
X40.988
X40.99 Z-2.928
X40.992
X41.002
Z-2.586
X41.713
X41.714 Z-2.576
X41.718 Y75.618
X41.722 Y75.643
Z-2.586
X41.009
Z-2.928
X41.
X40.997
X40.995 Z-2.927
X40.985 Y75.647
X40.98 Y75.658
Y75.678
X40.985 Y75.688
X40.995 Y75.693
X41.002
X41.004 Z-2.928
X41.006
X41.016
Z-2.586
X41.731
Z-2.576
X41.74 Y75.743
X41.739 Z-2.586
X41.023
Z-2.928
X41.014
X41.012
X41.009 Z-2.927
X40.999 Y75.747
X40.994 Y75.758
Y75.778
X40.999 Y75.788
X41.009 Y75.793
X41.017
X41.019 Z-2.928
X41.021
X41.031
Z-2.586
X41.746
X41.748 Z-2.576
X41.753 Y75.818
X41.759 Y75.843
X41.758 Z-2.586
X41.038
X41.034 Z-2.928
X41.028
X41.026
X41.024 Z-2.927
X41.013 Y75.847
X41.009 Y75.858
Y75.878
X41.013 Y75.888
X41.024 Y75.893
X41.031
X41.034 Z-2.928
X41.036
X41.045
Z-2.586
X46.074
Z-3.428
X46.934
X46.935 Z-3.929
X48.016
X48.017 Z-3.428
X49.269
X49.27 Z-3.929
X50.353
X50.354 Z-3.428
X51.603
X51.604 Z-3.929
X52.688
X52.689 Z-3.428
X53.941
Z-3.929
X55.023
X55.024 Z-3.428
X55.887
Z-2.586
X60.902
Z-2.928
X60.911
X60.913
X60.916 Z-2.927
X60.926 Y75.897
X60.931 Y75.908
Y75.928
X60.926 Y75.938
X60.916 Y75.943
X60.908
X60.906 Z-2.928
X60.904
X60.895
X60.894 Z-2.586
X60.18
Z-2.576
X60.191 Y75.967
Y75.993
Z-2.586
X60.886
X60.887 Z-2.928
X60.897
X60.899
X60.901 Z-2.927
X60.912 Y75.997
X60.916 Y76.008
Y76.028
X60.912 Y76.038
X60.901 Y76.043
X60.894
X60.891 Z-2.928
X60.889
X60.88
Z-2.586
X60.183
Z-2.576
X60.18 Y76.068
X60.176 Y76.093
Z-2.586
X60.873
Z-2.928
X60.882
X60.884
X60.887 Z-2.927
X60.897 Y76.097
X60.902 Y76.108
Y76.128
X60.897 Y76.138
X60.887 Y76.143
X60.879
X60.877 Z-2.928
X60.875
X60.866
X60.865 Z-2.586
X60.169
Z-2.576
X60.166 Y76.168
X60.162 Y76.193
Z-2.586
X60.858
Z-2.928
X60.868
X60.87
X60.873 Z-2.927
X60.883 Y76.197
X60.888 Y76.208
Y76.228
X60.883 Y76.238
X60.873 Y76.243
X60.865
X60.862 Z-2.928
X60.86
X60.851
X60.85 Z-2.586
X60.155
Z-2.576
X60.151 Y76.268
X60.148 Y76.293
Z-2.586
X60.843
X60.844 Z-2.928
X60.854
X60.856
X60.858 Z-2.927
X60.869 Y76.297
X60.873 Y76.308
Y76.328
X60.869 Y76.338
X60.858 Y76.343
X60.851
X60.848 Z-2.928
X60.846
X60.837
X60.836 Z-2.586
X60.141
Z-2.576
X60.137 Y76.368
X60.133 Y76.393
Z-2.586
X60.828
X60.829 Z-2.928
X60.839
X60.841
X60.843 Z-2.927
X60.854 Y76.397
X60.858 Y76.408
Y76.428
X60.854 Y76.438
X60.843 Y76.443
X60.836
X60.833 Z-2.928
X60.831
X60.822
Z-2.586
X60.127
X60.126 Z-2.576
X60.123 Y76.468
X60.119 Y76.493
Z-2.586
X60.865
X60.866 Z-2.928
X60.88
X60.882
X60.884 Z-2.927
X60.934
X60.945 Y76.497
X60.949 Y76.508
Y76.528
X60.945 Y76.538
X60.934 Y76.543
X60.932 Z-2.928
X60.93
X60.917
X60.916 Z-2.586
X60.112
Z-2.576
X60.108 Y76.568
X60.105 Y76.593
Z-2.586
X60.966
X60.967 Z-2.928
X60.981
X60.983
X60.985 Z-2.927
X61.035
X61.046 Y76.597
X61.05 Y76.608
Y76.628
X61.046 Y76.638
X61.035 Y76.643
X61.033 Z-2.928
X61.031
X61.017
Z-2.586
X60.097
Z-2.576
X60.094 Y76.668
X60.09 Y76.693
Z-2.586
X61.067
X61.068 Z-2.928
X61.081
X61.084
X61.086 Z-2.927
X61.136
X61.147 Y76.697
X61.151 Y76.708
Y76.728
X61.147 Y76.738
X61.136 Y76.743
X61.134 Z-2.928
X61.132
X61.118
X61.117 Z-2.586
X60.083
Z-2.576
X60.11 Y76.769
X60.14 Y76.793
Z-2.586
X61.168
Z-2.928
X61.182
X61.184
X61.186 Z-2.927
X61.236
X61.247 Y76.797
X61.251 Y76.808
Y76.828
X61.247 Y76.838
X61.236 Y76.843
X61.234 Z-2.928
X61.232
X61.219
X61.217 Z-2.586
X60.199
Z-2.576
X60.228 Y76.868
X60.256 Y76.893
Z-2.586
X61.268
X61.269 Z-2.928
X61.282
X61.284
X61.286 Z-2.927
X61.337
X61.348 Y76.897
X61.352 Y76.908
Y76.928
X61.348 Y76.938
X61.337 Y76.943
X61.335 Z-2.928
X61.333
X61.319
X61.318 Z-2.586
X60.268
Z-2.576
G0 Z5.
X58.233 Y75.943
Z-0.428
G1 Z-2.575 F40.
Z-2.576
X58.232 Z-2.586
X58.158
Z-2.576
X58.169 Y75.967
X58.17 Y75.993
Z-2.586
X58.22
Z-2.576
Y76.018
Y76.043
X58.219 Z-2.586
X58.17
Z-2.576
Y76.093
Z-2.586
X58.22
Y76.118
Y76.143
X58.17
Z-2.576
Y76.193
Z-2.586
X58.22
Y76.218 Z-2.581
Y76.243 Z-2.576
Z-2.586
X58.17
Z-2.576
Y76.268
Y76.293
Z-2.586
X58.22
Z-2.576
Y76.318
Y76.343
Z-2.586
X58.17
Z-2.576
Y76.368
Y76.393
Z-2.586
X58.22
Z-2.576
Y76.418
Y76.443
Z-2.586
X58.17
Z-2.576
Y76.493
Z-2.586
X58.22
Z-2.576
Y76.518
Y76.543
Z-2.586
X58.17
Z-2.576
Y76.568
Y76.593
Z-2.586
X58.22
Z-2.576
Y76.618
Y76.643
Z-2.586
X58.17
Z-2.576
Y76.693
Z-2.586
X58.218
X58.22 Z-2.576
Y76.718
Y76.743
Z-2.586
X58.17
Z-2.576
Y76.768
Y76.793
Z-2.586
X58.22
Z-2.576
Y76.818
Y76.843
Z-2.586
X58.17
Z-2.576
Y76.868
Y76.893
Z-2.586
X58.22
Z-2.576
Y76.918
X58.222 Y76.943
Z-2.586
X58.168
Z-2.576
G0 Z5.
X56.253 Y75.943
Z-0.428
G1 Z-2.576 F40.
X56.252 Z-2.586
X55.853
Z-3.929
X46.107
X46.106 Z-2.586
X45.722
Z-2.576
X45.734 Y75.967
X45.733 Y75.993
Z-2.586
X46.137
X46.14 Z-3.929
X55.819
Z-2.586
X56.243
Z-2.576
X56.247 Y76.018
X56.252 Y76.043
Z-2.586
X55.786
X55.782 Z-3.929
X46.173
X46.169 Z-2.586
X45.726
Z-2.576
X45.722 Y76.068
X45.718 Y76.093
Z-2.586
X46.206
Z-3.929
X55.752
Z-2.586
X56.261
Z-2.576
X56.266 Y76.118
X56.27 Y76.143
Z-2.586
X55.718
Z-3.929
X46.239
X46.236 Z-2.586
X45.711
Z-2.576
X45.707 Y76.168
