(1001)
(T1  D=1. CR=0. - ZMIN=-0.256 - FLAT END MILL)
G0 G90 G94 G17
G21
G53 G0 Z0.

(PARALLEL10)
M5
M9
T1
S12000 M3
G4 P4.
G55
M8
G0 X69.182 Y43.693
Z15.
Z9.935
G1 Z-0.251 F200.
X68.505 Z-0.256
Z-0.251
X68.582 Y43.793
Z-0.256
X69.215 Z-0.251
X69.247 Y43.893
X68.627 Z-0.256
Z-0.251
X68.648 Y43.993
Z-0.256
X69.28 Z-0.251
X69.312 Y44.093
X68.65 Z-0.256
Z-0.251
Y44.193
Z-0.256
X69.345 Z-0.251
X69.376 Y44.293
X68.65 Z-0.256
Z-0.251
Y44.393
Z-0.256
X69.405 Z-0.251
X69.434 Y44.493
X68.65 Z-0.256
Z-0.251
Y44.593
Z-0.256
X69.463 Z-0.251
X69.492 Y44.693
X68.65 Z-0.256
Z-0.251
Y44.793
Z-0.256
X69.521 Z-0.251
X69.55 Y44.893
X68.65 Z-0.256
Z-0.251
Y44.993
Z-0.256
X69.579 Z-0.251
X69.608 Y45.093
X68.65 Z-0.256
Z-0.251
Y45.193
Z-0.256
X69.637 Z-0.251
X69.664 Y45.293
X68.65 Z-0.256
Z-0.251
Y45.393
Z-0.256
X69.691 Z-0.251
X69.717 Y45.493
X68.65 Z-0.256
Z-0.251
Y45.593
Z-0.256
X69.743 Z-0.251
X69.769 Y45.693
X68.65 Z-0.256
Z-0.251
Y45.793
Z-0.256
X69.795 Z-0.251
X69.819 Y45.893
X68.65 Z-0.256
Z-0.251
Y45.993
Z-0.256
X69.844 Z-0.251
X69.868 Y46.093
X68.65 Z-0.256
Z-0.251
Y46.193
Z-0.256
X69.893 Z-0.251
X69.917 Y46.293
X68.65 Z-0.256
Z-0.251
Y46.393
Z-0.256
X69.939 Z-0.251
X69.962 Y46.493
X68.65 Z-0.256
Z-0.251
Y46.593
Z-0.256
X69.985 Z-0.251
X70.007 Y46.693
X68.65 Z-0.256
Z-0.251
G0 Z9.935
X67.93 Y47.486
G1 X67.925 Y47.491 Z9.932 F200.
X67.923 Y47.493 Z9.925
Z-0.251
X65.501 Z-0.256
Z-0.251
Y47.593
Z-0.256
X67.923 Z-0.251
Y47.693
X65.501 Z-0.256
Z-0.251
Y47.793
Z-0.256
X67.923 Z-0.251
Y47.893
X65.501 Z-0.256
Z-0.251
Y47.993
Z-0.256
X67.923 Z-0.251
Y48.093
X65.501 Z-0.256
Z-0.251
Y48.193
Z-0.256
X67.923 Z-0.251
Y48.293
X65.501 Z-0.256
Z-0.251
Y48.393
Z-0.256
X67.923 Z-0.251
Y48.493
X65.501 Z-0.256
Z-0.251
Y48.593
Z-0.256
X67.923 Z-0.251
Y48.693
X65.501 Z-0.256
Z-0.251
Y48.793
Z-0.256
X67.923 Z-0.251
Y48.893
X65.501 Z-0.256
Z-0.251
Y48.993
Z-0.256
X67.923 Z-0.251
Y49.093
X65.501 Z-0.256
Z-0.251
Y49.193
Z-0.256
X67.923 Z-0.251
Y49.293
X65.501 Z-0.256
Z-0.251
Y49.393
Z-0.256
X67.923 Z-0.251
Y49.493
X65.501 Z-0.256
Z-0.251
Y49.593
Z-0.256
X67.923 Z-0.251
Y49.693
X65.501 Z-0.256
Z-0.251
Y49.793
Z-0.256
X67.923 Z-0.251
G0 Z9.935
X68.642 Y50.685
G1 X68.646 Y50.691 Z9.932 F200.
X68.648 Y50.693 Z9.925
Z-0.251
Z-0.256
X70.638 Z-0.251
X70.648 Y50.793
X68.648 Z-0.256
Z-0.251
Y50.893
Z-0.256
X70.657 Z-0.251
X70.667 Y50.993
X68.648 Z-0.256
Z-0.251
Y51.093
Z-0.256
X70.676 Z-0.251
X70.683 Y51.193
X68.648 Z-0.256
Z-0.251
Y51.293
Z-0.256
X70.69 Z-0.251
X70.697 Y51.393
X68.648 Z-0.256
Z-0.251
Y51.493
Z-0.256
X70.704 Z-0.251
X70.711 Y51.593
X68.648 Z-0.256
Z-0.251
Y51.693
Z-0.256
X70.717 Z-0.251
X70.724 Y51.793
X68.648 Z-0.256
Z-0.251
Y51.893
Z-0.256
X70.731 Z-0.251
X70.738 Y51.993
X68.648 Z-0.256
Z-0.251
Y52.093
Z-0.256
X70.744 Z-0.251
X70.748 Y52.193
X68.648 Z-0.256
Z-0.251
Y52.293
Z-0.256
X70.752 Z-0.251
X70.756 Y52.393
X68.648 Z-0.256
Z-0.251
Y52.493
Z-0.256
X70.76 Z-0.251
X70.764 Y52.593
X68.648 Z-0.256
Z-0.251
Y52.693
Z-0.256
X70.768 Z-0.251
X70.772 Y52.793
X68.648 Z-0.256
Z-0.251
Y52.893
Z-0.256
X70.776 Z-0.251
X70.78 Y52.993
X68.648 Z-0.256
Z-0.251
Y53.093
Z-0.256
X70.783 Z-0.251
X70.784 Y53.193
X68.648 Z-0.256
Z-0.251
Y53.293
Z-0.256
X70.786 Z-0.251
X70.787 Y53.393
X68.633 Z-0.256
Z-0.251
X68.595 Y53.493
Z-0.256
X70.788 Z-0.251
X70.789 Y53.593
X68.529 Z-0.256
Z-0.251
G0 Z9.934
X64.798 Y50.693
Z9.84
G1 Z-0.251 F200.
X62.362 Z-0.256
Z-0.251
Y50.793
Z-0.256
X64.798 Z-0.251
Y50.893
X62.362 Z-0.256
Z-0.251
Y50.993
Z-0.256
X64.798 Z-0.251
Y51.093
X62.362 Z-0.256
Z-0.251
Y51.193
Z-0.256
X64.798 Z-0.251
Y51.293
X62.362 Z-0.256
Z-0.251
Y51.393
Z-0.256
X64.798 Z-0.251
Y51.493
X62.362 Z-0.256
Z-0.251
Y51.593
Z-0.256
X64.798 Z-0.251
Y51.693
X62.362 Z-0.256
Z-0.251
Y51.793
Z-0.256
X64.798 Z-0.251
Y51.893
X62.362 Z-0.256
Z-0.251
Y51.993
Z-0.256
X64.798 Z-0.251
Y52.093
X62.362 Z-0.256
Z-0.251
Y52.193
Z-0.256
X64.798 Z-0.251
Y52.293
X62.362 Z-0.256
Z-0.251
Y52.393
Z-0.256
X64.798 Z-0.251
Y52.493
X62.362 Z-0.256
Z-0.251
Y52.593
Z-0.256
X64.798 Z-0.251
Y52.693
X62.362 Z-0.256
Z-0.251
Y52.793
Z-0.256
X64.798 Z-0.251
Y52.893
X62.362 Z-0.256
Z-0.251
Y52.993
Z-0.256
X64.798 Z-0.251
Y53.093
X62.362 Z-0.256
Z-0.251
Y53.193
Z-0.256
X64.798 Z-0.251
X64.799 Y53.293
X62.362 Z-0.256
Z-0.251
X62.346 Y53.393
Z-0.256
X64.814 Z-0.251
X64.852 Y53.493
X62.309 Z-0.256
Z-0.251
X62.243 Y53.593
Z-0.256
X64.918 Z-0.251
G0 Z9.934
X61.654 Y47.493
Z9.84
G1 Z-0.251 F200.
X59.215 Z-0.256
Z-0.251
Y47.593
Z-0.256
X61.654 Z-0.251
Y47.693
X59.215 Z-0.256
Z-0.251
Y47.793
Z-0.256
X61.654 Z-0.251
Y47.893
X59.215 Z-0.256
Z-0.251
Y47.993
Z-0.256
X61.654 Z-0.251
Y48.093
X59.215 Z-0.256
Z-0.251
Y48.193
Z-0.256
X61.654 Z-0.251
Y48.293
X59.215 Z-0.256
Z-0.251
Y48.393
Z-0.256
X61.654 Z-0.251
Y48.493
X59.215 Z-0.256
Z-0.251
Y48.593
Z-0.256
X61.654 Z-0.251
Y48.693
X59.215 Z-0.256
Z-0.251
Y48.793
Z-0.256
X61.654 Z-0.251
Y48.893
X59.215 Z-0.256
Z-0.251
Y48.993
Z-0.256
X61.654 Z-0.251
Y49.093
X59.215 Z-0.256
Z-0.251
Y49.193
Z-0.256
X61.654 Z-0.251
Y49.293
X59.215 Z-0.256
Z-0.251
Y49.393
Z-0.256
X61.654 Z-0.251
Y49.493
X59.215 Z-0.256
Z-0.251
Y49.593
Z-0.256
X61.654 Z-0.251
Y49.693
X59.215 Z-0.256
Z-0.251
Y49.793
Z-0.256
X61.654 Z-0.251
G0 Z9.84
X58.522 Y50.69
G1 X58.515 Y50.692 Z9.837 F200.
X58.512 Y50.693 Z9.83
Z-0.251
X56.073 Z-0.256
Z-0.251
Y50.793
Z-0.256
X58.512 Z-0.251
Y50.893
X56.073 Z-0.256
Z-0.251
Y50.993
Z-0.256
X58.512 Z-0.251
Y51.093
X56.073 Z-0.256
Z-0.251
Y51.193
Z-0.256
X58.512 Z-0.251
Y51.293
X56.073 Z-0.256
Z-0.251
Y51.393
Z-0.256
X58.512 Z-0.251
Y51.493
X56.073 Z-0.256
Z-0.251
Y51.593
Z-0.256
X58.512 Z-0.251
Y51.693
X56.073 Z-0.256
Z-0.251
Y51.793
Z-0.256
X58.512 Z-0.251
Y51.893
X56.073 Z-0.256
Z-0.251
Y51.993
Z-0.256
X58.512 Z-0.251
Y52.093
X56.073 Z-0.256
Z-0.251
Y52.193
Z-0.256
X58.512 Z-0.251
Y52.293
X56.073 Z-0.256
Z-0.251
Y52.393
Z-0.256
X58.512 Z-0.251
Y52.493
X56.073 Z-0.256
Z-0.251
Y52.593
Z-0.256
X58.512 Z-0.251
Y52.693
X56.073 Z-0.256
Z-0.251
Y52.793
Z-0.256
X58.512 Z-0.251
Y52.893
X56.073 Z-0.256
Z-0.251
Y52.993
Z-0.256
X58.512 Z-0.251
Y53.093
X56.073 Z-0.256
Z-0.251
Y53.193
Z-0.256
X58.512 Z-0.251
X58.513 Y53.293
X56.073 Z-0.256
Z-0.251
X56.058 Y53.393
Z-0.256
X58.528 Z-0.251
X58.565 Y53.493
X56.02 Z-0.256
Z-0.251
X55.954 Y53.593
Z-0.256
X58.632 Z-0.251
G0 Z9.934
X55.365 Y47.493
Z9.84
G1 Z-0.251 F200.
X52.926 Z-0.256
Z-0.251
Y47.593
Z-0.256
X55.365 Z-0.251
Y47.693
X52.926 Z-0.256
Z-0.251
Y47.793
Z-0.256
X55.365 Z-0.251
Y47.893
X52.926 Z-0.256
Z-0.251
Y47.993
Z-0.256
X55.365 Z-0.251
Y48.093
X52.926 Z-0.256
Z-0.251
Y48.193
Z-0.256
X55.365 Z-0.251
Y48.293
X52.926 Z-0.256
Z-0.251
Y48.393
Z-0.256
X55.365 Z-0.251
Y48.493
X52.926 Z-0.256
Z-0.251
Y48.593
Z-0.256
X55.365 Z-0.251
Y48.693
X52.926 Z-0.256
Z-0.251
Y48.793
Z-0.256
X55.365 Z-0.251
Y48.893
X52.926 Z-0.256
Z-0.251
Y48.993
Z-0.256
X55.365 Z-0.251
Y49.093
X52.926 Z-0.256
Z-0.251
Y49.193
Z-0.256
X55.365 Z-0.251
Y49.293
X52.926 Z-0.256
Z-0.251
Y49.393
Z-0.256
X55.365 Z-0.251
Y49.493
X52.926 Z-0.256
Z-0.251
Y49.593
Z-0.256
X55.365 Z-0.251
Y49.693
X52.926 Z-0.256
Z-0.251
Y49.793
Z-0.256
X55.365 Z-0.251
G0 Z9.84
X52.233 Y50.69
G1 X52.226 Y50.692 Z9.837 F200.
X52.223 Y50.693 Z9.83
Z-0.251
X49.784 Z-0.256
Z-0.251
Y50.793
Z-0.256
X52.223 Z-0.251
Y50.893
X49.784 Z-0.256
Z-0.251
Y50.993
Z-0.256
X52.223 Z-0.251
Y51.093
X49.784 Z-0.256
Z-0.251
Y51.193
Z-0.256
X52.223 Z-0.251
Y51.293
X49.785 Z-0.256
X49.784 Z-0.251
Y51.393
Z-0.256
X52.223 Z-0.251
Y51.493
X49.784 Z-0.256
Z-0.251
Y51.593
Z-0.256
X52.223 Z-0.251
Y51.693
X49.784 Z-0.256
Z-0.251
Y51.793
X49.785 Z-0.256
X52.223 Z-0.251
Y51.893
X49.785 Z-0.256
X49.784 Z-0.251
Y51.993
Z-0.256
X52.223 Z-0.251
Y52.093
X49.784 Z-0.256
Z-0.251
Y52.193
Z-0.256
X52.223 Z-0.251
Y52.293
X49.784 Z-0.256
Z-0.251
Y52.393
Z-0.256
X52.223 Z-0.251
Y52.493
X49.784 Z-0.256
Z-0.251
Y52.593
X49.785 Z-0.256
X52.223 Z-0.251
Y52.693
X49.784 Z-0.256
Z-0.251
Y52.793
Z-0.256
X52.223 Z-0.251
Y52.893
X49.784 Z-0.256
Z-0.251
Y52.993
Z-0.256
X52.223 Z-0.251
Y53.093
X49.784 Z-0.256
Z-0.251
Y53.193
Z-0.256
X52.223 Z-0.251
X52.224 Y53.293
X49.784 Z-0.256
Z-0.251
X49.769 Y53.393
Z-0.256
X52.239 Z-0.251
X52.277 Y53.493
X49.731 Z-0.256
Z-0.251
X49.665 Y53.593
Z-0.256
X52.343 Z-0.251
G0 Z9.934
X49.075 Y47.493
Z9.84
G1 Z-0.251 F200.
X46.638 Z-0.256
Z-0.251
Y47.593
Z-0.256
X49.075 Z-0.251
Y47.693
X46.638 Z-0.256
Z-0.251
Y47.793
Z-0.256
X49.075 Z-0.251
Y47.893
X46.638 Z-0.256
Z-0.251
Y47.993
Z-0.256
X49.075 Z-0.251
Y48.093
X46.638 Z-0.256
Z-0.251
Y48.193
Z-0.256
X49.075 Z-0.251
Y48.293
X46.638 Z-0.256
Z-0.251
Y48.393
Z-0.256
X49.075 Z-0.251
Y48.493
X46.638 Z-0.256
Z-0.251
Y48.593
Z-0.256
X49.075 Z-0.251
Y48.693
X46.638 Z-0.256
Z-0.251
Y48.793
Z-0.256
X49.075 Z-0.251
Y48.893
X46.638 Z-0.256
Z-0.251
Y48.993
Z-0.256
X49.075 Z-0.251
Y49.093
X46.638 Z-0.256
Z-0.251
Y49.193
Z-0.256
X49.075 Z-0.251
Y49.293
X46.638 Z-0.256
Z-0.251
Y49.393
Z-0.256
X49.075 Z-0.251
Y49.493
X46.638 Z-0.256
Z-0.251
Y49.593
Z-0.256
X49.075 Z-0.251
Y49.693
X46.638 Z-0.256
Z-0.251
Y49.793
Z-0.256
X49.075 Z-0.251
G0 Z9.84
X45.946 Y50.69
G1 X45.939 Y50.692 Z9.837 F200.
X45.936 Y50.693 Z9.83
Z-0.251
X43.497 Z-0.256
Z-0.251
Y50.793
Z-0.256
X45.936 Z-0.251
Y50.893
X43.497 Z-0.256
Z-0.251
Y50.993
Z-0.256
X45.936 Z-0.251
Y51.093
X43.497 Z-0.256
Z-0.251
Y51.193
Z-0.256
X45.936 Z-0.251
Y51.293
X43.497 Z-0.256
Z-0.251
Y51.393
Z-0.256
X45.936 Z-0.251
Y51.493
X43.497 Z-0.256
Z-0.251
Y51.593
Z-0.256
X45.936 Z-0.251
Y51.693
X43.497 Z-0.256
Z-0.251
Y51.793
Z-0.256
X45.936 Z-0.251
Y51.893
X43.497 Z-0.256
Z-0.251
Y51.993
Z-0.256
X45.936 Z-0.251
Y52.093
X43.497 Z-0.256
Z-0.251
Y52.193
Z-0.256
X45.936 Z-0.251
Y52.293
X43.497 Z-0.256
Z-0.251
Y52.393
Z-0.256
X45.936 Z-0.251
Y52.493
X43.497 Z-0.256
Z-0.251
Y52.593
Z-0.256
X45.936 Z-0.251
Y52.693
X43.497 Z-0.256
Z-0.251
Y52.793
Z-0.256
X45.936 Z-0.251
Y52.893
X43.497 Z-0.256
Z-0.251
Y52.993
Z-0.256
X45.936 Z-0.251
Y53.093
X43.497 Z-0.256
Z-0.251
Y53.193
Z-0.256
X45.936 Z-0.251
X45.937 Y53.293
X43.497 Z-0.256
Z-0.251
X43.481 Y53.393
Z-0.256
X45.952 Z-0.251
X45.989 Y53.493
X43.444 Z-0.256
Z-0.251
X43.378 Y53.593
Z-0.256
X46.055 Z-0.251
G0 Z9.934
X42.789 Y47.493
Z9.84
G1 Z-0.251 F200.
X40.35 Z-0.256
Z-0.251
Y47.593
Z-0.256
X42.789 Z-0.251
Y47.693
X40.35 Z-0.256
Z-0.251
Y47.793
Z-0.256
X42.789 Z-0.251
Y47.893
X40.35 Z-0.256
Z-0.251
Y47.993
Z-0.256
X42.789 Z-0.251
Y48.093
X40.35 Z-0.256
Z-0.251
Y48.193
Z-0.256
X42.789 Z-0.251
Y48.293
X40.35 Z-0.256
Z-0.251
Y48.393
Z-0.256
X42.789 Z-0.251
Y48.493
X40.35 Z-0.256
Z-0.251
Y48.593
Z-0.256
X42.789 Z-0.251
Y48.693
X40.35 Z-0.256
Z-0.251
Y48.793
Z-0.256
X42.789 Z-0.251
Y48.893
X40.35 Z-0.256
Z-0.251
Y48.993
Z-0.256
X42.789 Z-0.251
Y49.093
X40.35 Z-0.256
Z-0.251
Y49.193
Z-0.256
X42.789 Z-0.251
Y49.293
X40.35 Z-0.256
Z-0.251
Y49.393
Z-0.256
X42.789 Z-0.251
Y49.493
X40.35 Z-0.256
Z-0.251
Y49.593
Z-0.256
X42.789 Z-0.251
Y49.693
X40.35 Z-0.256
Z-0.251
Y49.793
Z-0.256
X42.789 Z-0.251
G0 Z9.84
X39.657 Y50.69
G1 X39.65 Y50.692 Z9.837 F200.
X39.647 Y50.693 Z9.83
Z-0.251
X37.208 Z-0.256
Z-0.251
Y50.793
Z-0.256
X39.647 Z-0.251
Y50.893
X37.208 Z-0.256
Z-0.251
Y50.993
Z-0.256
X39.647 Z-0.251
Y51.093
X37.208 Z-0.256
Z-0.251
Y51.193
Z-0.256
X39.647 Z-0.251
Y51.293
X37.208 Z-0.256
Z-0.251
Y51.393
Z-0.256
X39.647 Z-0.251
Y51.493
X37.208 Z-0.256
Z-0.251
Y51.593
Z-0.256
X39.647 Z-0.251
Y51.693
X37.208 Z-0.256
Z-0.251
Y51.793
Z-0.256
X39.647 Z-0.251
Y51.893
X37.208 Z-0.256
Z-0.251
Y51.993
Z-0.256
X39.647 Z-0.251
Y52.093
X37.208 Z-0.256
Z-0.251
Y52.193
Z-0.256
X39.647 Z-0.251
Y52.293
X37.208 Z-0.256
Z-0.251
Y52.393
Z-0.256
X39.647 Z-0.251
Y52.493
X37.208 Z-0.256
Z-0.251
Y52.593
Z-0.256
X39.647 Z-0.251
Y52.693
X37.208 Z-0.256
Z-0.251
Y52.793
Z-0.256
X39.647 Z-0.251
Y52.893
X37.208 Z-0.256
Z-0.251
Y52.993
Z-0.256
X39.647 Z-0.251
Y53.093
X37.208 Z-0.256
Z-0.251
Y53.193
Z-0.256
X39.647 Z-0.251
X39.648 Y53.293
X37.208 Z-0.256
Z-0.251
X37.192 Y53.393
Z-0.256
X39.663 Z-0.251
X39.7 Y53.493
X37.155 Z-0.256
Z-0.251
X37.089 Y53.593
Z-0.256
X39.766 Z-0.251
G0 Z9.934
X36.5 Y47.493
Z9.84
G1 Z-0.251 F200.
X34.034 Z-0.256
Z-0.251
Y47.593
Z-0.256
X36.5 Z-0.251
Y47.693
X34.034 Z-0.256
Z-0.251
Y47.793
Z-0.256
X36.5 Z-0.251
Y47.893
X34.034 Z-0.256
Z-0.251
Y47.993
Z-0.256
X36.5 Z-0.251
Y48.093
X34.034 Z-0.256
Z-0.251
Y48.193
Z-0.256
X36.5 Z-0.251
Y48.293
X34.034 Z-0.256
Z-0.251
Y48.393
Z-0.256
X36.5 Z-0.251
Y48.493
X34.034 Z-0.256
Z-0.251
Y48.593
Z-0.256
X36.5 Z-0.251
Y48.693
X34.034 Z-0.256
Z-0.251
Y48.793
Z-0.256
X36.5 Z-0.251
Y48.893
X34.034 Z-0.256
Z-0.251
Y48.993
Z-0.256
X36.5 Z-0.251
Y49.093
X34.034 Z-0.256
Z-0.251
Y49.193
Z-0.256
X36.5 Z-0.251
Y49.293
X34.034 Z-0.256
Z-0.251
Y49.393
Z-0.256
X36.5 Z-0.251
Y49.493
X34.034 Z-0.256
Z-0.251
Y49.593
Z-0.256
X36.5 Z-0.251
Y49.693
X34.034 Z-0.256
Z-0.251
Y49.793
Z-0.256
X36.5 Z-0.251
G0 Z9.934
X33.367 Y50.69
G1 X33.36 Y50.692 Z9.931 F200.
X33.357 Y50.693 Z9.924
Z-0.251
X31.321 Z-0.256
Z-0.251
X31.311 Y50.793
Z-0.256
X33.357 Z-0.251
Y50.893
X31.301 Z-0.256
Z-0.251
X31.292 Y50.993
Z-0.256
X33.357 Z-0.251
Y51.093
X31.282 Z-0.256
Z-0.251
X31.275 Y51.193
Z-0.256
X33.357 Z-0.251
Y51.293
X31.268 Z-0.256
Z-0.251
X31.261 Y51.393
Z-0.256
X33.357 Z-0.251
Y51.493
X31.254 Z-0.256
Z-0.251
X31.247 Y51.593
Z-0.256
X33.357 Z-0.251
Y51.693
X31.241 Z-0.256
Z-0.251
X31.234 Y51.793
Z-0.256
X33.357 Z-0.251
Y51.893
X31.227 Z-0.256
Z-0.251
X31.22 Y51.993
Z-0.256
X33.357 Z-0.251
Y52.093
X31.214 Z-0.256
Z-0.251
X31.21 Y52.193
Z-0.256
X33.357 Z-0.251
Y52.293
X31.206 Z-0.256
Z-0.251
X31.202 Y52.393
Z-0.256
X33.357 Z-0.251
Y52.493
X31.198 Z-0.256
Z-0.251
X31.194 Y52.593
Z-0.256
X33.357 Z-0.251
Y52.693
X31.189 Z-0.256
Z-0.251
X31.185 Y52.793
Z-0.256
X33.357 Z-0.251
Y52.893
X31.181 Z-0.256
Z-0.251
X31.177 Y52.993
Z-0.256
X33.357 Z-0.251
Y53.093
X31.174 Z-0.256
Z-0.251
X31.173 Y53.193
Z-0.256
X33.357 Z-0.251
X33.358 Y53.293
X31.172 Z-0.256
Z-0.251
X31.17 Y53.393
Z-0.256
X33.373 Z-0.251
X33.41 Y53.493
X31.169 Z-0.256
Z-0.251
X31.168 Y53.593
Z-0.256
X33.476 Z-0.251
G0 Z9.935
X33.505 Y43.703
G1 Y43.696 Z9.932 F200.
Y43.693 Z9.925
Z-0.251
X32.776 Z-0.256
Z-0.251
X32.743 Y43.793
Z-0.256
X33.428 Z-0.251
X33.383 Y43.893
X32.711 Z-0.256
Z-0.251
X32.678 Y43.993
Z-0.256
X33.362 Z-0.251
X33.359 Y44.093
X32.646 Z-0.256
Z-0.251
X32.613 Y44.193
Z-0.256
X33.359 Z-0.251
Y44.293
X32.581 Z-0.256
Z-0.251
X32.553 Y44.393
Z-0.256
X33.359 Z-0.251
Y44.493
X32.524 Z-0.256
Z-0.251
X32.495 Y44.593
Z-0.256
X33.359 Z-0.251
Y44.693
X32.466 Z-0.256
Z-0.251
X32.437 Y44.793
Z-0.256
X33.359 Z-0.251
Y44.893
X32.408 Z-0.256
Z-0.251
X32.379 Y44.993
Z-0.256
X33.359 Z-0.251
Y45.093
X32.35 Z-0.256
Z-0.251
X32.321 Y45.193
Z-0.256
X33.359 Z-0.251
Y45.293
X32.294 Z-0.256
Z-0.251
X32.268 Y45.393
Z-0.256
X33.359 Z-0.251
Y45.493
X32.241 Z-0.256
Z-0.251
X32.215 Y45.593
Z-0.256
X33.359 Z-0.251
Y45.693
X32.189 Z-0.256
Z-0.251
X32.163 Y45.793
Z-0.256
X33.359 Z-0.251
Y45.893
X32.139 Z-0.256
Z-0.251
X32.114 Y45.993
Z-0.256
X33.359 Z-0.251
Y46.093
X32.09 Z-0.256
Z-0.251
X32.066 Y46.193
Z-0.256
X33.359 Z-0.251
Y46.293
X32.042 Z-0.256
Z-0.251
X32.019 Y46.393
Z-0.256
X33.359 Z-0.251
Y46.493
X31.997 Z-0.256
Z-0.251
X31.974 Y46.593
Z-0.256
X33.359 Z-0.251
Y46.693
X31.951 Z-0.256
Z-0.251
G0 Z9.935
X37.056 Y43.698
G1 X37.062 Y43.695 Z9.932 F200.
X37.065 Y43.693 Z9.925
Z-0.251
Z-0.256
X39.795 Z-0.251
X39.718 Y43.793
X37.142 Z-0.256
Z-0.251
X37.187 Y43.893
Z-0.256
X39.673 Z-0.251
X39.652 Y43.993
X37.208 Z-0.256
Z-0.251
X37.21 Y44.093
Z-0.256
X39.649 Z-0.251
Y44.193
X37.21 Z-0.256
Z-0.251
Y44.293
Z-0.256
X39.649 Z-0.251
Y44.393
X37.21 Z-0.256
Z-0.251
Y44.493
Z-0.256
X39.649 Z-0.251
Y44.593
X37.21 Z-0.256
Z-0.251
Y44.693
Z-0.256
X39.649 Z-0.251
Y44.793
X37.21 Z-0.256
Z-0.251
Y44.893
Z-0.256
X39.649 Z-0.251
Y44.993
X37.21 Z-0.256
Z-0.251
Y45.093
Z-0.256
X39.649 Z-0.251
Y45.193
X37.21 Z-0.256
Z-0.251
Y45.293
Z-0.256
X39.649 Z-0.251
Y45.393
X37.21 Z-0.256
Z-0.251
Y45.493
Z-0.256
X39.649 Z-0.251
Y45.593
X37.21 Z-0.256
Z-0.251
Y45.693
Z-0.256
X39.649 Z-0.251
Y45.793
X37.21 Z-0.256
Z-0.251
Y45.893
Z-0.256
X39.649 Z-0.251
Y45.993
X37.21 Z-0.256
Z-0.251
Y46.093
Z-0.256
X39.649 Z-0.251
Y46.193
X37.21 Z-0.256
Z-0.251
Y46.293
Z-0.256
X39.649 Z-0.251
Y46.393
X37.21 Z-0.256
Z-0.251
Y46.493
Z-0.256
X39.649 Z-0.251
Y46.593
X37.21 Z-0.256
Z-0.251
Y46.693
Z-0.256
X39.649 Z-0.251
G0 Z9.934
X43.346 Y43.699
G1 X43.351 Y43.695 Z9.932 F200.
X43.354 Y43.693 Z9.924
Z-0.251
Z-0.256
X46.084 Z-0.251
X46.007 Y43.793
X43.431 Z-0.256
Z-0.251
X43.475 Y43.893
Z-0.256
X45.962 Z-0.251
X45.941 Y43.993
X43.497 Z-0.256
Z-0.251
X43.499 Y44.093
Z-0.256
X45.938 Z-0.251
Y44.193
X43.499 Z-0.256
Z-0.251
Y44.293
Z-0.256
X45.938 Z-0.251
Y44.393
X43.499 Z-0.256
Z-0.251
Y44.493
Z-0.256
X45.938 Z-0.251
Y44.593
X43.499 Z-0.256
Z-0.251
Y44.693
Z-0.256
X45.938 Z-0.251
Y44.793
X43.499 Z-0.256
Z-0.251
Y44.893
Z-0.256
X45.938 Z-0.251
Y44.993
X43.499 Z-0.256
Z-0.251
Y45.093
Z-0.256
X45.938 Z-0.251
Y45.193
X43.499 Z-0.256
Z-0.251
Y45.293
Z-0.256
X45.938 Z-0.251
Y45.393
X43.499 Z-0.256
Z-0.251
Y45.493
Z-0.256
X45.938 Z-0.251
Y45.593
X43.499 Z-0.256
Z-0.251
Y45.693
Z-0.256
X45.938 Z-0.251
Y45.793
X43.499 Z-0.256
Z-0.251
Y45.893
Z-0.256
X45.938 Z-0.251
Y45.993
X43.499 Z-0.256
Z-0.251
Y46.093
Z-0.256
X45.938 Z-0.251
Y46.193
X43.499 Z-0.256
Z-0.251
Y46.293
Z-0.256
X45.938 Z-0.251
Y46.393
X43.499 Z-0.256
Z-0.251
Y46.493
Z-0.256
X45.938 Z-0.251
Y46.593
X43.499 Z-0.256
Z-0.251
Y46.693
Z-0.256
X45.938 Z-0.251
G0 Z9.934
X49.633 Y43.699
G1 X49.639 Y43.695 Z9.932 F200.
X49.641 Y43.693 Z9.924
Z-0.251
Z-0.256
X52.371 Z-0.251
X52.294 Y43.793
X49.718 Z-0.256
Z-0.251
X49.763 Y43.893
Z-0.256
X52.25 Z-0.251
X52.228 Y43.993
X49.784 Z-0.256
Z-0.251
X49.787 Y44.093
Z-0.256
X52.226 Z-0.251
Y44.193
X49.787 Z-0.256
Z-0.251
Y44.293
Z-0.256
X52.226 Z-0.251
Y44.393
X49.787 Z-0.256
Z-0.251
Y44.493
Z-0.256
X52.226 Z-0.251
Y44.593
X49.787 Z-0.256
Z-0.251
Y44.693
Z-0.256
X52.226 Z-0.251
Y44.793
X49.787 Z-0.256
Z-0.251
Y44.893
Z-0.256
X52.226 Z-0.251
Y44.993
X49.787 Z-0.256
Z-0.251
Y45.093
Z-0.256
X52.226 Z-0.251
Y45.193
X49.787 Z-0.256
Z-0.251
Y45.293
Z-0.256
X52.226 Z-0.251
Y45.393
X49.787 Z-0.256
Z-0.251
Y45.493
Z-0.256
X52.226 Z-0.251
Y45.593
X49.787 Z-0.256
Z-0.251
Y45.693
Z-0.256
X52.226 Z-0.251
Y45.793
X49.787 Z-0.256
Z-0.251
Y45.893
Z-0.256
X52.226 Z-0.251
Y45.993
X49.787 Z-0.256
Z-0.251
Y46.093
Z-0.256
X52.226 Z-0.251
Y46.193
X49.787 Z-0.256
Z-0.251
Y46.293
Z-0.256
X52.226 Z-0.251
Y46.393
X49.787 Z-0.256
Z-0.251
Y46.493
Z-0.256
X52.226 Z-0.251
Y46.593
X49.787 Z-0.256
Z-0.251
Y46.693
Z-0.256
X52.226 Z-0.251
G0 Z9.934
X55.922 Y43.699
G1 X55.928 Y43.695 Z9.932 F200.
X55.93 Y43.693 Z9.924
Z-0.251
Z-0.256
X58.66 Z-0.251
X58.583 Y43.793
X56.007 Z-0.256
Z-0.251
X56.052 Y43.893
Z-0.256
X58.538 Z-0.251
X58.517 Y43.993
X56.073 Z-0.256
Z-0.251
X56.075 Y44.093
Z-0.256
X58.514 Z-0.251
Y44.193
X56.075 Z-0.256
Z-0.251
Y44.293
Z-0.256
X58.514 Z-0.251
Y44.393
X56.075 Z-0.256
Z-0.251
Y44.493
Z-0.256
X58.514 Z-0.251
Y44.593
X56.075 Z-0.256
Z-0.251
Y44.693
Z-0.256
X58.514 Z-0.251
Y44.793
X56.075 Z-0.256
Z-0.251
Y44.893
Z-0.256
X58.514 Z-0.251
Y44.993
X56.075 Z-0.256
Z-0.251
Y45.093
Z-0.256
X58.514 Z-0.251
Y45.193
X56.075 Z-0.256
Z-0.251
Y45.293
Z-0.256
X58.514 Z-0.251
Y45.393
X56.075 Z-0.256
Z-0.251
Y45.493
Z-0.256
X58.514 Z-0.251
Y45.593
X56.075 Z-0.256
Z-0.251
Y45.693
Z-0.256
X58.514 Z-0.251
Y45.793
X56.075 Z-0.256
Z-0.251
Y45.893
Z-0.256
X58.514 Z-0.251
Y45.993
X56.075 Z-0.256
Z-0.251
Y46.093
Z-0.256
X58.514 Z-0.251
Y46.193
X56.075 Z-0.256
Z-0.251
Y46.293
Z-0.256
X58.514 Z-0.251
Y46.393
X56.075 Z-0.256
Z-0.251
Y46.493
Z-0.256
X58.514 Z-0.251
Y46.593
X56.075 Z-0.256
Z-0.251
Y46.693
Z-0.256
X58.514 Z-0.251
G0 Z9.934
X62.211 Y43.699
G1 X62.217 Y43.695 Z9.932 F200.
X62.219 Y43.693 Z9.924
Z-0.251
Z-0.256
X64.946 Z-0.251
X64.869 Y43.793
X62.296 Z-0.256
Z-0.251
X62.34 Y43.893
Z-0.256
X64.825 Z-0.251
X64.803 Y43.993
X62.362 Z-0.256
Z-0.251
X62.364 Y44.093
Z-0.256
X64.801 Z-0.251
Y44.193
X62.364 Z-0.256
Z-0.251
Y44.293
Z-0.256
X64.801 Z-0.251
Y44.393
X62.364 Z-0.256
Z-0.251
Y44.493
Z-0.256
X64.801 Z-0.251
Y44.593
X62.364 Z-0.256
Z-0.251
Y44.693
Z-0.256
X64.801 Z-0.251
Y44.793
X62.364 Z-0.256
Z-0.251
Y44.893
Z-0.256
X64.801 Z-0.251
Y44.993
X62.364 Z-0.256
Z-0.251
Y45.093
Z-0.256
X64.801 Z-0.251
Y45.193
X62.364 Z-0.256
Z-0.251
Y45.293
Z-0.256
X64.801 Z-0.251
Y45.393
X62.364 Z-0.256
Z-0.251
Y45.493
Z-0.256
X64.801 Z-0.251
Y45.593
X62.364 Z-0.256
Z-0.251
Y45.693
Z-0.256
X64.801 Z-0.251
Y45.793
X62.364 Z-0.256
Z-0.251
Y45.893
Z-0.256
X64.801 Z-0.251
Y45.993
X62.364 Z-0.256
Z-0.251
Y46.093
Z-0.256
X64.801 Z-0.251
Y46.193
X62.364 Z-0.256
Z-0.251
Y46.293
Z-0.256
X64.801 Z-0.251
Y46.393
X62.364 Z-0.256
Z-0.251
Y46.493
Z-0.256
X64.801 Z-0.251
Y46.593
X62.364 Z-0.256
Z-0.251
Y46.693
Z-0.256
X64.801 Z-0.251
G0 Z15.

M9
G53 Z0.
M30
