(1001)
(T1  D=1. CR=0. - ZMIN=-0.261 - FLAT END MILL)
G0 G90 G94 G17
G21
G53 G0 Z0.

(A 1MM  FLATEND  MORPHED-SPIRAL)
M5
M9
T1
S12000 M3
G4 P4.
G55
G0 X42.012 Y58.04
Z15.
Z1.835
G1 Z-0.251 F200.
Z-0.261
X42.023 Y58.062
X42.037 Y58.068
Z-0.251
Z-0.246
X42.032 Y58.062 Z-0.218
X42.018 Y58.047 Z-0.197
X41.999 Y58.026 Z-0.19
X41.98 Y58.005 Z-0.197
X41.965 Y57.99 Z-0.218
X41.96 Y57.985 Z-0.246
Z-0.251
Y57.986 Z-0.261
X41.983 Y58.089
X42.006 Y58.102
X42.068
Z-0.251
G0 Z5.
X41.91 Y57.939
Z1.835
G1 Z-0.246 F200.
Z-0.251
X41.911 Z-0.261
X41.95 Y58.123
X41.972 Y58.135
X42.098
Z-0.251
G0 Z5.
X41.861 Y57.893
Z1.835
G1 Z-0.246 F200.
Z-0.251
Y57.894 Z-0.261
X41.916 Y58.156
X41.939 Y58.169
X42.128
Z-0.251
Z-0.248
X42.123 Y58.164 Z-0.223
X42.11 Y58.151 Z-0.205
X42.093 Y58.133 Z-0.198
X41.846 Y57.884
X41.829 Y57.866 Z-0.205
X41.816 Y57.853 Z-0.223
X41.811 Y57.848 Z-0.248
Z-0.251
Z-0.261
X41.879 Y58.181
X41.896 Y58.201
X42.154 Y58.202
Z-0.251
G0 Z5.
X41.763 Y57.809
Z1.835
G1 Z-0.251 F200.
Z-0.261
X41.846 Y58.215
X41.863 Y58.234
X42.111 Y58.236
X42.179
Z-0.251
G0 Z5.
X41.716 Y57.773
Z1.835
G1 Z-0.251 F200.
X41.717 Y57.777 Z-0.261
X41.812 Y58.248
X41.829 Y58.268
X42.078 Y58.269
X42.204
Z-0.251
G0 Z5.
X41.669 Y57.737
Z1.835
G1 Z-0.251 F200.
Y57.738 Z-0.261
X41.779 Y58.282
X41.796 Y58.302
X42.044 Y58.303
X42.229
Z-0.251
G0 Z5.
X41.622 Y57.702
Z1.835
G1 Z-0.251 F200.
Z-0.261
X41.745 Y58.315
X41.762 Y58.335
X42.011 Y58.337
X42.253 Y58.336
Z-0.251
G0 Z5.
X41.576 Y57.67
Z1.835
G1 Z-0.251 F200.
X41.577 Y57.678 Z-0.261
X41.712 Y58.349
X41.729 Y58.369
X41.977 Y58.37
X42.278
Z-0.251
Z-0.248
X42.274 Y58.365 Z-0.223
X42.261 Y58.353 Z-0.205
X42.243 Y58.335 Z-0.198
X41.566 Y57.677
X41.548 Y57.66 Z-0.205
X41.535 Y57.647 Z-0.223
X41.53 Y57.643 Z-0.248
Z-0.251
X41.531 Z-0.261
X41.678 Y58.382
X41.695 Y58.402
X41.944 Y58.404
X42.299
Z-0.251
G0 Z5.
X41.485 Y57.615
Z1.835
G1 Z-0.251 F200.
Z-0.261
X41.644 Y58.416
X41.662 Y58.436
X41.91 Y58.437
X42.319
Z-0.251
Z-0.248
X42.314 Y58.432 Z-0.223
X42.301 Y58.42 Z-0.205
X42.283 Y58.402 Z-0.198
X41.476 Y57.622
X41.458 Y57.605 Z-0.205
X41.445 Y57.592 Z-0.223
X41.44 Y57.587 Z-0.248
Z-0.251
Y57.588 Z-0.261
X41.611 Y58.449
X41.628 Y58.469
X41.877 Y58.471
X42.339
Z-0.251
G0 Z5.
X41.395 Y57.56
Z1.835
G1 Z-0.251 F200.
Z-0.261
X41.577 Y58.483
X41.595 Y58.503
X41.843 Y58.504
X42.359
Z-0.251
Z-0.25
X42.355 Y58.5 Z-0.225
X42.341 Y58.487 Z-0.206
X42.323 Y58.47 Z-0.2
X41.388 Y57.573
X41.37 Y57.555 Z-0.206
X41.357 Y57.543 Z-0.225
X41.352 Y57.538 Z-0.25
Z-0.251
Z-0.261
X41.544 Y58.516
X41.561 Y58.536
X41.81 Y58.538
X42.38
Z-0.251
G0 Z5.
X41.308 Y57.517
Z1.835
G1 Z-0.251 F200.
Z-0.261
X41.51 Y58.55
X41.528 Y58.57
X41.777 Y58.572
X42.4 Y58.571
Z-0.251
Z-0.248
X42.395 Y58.567 Z-0.223
X42.382 Y58.554 Z-0.205
X42.364 Y58.537 Z-0.198
X41.301 Y57.53
X41.283 Y57.513 Z-0.205
X41.27 Y57.5 Z-0.223
X41.265 Y57.496 Z-0.248
Z-0.251
Z-0.261
X41.477 Y58.583
X41.494 Y58.604
X41.743 Y58.605
X42.417
Z-0.251
Z-0.248
X42.412 Y58.6 Z-0.223
X42.399 Y58.588 Z-0.205
X42.381 Y58.57 Z-0.198
X41.258 Y57.509
X41.24 Y57.492 Z-0.205
X41.226 Y57.479 Z-0.223
X41.222 Y57.475 Z-0.248
Z-0.251
Z-0.261
X41.443 Y58.617
X41.461 Y58.637
X41.71 Y58.639
X42.433 Y58.638
Z-0.251
Z-0.25
X42.428 Y58.634 Z-0.225
X42.415 Y58.621 Z-0.206
X42.397 Y58.604 Z-0.2
X41.215 Y57.488
X41.197 Y57.471 Z-0.206
X41.183 Y57.458 Z-0.225
X41.178 Y57.454 Z-0.25
Z-0.251
Z-0.261
X41.409 Y58.65
X41.427 Y58.671
X41.676 Y58.672
X42.449
Z-0.251
Z-0.25
X42.444 Y58.667 Z-0.225
X42.431 Y58.655 Z-0.206
X42.413 Y58.638 Z-0.2
X41.173 Y57.472
X41.154 Y57.454 Z-0.206
X41.141 Y57.442 Z-0.225
X41.136 Y57.437 Z-0.25
Z-0.251
Y57.438 Z-0.261
X41.376 Y58.684
X41.394 Y58.704
X41.643 Y58.706
X42.465 Y58.705
Z-0.251
Z-0.25
X42.461 Y58.701 Z-0.225
X42.447 Y58.688 Z-0.207
X42.429 Y58.671 Z-0.2
X41.131 Y57.456
X41.112 Y57.439 Z-0.207
X41.099 Y57.426 Z-0.225
X41.094 Y57.422 Z-0.25
Z-0.251
Z-0.261
X41.342 Y58.717
X41.36 Y58.738
X41.609 Y58.739
X42.481
Z-0.251
Z-0.246
X42.477 Y58.734 Z-0.221
X42.463 Y58.722 Z-0.203
X42.445 Y58.705 Z-0.196
X41.089 Y57.44
X41.07 Y57.423 Z-0.203
X41.057 Y57.411 Z-0.221
X41.052 Y57.406 Z-0.246
Z-0.251
Y57.407 Z-0.261
X41.309 Y58.751
X41.327 Y58.771
X41.576 Y58.773
X42.497
Z-0.251
Z-0.246
X42.493 Y58.768 Z-0.221
X42.479 Y58.756 Z-0.203
X42.461 Y58.739 Z-0.196
X41.047 Y57.425
X41.029 Y57.408 Z-0.203
X41.015 Y57.395 Z-0.221
X41.01 Y57.391 Z-0.246
Z-0.251
X41.011 Y57.392 Z-0.261
X41.275 Y58.784
X41.293 Y58.805
X41.542 Y58.807
X42.513 Y58.806
Z-0.251
G0 Z5.
X40.969 Y57.375
Z1.835
G1 Z-0.248 F200.
Z-0.251
Z-0.261
X41.242 Y58.818
X41.26 Y58.839
X41.509 Y58.84
X42.525
Z-0.251
G0 Z5.
X40.927 Y57.361
Z1.835
G1 Z-0.248 F200.
Y57.362 Z-0.251
Z-0.261
X41.208 Y58.851
X41.226 Y58.872
X41.475 Y58.874
X42.537 Y58.873
Z-0.251
G0 Z5.
X40.887 Y57.351
Z1.835
G1 Z-0.251 F200.
X40.888 Y57.358 Z-0.261
X41.174 Y58.885
X41.192 Y58.906
X41.442 Y58.907
X42.55
Z-0.251
G0 Z5.
X40.846 Y57.34
Z1.835
G1 Z-0.246 F200.
Y57.341 Z-0.251
Z-0.261
X41.141 Y58.918
X41.159 Y58.939
X41.408 Y58.941
X42.562 Y58.94
Z-0.251
G0 Z5.
X40.806 Y57.33
Z1.835
G1 Z-0.248 F200.
Z-0.251
Z-0.261
X41.107 Y58.952
X41.125 Y58.973
X41.375 Y58.974
X42.574
Z-0.251
G0 Z5.
X40.765 Y57.319
Z1.835
G1 Z-0.249 F200.
Z-0.251
Y57.32 Z-0.261
X41.074 Y58.985
X41.092 Y59.006
X41.341 Y59.008
X42.586 Y59.007
Z-0.251
G0 Z5.
X40.725 Y57.309
Z1.835
G1 Z-0.249 F200.
Z-0.251
Z-0.261
X41.04 Y59.018
X41.058 Y59.04
X41.308 Y59.042
X42.598 Y59.041
Z-0.251
G0 Z5.
X40.685 Y57.301
Z1.835
G1 Z-0.249 F200.
Z-0.251
Z-0.261
X41.007 Y59.052
X41.025 Y59.073
X41.274 Y59.075
X42.607
Z-0.251
G0 Z5.
X40.645 Y57.294
Z1.835
G1 Z-0.248 F200.
Z-0.251
Z-0.261
X40.973 Y59.085
X40.991 Y59.107
X41.241 Y59.109
X42.615 Y59.108
Z-0.251
G0 Z5.
X40.606 Y57.288
Z1.835
G1 Z-0.25 F200.
Z-0.251
Z-0.261
X40.94 Y59.119
X40.958 Y59.141
X41.207 Y59.142
X42.624
Z-0.251
G0 Z5.
X40.567 Y57.282
Z1.835
G1 Z-0.248 F200.
Z-0.251
Z-0.261
X40.906 Y59.152
X40.924 Y59.174
X41.174 Y59.176
X42.632 Y59.175
Z-0.251
G0 Z5.
X40.527 Y57.276
Z1.835
G1 Z-0.251 F200.
X40.528 Y57.28 Z-0.261
X40.872 Y59.186
X40.891 Y59.208
X41.14 Y59.209
X42.641
Z-0.251
G0 Z5.
X40.488 Y57.27
Z1.835
G1 Z-0.248 F200.
Z-0.251
Z-0.261
X40.839 Y59.219
X40.857 Y59.241
X41.107 Y59.243
X42.649 Y59.242
Z-0.251
G0 Z5.
X40.449 Y57.265
Z1.835
G1 Z-0.249 F200.
Z-0.251
Z-0.261
X40.805 Y59.253
X40.824 Y59.275
X41.073 Y59.277
X42.658 Y59.276
Z-0.251
G0 Z5.
X40.411 Y57.263
Z1.835
G1 Z-0.249 F200.
Z-0.251
Z-0.261
X40.772 Y59.286
X40.79 Y59.308
X41.04 Y59.31
X42.663 Y59.309
Z-0.251
G0 Z5.
X40.372 Y57.261
Z1.835
G1 Z-0.249 F200.
Z-0.251
Z-0.261
X40.738 Y59.32
X40.757 Y59.342
X41.006 Y59.344
X42.668 Y59.343
Z-0.251
G0 Z5.
X40.334 Y57.259
Z1.835
G1 Z-0.246 F200.
Z-0.251
Z-0.261
X40.705 Y59.353
X40.723 Y59.376
X40.973 Y59.377
X42.674
Z-0.251
G0 Z5.
X40.296 Y57.257
Z1.835
G1 Z-0.247 F200.
Z-0.251
Z-0.261
X40.671 Y59.387
X40.69 Y59.409
X40.939 Y59.411
X42.678 Y59.41
X42.679 Z-0.251
G0 Z5.
X40.257 Y57.254
Z1.835
G1 Z-0.241 F200.
X40.258 Y57.255 Z-0.251
Y57.256 Z-0.261
X40.637 Y59.42
X40.656 Y59.443
X40.906 Y59.444
X42.684
Z-0.251
G0 Z5.
X40.219 Y57.252
Z1.835
G1 Z-0.24 F200.
Y57.253 Z-0.251
X40.22 Y57.255 Z-0.261
X40.604 Y59.454
X40.623 Y59.476
X40.872 Y59.478
X42.689 Y59.477
Z-0.251
G0 Z5.
X40.182 Y57.252
Z1.835
G1 Z-0.246 F200.
Y57.253 Z-0.251
Z-0.261
X40.57 Y59.487
X40.589 Y59.51
X40.719 Y59.512
X42.694 Y59.511
Z-0.251
G0 Z5.
X40.144 Y57.254
Z1.835
G1 Z-0.246 F200.
Z-0.251
Y57.255 Z-0.261
X40.537 Y59.521
X40.556 Y59.543
X40.685 Y59.545
X42.698 Y59.544
Z-0.251
G0 Z5.
X40.107 Y57.256
Z1.835
G1 Z-0.25 F200.
Z-0.251
Z-0.261
X40.503 Y59.554
X40.522 Y59.577
X40.652 Y59.579
X42.699 Y59.578
Z-0.251
G0 Z5.
X40.069 Y57.258
Z1.835
G1 Z-0.246 F200.
Z-0.251
Y57.259 Z-0.261
X40.47 Y59.588
X40.489 Y59.611
X40.618 Y59.612
X42.701 Y59.611
Z-0.251
G0 Z5.
X40.032 Y57.26
Z1.835
G1 Z-0.246 F200.
Z-0.251
Y57.261 Z-0.261
X40.436 Y59.621
X40.455 Y59.644
X40.585 Y59.646
X42.703 Y59.645
Z-0.251
G0 Z5.
X39.995 Y57.262
Z1.835
G1 Z-0.247 F200.
Z-0.251
Z-0.261
X40.402 Y59.655
X40.421 Y59.678
X40.551 Y59.679
X42.705
Z-0.251
G0 Z5.
X39.957 Y57.264
Z1.835
G1 Z-0.247 F200.
Z-0.251
Z-0.261
X40.369 Y59.688
X40.388 Y59.711
X40.518 Y59.713
X42.706 Y59.712
Z-0.251
G0 Z5.
X39.92 Y57.267
Z1.835
G1 Z-0.24 F200.
X39.921 Y57.268 Z-0.251
Y57.27 Z-0.261
X40.335 Y59.722
X40.354 Y59.745
X40.484 Y59.747
X42.708 Y59.746
Z-0.251
G0 Z5.
X39.884 Y57.274
Z1.835
G1 Z-0.249 F200.
Z-0.251
Z-0.261
X40.302 Y59.755
X40.321 Y59.778
X40.451 Y59.78
X42.71 Y59.779
Z-0.251
G0 Z5.
X39.847 Y57.279
Z1.835
G1 Z-0.246 F200.
Z-0.251
X39.848 Y57.28 Z-0.261
X40.268 Y59.789
X40.287 Y59.812
X40.417 Y59.814
X42.709 Y59.813
Z-0.251
G0 Z5.
X39.811 Y57.285
Z1.835
G1 Z-0.246 F200.
Z-0.251
Z-0.261
X40.235 Y59.822
X40.254 Y59.845
X40.384 Y59.847
X42.707 Y59.846
Z-0.251
G0 Z5.
X39.774 Y57.29
Z1.835
G1 Z-0.247 F200.
Z-0.251
Y57.291 Z-0.261
X40.201 Y59.856
X40.22 Y59.879
X40.35 Y59.881
X42.706 Y59.88
Z-0.251
G0 Z5.
X39.738 Y57.296
Z1.835
G1 Z-0.248 F200.
Z-0.251
Z-0.261
X40.168 Y59.889
X40.187 Y59.913
X40.317 Y59.914
X42.704 Y59.913
Z-0.251
G0 Z5.
X39.701 Y57.301
Z1.835
G1 Z-0.241 F200.
Y57.302 Z-0.251
X39.702 Y57.303 Z-0.261
X40.134 Y59.923
X40.153 Y59.946
X40.283 Y59.948
X42.702 Y59.947
X42.703 Z-0.251
G0 Z5.
X39.666 Y57.31
Z1.835
G1 Z-0.246 F200.
Z-0.251
Z-0.261
X40.1 Y59.956
X40.12 Y59.98
X40.25 Y59.982
X42.701 Y59.981
Z-0.251
G0 Z5.
X39.63 Y57.319
Z1.835
G1 Z-0.249 F200.
Z-0.251
Y57.32 Z-0.261
X40.067 Y59.99
X40.086 Y60.013
X40.217 Y60.015
X42.699 Y60.014
Z-0.251
G0 Z5.
X39.594 Y57.329
Z1.835
G1 Z-0.249 F200.
Z-0.251
Z-0.261
X40.033 Y60.023
X40.053 Y60.047
X40.183 Y60.049
X42.698 Y60.048
Z-0.251
G0 Z5.
X39.558 Y57.338
Z1.835
G1 Z-0.251 F200.
Z-0.261
X40.001 Y60.065
X40.008 Y60.077
X40.021 Y60.082
X42.693 Y60.081
Z-0.251
G0 Z5.
X39.522 Y57.347
Z1.835
G1 Z-0.247 F200.
Z-0.251
X39.523 Y57.348 Z-0.261
X39.968 Y60.099
X39.974 Y60.111
X39.988 Y60.116
X42.688 Y60.115
Z-0.251
G0 Z5.
X39.487 Y57.356
Z1.835
G1 Z-0.241 F200.
Y57.357 Z-0.251
Y57.358 Z-0.261
X39.934 Y60.132
X39.941 Y60.145
X39.954 Y60.149
X42.683 Y60.148
Z-0.251
G0 Z5.
X39.451 Y57.366
Z1.835
G1 Z-0.247 F200.
Z-0.251
Z-0.261
X39.9 Y60.166
X39.907 Y60.178
X39.92 Y60.183
X42.678 Y60.182
Z-0.251
G0 Z5.
X39.416 Y57.379
Z1.835
G1 Z-0.246 F200.
Z-0.251
Y57.38 Z-0.261
X39.867 Y60.199
X39.874 Y60.212
X39.887 Y60.217
X42.673 Y60.216
Z-0.251
G0 Z5.
X39.381 Y57.392
Z1.835
G1 Z-0.251 F200.
Z-0.261
X39.833 Y60.233
X39.84 Y60.245
X39.853 Y60.25
X42.668 Y60.249
Z-0.251
G0 Z5.
X39.346 Y57.405
Z1.835
G1 Z-0.249 F200.
Z-0.251
Z-0.261
X39.8 Y60.266
X39.807 Y60.279
X39.82 Y60.284
X42.662 Y60.283
Z-0.251
G0 Z5.
X39.311 Y57.418
Z1.835
G1 Z-0.249 F200.
Z-0.251
Z-0.261
X39.766 Y60.3
X39.773 Y60.312
X39.786 Y60.317
X42.656 Y60.316
Z-0.251
G0 Z5.
X39.276 Y57.43
Z1.835
G1 Z-0.24 F200.
Y57.431 Z-0.251
Y57.433 Z-0.261
X39.733 Y60.333
X39.74 Y60.346
X39.753 Y60.351
X42.648 Y60.35
Z-0.251
G0 Z5.
X39.241 Y57.444
Z1.835
G1 Z-0.249 F200.
Z-0.251
Z-0.261
X39.699 Y60.367
X39.706 Y60.379
X39.719 Y60.384
X42.639 Y60.383
Z-0.251
G0 Z5.
X39.206 Y57.458
Z1.835
G1 Z-0.248 F200.
Z-0.251
Y57.459 Z-0.261
X39.665 Y60.4
X39.672 Y60.413
X39.686 Y60.418
X42.631 Y60.417
Z-0.251
G0 Z5.
X39.172 Y57.475
Z1.835
G1 Z-0.248 F200.
Z-0.251
Y57.476 Z-0.261
X39.632 Y60.434
X39.639 Y60.447
X39.652 Y60.452
X42.622 Y60.45
Z-0.251
G0 Z5.
X39.137 Y57.492
Z1.835
G1 Z-0.249 F200.
Z-0.251
Z-0.261
X39.598 Y60.467
X39.605 Y60.48
X39.619 Y60.485
X42.613 Y60.484
Z-0.251
G0 Z5.
X39.103 Y57.509
Z1.835
G1 Z-0.249 F200.
Z-0.251
Z-0.261
X39.565 Y60.501
X39.572 Y60.514
X39.585 Y60.519
X42.605 Y60.518
Z-0.251
G0 Z5.
X39.069 Y57.525
Z1.835
G1 Z-0.249 F200.
Z-0.251
Z-0.261
X39.531 Y60.535
X39.538 Y60.547
X39.552 Y60.552
X42.596 Y60.551
Z-0.251
G0 Z5.
X39.034 Y57.542
Z1.835
G1 Z-0.247 F200.
Z-0.251
Z-0.261
X39.498 Y60.568
X39.505 Y60.581
X39.518 Y60.586
X42.584 Y60.585
Z-0.251
G0 Z5.
X39. Y57.559
Z1.835
G1 Z-0.248 F200.
Z-0.251
Z-0.261
X39.464 Y60.602
X39.471 Y60.614
X39.485 Y60.619
X42.571 Y60.618
Z-0.251
G0 Z5.
X38.966 Y57.58
Z1.835
G1 Z-0.251 F200.
X38.967 Y57.584 Z-0.261
X39.43 Y60.635
X39.438 Y60.648
X39.451 Y60.653
X42.559 Y60.652
Z-0.251
G0 Z5.
X38.932 Y57.6
Z1.835
G1 Z-0.25 F200.
Z-0.251
X38.933 Y57.601 Z-0.261
X39.397 Y60.669
X39.404 Y60.681
X39.418 Y60.687
X42.547 Y60.685
Z-0.251
G0 Z5.
X38.899 Y57.621
Z1.835
G1 Z-0.241 F200.
Z-0.251
Y57.622 Z-0.261
X39.363 Y60.702
X39.37 Y60.715
X39.384 Y60.72
X42.535 Y60.719
Z-0.251
G0 Z5.
X38.865 Y57.642
Z1.835
G1 Z-0.249 F200.
Z-0.251
Z-0.261
X39.33 Y60.736
X39.337 Y60.749
X39.351 Y60.754
X42.523 Y60.753
Z-0.251
G0 Z5.
X38.831 Y57.663
Z1.835
G1 Z-0.249 F200.
Z-0.251
Z-0.261
X39.296 Y60.769
X39.303 Y60.782
X39.317 Y60.787
X42.51 Y60.786
Z-0.251
G0 Z5.
X38.798 Y57.683
Z1.835
G1 Z-0.251 F200.
X38.799 Y57.691 Z-0.261
X39.263 Y60.803
X39.27 Y60.816
X39.284 Y60.821
X42.494 Y60.82
Z-0.251
G0 Z5.
X38.764 Y57.708
Z1.835
G1 Z-0.248 F200.
X38.765 Z-0.251
Z-0.261
X39.229 Y60.836
X39.236 Y60.849
X39.25 Y60.854
X42.478 Y60.853
Z-0.251
G0 Z5.
X38.731 Y57.733
Z1.835
G1 Z-0.251 F200.
X38.732 Y57.737 Z-0.261
X39.195 Y60.87
X39.203 Y60.883
X39.217 Y60.888
X42.462 Y60.887
Z-0.251
G0 Z5.
X38.698 Y57.758
Z1.835
G1 Z-0.249 F200.
Z-0.251
Z-0.261
X39.162 Y60.903
X39.169 Y60.916
X39.183 Y60.922
X42.446 Y60.92
Z-0.251
G0 Z5.
X38.665 Y57.783
Z1.835
G1 Z-0.246 F200.
Z-0.251
Z-0.261
X39.128 Y60.937
X39.136 Y60.95
X39.15 Y60.955
X42.43 Y60.954
Z-0.251
G0 Z5.
X38.632 Y57.808
Z1.835
G1 Z-0.246 F200.
Z-0.251
Z-0.261
X39.095 Y60.97
X39.102 Y60.983
X39.116 Y60.989
X42.414 Y60.988
Z-0.251
G0 Z5.
X38.599 Y57.833
Z1.835
G1 Z-0.249 F200.
Z-0.251
Z-0.261
X39.061 Y61.004
X39.068 Y61.017
X39.083 Y61.022
X42.395 Y61.021
X42.396 Z-0.251
G0 Z5.
X38.567 Y57.863
Z1.835
G1 Z-0.25 F200.
Z-0.251
Z-0.261
X39.028 Y61.037
X39.035 Y61.051
X39.049 Y61.056
X42.375 Y61.055
Z-0.251
G0 Z5.
X38.534 Y57.892
Z1.835
G1 Z-0.249 F200.
Z-0.251
Y57.893 Z-0.261
X38.994 Y61.071
X39.001 Y61.084
X39.015 Y61.089
X42.355 Y61.088
Z-0.251
G0 Z5.
X38.502 Y57.922
Z1.835
G1 Z-0.249 F200.
Z-0.251
Z-0.261
X38.961 Y61.104
X38.968 Y61.118
X38.982 Y61.123
X42.335 Y61.122
Z-0.251
G0 Z5.
X38.47 Y57.952
Z1.835
G1 Z-0.251 F200.
Z-0.261
X38.927 Y61.138
X38.934 Y61.151
X38.948 Y61.156
X42.315 Y61.155
Z-0.251
G0 Z5.
X38.437 Y57.981
Z1.835
G1 Z-0.24 F200.
Y57.982 Z-0.251
Y57.984 Z-0.261
X38.893 Y61.171
X38.901 Y61.185
X38.915 Y61.19
X42.295 Y61.189
Z-0.251
G0 Z5.
X38.405 Y58.014
Z1.835
G1 Z-0.251 F200.
Z-0.261
X38.86 Y61.205
X38.867 Y61.218
X38.881 Y61.224
X42.273 Y61.222
Z-0.251
G0 Z5.
X38.374 Y58.049
Z1.835
G1 Z-0.251 F200.
Y58.05 Z-0.261
X38.826 Y61.238
X38.834 Y61.252
X38.848 Y61.257
X42.248 Y61.256
Z-0.251
G0 Z5.
X38.342 Y58.084
Z1.835
G1 Z-0.241 F200.
Y58.085 Z-0.251
Y58.086 Z-0.261
X38.793 Y61.272
X38.8 Y61.285
X38.814 Y61.291
X42.223 Y61.29
Z-0.251
G0 Z5.
X38.31 Y58.12
Z1.835
G1 Z-0.248 F200.
Z-0.251
Z-0.261
X38.759 Y61.305
X38.766 Y61.319
X38.781 Y61.324
X42.198 Y61.323
Z-0.251
G0 Z5.
X38.279 Y58.155
Z1.835
G1 Z-0.251 F200.
Z-0.261
X38.726 Y61.339
X38.733 Y61.353
X38.747 Y61.358
X42.173 Y61.357
Z-0.251
G0 Z5.
X38.247 Y58.193
Z1.835
G1 Z-0.246 F200.
Z-0.251
Z-0.261
X38.692 Y61.372
X38.699 Y61.386
X38.714 Y61.391
X42.148 Y61.39
Z-0.251
G0 Z5.
X38.216 Y58.234
Z1.835
G1 Z-0.246 F200.
Z-0.251
Y58.235 Z-0.261
X38.658 Y61.406
X38.666 Y61.42
X38.68 Y61.425
X42.122 Y61.424
Z-0.251
G0 Z5.
X38.186 Y58.276
Z1.835
G1 Z-0.251 F200.
Z-0.261
X38.625 Y61.439
X38.632 Y61.453
X38.647 Y61.459
X42.091 Y61.457
Z-0.251
G0 Z5.
X38.155 Y58.317
Z1.835
G1 Z-0.249 F200.
Z-0.251
Z-0.261
X38.591 Y61.473
X38.599 Y61.487
X38.613 Y61.492
X42.061 Y61.491
Z-0.251
G0 Z5.
X38.124 Y58.359
Z1.835
G1 Z-0.251 F200.
Z-0.261
X38.558 Y61.507
X38.565 Y61.52
X38.58 Y61.526
X42.031 Y61.525
Z-0.251
G0 Z5.
X38.094 Y58.406
Z1.835
G1 Z-0.251 F200.
Y58.41 Z-0.261
X38.524 Y61.54
X38.532 Y61.554
X38.546 Y61.559
X42. Y61.558
Z-0.251
G0 Z5.
X38.064 Y58.455
Z1.835
G1 Z-0.251 F200.
Z-0.261
X38.491 Y61.574
X38.498 Y61.587
X38.513 Y61.593
X41.97 Y61.592
Z-0.251
G0 Z5.
X38.034 Y58.505
Z1.835
G1 Z-0.249 F200.
Z-0.251
Z-0.261
X38.457 Y61.607
X38.464 Y61.621
X38.479 Y61.626
X41.933 Y61.625
Z-0.251
G0 Z5.
X38.499 Y61.66
Z1.835
G1 Z-0.248 F200.
Z-0.251
Z-0.261
X41.897 Y61.659
Z-0.251
G0 Z5.
X38.004 Y58.554
Z1.835
G1 Z-0.251 F200.
Z-0.261
X38.416 Y61.582
Z-0.251
G0 Z5.
X38.535 Y61.694
Z1.835
G1 Z-0.251 F200.
Z-0.261
X41.86 Y61.692
Z-0.251
G0 Z5.
X37.975 Y58.608
Z1.835
G1 Z-0.248 F200.
Z-0.251
Y58.609 Z-0.261
X38.371 Y61.533
Z-0.251
Z-0.248
X38.376 Y61.537 Z-0.205
X38.39 Y61.551 Z-0.166
X38.412 Y61.573 Z-0.135
X38.44 Y61.6 Z-0.115
X38.471 Y61.63 Z-0.108
X38.502 Y61.66 Z-0.115
X38.53 Y61.687 Z-0.135
X38.553 Y61.709 Z-0.166
X38.567 Y61.722 Z-0.205
X38.572 Y61.727 Z-0.248
Z-0.251
Z-0.261
X41.823 Y61.726
Z-0.251
G0 Z5.
X37.946 Y58.668
Z1.835
G1 Z-0.249 F200.
Z-0.251
Z-0.261
X38.326 Y61.483
Z-0.251
G0 Z5.
X38.61 Y61.761
Z1.835
G1 Z-0.251 F200.
Z-0.261
X41.786 Y61.76
Z-0.251
G0 Z5.
X37.918 Y58.727
Z1.835
G1 Z-0.241 F200.
Y58.728 Z-0.251
Y58.729 Z-0.261
X38.281 Y61.433
Y61.434 Z-0.251
G0 Z5.
X38.654 Y61.794
Z1.835
G1 Z-0.251 F200.
Z-0.261
X41.741 Y61.793
Z-0.251
G0 Z5.
X37.889 Y58.787
Z1.835
G1 Z-0.251 F200.
Y58.788 Z-0.261
X38.236 Y61.378
Z-0.251
Z-0.25
X38.241 Y61.382 Z-0.225
X38.254 Y61.395 Z-0.207
X38.272 Y61.413 Z-0.2
X38.663 Y61.793
X38.681 Y61.81 Z-0.207
X38.694 Y61.823 Z-0.225
X38.699 Y61.828 Z-0.25
Z-0.251
Z-0.261
X41.697 Y61.827
Z-0.251
G0 Z5.
X37.862 Y58.857
Z1.835
G1 Z-0.251 F200.
Z-0.261
X38.19 Y61.316
Z-0.251
Z-0.248
X38.195 Y61.32 Z-0.223
X38.208 Y61.333 Z-0.205
X38.225 Y61.351 Z-0.198
X38.708 Y61.826
X38.725 Y61.844 Z-0.205
X38.738 Y61.857 Z-0.223
X38.743 Y61.861 Z-0.248
Z-0.251
X38.744 Z-0.261
X41.652 Y61.86
Z-0.251
G0 Z5.
X37.835 Y58.931
Z1.835
G1 Z-0.251 F200.
Z-0.261
X38.144 Y61.253
Z-0.251
G0 Z5.
X38.788 Y61.895
Z1.835
G1 Z-0.251 F200.
X38.795 Z-0.261
X41.608 Y61.894
Z-0.251
G0 Z5.
X37.808 Y59.005
Z1.835
G1 Z-0.251 F200.
Z-0.261
X38.097 Y61.185
Z-0.251
G0 Z5.
X38.84 Y61.928
Z1.835
G1 Z-0.251 F200.
Z-0.261
X41.555
Z-0.251
G0 Z5.
X37.783 Y59.091
Z1.835
G1 Z-0.249 F200.
Z-0.251
Z-0.261
X38.049 Y61.105
Z-0.251
Z-0.25
X38.054 Y61.11 Z-0.225
X38.066 Y61.123 Z-0.207
X38.084 Y61.141 Z-0.2
X38.86 Y61.926
X38.878 Y61.944 Z-0.207
X38.891 Y61.957 Z-0.225
X38.895 Y61.962 Z-0.25
Z-0.251
Z-0.261
X41.501 Y61.961
Z-0.251
G0 Z5.
X37.759 Y59.185
Z1.835
G1 Z-0.251 F200.
Y59.189 Z-0.261
X38.001 Y61.025
Z-0.251
G0 Z5.
X38.95 Y61.995
Z1.835
G1 Z-0.251 F200.
Z-0.261
X41.446
Z-0.251
G0 Z5.
X37.735 Y59.28
Z1.835
G1 Z-0.251 F200.
Z-0.261
X37.95 Y60.925
Z-0.251
Z-0.246
X37.955 Y60.93 Z-0.221
X37.967 Y60.943 Z-0.203
X37.985 Y60.961 Z-0.196
X38.97 Y61.993
X38.987 Y62.011 Z-0.203
X39. Y62.024 Z-0.221
X39.005 Y62.029 Z-0.246
Z-0.251
X39.006 Z-0.261
X41.391 Y62.028
Z-0.251
G0 Z5.
X37.715 Y59.41
Z1.835
G1 Z-0.241 F200.
Z-0.251
Y59.411 Z-0.261
X37.899 Y60.817
Z-0.251
Z-0.248
X37.903 Y60.822 Z-0.223
X37.916 Y60.835 Z-0.205
X37.933 Y60.854 Z-0.198
X39.04 Y62.026
X39.057 Y62.044 Z-0.205
X39.069 Y62.058 Z-0.223
X39.074 Y62.063 Z-0.248
Z-0.251
Z-0.261
X41.322 Y62.062
Z-0.251
G0 Z5.
X37.696 Y59.545
Z1.835
G1 Z-0.248 F200.
Z-0.251
Z-0.261
X37.843 Y60.675
Z-0.251
G0 Z5.
X39.143 Y62.096
Z1.835
G1 Z-0.251 F200.
Z-0.261
X41.253 Y62.095
Z-0.251
G0 Z5.
X37.685 Y59.749
Z1.835
G1 Z-0.241 F200.
Z-0.251
X37.686 Y59.75 Z-0.261
X37.781 Y60.487
Z-0.251
G0 Z5.
X39.212 Y62.13
Z1.835
G1 Z-0.249 F200.
Z-0.251
Z-0.261
X41.184 Y62.129
Z-0.251
Z-0.25
X41.177 Z-0.225
X41.159 Z-0.207
X41.134 Y62.13 Z-0.2
X39.349 Y62.162
X39.324 Y62.163 Z-0.207
X39.306 Z-0.225
X39.299 Z-0.25
Z-0.251
Z-0.261
X41.097
Z-0.251
Z-0.246
X41.09 Z-0.221
X41.072 Z-0.203
X41.047 Y62.164 Z-0.196
X39.439 Y62.196
X39.414 Z-0.203
X39.396 Y62.197 Z-0.221
X39.389 Z-0.246
X39.39 Z-0.251
X39.391 Z-0.261
X41.007 Y62.196
Z-0.251
G0 Z5.
X39.492 Y62.23
Z1.835
G1 Z-0.251 F200.
Z-0.261
X40.904
Z-0.251
G0 Z5.
X39.621 Y62.264
Z1.835
G1 Z-0.251 F200.
Z-0.261
X40.775 Y62.263
Z-0.251
G0 Z5.
X39.789 Y62.297
Z1.835
G1 Z-0.251 F200.
Z-0.261
X40.607
Z-0.251
Z-0.242
X40.601 Z-0.217
X40.583 Y62.299 Z-0.198
X40.558 Y62.301 Z-0.192
X40.186 Y62.327
X40.161 Y62.329 Z-0.198
X40.143 Y62.33 Z-0.217
X40.136 Y62.331 Z-0.242
X40.137 Z-0.251
X40.139 Z-0.261
X40.259
Z-0.251
G0 Z15.

G53 Z0.
M30
