(1001)
(T1  D=1. CR=0. - ZMIN=-0.261 - FLAT END MILL)
G0 G90 G94 G17
G21
G53 G0 Z0.

(B 1MM  FLATEND  MORPHED-SPIRAL)
M5
M9
T1
S12000 M3
G4 P4.
G55
G0 X59.941 Y58.094
Z15.
Z1.835
G1 Z-0.247 F200.
Z-0.251
Z-0.261
X59.963 Y58.088
X59.975 Y58.055
Z-0.251
G0 Z5.
X59.912 Y58.127
Z1.835
G1 Z-0.251 F200.
X59.92 Z-0.261
X59.989 Y58.126
X60.005 Y58.106
X60.026 Y58.008
Y58.007 Z-0.251
Z-0.248
X60.021 Y58.012 Z-0.213
X60.009 Y58.025 Z-0.181
X59.99 Y58.046 Z-0.158
X59.967 Y58.071 Z-0.146
X59.942 Y58.097
X59.919 Y58.122 Z-0.158
X59.9 Y58.143 Z-0.181
X59.888 Y58.156 Z-0.213
X59.884 Y58.161 Z-0.248
Z-0.251
Z-0.261
X60.022 Y58.159
X60.039 Y58.14
X60.076 Y57.96
Z-0.251
Z-0.25
X60.071 Y57.965 Z-0.203
X60.056 Y57.981 Z-0.161
X60.033 Y58.005 Z-0.128
X60.005 Y58.035 Z-0.107
X59.973 Y58.069 Z-0.1
X59.958 Y58.085
X59.926 Y58.119 Z-0.107
X59.898 Y58.149 Z-0.128
X59.875 Y58.174 Z-0.161
X59.86 Y58.189 Z-0.203
X59.855 Y58.194 Z-0.25
Z-0.251
X59.856 Z-0.261
X60.056 Y58.193
X60.072 Y58.173
X60.126 Y57.913
Y57.912 Z-0.251
X60.121 Y57.917 Z-0.226
X60.108 Y57.931 Z-0.207
X60.091 Y57.949 Z-0.201
X59.861 Y58.192
X59.844 Y58.21 Z-0.207
X59.831 Y58.223 Z-0.226
X59.827 Y58.228 Z-0.251
X59.834 Z-0.261
X60.089 Y58.226
X60.106 Y58.207
X60.174 Y57.87
Z-0.251
Z-0.246
X60.17 Y57.875 Z-0.221
X60.157 Y57.888 Z-0.203
X60.14 Y57.906 Z-0.196
X59.836 Y58.225
X59.819 Y58.243 Z-0.203
X59.806 Y58.257 Z-0.221
X59.801 Y58.262 Z-0.246
X59.802 Z-0.251
X59.803 Z-0.261
X60.114 Y58.261
X60.136 Y58.249
X60.187 Y58.005
X60.222 Y57.83
Z-0.251
Z-0.248
X60.218 Y57.835 Z-0.223
X60.205 Y57.849 Z-0.205
X60.188 Y57.867 Z-0.198
X59.812 Y58.259
X59.795 Y58.277 Z-0.205
X59.783 Y58.29 Z-0.223
X59.778 Y58.295 Z-0.248
Z-0.251
Z-0.261
X60.147
X60.17 Y58.282
X60.22 Y58.039
X60.27 Y57.791
Z-0.251
G0 Z5.
X59.753 Y58.329
Z1.835
G1 Z-0.24 F200.
X59.754 Z-0.251
X59.756 Z-0.261
X60.181
X60.203 Y58.316
X60.254 Y58.072
X60.318 Y57.751
Z-0.251
Z-0.25
X60.313 Y57.756 Z-0.225
X60.301 Y57.769 Z-0.207
X60.283 Y57.787 Z-0.2
X59.765 Y58.326
X59.748 Y58.344 Z-0.207
X59.735 Y58.358 Z-0.225
X59.731 Y58.362 Z-0.25
Z-0.251
Z-0.261
X60.214
X60.237 Y58.349
X60.287 Y58.106
X60.364 Y57.719
Z-0.251
X60.36 Y57.723 Z-0.226
X60.347 Y57.737 Z-0.207
X60.33 Y57.755 Z-0.201
X59.742 Y58.36
X59.724 Y58.378 Z-0.207
X59.712 Y58.391 Z-0.226
X59.707 Y58.396 Z-0.251
Z-0.261
X60.248
X60.271 Y58.383
X60.321 Y58.139
X60.411 Y57.686
Z-0.251
Z-0.249
X60.406 Y57.691 Z-0.224
X60.393 Y57.704 Z-0.206
X60.376 Y57.722 Z-0.199
X59.718 Y58.394
X59.701 Y58.412 Z-0.206
X59.688 Y58.425 Z-0.224
X59.683 Y58.43 Z-0.249
Z-0.251
X59.684 Z-0.261
X60.281 Y58.429
X60.304 Y58.416
X60.354 Y58.173
X60.457 Y57.653
Z-0.251
Z-0.249
X60.452 Y57.658 Z-0.224
X60.439 Y57.671 Z-0.206
X60.422 Y57.689 Z-0.199
X59.699 Y58.427
X59.682 Y58.445 Z-0.206
X59.669 Y58.458 Z-0.224
X59.664 Y58.463 Z-0.249
Z-0.251
Z-0.261
X60.315
X60.338 Y58.45
X60.387 Y58.206
X60.501 Y57.628
Z-0.251
G0 Z5.
X59.645 Y58.497
Z1.835
G1 Z-0.249 F200.
Z-0.251
Z-0.261
X60.348 Y58.496
X60.371 Y58.483
X60.421 Y58.239
X60.546 Y57.604
Z-0.251
Z-0.249
X60.541 Y57.608 Z-0.224
X60.528 Y57.621 Z-0.206
X60.51 Y57.639 Z-0.199
X59.66 Y58.495
X59.643 Y58.513 Z-0.206
X59.63 Y58.526 Z-0.224
X59.625 Y58.53 Z-0.249
Z-0.251
X59.626 Z-0.261
X60.382
X60.405 Y58.517
X60.454 Y58.273
X60.59 Y57.578
Z-0.251
Z-0.242
X60.585 Y57.583 Z-0.217
X60.572 Y57.596 Z-0.198
X60.555 Y57.614 Z-0.192
X59.641 Y58.529
X59.623 Y58.546 Z-0.198
X59.61 Y58.559 Z-0.217
X59.605 Y58.564 Z-0.242
X59.606 Z-0.251
X59.608 Z-0.261
X60.415
X60.438 Y58.55
X60.488 Y58.306
X60.634 Y57.553
Z-0.251
Z-0.246
X60.63 Y57.557 Z-0.221
X60.617 Y57.57 Z-0.203
X60.599 Y57.588 Z-0.196
X59.622 Y58.562
X59.604 Y58.58 Z-0.203
X59.591 Y58.593 Z-0.221
X59.586 Y58.597 Z-0.246
X59.587 Z-0.251
X59.588 Z-0.261
X60.449
X60.472 Y58.584
X60.521 Y58.34
X60.679 Y57.528
Y57.527 Z-0.251
Z-0.25
X60.674 Y57.532 Z-0.225
X60.661 Y57.545 Z-0.207
X60.643 Y57.563 Z-0.2
X59.603 Y58.596
X59.585 Y58.613 Z-0.207
X59.572 Y58.626 Z-0.225
X59.567 Y58.631 Z-0.25
Z-0.251
Z-0.261
X60.482
X60.506 Y58.617
X60.554 Y58.373
X60.723 Y57.503
Z-0.251
G0 Z5.
X59.552 Y58.665
Z1.835
G1 Z-0.247 F200.
Z-0.251
Z-0.261
X60.516 Y58.664
X60.539 Y58.651
X60.588 Y58.407
X60.766 Y57.482
Z-0.251
Z-0.25
X60.761 Y57.486 Z-0.225
X60.748 Y57.499 Z-0.207
X60.73 Y57.517 Z-0.2
X59.572 Y58.663
X59.554 Y58.681 Z-0.207
X59.541 Y58.694 Z-0.225
X59.536 Y58.698 Z-0.25
Z-0.251
Z-0.261
X60.549
X60.573 Y58.684
X60.621 Y58.44
X60.809 Y57.46
Z-0.251
Z-0.249
X60.804 Y57.465 Z-0.224
X60.791 Y57.478 Z-0.206
X60.773 Y57.495 Z-0.199
X59.556 Y58.697
X59.538 Y58.714 Z-0.206
X59.525 Y58.727 Z-0.224
X59.521 Y58.732 Z-0.249
Z-0.251
Z-0.261
X60.583 Y58.731
X60.606 Y58.718
X60.654 Y58.474
X60.851 Y57.443
Z-0.251
Z-0.25
X60.847 Y57.447 Z-0.225
X60.834 Y57.46 Z-0.207
X60.816 Y57.478 Z-0.2
X59.541 Y58.73
X59.523 Y58.748 Z-0.207
X59.51 Y58.761 Z-0.225
X59.505 Y58.765 Z-0.25
Z-0.251
Z-0.261
X60.616
X60.64 Y58.751
X60.688 Y58.507
X60.893 Y57.43
Z-0.251
Z-0.25
X60.888 Y57.434 Z-0.225
X60.875 Y57.447 Z-0.207
X60.857 Y57.464 Z-0.2
X59.526 Y58.764
X59.508 Y58.782 Z-0.207
X59.495 Y58.794 Z-0.225
X59.49 Y58.799 Z-0.25
Z-0.251
Z-0.261
X60.65
X60.673 Y58.785
X60.721 Y58.541
X60.934 Y57.417
Z-0.251
Z-0.248
X60.929 Y57.421 Z-0.223
X60.916 Y57.434 Z-0.205
X60.898 Y57.451 Z-0.198
X59.51 Y58.798
X59.492 Y58.815 Z-0.205
X59.479 Y58.828 Z-0.223
X59.474 Y58.833 Z-0.248
Z-0.251
X59.475 Z-0.261
X60.683 Y58.832
X60.707 Y58.818
X60.755 Y58.574
X60.975 Y57.404
Z-0.251
G0 Z5.
X59.463 Y58.866
Z1.835
G1 Z-0.247 F200.
Z-0.251
X59.464 Z-0.261
X60.716
X60.74 Y58.852
X60.788 Y58.607
X61.017 Y57.391
Z-0.251
G0 Z5.
X59.453 Y58.9
Z1.835
G1 Z-0.251 F200.
Z-0.261
X60.75 Y58.899
X60.774 Y58.885
X60.821 Y58.641
X61.057 Y57.379
Z-0.251
G0 Z5.
X59.441 Y58.933
Z1.835
G1 Z-0.25 F200.
Z-0.251
Z-0.261
X60.783
X60.808 Y58.919
X60.855 Y58.674
X61.098 Y57.366
Z-0.251
G0 Z5.
X59.429 Y58.967
Z1.835
G1 Z-0.241 F200.
X59.43 Z-0.251
X59.431 Z-0.261
X60.817 Y58.966
X60.841 Y58.953
X60.888 Y58.708
X61.139 Y57.354
Z-0.251
G0 Z5.
X59.418 Y59.001
Z1.835
G1 Z-0.249 F200.
Z-0.251
Z-0.261
X60.85 Y59.
X60.875 Y58.986
X60.922 Y58.741
X61.18 Y57.344
Z-0.251
G0 Z5.
X59.407 Y59.034
Z1.835
G1 Z-0.249 F200.
Z-0.251
Z-0.261
X60.884
X60.908 Y59.02
X60.955 Y58.775
X61.22 Y57.335
Y57.334 Z-0.251
G0 Z5.
X59.395 Y59.068
Z1.835
G1 Z-0.247 F200.
Z-0.251
Z-0.261
X60.917 Y59.067
X60.942 Y59.053
X60.988 Y58.808
X61.26 Y57.325
Z-0.251
G0 Z5.
X59.384 Y59.101
Z1.835
G1 Z-0.249 F200.
Z-0.251
Z-0.261
X60.951
X60.975 Y59.087
X61.022 Y58.842
X61.3 Y57.316
Z-0.251
G0 Z5.
X59.374 Y59.135
Z1.835
G1 Z-0.249 F200.
Z-0.251
Z-0.261
X60.984 Y59.134
X61.009 Y59.12
X61.055 Y58.875
X61.339 Y57.309
Z-0.251
G0 Z5.
X59.365 Y59.168
Z1.835
G1 Z-0.246 F200.
Z-0.251
X59.366 Z-0.261
X61.018
X61.042 Y59.154
X61.089 Y58.908
X61.379 Y57.303
Z-0.251
G0 Z5.
X59.356 Y59.202
Z1.835
G1 Z-0.249 F200.
Z-0.251
Z-0.261
X61.051 Y59.201
X61.076 Y59.187
X61.122 Y58.942
X61.418 Y57.296
Z-0.251
G0 Z5.
X59.348 Y59.236
Z1.835
G1 Z-0.246 F200.
Z-0.251
Z-0.261
X61.085 Y59.235
X61.11 Y59.221
X61.155 Y58.975
X61.457 Y57.29
Z-0.251
G0 Z5.
X59.339 Y59.269
Z1.835
G1 Z-0.249 F200.
Z-0.251
Z-0.261
X61.118 Y59.268
X61.143 Y59.254
X61.189 Y59.009
X61.496 Y57.286
Z-0.251
G0 Z5.
X59.331 Y59.303
Z1.835
G1 Z-0.248 F200.
Z-0.251
Z-0.261
X61.152 Y59.302
X61.177 Y59.288
X61.222 Y59.042
X61.535 Y57.282
Z-0.251
G0 Z5.
X59.326 Y59.336
Z1.835
G1 Z-0.249 F200.
Z-0.251
Z-0.261
X61.185
X61.21 Y59.321
X61.256 Y59.076
X61.574 Y57.277
Z-0.251
G0 Z5.
X59.321 Y59.37
Z1.835
G1 Z-0.249 F200.
Z-0.251
Z-0.261
X61.219 Y59.369
X61.244 Y59.355
X61.289 Y59.109
X61.613 Y57.273
Z-0.251
G0 Z5.
X59.316 Y59.404
Z1.835
G1 Z-0.248 F200.
Z-0.251
Z-0.261
X61.252 Y59.403
X61.277 Y59.388
X61.322 Y59.143
X61.651 Y57.269
Z-0.251
G0 Z5.
X59.311 Y59.437
Z1.835
G1 Z-0.246 F200.
Z-0.251
Z-0.261
X61.286 Y59.436
X61.311 Y59.422
X61.356 Y59.176
X61.69 Y57.264
Z-0.251
G0 Z5.
X59.306 Y59.471
Z1.835
G1 Z-0.25 F200.
Z-0.251
Z-0.261
X61.319 Y59.47
X61.345 Y59.455
X61.389 Y59.21
X61.729 Y57.26
Z-0.251
G0 Z5.
X59.301 Y59.504
Z1.835
G1 Z-0.246 F200.
Z-0.251
Z-0.261
X61.353 Y59.503
X61.378 Y59.489
X61.402 Y59.361
X61.767 Y57.257
Z-0.251
G0 Z5.
X59.296 Y59.538
Z1.835
G1 Z-0.251 F200.
X59.3 Z-0.261
X61.386 Y59.537
X61.412 Y59.522
X61.435 Y59.395
X61.805 Y57.255
Z-0.251
G0 Z5.
X59.294 Y59.571
Z1.835
G1 Z-0.25 F200.
Z-0.251
Z-0.261
X61.42
X61.445 Y59.556
X61.469 Y59.428
X61.842 Y57.258
Z-0.251
G0 Z5.
X59.292 Y59.605
Z1.835
G1 Z-0.246 F200.
Z-0.251
X59.293 Z-0.261
X61.453 Y59.604
X61.479 Y59.589
X61.502 Y59.462
X61.879 Y57.261
Z-0.251
G0 Z5.
X59.29 Y59.639
Z1.835
G1 Z-0.246 F200.
Z-0.251
X59.291 Z-0.261
X61.487 Y59.638
X61.512 Y59.623
X61.536 Y59.495
X61.916 Y57.266
Z-0.251
G0 Z5.
X59.289 Y59.672
Z1.835
G1 Z-0.246 F200.
Z-0.251
Z-0.261
X61.52 Y59.671
X61.546 Y59.656
X61.569 Y59.529
X61.953 Y57.27
Z-0.251
G0 Z5.
X59.287 Y59.706
Z1.835
G1 Z-0.25 F200.
Z-0.251
Z-0.261
X61.554 Y59.705
X61.579 Y59.69
X61.603 Y59.562
X61.99 Y57.274
Z-0.251
G0 Z5.
X59.285 Y59.739
Z1.835
G1 Z-0.246 F200.
Z-0.251
X59.286 Z-0.261
X61.587 Y59.738
X61.613 Y59.723
X61.636 Y59.596
X62.027 Y57.278
Z-0.251
G0 Z5.
X59.284 Y59.773
Z1.835
G1 Z-0.246 F200.
Z-0.251
Z-0.261
X61.621 Y59.772
X61.647 Y59.757
X61.67 Y59.629
X62.064 Y57.282
Z-0.251
G0 Z5.
X59.283 Y59.806
Z1.835
G1 Z-0.25 F200.
Z-0.251
X59.284 Z-0.261
X61.654
X61.68 Y59.791
X61.703 Y59.663
X62.1 Y57.286
Z-0.251
G0 Z5.
X59.285 Y59.84
Z1.835
G1 Z-0.246 F200.
Z-0.251
X59.286 Z-0.261
X61.688 Y59.839
X61.714 Y59.824
X61.737 Y59.696
X62.137 Y57.29
Z-0.251
G0 Z5.
X59.287 Y59.874
Z1.835
G1 Z-0.251 F200.
Z-0.261
X61.721 Y59.873
X61.747 Y59.858
X61.77 Y59.729
X62.174 Y57.296
Z-0.251
G0 Z5.
X59.289 Y59.907
Z1.835
G1 Z-0.248 F200.
Z-0.251
Z-0.261
X61.755 Y59.906
X61.781 Y59.891
X61.804 Y59.763
X62.21 Y57.302
Z-0.251
G0 Z5.
X59.29 Y59.941
Z1.835
G1 Z-0.248 F200.
Z-0.251
Z-0.261
X61.788 Y59.94
X61.814 Y59.925
X61.837 Y59.796
X62.246 Y57.308
Z-0.251
G0 Z5.
X59.292 Y59.974
Z1.835
G1 Z-0.249 F200.
Z-0.251
Z-0.261
X61.822 Y59.973
X61.848 Y59.958
X61.871 Y59.83
X62.283 Y57.315
Z-0.251
G0 Z5.
X59.293 Y60.008
Z1.835
G1 Z-0.249 F200.
X59.294 Z-0.251
Z-0.261
X61.855 Y60.007
X61.881 Y59.992
X61.904 Y59.863
X62.319 Y57.323
Z-0.251
G0 Z5.
X59.295 Y60.042
Z1.835
G1 Z-0.249 F200.
Z-0.251
Z-0.261
X61.889 Y60.041
X61.915 Y60.025
X61.938 Y59.897
X62.355 Y57.332
Z-0.251
G0 Z5.
X59.3 Y60.075
Z1.835
G1 Z-0.247 F200.
Z-0.251
Z-0.261
X61.922 Y60.074
X61.949 Y60.059
X61.971 Y59.93
X62.39 Y57.34
Z-0.251
G0 Z5.
X59.305 Y60.109
Z1.835
G1 Z-0.249 F200.
Z-0.251
Z-0.261
X61.964 Y60.108
X61.977 Y60.103
X61.984 Y60.091
X62.426 Y57.348
Z-0.251
G0 Z5.
X59.31 Y60.142
Z1.835
G1 Z-0.25 F200.
Z-0.251
Z-0.261
X61.998 Y60.141
X62.011 Y60.136
X62.018 Y60.124
X62.462 Y57.359
Z-0.251
G0 Z5.
X59.315 Y60.176
Z1.835
G1 Z-0.249 F200.
Z-0.251
Z-0.261
X62.031 Y60.175
X62.045 Y60.17
X62.051 Y60.158
X62.497 Y57.369
Z-0.251
G0 Z5.
X59.32 Y60.209
Z1.835
G1 Z-0.246 F200.
Z-0.251
Z-0.261
X62.065 Y60.208
X62.078 Y60.204
X62.085 Y60.191
X62.533 Y57.38
Z-0.251
G0 Z5.
X59.325 Y60.243
Z1.835
G1 Z-0.246 F200.
Z-0.251
Z-0.261
X62.098 Y60.242
X62.112 Y60.237
X62.119 Y60.225
X62.568 Y57.39
Z-0.251
G0 Z5.
X59.33 Y60.277
Z1.835
G1 Z-0.246 F200.
Z-0.251
Z-0.261
X62.132 Y60.276
X62.145 Y60.271
X62.152 Y60.258
X62.604 Y57.402
Y57.401 Z-0.251
G0 Z5.
X59.337 Y60.31
Z1.835
G1 Z-0.251 F200.
Z-0.261
X62.165 Y60.309
X62.179 Y60.304
X62.186 Y60.292
X62.639 Y57.412
Z-0.251
G0 Z5.
X59.346 Y60.344
Z1.835
G1 Z-0.249 F200.
Z-0.251
Z-0.261
X62.199 Y60.343
X62.212 Y60.338
X62.219 Y60.325
X62.674 Y57.423
Z-0.251
G0 Z5.
X59.355 Y60.377
Z1.835
G1 Z-0.247 F200.
Z-0.251
Z-0.261
X62.232 Y60.376
X62.246 Y60.371
X62.253 Y60.359
X62.71 Y57.434
Z-0.251
G0 Z5.
X59.363 Y60.411
Z1.835
G1 Z-0.248 F200.
Z-0.251
X59.364 Z-0.261
X62.266 Y60.41
X62.279 Y60.405
X62.286 Y60.392
X62.745 Y57.445
Z-0.251
G0 Z5.
X59.372 Y60.444
Z1.835
G1 Z-0.241 F200.
Z-0.251
X59.373 Z-0.261
X62.3 Y60.443
X62.313 Y60.438
X62.32 Y60.426
X62.78 Y57.46
Z-0.251
G0 Z5.
X59.381 Y60.478
Z1.835
G1 Z-0.251 F200.
Z-0.261
X62.333 Y60.477
X62.347 Y60.472
X62.354 Y60.459
X62.814 Y57.477
Z-0.251
G0 Z5.
X59.393 Y60.512
Z1.835
G1 Z-0.247 F200.
Z-0.251
Z-0.261
X62.367 Y60.511
X62.38 Y60.505
X62.387 Y60.493
X62.848 Y57.494
Z-0.251
G0 Z5.
X59.404 Y60.545
Z1.835
G1 Z-0.241 F200.
X59.405 Z-0.251
X59.406 Z-0.261
X62.4 Y60.544
X62.414 Y60.539
X62.421 Y60.526
X62.882 Y57.512
Z-0.251
G0 Z5.
X59.416 Y60.579
Z1.835
G1 Z-0.241 F200.
Z-0.251
X59.417 Z-0.261
X62.434 Y60.578
X62.447 Y60.573
X62.454 Y60.56
X62.916 Y57.532
Z-0.251
G0 Z5.
X59.428 Y60.612
Z1.835
G1 Z-0.248 F200.
Z-0.251
Z-0.261
X62.467 Y60.611
X62.481 Y60.606
X62.488 Y60.593
X62.95 Y57.551
Z-0.251
G0 Z5.
X59.439 Y60.646
Z1.835
G1 Z-0.249 F200.
Z-0.251
Z-0.261
X62.501 Y60.645
X62.514 Y60.64
X62.521 Y60.627
X62.984 Y57.57
Z-0.251
G0 Z5.
X59.451 Y60.679
Z1.835
G1 Z-0.246 F200.
Z-0.251
Z-0.261
X62.534 Y60.678
X62.548 Y60.673
X62.555 Y60.66
X63.018 Y57.59
Z-0.251
G0 Z5.
X59.461 Y60.713
Z1.835
G1 Z-0.247 F200.
X59.462 Z-0.251
Z-0.261
X62.568 Y60.712
X62.581 Y60.707
X62.589 Y60.694
X63.052 Y57.608
Z-0.251
G0 Z5.
X59.471 Y60.747
Z1.835
G1 Z-0.24 F200.
X59.472 Z-0.251
X59.474 Z-0.261
X62.601 Y60.745
X62.615 Y60.74
X62.622 Y60.727
X63.086 Y57.627
Z-0.251
G0 Z5.
X59.487 Y60.78
Z1.835
G1 Z-0.249 F200.
Z-0.251
Z-0.261
X62.635 Y60.779
X62.649 Y60.774
X62.656 Y60.761
X63.12 Y57.646
Z-0.251
G0 Z5.
X59.502 Y60.814
Z1.835
G1 Z-0.249 F200.
Z-0.251
X59.503 Z-0.261
X62.668 Y60.813
X62.682 Y60.807
X62.689 Y60.795
X63.154 Y57.668
Z-0.251
G0 Z5.
X59.518 Y60.847
Z1.835
G1 Z-0.25 F200.
Z-0.251
Z-0.261
X62.702 Y60.846
X62.716 Y60.841
X62.723 Y60.828
X63.187 Y57.691
Z-0.251
G0 Z5.
X59.533 Y60.881
Z1.835
G1 Z-0.248 F200.
Z-0.251
X59.534 Z-0.261
X62.735 Y60.88
X62.749 Y60.875
X62.756 Y60.862
X63.22 Y57.715
Z-0.251
G0 Z5.
X59.549 Y60.914
Z1.835
G1 Z-0.246 F200.
Z-0.251
Z-0.261
X62.769 Y60.913
X62.783 Y60.908
X62.79 Y60.895
X63.253 Y57.739
Z-0.251
G0 Z5.
X59.564 Y60.948
Z1.835
G1 Z-0.249 F200.
Z-0.251
Z-0.261
X62.802 Y60.947
X62.816 Y60.942
X62.823 Y60.929
X63.286 Y57.764
Z-0.251
G0 Z5.
X59.583 Y60.982
Z1.835
G1 Z-0.246 F200.
Z-0.251
Z-0.261
X62.836 Y60.98
X62.85 Y60.975
X62.857 Y60.962
X63.319 Y57.791
Z-0.251
G0 Z5.
X59.602 Y61.015
Z1.835
G1 Z-0.246 F200.
Z-0.251
X59.603 Z-0.261
X62.869 Y61.014
X62.883 Y61.009
X62.891 Y60.996
X63.352 Y57.818
Z-0.251
G0 Z5.
X59.621 Y61.049
Z1.835
G1 Z-0.246 F200.
X59.622 Z-0.251
Z-0.261
X62.903 Y61.048
X62.917 Y61.042
X62.924 Y61.029
X63.385 Y57.845
Z-0.251
G0 Z5.
X59.641 Y61.082
Z1.835
G1 Z-0.247 F200.
Z-0.251
Z-0.261
X62.936 Y61.081
X62.95 Y61.076
X62.958 Y61.063
X63.417 Y57.872
Z-0.251
G0 Z5.
X59.661 Y61.116
Z1.835
G1 Z-0.249 F200.
Z-0.251
Z-0.261
X62.97 Y61.115
X62.984 Y61.109
X62.991 Y61.096
X63.45 Y57.9
Z-0.251
G0 Z5.
X59.68 Y61.149
Z1.835
G1 Z-0.249 F200.
Z-0.251
Z-0.261
X63.003 Y61.148
X63.018 Y61.143
X63.025 Y61.13
X63.482 Y57.931
Z-0.251
G0 Z5.
X59.702 Y61.183
Z1.835
G1 Z-0.247 F200.
Z-0.251
X59.703 Z-0.261
X63.037 Y61.182
X63.051 Y61.177
X63.058 Y61.163
X63.515 Y57.961
Z-0.251
G0 Z5.
X59.726 Y61.217
Z1.835
G1 Z-0.247 F200.
Z-0.251
Z-0.261
X63.07 Y61.215
X63.085 Y61.21
X63.092 Y61.197
X63.547 Y57.992
Z-0.251
G0 Z5.
X59.75 Y61.25
Z1.835
G1 Z-0.247 F200.
Z-0.251
Z-0.261
X63.104 Y61.249
X63.118 Y61.244
X63.126 Y61.23
X63.579 Y58.023
Z-0.251
G0 Z5.
X59.773 Y61.284
Z1.835
G1 Z-0.249 F200.
Z-0.251
X59.774 Z-0.261
X63.137 Y61.283
X63.152 Y61.277
X63.159 Y61.264
X63.612 Y58.053
Z-0.251
G0 Z5.
X59.797 Y61.317
Z1.835
G1 Z-0.247 F200.
Z-0.251
Z-0.261
X63.171 Y61.316
X63.185 Y61.311
X63.193 Y61.297
X63.643 Y58.088
Z-0.251
G0 Z5.
X59.821 Y61.351
Z1.835
G1 Z-0.249 F200.
Z-0.251
Z-0.261
X63.204 Y61.35
X63.219 Y61.344
X63.226 Y61.331
X63.675 Y58.125
Z-0.251
G0 Z5.
X59.849 Y61.384
Z1.835
G1 Z-0.251 F200.
X59.85 Z-0.261
X63.238 Y61.383
X63.252 Y61.378
X63.26 Y61.364
X63.706 Y58.162
Z-0.251
G0 Z5.
X59.878 Y61.418
Z1.835
G1 Z-0.249 F200.
Z-0.251
Z-0.261
X63.272 Y61.417
X63.286 Y61.411
X63.293 Y61.398
X63.737 Y58.199
Z-0.251
G0 Z5.
X59.906 Y61.452
Z1.835
G1 Z-0.251 F200.
X59.907 Z-0.261
X63.305 Y61.45
X63.32 Y61.445
X63.327 Y61.431
X63.769 Y58.236
Z-0.251
G0 Z5.
X59.935 Y61.485
Z1.835
G1 Z-0.251 F200.
Z-0.261
X63.339 Y61.484
X63.353 Y61.479
X63.361 Y61.465
X63.8 Y58.279
Z-0.251
G0 Z5.
X59.963 Y61.519
Z1.835
G1 Z-0.251 F200.
X59.964 Z-0.261
X63.372 Y61.518
X63.387 Y61.512
X63.394 Y61.498
X63.83 Y58.322
Z-0.251
G0 Z5.
X59.998 Y61.552
Z1.835
G1 Z-0.241 F200.
Z-0.251
X59.999 Z-0.261
X63.406 Y61.551
X63.42 Y61.546
X63.428 Y61.532
X63.861 Y58.366
Z-0.251
G0 Z5.
X60.034 Y61.586
Z1.835
G1 Z-0.246 F200.
Z-0.251
Z-0.261
X63.439 Y61.585
X63.454 Y61.579
X63.461 Y61.565
X63.891 Y58.41
Z-0.251
G0 Z5.
X60.068 Y61.619
Z1.835
G1 Z-0.24 F200.
X60.069 Z-0.251
X60.071 Z-0.261
X63.473 Y61.618
X63.487 Y61.613
X63.495 Y61.599
X63.921 Y58.457
Z-0.251
G0 Z5.
X63.531 Y61.609
Z1.835
G1 Z-0.24 F200.
X63.532 Y61.608 Z-0.251
Y61.606 Z-0.261
X63.951 Y58.509
Z-0.251
G0 Z5.
X60.104 Y61.653
Z1.835
G1 Z-0.246 F200.
Z-0.251
X60.105 Z-0.261
X63.486 Y61.652
Z-0.251
G0 Z5.
X63.575 Y61.567
Z1.835
G1 Z-0.241 F200.
Z-0.251
Y61.566 Z-0.261
X63.981 Y58.56
Z-0.251
G0 Z5.
X60.139 Y61.687
Z1.835
G1 Z-0.241 F200.
X60.14 Z-0.251
X60.141 Z-0.261
X63.45 Y61.685
Z-0.251
G0 Z5.
X63.619 Y61.525
Z1.835
G1 Z-0.251 F200.
Z-0.261
X64.01 Y58.611
Z-0.251
G0 Z5.
X60.179 Y61.72
Z1.835
G1 Z-0.251 F200.
X60.18 Z-0.261
X63.411 Y61.719
Z-0.251
Z-0.248
X63.416 Y61.714 Z-0.202
X63.431 Y61.699 Z-0.16
X63.455 Y61.676 Z-0.127
X63.485 Y61.647 Z-0.106
X63.519 Y61.615 Z-0.098
X63.556 Y61.578
X63.589 Y61.546 Z-0.106
X63.619 Y61.517 Z-0.127
X63.643 Y61.494 Z-0.16
X63.658 Y61.479 Z-0.202
X63.664 Y61.474 Z-0.248
Z-0.251
Y61.473 Z-0.261
X64.039 Y58.669
Z-0.251
G0 Z5.
X60.219 Y61.754
Z1.835
G1 Z-0.24 F200.
X60.22 Z-0.251
X60.221 Z-0.261
X63.371 Y61.753
Z-0.251
G0 Z5.
X63.709 Y61.421
Z1.835
G1 Z-0.251 F200.
Y61.42 Z-0.261
X64.068 Y58.73
Z-0.251
G0 Z5.
X60.26 Y61.787
Z1.835
G1 Z-0.251 F200.
Z-0.261
X63.331 Y61.786
Z-0.251
G0 Z5.
X63.754 Y61.368
Z1.835
G1 Z-0.251 F200.
Y61.367 Z-0.261
X64.096 Y58.792
Z-0.251
G0 Z5.
X60.3 Y61.821
Z1.835
G1 Z-0.251 F200.
Z-0.261
X63.29 Y61.82
Z-0.251
Z-0.248
X63.295 Y61.815 Z-0.223
X63.308 Y61.802 Z-0.205
X63.325 Y61.784 Z-0.198
X63.764 Y61.342
X63.782 Y61.325 Z-0.205
X63.795 Y61.312 Z-0.223
X63.799 Y61.307 Z-0.248
Z-0.251
X63.8 Y61.306 Z-0.261
X64.124 Y58.859
Z-0.251
G0 Z5.
X60.346 Y61.854
Z1.835
G1 Z-0.251 F200.
Z-0.261
X63.244 Y61.853
Z-0.251
Z-0.25
X63.249 Y61.849 Z-0.225
X63.262 Y61.836 Z-0.207
X63.279 Y61.818 Z-0.2
X63.811 Y61.276
X63.828 Y61.258 Z-0.207
X63.841 Y61.245 Z-0.225
X63.846 Y61.241 Z-0.25
Z-0.251
Y61.24 Z-0.261
X64.15 Y58.939
Z-0.251
G0 Z5.
X60.393 Y61.888
Z1.835
G1 Z-0.251 F200.
X60.394 Z-0.261
X63.197 Y61.887
Z-0.251
Z-0.241
X63.202 Y61.882 Z-0.216
X63.214 Y61.869 Z-0.198
X63.232 Y61.851 Z-0.191
X63.857 Y61.211
X63.875 Y61.193 Z-0.198
X63.888 Y61.18 Z-0.216
X63.892 Y61.175 Z-0.241
Z-0.251
X63.893 Y61.173 Z-0.261
X64.176 Y59.016
Z-0.251
G0 Z5.
X60.441 Y61.921
Z1.835
G1 Z-0.251 F200.
Z-0.261
X63.149
Z-0.251
Z-0.25
X63.154 Y61.916 Z-0.225
X63.166 Y61.903 Z-0.206
X63.184 Y61.885 Z-0.2
X63.906 Y61.132
X63.923 Y61.114 Z-0.206
X63.936 Y61.1 Z-0.225
X63.94 Y61.095 Z-0.25
Z-0.251
Z-0.261
X64.203 Y59.093
Z-0.251
G0 Z5.
X60.496 Y61.955
Z1.835
G1 Z-0.251 F200.
Z-0.261
X63.094 Y61.954
Z-0.251
Z-0.25
X63.099 Y61.949 Z-0.225
X63.111 Y61.936 Z-0.206
X63.129 Y61.918 Z-0.2
X63.954 Y61.048
X63.972 Y61.03 Z-0.206
X63.984 Y61.016 Z-0.225
X63.989 Y61.012 Z-0.25
Y61.011 Z-0.251
Z-0.261
X64.227 Y59.183
Z-0.251
G0 Z5.
X60.553 Y61.989
Z1.835
G1 Z-0.241 F200.
Z-0.251
X60.554 Z-0.261
X63.035 Y61.988
Z-0.251
G0 Z5.
X64.038 Y60.918
Z1.835
G1 Z-0.249 F200.
Z-0.251
Z-0.261
X64.252 Y59.277
Z-0.251
G0 Z5.
X60.61 Y62.022
Z1.835
G1 Z-0.24 F200.
X60.611 Z-0.251
X60.613 Z-0.261
X62.977 Y62.021
Z-0.251
G0 Z5.
X64.09 Y60.805
Z1.835
G1 Z-0.251 F200.
Z-0.261
X64.273 Y59.4
Z-0.251
G0 Z5.
X60.668 Y62.056
Z1.835
G1 Z-0.251 F200.
Z-0.261
X62.92 Y62.055
Z-0.251
Z-0.246
X62.924 Y62.05 Z-0.221
X62.936 Y62.036 Z-0.203
X62.953 Y62.017 Z-0.196
X64.115 Y60.69
X64.131 Y60.671 Z-0.203
X64.143 Y60.657 Z-0.221
X64.148 Y60.652 Z-0.246
Z-0.251
Y60.651 Z-0.261
X64.292 Y59.531
Z-0.251
G0 Z5.
X60.736 Y62.089
Z1.835
G1 Z-0.251 F200.
Z-0.261
X62.855
Z-0.251
G0 Z5.
X64.207 Y60.48
Z1.835
G1 Z-0.241 F200.
Y60.479 Z-0.251
Y60.478 Z-0.261
X64.303 Y59.732
Z-0.251
G0 Z5.
X60.805 Y62.123
Z1.835
G1 Z-0.251 F200.
X60.806 Z-0.261
X62.786 Y62.122
Z-0.251
G0 Z5.
X60.896 Y62.156
Z1.835
G1 Z-0.251 F200.
X60.897 Z-0.261
X62.696
Z-0.251
Z-0.248
X62.689 Z-0.223
X62.671 Z-0.205
X62.646 Y62.157 Z-0.198
X61.051 Y62.189
X61.027 Z-0.205
X61.008 Y62.19 Z-0.223
X61.002 Z-0.248
Z-0.251
Z-0.261
X62.589 Y62.189
Z-0.251
G0 Z5.
X61.113 Y62.223
Z1.835
G1 Z-0.251 F200.
X61.114 Z-0.261
X62.477
Z-0.251
Z-0.242
X62.471 Z-0.217
X62.452 Y62.224 Z-0.198
X62.427 Z-0.192
X61.29 Y62.256
X61.265 Z-0.198
X61.247 Y62.257 Z-0.217
X61.24 Z-0.242
X61.241 Z-0.251
X61.243 Z-0.261
X62.35
Z-0.251
Z-0.25
X62.344 Z-0.225
X62.325 Y62.258 Z-0.206
X62.3 Z-0.2
X61.46 Y62.289
X61.435 Y62.29 Z-0.206
X61.417 Z-0.225
X61.41 Y62.291 Z-0.25
Z-0.251
Z-0.261
X62.183 Y62.29
Z-0.251
Z-0.248
X62.177 Y62.291 Z-0.223
X62.158 Y62.292 Z-0.205
X62.133 Y62.294 Z-0.198
X61.767 Y62.32
X61.742 Y62.322 Z-0.205
X61.723 Y62.323 Z-0.223
X61.717 Y62.324 Z-0.248
Z-0.251
Z-0.261
X61.878
Z-0.251
G0 Z15.

G53 Z0.
M30
