(1001)
(T1  D=3.175 CR=0. TAPER=40DEG - ZMIN=-0.161 - CHAMFER MILL)
G0 G90 G94 G17
G21
G53 G0 Z0.

(40  ENGRAVING  PENCIL)
M5
M9
T1
S12000 M3
G4 P4.
G55
G0 X31.471 Y54.23
Z15.
Z4.935
G1 Z-0.074 F200.
X31.47 Y54.234 Z-0.082
X31.469 Y54.242 Z-0.084
Y54.246 Z-0.083
X31.47 Y54.266 Z-0.085
X31.477 Y54.285 Z-0.093
X31.485 Y54.295 Z-0.102
X31.495 Y54.305 Z-0.114
X31.502 Y54.325 Z-0.123
Y66.062
X31.5 Y66.112 Z-0.121
X31.467 Y66.146 Z-0.081
X31.457 Y66.155 Z-0.07
X31.456 Y66.156 Z-0.069
X31.455 Y66.157 Z-0.068
X31.453 Y66.158 Z-0.066
X31.452 Y66.159
X31.45 Y66.16 Z-0.065
X31.437 Y66.168
X31.42 Y66.181
X31.404 Y66.217
X31.42 Y66.254
X31.437 Y66.264
X31.467 Y66.266
X31.496 Y66.245
X31.512 Y66.222
X31.513 Y66.22 Z-0.066
Y66.219
X31.514 Y66.218 Z-0.067
X31.515 Y66.216 Z-0.068
X31.516 Y66.215 Z-0.069
X31.517 Y66.214 Z-0.07
X31.519 Y66.212 Z-0.072
X31.521 Y66.211 Z-0.074
X31.533 Y66.198 Z-0.089
X31.551 Y66.193 Z-0.095
X31.555 Y66.197 Z-0.091
X31.563 Y66.204 Z-0.081
X31.574 Y66.216 Z-0.068
X31.575 Y66.217 Z-0.067
X31.576 Y66.219 Z-0.066
X31.578 Y66.221
X31.579 Y66.223 Z-0.065
X31.585 Y66.235
X31.611 Y66.256
X31.645 Y66.255
X31.67 Y66.234
X31.676 Y66.21
X31.671 Y66.186
X31.643 Y66.162
X31.64 Y66.16
X31.639 Z-0.066
X31.638 Y66.159
X31.636 Y66.158
X31.635 Y66.157 Z-0.067
X31.634 Y66.156 Z-0.068
X31.632 Y66.155 Z-0.07
X31.611 Y66.134 Z-0.094
X31.608 Y66.13 Z-0.099
X31.593 Y66.116 Z-0.116
X31.589 Y66.112 Z-0.121
X31.588 Y66.062 Z-0.123
Y54.325
X31.595 Y54.305 Z-0.114
X31.6 Y54.299 Z-0.108
X31.61 Y54.29 Z-0.096
X31.614 Y54.285 Z-0.092
X31.62 Y54.275 Z-0.085
X31.623 Y54.265 Z-0.081
X31.624 Y54.242 Z-0.079
X31.625 Y54.235 Z-0.076
Y54.233 Z-0.069
G0 Z5.
X31.596 Y54.245
Z4.935
G1 Z-0.109 F200.
X31.593 Y54.247 Z-0.116
X31.587 Y54.253 Z-0.123
X31.557 Y54.283 Z-0.159
X31.555 Y54.285 Z-0.158
X31.553 Y54.289 Z-0.149
X31.552 Y54.293 Z-0.138
X31.555 Y54.284 Z-0.131
X31.559 Y54.275 Z-0.138
X31.557 Y54.279 Z-0.149
X31.556 Y54.283 Z-0.158
Y54.285 Z-0.161
X31.555 Y54.287
Y66.135
X31.556 Y66.137
Y66.139 Z-0.158
X31.559 Y66.142 Z-0.15
X31.562 Y66.145 Z-0.138
X31.555 Y66.138 Z-0.131
X31.548 Y66.131 Z-0.138
X31.551 Y66.134 Z-0.15
X31.554 Y66.137 Z-0.158
X31.556 Y66.139 Z-0.159
X31.558 Y66.14 Z-0.158
X31.627 Y66.21 Z-0.075
X31.63 Y66.212 Z-0.068
G0 Z5.
X31.535 Y66.137
Z4.935
G1 Z-0.157 F200.
X31.532 Y66.14 Z-0.159
X31.457 Y66.215 Z-0.068
X31.454 Y66.217 Z-0.067
X31.451 Y66.221 Z-0.058
G0 Z5.
X31.534 Y66.137
Z4.935
G1 Z-0.161 F200.
Y54.286
Y54.284 Z-0.158
X31.532 Y54.28 Z-0.149
X31.53 Y54.275 Z-0.141
X31.532 Y54.28 Z-0.132
X31.536 Y54.289
X31.537 Y54.294 Z-0.141
X31.536 Y54.289 Z-0.149
X31.534 Y54.285 Z-0.158
X31.532 Y54.283 Z-0.159
X31.502 Y54.253 Z-0.123
X31.501 Y54.251 Z-0.121
X31.498 Y54.249 Z-0.113
G0 Z5.
X32.543 Y54.23
Z4.935
G1 Z-0.065 F200.
Y54.234 Z-0.073
X32.542 Y54.242 Z-0.075
X32.543 Y54.258 Z-0.076
X32.547 Y54.272 Z-0.081
X32.552 Y54.281 Z-0.087
X32.56 Y54.29 Z-0.097
X32.563 Y54.294 Z-0.101
X32.573 Y54.304 Z-0.113
X32.578 Y54.308 Z-0.118
X32.582 Y54.344 Z-0.123
Y66.062
X32.58 Y66.112 Z-0.12
X32.573 Y66.119 Z-0.112
X32.566 Y66.125 Z-0.104
X32.56 Y66.132 Z-0.097
X32.552 Y66.14 Z-0.087
X32.545 Y66.147 Z-0.079
X32.537 Y66.155 Z-0.069
X32.535 Y66.156 Z-0.067
X32.534 Y66.157 Z-0.066
X32.532 Y66.158
X32.531 Y66.159 Z-0.065
X32.529 Y66.16
X32.526 Y66.162
X32.497 Y66.185
X32.49 Y66.209
X32.496 Y66.236
X32.527 Y66.26
X32.566 Y66.254
X32.592 Y66.221 Z-0.066
X32.593 Y66.219
Y66.218 Z-0.067
X32.595 Y66.216 Z-0.068
X32.596 Y66.215 Z-0.069
X32.616 Y66.195 Z-0.093
X32.631 Y66.192 Z-0.096
X32.654 Y66.215 Z-0.069
X32.655 Y66.216 Z-0.068
X32.656 Y66.217 Z-0.067
X32.657 Y66.219 Z-0.066
X32.658 Y66.22
X32.659 Y66.222 Z-0.065
X32.662 Y66.228
X32.675 Y66.247
X32.719 Y66.263
X32.757 Y66.236
X32.762 Y66.206
X32.752 Y66.184
X32.724 Y66.162
X32.719 Y66.159
X32.717 Y66.158 Z-0.066
X32.715 Y66.157 Z-0.067
X32.714 Y66.156 Z-0.068
X32.709 Y66.151 Z-0.074
X32.704 Y66.147 Z-0.079
X32.684 Y66.126 Z-0.103
X32.678 Y66.12 Z-0.11
X32.676 Y66.118 Z-0.113
X32.67 Y66.112 Z-0.12
X32.668 Y66.062 Z-0.123
Y54.344
X32.672 Y54.308 Z-0.118
X32.682 Y54.298 Z-0.106
X32.69 Y54.29 Z-0.097
X32.696 Y54.284 Z-0.09
X32.701 Y54.278 Z-0.084
X32.706 Y54.266 Z-0.077
X32.71 Y54.242 Z-0.073
X32.711 Y54.236 Z-0.069
Y54.234 Z-0.063
G0 Z5.
X32.68 Y54.241
Z4.935
G1 Z-0.103 F200.
X32.678 Y54.243 Z-0.111
X32.666 Y54.254 Z-0.125
X32.637 Y54.283 Z-0.159
X32.636 Y54.285 Z-0.158
X32.637 Y54.289 Z-0.149
X32.638 Y54.293 Z-0.138
X32.636 Y54.284 Z-0.131
X32.633 Y54.275 Z-0.138
X32.634 Y54.279 Z-0.149
X32.635 Y54.283 Z-0.158
Y54.285 Z-0.161
Y66.137
G0 Z5.
X32.636
Z4.935
G1 Z-0.158 F200.
X32.637 Y66.139 Z-0.159
X32.712 Y66.214 Z-0.07
X32.715 Y66.216 Z-0.062
G0 Z5.
X32.614 Y66.137
Z4.935
G1 Z-0.157 F200.
X32.612 Y66.139 Z-0.159
X32.539 Y66.212 Z-0.072
X32.537 Y66.214 Z-0.064
G0 Z5.
X32.614 Y66.137
Z4.935
G1 Z-0.161 F200.
Y66.135
Y66.129
Y54.287
Y54.285
Y54.283 Z-0.158
X32.615 Y54.279 Z-0.149
X32.617 Y54.274 Z-0.141
X32.615 Y54.279 Z-0.132
X32.612 Y54.288
X32.61 Y54.293 Z-0.141
X32.612 Y54.289 Z-0.149
X32.613 Y54.284 Z-0.158
X32.612 Y54.283 Z-0.159
X32.61 Y54.282 Z-0.157
X32.609 Y54.28 Z-0.154
X32.582 Y54.253 Z-0.123
X32.574 Y54.245 Z-0.113
X32.571 Y54.243 Z-0.106
G0 Z5.
X33.628 Y54.23
Z4.935
G1 Z-0.073 F200.
Y54.234 Z-0.08
X33.627 Y54.242 Z-0.083
Y54.247 Z-0.082
X33.628 Y54.264 Z-0.083
X33.63 Y54.274 Z-0.087
X33.635 Y54.284 Z-0.092
X33.643 Y54.294 Z-0.102
X33.653 Y54.304 Z-0.114
X33.661 Y54.314 Z-0.123
Y66.062
X33.659 Y66.112 Z-0.121
X33.652 Y66.119 Z-0.112
X33.641 Y66.13 Z-0.099
X33.638 Y66.133 Z-0.096
X33.62 Y66.151 Z-0.074
X33.615 Y66.156 Z-0.068
X33.614 Y66.157 Z-0.067
X33.613 Y66.158
X33.612 Z-0.066
X33.611 Y66.159
X33.61
X33.609 Y66.16 Z-0.065
X33.605 Y66.162
X33.565 Y66.201
X33.566 Y66.235
X33.588 Y66.261
X33.613 Y66.267
X33.638 Y66.261
X33.663 Y66.235
X33.669 Y66.225
X33.67 Y66.221
X33.671 Y66.22 Z-0.066
X33.672 Y66.218
X33.674 Y66.216 Z-0.067
X33.675 Y66.215 Z-0.069
X33.7 Y66.19 Z-0.099
X33.71 Z-0.098
X33.735 Y66.215 Z-0.069
X33.736 Y66.216 Z-0.067
X33.737 Y66.218 Z-0.066
X33.738 Y66.22
X33.739 Y66.221 Z-0.065
X33.741 Y66.225
X33.747 Y66.235
X33.763 Y66.254
X33.805 Y66.268
X33.807 Y66.267
X33.812 Y66.266
X33.841 Y66.242
X33.847 Y66.216
X33.838 Y66.189
X33.812 Y66.166
X33.807 Y66.163
X33.804 Y66.162
X33.802 Y66.16
X33.8 Y66.159 Z-0.066
X33.797 Y66.158 Z-0.067
X33.796 Y66.157
X33.795 Y66.156 Z-0.068
X33.785 Y66.146 Z-0.08
X33.769 Y66.13 Z-0.1
X33.756 Y66.117 Z-0.115
X33.751 Y66.112 Z-0.121
X33.749 Y66.062 Z-0.123
Y54.314
X33.757 Y54.304 Z-0.113
X33.767 Y54.294 Z-0.101
X33.775 Y54.284 Z-0.092
X33.782 Y54.264 Z-0.083
X33.783 Y54.242
Y54.235 Z-0.08
Y54.232 Z-0.073
G0 Z5.
X33.754 Y54.248
Z4.935
G1 Z-0.113 F200.
X33.751 Y54.251 Z-0.12
X33.718 Y54.284 Z-0.16
X33.716 Y54.286 Z-0.157
Y54.29 Z-0.149
X33.715 Y54.294 Z-0.137
X33.716 Y54.284 Z-0.13
X33.718 Y54.275 Z-0.137
X33.717 Y54.279 Z-0.149
Y54.283 Z-0.157
Z-0.158
Y54.285 Z-0.161
Y66.137
G0 Z5.
X33.712 Y66.133
Z4.935
G1 Z-0.15 F200.
X33.714 Y66.135 Z-0.156
X33.718 Y66.139 Z-0.159
X33.795 Y66.215 Z-0.068
X33.796 Y66.217 Z-0.067
X33.797 Y66.218 Z-0.066
X33.802 Y66.223 Z-0.057
G0 Z5.
X33.693 Y66.138
Z4.935
G1 Z-0.158 F200.
X33.691 Y66.139 Z-0.159
X33.619 Y66.212 Z-0.072
X33.615 Y66.215 Z-0.068
X33.614 Y66.216
X33.613 Y66.217 Z-0.067
X33.609 Y66.222 Z-0.057
G0 Z5.
X33.693 Y66.14
Z4.935
G1 Z-0.155 F200.
Y66.137 Z-0.161
Y66.135
Y54.287
Y54.285
Y54.283 Z-0.158
Z-0.157
X33.691 Y54.279 Z-0.148
X33.689 Y54.276 Z-0.137
X33.694 Y54.284 Z-0.13
X33.698 Y54.293 Z-0.137
X33.696 Y54.289 Z-0.148
X33.694 Y54.285 Z-0.157
X33.691 Y54.282 Z-0.159
X33.659 Y54.25 Z-0.12
X33.656 Y54.248 Z-0.112
G0 Z5.
X34.702 Y54.23
Z4.935
G1 Z-0.066 F200.
Y54.234 Z-0.073
X34.701 Y54.241 Z-0.076
Y54.252 Z-0.075
X34.703 Y54.265 Z-0.078
X34.709 Y54.279 Z-0.085
X34.71 Y54.28 Z-0.086
Y54.281
X34.712 Y54.283 Z-0.088
X34.714 Y54.285 Z-0.09
X34.719 Y54.29 Z-0.096
X34.723 Y54.295 Z-0.102
X34.729 Y54.301 Z-0.109
X34.732 Y54.303 Z-0.112
X34.736 Y54.308 Z-0.117
X34.741 Y54.312 Z-0.123
Y54.344
Y66.062
X34.739 Y66.112 Z-0.12
X34.722 Y66.129 Z-0.1
X34.715 Y66.136 Z-0.091
X34.709 Y66.142 Z-0.085
X34.705 Y66.146 Z-0.08
X34.695 Y66.155 Z-0.068
X34.694 Y66.156 Z-0.067
X34.692 Y66.158 Z-0.066
X34.691 Y66.159
X34.69 Z-0.065
X34.687 Y66.16
X34.685 Y66.162
X34.655 Y66.187
X34.648 Y66.212
X34.654 Y66.236
X34.677 Y66.258
X34.709 Y66.261
X34.734 Y66.247
X34.749 Y66.225
X34.75 Y66.222
X34.751 Y66.22 Z-0.066
X34.752 Y66.219
X34.753 Y66.217 Z-0.067
X34.754 Y66.216 Z-0.068
X34.757 Y66.212 Z-0.072
X34.784 Y66.185 Z-0.104
X34.789 Y66.19 Z-0.098
X34.814 Y66.215 Z-0.069
X34.815 Y66.216 Z-0.068
X34.816 Y66.217 Z-0.067
X34.817 Y66.219 Z-0.066
X34.818 Y66.221
X34.819 Y66.222 Z-0.065
Y66.224
X34.823 Y66.23
X34.831 Y66.242
X34.859 Y66.26
X34.891 Y66.258
X34.914 Y66.237
X34.92 Y66.213
X34.915 Y66.19
X34.883 Y66.162
X34.881 Y66.16
X34.88
X34.879 Y66.159 Z-0.066
X34.877
X34.876 Y66.157 Z-0.067
X34.874 Y66.156 Z-0.068
X34.872 Y66.154 Z-0.071
X34.863 Y66.145 Z-0.081
X34.859 Y66.141 Z-0.086
X34.853 Y66.135 Z-0.093
X34.849 Y66.132 Z-0.098
X34.845 Y66.127 Z-0.103
X34.83 Y66.112 Z-0.121
X34.828 Y66.062 Z-0.123
Y54.312
X34.836 Y54.303 Z-0.113
X34.841 Y54.299 Z-0.108
X34.845 Y54.295 Z-0.103
X34.855 Y54.285 Z-0.091
X34.857 Y54.283 Z-0.089
X34.859 Y54.28 Z-0.086
X34.865 Y54.266 Z-0.078
X34.868 Y54.241 Z-0.076
Y54.235 Z-0.072
X34.869 Y54.232 Z-0.066
G0 Z5.
X34.839 Y54.241
Z4.935
G1 Z-0.105 F200.
X34.836 Y54.243 Z-0.112
X34.797 Y54.282 Z-0.159
X34.795 Y54.285 Z-0.157
X34.793 Y54.289 Z-0.149
X34.791 Y54.293 Z-0.14
X34.793 Y54.288 Z-0.132
X34.798 Y54.28
X34.8 Y54.275 Z-0.14
X34.798 Y54.279 Z-0.149
X34.796 Y54.283 Z-0.157
Z-0.158
Y54.285 Z-0.161
Y66.129
Y66.135
Y66.137
G0 Z5.
Z4.935
G1 Z-0.157 F200.
X34.798 Y66.14 Z-0.159
X34.871 Y66.212 Z-0.072
X34.873 Y66.215 Z-0.064
G0 Z5.
X34.774 Y66.135
Z4.935
G1 Z-0.156 F200.
X34.771 Y66.139 Z-0.159
X34.77 Y66.14 Z-0.157
X34.698 Y66.212 Z-0.071
X34.695 Y66.215 Z-0.064
G0 Z5.
X34.772 Y66.14
Z4.935
G1 Z-0.155 F200.
X34.773 Y66.137 Z-0.161
Y66.135
Y66.129
Y54.285
Y54.283 Z-0.158
Z-0.157
Y54.279 Z-0.149
X34.772 Y54.276 Z-0.138
X34.774 Y54.285 Z-0.131
X34.776 Y54.294 Z-0.138
X34.775 Y54.291 Z-0.149
X34.774 Y54.286 Z-0.157
X34.772 Y54.284 Z-0.16
X34.771 Y54.283 Z-0.159
X34.732 Y54.244 Z-0.112
X34.73 Y54.242 Z-0.105
G0 Z5.
X35.779 Y54.233
Z4.935
G1 Z-0.064 F200.
Y54.235 Z-0.07
X35.78 Y54.241 Z-0.074
X35.784 Y54.269 Z-0.079
X35.789 Y54.279 Z-0.085
X35.793 Y54.283 Z-0.09
X35.798 Y54.288 Z-0.095
X35.801 Y54.291 Z-0.099
X35.807 Y54.297 Z-0.106
X35.817 Y54.307 Z-0.117
X35.821 Y54.344 Z-0.123
Y66.012
Y66.062
X35.82 Y66.112 Z-0.121
X35.776 Y66.156 Z-0.069
X35.775 Y66.157 Z-0.068
X35.774 Y66.158 Z-0.067
X35.773 Z-0.066
X35.771 Y66.159
X35.769 Y66.16 Z-0.065
X35.766 Y66.162
X35.764 Y66.163
X35.761 Y66.165
X35.756 Y66.168
X35.733 Y66.21
X35.756 Y66.251
X35.761 Y66.254
X35.764 Y66.255
X35.766 Y66.256
X35.803 Y66.254
X35.829 Y66.225
X35.831 Y66.223
Y66.221
X35.832 Y66.22 Z-0.066
X35.833 Y66.219
X35.834 Y66.217 Z-0.067
X35.835 Y66.216 Z-0.068
X35.836 Y66.215 Z-0.069
X35.856 Y66.195 Z-0.093
X35.868 Y66.188 Z-0.1
X35.895 Y66.215 Z-0.068
X35.896 Y66.216 Z-0.067
X35.897 Y66.218
X35.898 Y66.219 Z-0.066
Y66.22
X35.899 Y66.221 Z-0.065
X35.901 Y66.225
X35.905 Y66.233
X35.93 Y66.259
X35.955 Y66.267
X35.98 Y66.261
X36.002 Y66.235
X36.003 Y66.201
X35.964 Y66.162
X35.962 Y66.16
X35.961
X35.959 Y66.159 Z-0.066
X35.958
X35.957 Y66.158
X35.956 Y66.157 Z-0.067
X35.955 Y66.156 Z-0.068
X35.954 Y66.155 Z-0.069
X35.949 Y66.151 Z-0.074
X35.922 Y66.124 Z-0.106
X35.916 Y66.118 Z-0.113
X35.91 Y66.112 Z-0.12
X35.908 Y66.062 Z-0.123
Y54.344
X35.913 Y54.307 Z-0.118
X35.922 Y54.297 Z-0.107
X35.931 Y54.288 Z-0.095
X35.936 Y54.283 Z-0.09
X35.94 Y54.279 Z-0.085
X35.945 Y54.269 Z-0.079
X35.951 Y54.241 Z-0.072
X35.952 Y54.236 Z-0.069
Y54.233 Z-0.063
G0 Z5.
X35.921 Y54.239
Z4.935
G1 Z-0.102 F200.
X35.918 Y54.241 Z-0.11
X35.877 Y54.282 Z-0.159
X35.876 Y54.284 Z-0.158
X35.872 Y54.287 Z-0.149
X35.868 Y54.29 Z-0.141
X35.872 Y54.287 Z-0.132
X35.88 Y54.281
X35.884 Y54.278 Z-0.141
X35.88 Y54.28 Z-0.149
X35.876 Y54.283 Z-0.158
Y54.285 Z-0.161
Y54.287
Y66.137
G0 Z5.
Z4.935
G1 Z-0.158 F200.
X35.878 Y66.139 Z-0.159
X35.95 Y66.211 Z-0.073
X35.954 Y66.215 Z-0.068
X35.956 Y66.217 Z-0.067
X35.96 Y66.22 Z-0.058
G0 Z5.
X35.854 Y66.137
Z4.935
G1 Z-0.157 F200.
X35.852 Y66.14 Z-0.159
X35.782 Y66.21 Z-0.075
X35.779 Y66.212 Z-0.068
G0 Z5.
X35.853 Y66.137
Z4.935
G1 Z-0.161 F200.
Y54.285
Y54.283 Z-0.158
X35.852 Y54.279 Z-0.149
X35.851 Y54.274 Z-0.141
X35.852 Y54.279 Z-0.132
X35.855 Y54.289
X35.856 Y54.293 Z-0.141
X35.855 Y54.289 Z-0.149
X35.854 Y54.284 Z-0.158
X35.852 Y54.282 Z-0.159
X35.811 Y54.241 Z-0.11
X35.808 Y54.239 Z-0.102
G0 Z5.
X36.873 Y54.232
Z4.935
G1 Z-0.062 F200.
Y54.235 Z-0.069
X36.874 Y54.241 Z-0.072
X36.875 Y54.258 Z-0.074
X36.878 Y54.269 Z-0.078
X36.884 Y54.279 Z-0.085
X36.892 Y54.287 Z-0.094
X36.9 Y54.295 Z-0.104
X36.908 Y54.304 Z-0.114
X36.916 Y54.312 Z-0.123
Y57.735
X36.91 Y57.76 Z-0.116
X36.907 Y57.772 Z-0.112
X36.904 Y57.785 Z-0.109
X36.898 Y57.804 Z-0.102
X36.894 Y57.822 Z-0.097
X36.889 Y57.841 Z-0.09
X36.884 Y57.86 Z-0.084
X36.874 Y57.897 Z-0.073
X36.87 Y57.916 Z-0.068
X36.868 Y57.92 Z-0.067
X36.867 Y57.923 Z-0.066
X36.866 Y57.925
X36.865 Y57.927
X36.864 Y57.93 Z-0.065
X36.862 Y57.934
X36.86 Y57.941
X36.854 Y57.953
X36.845 Y57.972
X36.833 Y58.009
X36.818 Y58.084
X36.842 Y58.116
X36.867 Y58.123
X36.892 Y58.116
X36.916 Y58.084
X36.929 Y58.009
X36.932 Y57.972
X36.933 Y57.953
Y57.95
Y57.947 Z-0.066
Y57.944
Y57.941
X36.934 Y57.937 Z-0.067
Y57.934 Z-0.068
X36.935 Y57.93 Z-0.069
X36.939 Y57.916 Z-0.073
X36.949 Y57.876 Z-0.085
X36.954 Y57.86 Z-0.091
X36.959 Y57.841 Z-0.096
X36.968 Y57.804 Z-0.108
X36.974 Y57.785 Z-0.114
X36.977 Y57.772 Z-0.118
X36.987 Y57.767 Z-0.111
X36.993 Y57.768 Z-0.105
X36.998 Y57.769 Z-0.098
X37.022 Y57.775 Z-0.07
X37.024 Y57.776 Z-0.068
X37.026 Z-0.066
X37.029 Y57.777
X37.031 Z-0.065
X37.04 Y57.778
X37.057 Y57.775
X37.081 Y57.757
X37.089 Y57.735
X37.085 Y57.71
X37.06 Y57.685
X37.054 Y57.683 Z-0.066
X37.053
X37.051 Y57.682
X37.049 Y57.681 Z-0.068
X37.048 Z-0.069
X37.046 Y57.68 Z-0.072
X37.039 Y57.678 Z-0.08
X37.01 Y57.671 Z-0.115
X37.003 Y57.655 Z-0.123
Y54.312
X37.01 Y54.304 Z-0.114
X37.019 Y54.295 Z-0.104
X37.027 Y54.287 Z-0.094
X37.032 Y54.282 Z-0.088
X37.036 Y54.276 Z-0.083
X37.042 Y54.264 Z-0.077
X37.045 Y54.241 Z-0.072
X37.046 Y54.235 Z-0.069
Y54.233 Z-0.063
G0 Z5.
X37.015 Y54.239
Z4.935
G1 Z-0.103 F200.
X37.013 Y54.241 Z-0.11
X37.006 Y54.249 Z-0.119
X36.972 Y54.283 Z-0.16
X36.97 Y54.285 Z-0.157
X36.968 Y54.289 Z-0.149
X36.967 Y54.292 Z-0.138
X36.97 Y54.284 Z-0.13
X36.974 Y54.275 Z-0.138
X36.973 Y54.279 Z-0.149
X36.971 Y54.283 Z-0.157
Z-0.158
Y54.285 Z-0.161
Y57.709
Y57.713 Z-0.158
Z-0.157
X36.973 Y57.717 Z-0.149
X36.975 Y57.72 Z-0.137
X36.97 Y57.712 Z-0.13
X36.965 Y57.704 Z-0.137
X36.968 Y57.707 Z-0.149
X36.97 Y57.711 Z-0.157
X36.972 Y57.712 Z-0.16
X36.983 Y57.714 Z-0.146
X36.987 Y57.715 Z-0.142
X36.995 Y57.717 Z-0.133
X37. Y57.72 Z-0.125
X37.029 Y57.727 Z-0.091
X37.03 Z-0.09
X37.035 Y57.728 Z-0.084
X37.041 Y57.73 Z-0.078
X37.043 Z-0.071
G0 Z5.
X36.948 Y57.754
Z4.935
G1 Z-0.156 F200.
Y57.75 Z-0.161
Y54.287
Y54.285
X36.949 Y54.283 Z-0.158
Z-0.157
Y54.278 Z-0.149
X36.95 Y54.274 Z-0.137
X36.949 Y54.284 Z-0.13
X36.948 Y54.293 Z-0.137
Y54.289 Z-0.149
X36.949 Y54.285 Z-0.157
X36.947 Y54.283 Z-0.16
X36.905 Y54.241 Z-0.11
X36.903 Y54.239 Z-0.103
G0 Z5.
X37.957 Y54.231
Z4.935
G1 Z-0.064 F200.
Y54.234 Z-0.071
Y54.241 Z-0.074
Y54.256
X37.962 Y54.27 Z-0.079
X37.965 Y54.277 Z-0.083
X37.971 Y54.284 Z-0.09
X37.979 Y54.291 Z-0.099
X37.982 Y54.294 Z-0.103
X37.998 Y54.311 Z-0.122
Y54.344 Z-0.123
Y56.588
Y56.594 Z-0.122
X37.993 Y56.603 Z-0.117
X37.989 Y56.612 Z-0.111
X37.984 Y56.622 Z-0.106
X37.976 Y56.639 Z-0.097
X37.968 Y56.655 Z-0.086
X37.963 Y56.666 Z-0.08
X37.958 Y56.676 Z-0.074
X37.953 Y56.686 Z-0.068
X37.952 Y56.688
X37.951 Y56.689 Z-0.067
X37.95 Y56.69 Z-0.066
X37.949 Y56.691
X37.948 Y56.693
X37.947 Y56.694 Z-0.065
X37.944 Y56.697
X37.913 Y56.738
X37.904 Y56.78
X37.928 Y56.813
X37.954 Y56.819
X37.976 Y56.814
X37.998 Y56.79
X38.014 Y56.738
X38.015 Y56.733
Y56.73
Y56.729
X38.016 Y56.726 Z-0.066
Y56.725
Y56.722 Z-0.067
X38.017 Y56.721
X38.018 Y56.72 Z-0.068
X38.019 Y56.717 Z-0.069
X38.024 Y56.707 Z-0.075
X38.037 Y56.68 Z-0.091
X38.049 Y56.655 Z-0.105
X38.054 Y56.645 Z-0.112
X38.063 Y56.648 Z-0.102
X38.068 Y56.651 Z-0.096
X38.073 Y56.653 Z-0.09
X38.077 Y56.655 Z-0.085
X38.087 Y56.66 Z-0.074
X38.091 Y56.662 Z-0.068
X38.093 Y56.663 Z-0.067
X38.095 Y56.665 Z-0.066
X38.097 Y56.666 Z-0.065
X38.11 Y56.674
X38.148 Y56.678
X38.174 Y56.66
X38.183 Y56.634
X38.18 Y56.611
X38.16 Y56.588
X38.148 Y56.582
X38.138 Y56.579
X38.136 Z-0.066
X38.134 Y56.578 Z-0.067
X38.132 Z-0.069
X38.131 Y56.577 Z-0.07
X38.129 Y56.576 Z-0.073
X38.106 Y56.564 Z-0.1
X38.091 Y56.557 Z-0.117
X38.087 Y56.552 Z-0.123
Y56.289
Y54.344
X38.088 Y54.311 Z-0.122
X38.113 Y54.285 Z-0.091
X38.12 Y54.277 Z-0.083
X38.125 Y54.267 Z-0.077
X38.129 Y54.241 Z-0.072
X38.13 Y54.235 Z-0.069
X38.131 Y54.233 Z-0.062
G0 Z5.
X38.1 Y54.239
Z4.935
G1 Z-0.102 F200.
X38.098 Y54.241 Z-0.11
X38.056 Y54.283 Z-0.16
X38.054 Y54.285 Z-0.157
X38.053 Y54.289 Z-0.148
Y54.293 Z-0.137
X38.054 Y54.284 Z-0.13
X38.056 Y54.274 Z-0.137
X38.055 Y54.278 Z-0.148
X38.054 Y54.283 Z-0.157
Z-0.158
Y54.285 Z-0.161
Y56.584
X38.055 Y56.59
Y56.591
Y56.592 Z-0.158
Z-0.156
Y56.597 Z-0.147
X38.056 Y56.602 Z-0.139
X38.055 Y56.597 Z-0.13
X38.054 Y56.587
Y56.582 Z-0.139
Y56.586 Z-0.147
X38.055 Y56.591 Z-0.156
X38.056 Y56.592 Z-0.159
X38.063 Y56.596 Z-0.151
X38.068 Y56.598 Z-0.145
X38.08 Y56.604 Z-0.131
X38.086 Y56.607 Z-0.124
X38.091 Y56.609 Z-0.118
X38.126 Y56.627 Z-0.076
X38.132 Y56.629 Z-0.07
X38.134 Y56.63 Z-0.067
X38.137 Y56.632 Z-0.06
G0 Z5.
X38.033 Y56.599
Z4.935
G1 Z-0.15 F200.
X38.032 Y56.603 Z-0.158
X38.029 Y56.612 Z-0.16
Y56.613 Z-0.159
X38.026 Y56.619 Z-0.156
X38.022 Y56.628 Z-0.151
X38.02 Y56.63 Z-0.149
X38.015 Y56.642 Z-0.142
X38.01 Y56.651 Z-0.137
X38.009 Y56.653 Z-0.135
X38.004 Y56.665 Z-0.129
X37.992 Y56.688 Z-0.115
X37.987 Y56.699 Z-0.109
Y56.7
X37.981 Y56.711 Z-0.102
X37.976 Y56.722 Z-0.096
X37.975 Y56.723 Z-0.095
X37.97 Y56.734 Z-0.089
X37.953 Y56.769 Z-0.068
Y56.77
Y56.777 Z-0.065
Y56.78 Z-0.058
G0 Z5.
X38.03 Y56.613
Z4.935
G1 Z-0.153 F200.
Y56.609 Z-0.161
X38.031 Y56.607
Y54.287
X38.03 Y54.285
Y54.283 Z-0.158
Z-0.157
X38.028 Y54.279 Z-0.148
X38.026 Y54.275 Z-0.137
X38.031 Y54.284 Z-0.13
X38.035 Y54.292 Z-0.137
X38.033 Y54.289 Z-0.148
X38.031 Y54.285 Z-0.157
X38.028 Y54.282 Z-0.158
X37.988 Y54.241 Z-0.11
X37.985 Y54.239 Z-0.103
G0 Z5.
X39.038 Y54.23
Z4.935
G1 Z-0.063 F200.
Y54.233 Z-0.07
Y54.241 Z-0.072
X39.037 Y54.247
X39.04 Y54.26 Z-0.075
X39.045 Y54.273 Z-0.081
X39.052 Y54.284 Z-0.09
X39.074 Y54.305 Z-0.116
X39.08 Y54.314 Z-0.123
Y56.059
X39.079 Y56.074 Z-0.122
X39.074 Y56.082 Z-0.115
X39.063 Y56.096 Z-0.103
X39.059 Y56.102 Z-0.098
X39.05 Y56.114 Z-0.087
X39.045 Y56.121 Z-0.081
X39.039 Y56.129 Z-0.074
X39.035 Y56.134 Z-0.069
X39.034 Y56.136 Z-0.068
X39.033 Y56.137 Z-0.067
X39.032 Y56.138 Z-0.066
X39.03 Y56.139
X39.029 Y56.141
X39.024 Y56.144 Z-0.065
X39.016 Y56.15
X38.998 Y56.168
X38.984 Y56.197
X38.988 Y56.224
X39.013 Y56.249
X39.045 Y56.252
X39.079 Y56.225
X39.092 Y56.197
X39.094 Y56.19
X39.095 Y56.188 Z-0.066
Y56.187
X39.096 Y56.185 Z-0.067
X39.097 Y56.183 Z-0.068
X39.107 Y56.17 Z-0.08
X39.112 Y56.162 Z-0.086
X39.118 Y56.154 Z-0.093
X39.123 Y56.148 Z-0.098
X39.141 Y56.149 Z-0.09
X39.146 Y56.153 Z-0.085
X39.15 Y56.156 Z-0.079
X39.155 Y56.159 Z-0.074
X39.159 Y56.163 Z-0.068
X39.16 Y56.164 Z-0.067
X39.161 Y56.165
X39.162 Y56.166 Z-0.066
X39.164 Y56.167 Z-0.065
X39.167 Y56.172
X39.177 Y56.181
X39.194 Y56.192
X39.229
X39.256 Y56.167
X39.261 Y56.139
X39.252 Y56.117
X39.229 Y56.098
X39.22 Y56.094
X39.218 Y56.093
X39.216 Z-0.066
X39.213 Y56.092 Z-0.067
X39.212 Y56.091
X39.211 Y56.09 Z-0.068
X39.203 Y56.084 Z-0.079
X39.198 Y56.081 Z-0.084
X39.185 Y56.071 Z-0.099
X39.181 Y56.068 Z-0.104
X39.177 Y56.065 Z-0.11
X39.168 Y56.059 Z-0.12
X39.166 Y56.04 Z-0.123
Y54.314
X39.171 Y54.305 Z-0.116
X39.194 Y54.283 Z-0.089
X39.2 Y54.275 Z-0.082
X39.204 Y54.266 Z-0.077
X39.208 Y54.241 Z-0.072
X39.209 Y54.235 Z-0.069
Y54.232 Z-0.063
G0 Z5.
X39.179 Y54.239
Z4.935
G1 Z-0.103 F200.
X39.176 Y54.241 Z-0.11
X39.135 Y54.282 Z-0.159
X39.134 Y54.283
Z-0.158
X39.138 Y54.286 Z-0.149
X39.142 Y54.289 Z-0.141
X39.138 Y54.286 Z-0.132
X39.13 Y54.28
X39.126 Y54.277 Z-0.141
X39.13 Y54.28 Z-0.149
X39.134 Y54.283 Z-0.158
Y54.285 Z-0.161
Y56.088
Y56.09 Z-0.158
X39.131 Y56.094 Z-0.149
X39.128 Y56.097 Z-0.141
X39.131 Y56.093 Z-0.132
X39.137 Y56.085
X39.14 Y56.081 Z-0.141
X39.137 Y56.085 Z-0.149
X39.134 Y56.089 Z-0.158
X39.136 Y56.09 Z-0.159
X39.141 Y56.094 Z-0.152
X39.148 Y56.099 Z-0.144
X39.153 Y56.103 Z-0.138
X39.159 Y56.107 Z-0.131
X39.164 Y56.111 Z-0.125
X39.165 Y56.112 Z-0.124
X39.17 Y56.115 Z-0.117
X39.176 Y56.12 Z-0.11
X39.18 Y56.123 Z-0.106
X39.182 Y56.124 Z-0.104
X39.188 Y56.128 Z-0.097
X39.196 Y56.134 Z-0.087
X39.199 Y56.137 Z-0.083
X39.205 Y56.141 Z-0.076
X39.211 Y56.145 Z-0.069
Y56.146 Z-0.068
X39.214 Y56.148 Z-0.06
G0 Z5.
X39.112 Y56.095
Z4.935
G1 Z-0.159 F200.
X39.111 Y56.097 Z-0.16
X39.11 Y56.098 Z-0.159
X39.109 Y56.099 Z-0.158
X39.107 Y56.103 Z-0.155
X39.095 Y56.119 Z-0.141
X39.092 Y56.123 Z-0.138
X39.084 Y56.134 Z-0.127
Y56.135
X39.076 Y56.146 Z-0.118
X39.072 Y56.151 Z-0.114
X39.067 Y56.157 Z-0.108
X39.054 Y56.174 Z-0.092
X39.051 Y56.18 Z-0.088
X39.049 Y56.182 Z-0.086
X39.042 Y56.192 Z-0.078
X39.035 Y56.2 Z-0.07
Y56.202 Z-0.069
X39.033 Y56.203 Z-0.068
X39.03 Y56.206 Z-0.059
G0 Z5.
X39.113 Y56.099
Z4.935
G1 Z-0.155 F200.
X39.112 Y56.095 Z-0.161
Y56.094
Y54.287
X39.113 Y54.285
Y54.283 Z-0.158
Z-0.157
X39.114 Y54.278 Z-0.149
Y54.274 Z-0.137
X39.113 Y54.284 Z-0.13
X39.112 Y54.293 Z-0.137
Y54.289 Z-0.149
X39.113 Y54.285 Z-0.157
X39.111 Y54.283 Z-0.16
X39.069 Y54.241 Z-0.11
X39.067 Y54.239 Z-0.103
G0 Z5.
X40.118 Y54.232
Z4.935
G1 Z-0.064 F200.
Y54.234 Z-0.071
X40.119 Y54.24 Z-0.074
X40.123 Y54.269 Z-0.079
X40.128 Y54.279 Z-0.085
X40.132 Y54.283 Z-0.09
X40.146 Y54.297 Z-0.107
X40.155 Y54.307 Z-0.118
X40.159 Y54.344 Z-0.123
Y55.886
X40.155 Y55.899 Z-0.118
X40.149 Y55.905 Z-0.111
X40.144 Y55.912 Z-0.104
X40.137 Y55.918 Z-0.096
X40.131 Y55.925 Z-0.089
X40.125 Y55.931 Z-0.082
X40.116 Y55.942 Z-0.071
X40.114 Y55.944 Z-0.068
X40.112 Y55.946 Z-0.067
X40.11 Y55.947 Z-0.066
X40.108 Y55.948
X40.105 Y55.95 Z-0.065
X40.091 Y55.959
X40.064 Y55.99
Y56.023
X40.091 Y56.054
X40.136 Y56.051
X40.17 Y56.008
X40.171 Y56.006
X40.172 Y56.005 Z-0.066
Y56.003
X40.173 Y56.002
X40.174 Y56.001 Z-0.067
X40.175 Y56. Z-0.068
X40.176 Y55.999 Z-0.069
X40.184 Y55.99 Z-0.079
X40.191 Y55.982 Z-0.088
X40.199 Y55.974 Z-0.096
X40.208 Y55.975 Z-0.095
X40.222 Y55.99 Z-0.079
X40.226 Y55.994 Z-0.074
X40.23 Y55.999 Z-0.069
X40.231 Y56. Z-0.068
X40.232 Y56.001 Z-0.067
Y56.002 Z-0.066
X40.233 Y56.003
X40.234 Y56.005
Y56.006 Z-0.065
X40.235 Y56.008
X40.241 Y56.019
X40.266 Y56.049
X40.292 Y56.057
X40.317 Y56.051
X40.34 Y56.024
Y55.99
X40.304 Y55.952
X40.298 Y55.948
X40.296 Y55.947 Z-0.066
X40.295 Y55.946
X40.293 Y55.945 Z-0.067
X40.292 Y55.944 Z-0.068
X40.287 Y55.939 Z-0.073
X40.283 Y55.934 Z-0.079
X40.276 Y55.927 Z-0.086
X40.268 Y55.918 Z-0.096
X40.262 Y55.912 Z-0.103
X40.256 Y55.905 Z-0.11
X40.25 Y55.899 Z-0.117
X40.246 Y55.886 Z-0.123
Y54.344
X40.249 Y54.307 Z-0.118
X40.259 Y54.297 Z-0.107
X40.268 Y54.288 Z-0.096
X40.273 Y54.283 Z-0.09
X40.277 Y54.279 Z-0.086
X40.282 Y54.269 Z-0.079
X40.287 Y54.24 Z-0.073
X40.288 Y54.235 Z-0.07
X40.289 Y54.233 Z-0.063
G0 Z5.
X40.258 Y54.239
Z4.935
G1 Z-0.103 F200.
X40.255 Y54.241 Z-0.111
X40.215 Y54.282 Z-0.159
X40.213 Y54.283 Z-0.158
Y54.288 Z-0.149
Y54.293 Z-0.141
Y54.288 Z-0.132
X40.214 Y54.278
Y54.273 Z-0.141
Y54.278 Z-0.149
X40.213 Y54.283 Z-0.158
Y54.285 Z-0.161
Y55.919
Y55.921 Z-0.158
Z-0.157
X40.215 Y55.925 Z-0.149
X40.217 Y55.929 Z-0.137
X40.213 Y55.92 Z-0.13
X40.209 Y55.911 Z-0.137
X40.211 Y55.915 Z-0.149
X40.213 Y55.919 Z-0.157
X40.214 Y55.921 Z-0.16
X40.22 Y55.926 Z-0.153
X40.226 Y55.934 Z-0.145
X40.23 Y55.938 Z-0.141
X40.236 Y55.944 Z-0.134
X40.238 Y55.947 Z-0.132
X40.241 Y55.949 Z-0.128
X40.246 Y55.955 Z-0.122
X40.252 Y55.961 Z-0.115
X40.261 Y55.972 Z-0.104
X40.267 Y55.978 Z-0.097
X40.278 Y55.99 Z-0.084
X40.283 Y55.996 Z-0.077
X40.284 Y55.997
X40.29 Y56.003 Z-0.07
X40.291 Y56.004 Z-0.068
X40.292 Y56.006
X40.294 Y56.007 Z-0.067
X40.298 Y56.011 Z-0.057
G0 Z5.
X40.192 Y55.92
Z4.935
G1 Z-0.158 F200.
X40.191 Y55.921 Z-0.159
X40.189 Y55.923 Z-0.157
X40.187 Y55.925 Z-0.156
X40.186 Y55.926 Z-0.154
X40.18 Y55.933 Z-0.147
X40.175 Y55.938 Z-0.141
X40.169 Y55.945 Z-0.133
X40.165 Y55.949 Z-0.129
X40.157 Y55.958 Z-0.119
X40.154 Y55.961 Z-0.116
X40.149 Y55.967 Z-0.11
X40.143 Y55.972 Z-0.104
X40.134 Y55.983 Z-0.092
X40.128 Y55.99 Z-0.085
X40.117 Y56.002 Z-0.071
X40.114 Y56.005 Z-0.068
X40.112 Y56.006 Z-0.067
X40.111 Y56.008 Z-0.066
X40.106 Y56.013 Z-0.057
G0 Z5.
X40.192 Y55.923
Z4.935
G1 Z-0.156 F200.
Y55.919 Z-0.161
Y54.285
Y54.283 Z-0.158
Z-0.157
X40.191 Y54.278 Z-0.149
X40.19 Y54.274 Z-0.137
X40.192 Y54.283 Z-0.13
X40.194 Y54.293 Z-0.137
X40.193 Y54.289 Z-0.149
X40.192 Y54.284 Z-0.157
X40.19 Y54.282 Z-0.159
X40.149 Y54.241 Z-0.11
X40.147 Y54.239 Z-0.103
G0 Z5.
X41.197 Y54.231
Z4.935
G1 Z-0.064 F200.
Y54.234 Z-0.07
X41.198 Y54.24 Z-0.074
X41.199 Y54.258 Z-0.075
X41.203 Y54.269 Z-0.08
X41.209 Y54.279 Z-0.087
X41.216 Y54.287 Z-0.096
X41.224 Y54.296 Z-0.106
X41.232 Y54.304 Z-0.115
X41.239 Y54.312 Z-0.123
Y54.344
Y55.99
Y56.052
X41.238 Y56.058 Z-0.122
X41.235 Y56.061 Z-0.118
X41.23 Y56.065 Z-0.112
X41.222 Y56.07 Z-0.103
X41.209 Y56.079 Z-0.087
X41.202 Y56.085 Z-0.079
X41.194 Y56.091 Z-0.069
X41.192 Y56.092 Z-0.068
Z-0.067
X41.189 Y56.093 Z-0.066
X41.188
X41.187 Y56.094 Z-0.065
X41.183 Y56.095
X41.172 Y56.101
X41.144 Y56.139
X41.148 Y56.166
X41.172 Y56.19
X41.207 Y56.193
X41.227 Y56.183
X41.238 Y56.171
X41.242 Y56.167
X41.243 Y56.166 Z-0.066
X41.244 Y56.165 Z-0.067
X41.246 Y56.163 Z-0.068
X41.247 Y56.162 Z-0.069
X41.257 Y56.155 Z-0.081
X41.262 Y56.151 Z-0.088
X41.272 Y56.144 Z-0.099
X41.277 Y56.141 Z-0.104
X41.282 Y56.148 Z-0.099
X41.294 Y56.165 Z-0.083
X41.303 Y56.177 Z-0.074
X41.307 Y56.182 Z-0.069
X41.308 Y56.184 Z-0.067
X41.309 Y56.186 Z-0.066
X41.31 Y56.188
Y56.189 Z-0.065
X41.311 Y56.191
X41.315 Y56.204
X41.338 Y56.241
X41.38 Y56.253
X41.4 Y56.244
X41.417 Y56.223
X41.42 Y56.191
X41.404 Y56.165
X41.389 Y56.15
X41.382 Y56.145
X41.376 Y56.141
X41.375 Y56.14 Z-0.066
X41.374 Y56.139
X41.372 Y56.138 Z-0.067
X41.371 Y56.136 Z-0.068
X41.369 Y56.133 Z-0.071
X41.364 Y56.127 Z-0.076
X41.359 Y56.121 Z-0.082
X41.355 Y56.114 Z-0.087
X41.345 Y56.102 Z-0.098
X41.341 Y56.096 Z-0.103
X41.327 Y56.077 Z-0.12
X41.325 Y56.065 Z-0.123
Y54.312
X41.331 Y54.304 Z-0.115
X41.339 Y54.296 Z-0.105
X41.347 Y54.287 Z-0.096
X41.353 Y54.282 Z-0.089
X41.358 Y54.276 Z-0.084
X41.363 Y54.264 Z-0.077
X41.367 Y54.24 Z-0.073
X41.368 Y54.234 Z-0.069
Y54.232 Z-0.063
G0 Z5.
X41.338 Y54.238
Z4.935
G1 Z-0.103 F200.
X41.334 Y54.241 Z-0.11
Z-0.111
X41.294 Y54.281 Z-0.158
X41.291 Y54.284 Z-0.157
X41.288 Y54.287 Z-0.148
X41.285 Y54.289 Z-0.137
X41.292 Y54.283 Z-0.13
X41.299 Y54.277 Z-0.137
X41.296 Y54.28 Z-0.148
X41.293 Y54.283 Z-0.157
Z-0.158
Y54.285 Z-0.161
Y56.095
Y56.097 Z-0.158
Z-0.156
X41.291 Y56.101 Z-0.148
X41.289 Y56.104 Z-0.137
X41.293 Y56.096 Z-0.13
X41.298 Y56.087 Z-0.137
X41.296 Y56.09 Z-0.148
X41.294 Y56.094 Z-0.156
Y56.097 Z-0.159
Y56.098
X41.296 Y56.099 Z-0.158
X41.3 Y56.106 Z-0.152
X41.303 Y56.111 Z-0.148
X41.311 Y56.122 Z-0.139
X41.312 Y56.123 Z-0.138
X41.321 Y56.134 Z-0.128
X41.323 Y56.138 Z-0.125
X41.334 Y56.154 Z-0.111
X41.337 Y56.157 Z-0.108
X41.346 Y56.169 Z-0.097
X41.354 Y56.18 Z-0.088
X41.358 Y56.185 Z-0.084
X41.363 Y56.192 Z-0.078
X41.369 Y56.2 Z-0.07
X41.37 Y56.202 Z-0.069
X41.371 Y56.203 Z-0.068
X41.374 Y56.206 Z-0.059
G0 Z5.
X41.272 Y56.09
Z4.935
G1 Z-0.158 F200.
X41.27 Y56.091 Z-0.159
X41.268 Y56.092 Z-0.157
X41.259 Y56.098 Z-0.147
X41.257 Y56.099 Z-0.144
X41.254 Y56.102 Z-0.14
X41.242 Y56.111 Z-0.126
X41.241
X41.236 Y56.115 Z-0.12
X41.231 Y56.119 Z-0.113
X41.226 Y56.123 Z-0.107
X41.219 Y56.128 Z-0.099
X41.213 Y56.132 Z-0.092
X41.21 Y56.134 Z-0.088
X41.208 Y56.136 Z-0.085
X41.202 Y56.14 Z-0.078
X41.196 Y56.144 Z-0.071
X41.194 Y56.146 Z-0.069
X41.191 Y56.147 Z-0.062
G0 Z5.
X41.271 Y56.092
Z4.935
G1 Z-0.154 F200.
Y56.088 Z-0.161
Y54.287
Y54.285
Y54.283 Z-0.158
Z-0.156
X41.268 Y54.279 Z-0.148
X41.265 Y54.275 Z-0.139
X41.268 Y54.279 Z-0.131
X41.274 Y54.287
X41.277 Y54.291 Z-0.139
X41.274 Y54.287 Z-0.148
X41.271 Y54.284 Z-0.156
X41.27 Y54.282 Z-0.159
X41.265 Y54.277 Z-0.153
X41.23 Y54.241 Z-0.111
X41.227 Y54.239 Z-0.104
G0 Z5.
X42.277 Y54.229
Z4.935
G1 Z-0.064 F200.
Y54.232 Z-0.071
X42.276 Y54.24 Z-0.074
Y54.246
X42.279 Y54.263 Z-0.077
X42.283 Y54.273 Z-0.082
X42.29 Y54.283 Z-0.091
X42.301 Y54.293 Z-0.103
X42.306 Y54.298 Z-0.109
X42.311 Y54.303 Z-0.115
X42.317 Y54.324 Z-0.123
Y56.552
X42.31 Y56.559 Z-0.114
X42.304 Y56.562 Z-0.107
X42.297 Y56.565 Z-0.099
X42.292 Y56.567 Z-0.093
X42.287 Y56.57 Z-0.086
X42.281 Y56.573 Z-0.079
X42.272 Y56.577 Z-0.069
X42.271 Y56.578 Z-0.067
X42.269
X42.268 Y56.579 Z-0.066
X42.266
X42.265 Y56.58 Z-0.065
X42.263
X42.244 Y56.588
X42.224 Y56.611
X42.219 Y56.634
X42.227 Y56.657
X42.252 Y56.678
X42.287
X42.297 Y56.672
X42.307 Y56.666
X42.309 Y56.665 Z-0.066
X42.31 Y56.664
X42.312 Y56.663 Z-0.067
X42.313 Y56.662 Z-0.069
X42.322 Y56.658 Z-0.079
X42.328 Y56.655 Z-0.086
X42.333 Y56.652 Z-0.093
X42.339 Y56.65 Z-0.099
X42.345 Y56.647 Z-0.106
X42.352 Y56.649 Z-0.109
X42.364 Y56.675 Z-0.094
X42.369 Y56.683 Z-0.09
X42.379 Y56.704 Z-0.077
X42.385 Y56.716 Z-0.07
X42.387 Y56.72 Z-0.068
Y56.722 Z-0.067
X42.388 Y56.724 Z-0.066
X42.389 Y56.727
Y56.728
Y56.73 Z-0.065
X42.39 Y56.738
X42.402 Y56.78
X42.431 Y56.819
X42.457 Y56.825
X42.483 Y56.816
X42.504 Y56.778
X42.491 Y56.738
X42.483 Y56.725
X42.476 Y56.716
X42.466 Y56.704
X42.46 Y56.698
X42.457 Y56.695
X42.456 Y56.693 Z-0.066
X42.455 Y56.692
X42.453 Y56.69 Z-0.067
X42.452 Y56.687 Z-0.068
X42.45 Y56.683 Z-0.07
X42.445 Y56.675 Z-0.076
X42.441 Y56.666 Z-0.08
X42.433 Y56.649 Z-0.091
X42.429 Y56.64 Z-0.095
X42.425 Y56.632 Z-0.1
X42.416 Y56.614 Z-0.111
X42.412 Y56.606 Z-0.116
X42.406 Y56.588 Z-0.123
Y54.314
X42.413 Y54.303 Z-0.114
X42.428 Y54.288 Z-0.096
X42.433 Y54.283 Z-0.09
X42.441 Y54.272 Z-0.081
X42.448 Y54.24 Z-0.073
X42.449 Y54.235 Z-0.069
Y54.233 Z-0.063
G0 Z5.
X42.418 Y54.239
Z4.935
G1 Z-0.103 F200.
X42.416 Y54.241 Z-0.111
X42.375 Y54.282 Z-0.159
X42.374 Y54.283 Z-0.158
X42.376 Y54.287 Z-0.149
X42.379 Y54.291 Z-0.141
X42.376 Y54.287 Z-0.132
X42.371 Y54.279
X42.368 Y54.275 Z-0.141
X42.371 Y54.279 Z-0.149
X42.373 Y54.283 Z-0.158
Y54.285 Z-0.161
Y56.61
Y56.611 Z-0.158
Z-0.157
X42.374 Y56.615 Z-0.149
X42.376 Y56.619 Z-0.138
X42.373 Y56.61 Z-0.13
X42.37 Y56.601 Z-0.138
X42.371 Y56.605 Z-0.149
X42.373 Y56.609 Z-0.157
X42.375 Y56.613 Z-0.16
X42.395 Y56.653 Z-0.136
X42.396 Y56.657 Z-0.134
X42.401 Y56.665 Z-0.129
X42.406 Y56.677 Z-0.123
X42.417 Y56.7 Z-0.109
X42.419 Y56.705 Z-0.107
X42.423 Y56.711 Z-0.102
X42.429 Y56.723 Z-0.095
X42.431 Y56.728 Z-0.093
X42.434 Y56.734 Z-0.089
X42.451 Y56.769 Z-0.069
X42.452 Y56.771 Z-0.068
X42.453 Y56.772 Z-0.067
X42.454 Y56.775 Z-0.066
Y56.782 Z-0.064
Y56.785 Z-0.056
G0 Z5.
X42.353 Y56.59
Z4.935
G1 Z-0.149 F200.
X42.347 Y56.593 Z-0.158
X42.344 Y56.594 Z-0.155
X42.342 Y56.596 Z-0.152
X42.339 Y56.597 Z-0.148
X42.31 Y56.612 Z-0.114
X42.304 Y56.614 Z-0.107
X42.298 Y56.617 Z-0.1
X42.295 Y56.619 Z-0.096
X42.292 Y56.62 Z-0.093
X42.272 Y56.63 Z-0.069
X42.271 Z-0.068
X42.269 Y56.631 Z-0.067
X42.265 Y56.633 Z-0.058
G0 Z5.
X42.349 Y56.595
Z4.935
G1 Z-0.154 F200.
Y56.592 Z-0.161
Y54.285
Y54.283 Z-0.158
Z-0.156
X42.346 Y54.28 Z-0.148
X42.342 Y54.277 Z-0.139
X42.346 Y54.28 Z-0.131
X42.354 Y54.286
X42.358 Y54.289 Z-0.139
X42.354 Y54.286 Z-0.148
X42.351 Y54.283 Z-0.156
X42.349 Y54.282 Z-0.16
X42.308 Y54.241 Z-0.111
X42.306 Y54.239 Z-0.104
G0 Z5.
X43.353 Y54.23
Z4.935
G1 Z-0.064 F200.
Y54.233 Z-0.071
Y54.24 Z-0.074
Y54.25
X43.356 Y54.263 Z-0.078
X43.362 Y54.276 Z-0.084
X43.366 Y54.281 Z-0.089
X43.371 Y54.287 Z-0.095
X43.387 Y54.303 Z-0.115
X43.394 Y54.31 Z-0.123
Y57.635
X43.392 Y57.669 Z-0.12
X43.388 Y57.67 Z-0.116
X43.38 Y57.672 Z-0.106
X43.375 Y57.673 Z-0.1
X43.368 Y57.675 Z-0.091
X43.361 Y57.677 Z-0.083
X43.349 Y57.68 Z-0.069
X43.346 Y57.681 Z-0.067
X43.345 Z-0.066
X43.344 Y57.682
X43.343 Z-0.065
X43.341
X43.315 Y57.701
X43.306 Y57.723
X43.311 Y57.752
X43.341 Y57.777
X43.361 Y57.778
X43.368 Y57.777
X43.369 Y57.776 Z-0.066
X43.371 Z-0.067
X43.373 Y57.775 Z-0.068
X43.375 Z-0.07
X43.392 Y57.771 Z-0.09
X43.398 Y57.768 Z-0.098
X43.411 Y57.765 Z-0.112
X43.424 Y57.785 Z-0.114
X43.428 Y57.801 Z-0.11
X43.432 Y57.817 Z-0.104
X43.436 Y57.833 Z-0.099
X43.441 Y57.849 Z-0.094
X43.447 Y57.871 Z-0.087
X43.452 Y57.892 Z-0.08
X43.46 Y57.918 Z-0.072
X43.461 Y57.923 Z-0.071
X43.463 Y57.931 Z-0.068
Y57.934
X43.464 Y57.937 Z-0.067
Y57.941 Z-0.066
Y57.944
Y57.947 Z-0.065
Y57.959
X43.466 Y57.984
X43.472 Y58.034
X43.484 Y58.084
X43.503 Y58.105
X43.529 Y58.111
X43.552 Y58.105
X43.573 Y58.084
X43.572 Y58.034
X43.535 Y57.934
X43.533 Y57.931 Z-0.066
X43.532 Y57.929
X43.531 Y57.925
X43.529 Y57.922 Z-0.067
X43.528 Y57.918 Z-0.068
X43.527 Y57.913 Z-0.069
X43.522 Y57.892 Z-0.075
X43.517 Y57.871 Z-0.082
X43.502 Y57.817 Z-0.099
X43.498 Y57.801 Z-0.104
X43.494 Y57.785 Z-0.109
X43.487 Y57.76 Z-0.117
X43.483 Y57.735 Z-0.123
Y54.31
X43.489 Y54.303 Z-0.115
X43.507 Y54.285 Z-0.093
X43.515 Y54.277 Z-0.084
X43.52 Y54.266 Z-0.078
X43.523 Y54.256 Z-0.074
X43.525 Y54.24 Z-0.072
X43.526 Y54.234 Z-0.068
Y54.231 Z-0.062
G0 Z5.
X43.495 Y54.237
Z4.935
G1 Z-0.102 F200.
X43.493 Y54.24 Z-0.11
X43.487 Y54.246 Z-0.117
X43.451 Y54.282 Z-0.16
X43.449 Y54.283 Z-0.157
X43.446 Y54.286 Z-0.148
X43.442 Y54.289 Z-0.14
X43.446 Y54.286 Z-0.131
X43.454 Y54.28
X43.458 Y54.277 Z-0.14
X43.454 Y54.28 Z-0.148
X43.45 Y54.283 Z-0.157
Z-0.158
Y54.285 Z-0.161
Y57.75
Y57.753 Z-0.158
Y57.757 Z-0.149
Y57.761 Z-0.138
Y57.752 Z-0.131
X43.451 Y57.742 Z-0.138
Y57.746 Z-0.149
X43.45 Y57.751 Z-0.158
Y57.754 Z-0.16
Y57.756 Z-0.159
X43.452 Y57.758
X43.455 Y57.773 Z-0.154
X43.458 Y57.783 Z-0.151
Y57.784 Z-0.15
X43.462 Y57.796 Z-0.147
X43.468 Y57.819 Z-0.139
X43.47 Y57.826 Z-0.138
Y57.831 Z-0.135
X43.474 Y57.842 Z-0.132
X43.48 Y57.865 Z-0.124
X43.481 Y57.869
X43.483 Y57.877 Z-0.121
X43.489 Y57.9 Z-0.114
X43.492 Y57.911 Z-0.11
X43.493 Y57.913
X43.495 Y57.923 Z-0.107
X43.498 Y57.935 Z-0.104
X43.5 Y57.946 Z-0.1
X43.503 Y57.958 Z-0.097
X43.504 Y57.961
X43.506 Y57.969 Z-0.094
X43.514 Y58.004 Z-0.084
X43.516 Y58.01 Z-0.082
X43.517 Y58.015 Z-0.08
X43.527 Y58.059 Z-0.069
Y58.06 Z-0.068
X43.528 Y58.061
X43.531 Y58.068 Z-0.065
X43.532 Y58.07 Z-0.058
G0 Z5.
X43.43 Y57.711
Z4.935
G1 Z-0.151 F200.
X43.425 Z-0.16
X43.424 Z-0.158
X43.418 Y57.712 Z-0.151
X43.412 Y57.714 Z-0.144
X43.377 Y57.723 Z-0.103
X43.372 Y57.725 Z-0.096
X43.367 Y57.727 Z-0.09
X43.366 Z-0.089
X43.354 Y57.73 Z-0.076
X43.352 Z-0.069
G0 Z5.
X43.426 Y57.715
Z4.935
G1 Z-0.156 F200.
Y57.709 Z-0.161
Y54.287
Y54.285
Y54.283 Z-0.158
Z-0.157
X43.422 Y54.28 Z-0.148
X43.419 Y54.278 Z-0.137
X43.427 Y54.283 Z-0.13
X43.435 Y54.288 Z-0.137
X43.431 Y54.286 Z-0.148
X43.427 Y54.283 Z-0.157
X43.426 Y54.282 Z-0.16
X43.385 Y54.241 Z-0.112
X43.383 Y54.239 Z-0.104
G0 Z5.
X44.42 Y54.229
Z4.935
G1 Z-0.063 F200.
Y54.232 Z-0.07
X44.419 Y54.24 Z-0.073
Y54.246 Z-0.072
X44.421 Y54.259 Z-0.075
X44.426 Y54.273 Z-0.081
X44.434 Y54.282 Z-0.09
X44.441 Y54.29 Z-0.099
X44.452 Y54.3 Z-0.111
X44.455 Y54.304 Z-0.116
X44.461 Y54.312 Z-0.123
Y66.012
Y66.062
X44.46 Y66.112 Z-0.121
X44.454 Y66.118 Z-0.114
X44.451 Y66.121 Z-0.11
X44.446 Y66.126 Z-0.104
X44.416 Y66.156 Z-0.069
X44.415 Y66.157 Z-0.068
X44.414 Z-0.067
X44.413 Y66.158
X44.412 Y66.159 Z-0.066
X44.41 Y66.16 Z-0.065
X44.407 Y66.162
X44.373 Y66.19
X44.366 Y66.219
X44.373 Y66.241
X44.395 Y66.261
X44.426 Y66.264
X44.465 Y66.233
X44.471 Y66.223
X44.472 Y66.222
Y66.22 Z-0.066
X44.473 Y66.219
X44.474 Y66.218
X44.475 Y66.217 Z-0.067
X44.476 Y66.215 Z-0.068
X44.485 Y66.206 Z-0.08
X44.49 Y66.201 Z-0.086
X44.494 Y66.197 Z-0.09
X44.504 Y66.187 Z-0.102
X44.509 Y66.191 Z-0.098
X44.514 Y66.196 Z-0.091
X44.524 Y66.205 Z-0.08
X44.53 Y66.212 Z-0.072
X44.533 Y66.215 Z-0.069
X44.534 Y66.217 Z-0.067
X44.536 Y66.218 Z-0.066
Y66.22
X44.537 Y66.221 Z-0.065
X44.539 Y66.224
X44.576 Y66.259
X44.609 Y66.257
X44.633 Y66.236
X44.639 Y66.212
X44.632 Y66.187
X44.603 Y66.162
X44.599 Y66.16
X44.598 Y66.159 Z-0.066
X44.597
X44.596 Y66.158
X44.594 Y66.157 Z-0.067
X44.592 Y66.155 Z-0.069
X44.59 Y66.153 Z-0.072
X44.581 Y66.144 Z-0.083
X44.558 Y66.121 Z-0.11
X44.551 Y66.114 Z-0.118
X44.549 Y66.112 Z-0.121
X44.547 Y66.062 Z-0.123
Y54.312
X44.553 Y54.304 Z-0.116
X44.57 Y54.287 Z-0.096
X44.576 Y54.281 Z-0.088
X44.581 Y54.272 Z-0.082
X44.587 Y54.24 Z-0.075
X44.588 Y54.234 Z-0.071
X44.589 Y54.232 Z-0.065
G0 Z5.
X44.559 Y54.239
Z4.935
G1 Z-0.104 F200.
X44.556 Y54.241 Z-0.112
X44.516 Y54.282 Z-0.16
X44.514 Y54.283 Z-0.157
X44.516 Y54.288 Z-0.149
X44.517 Y54.291 Z-0.137
X44.514 Y54.282 Z-0.13
X44.511 Y54.273 Z-0.137
X44.512 Y54.277 Z-0.149
X44.513 Y54.281 Z-0.157
Z-0.158
X44.514 Y54.283 Z-0.161
X44.515 Y54.285
Y66.135
Y66.137
Y66.139 Z-0.158
X44.513 Y66.143 Z-0.149
X44.512 Y66.148 Z-0.141
X44.513 Y66.143 Z-0.132
X44.516 Y66.133
X44.518 Y66.129 Z-0.141
X44.517 Y66.133 Z-0.149
X44.515 Y66.137 Z-0.158
X44.517 Y66.139 Z-0.159
X44.589 Y66.212 Z-0.072
X44.592 Y66.214 Z-0.065
G0 Z5.
X44.494 Y66.137
Z4.935
G1 Z-0.157 F200.
X44.492 Y66.14 Z-0.159
X44.416 Y66.215 Z-0.068
X44.414 Y66.218 Z-0.061
G0 Z5.
X44.493 Y66.137
Z4.935
G1 Z-0.161 F200.
Y66.129
Y54.283
Y54.281 Z-0.158
Z-0.156
X44.492 Y54.277 Z-0.148
X44.49 Y54.274 Z-0.137
X44.494 Y54.282 Z-0.13
X44.498 Y54.291 Z-0.137
X44.496 Y54.287 Z-0.148
X44.494 Y54.283 Z-0.156
X44.491 Y54.28 Z-0.158
X44.452 Y54.241 Z-0.112
X44.451 Y54.24 Z-0.11
X44.449 Y54.237 Z-0.102
G0 Z5.
X45.499 Y54.231
Z4.935
G1 Z-0.065 F200.
Y54.233 Z-0.072
X45.5 Y54.239 Z-0.075
X45.504 Y54.269 Z-0.08
X45.509 Y54.279 Z-0.086
X45.513 Y54.283 Z-0.091
X45.537 Y54.307 Z-0.119
X45.54 Y54.344 Z-0.123
Y66.062
X45.538 Y66.112 Z-0.12
X45.533 Y66.117 Z-0.115
X45.527 Y66.123 Z-0.108
X45.521 Y66.128 Z-0.101
X45.505 Y66.145 Z-0.081
X45.498 Y66.152 Z-0.073
X45.494 Y66.156 Z-0.068
X45.493 Y66.157 Z-0.067
X45.491 Y66.158 Z-0.066
X45.49
X45.489 Y66.159
X45.487 Y66.16 Z-0.065
X45.483 Y66.162
X45.478 Y66.165
X45.473 Y66.168
X45.451 Y66.21
X45.473 Y66.251
X45.478 Y66.254
X45.482 Y66.255
X45.483 Y66.256
X45.521 Y66.254
X45.548 Y66.225
X45.549 Y66.222
X45.55 Y66.221
Y66.22 Z-0.066
X45.551 Y66.218
X45.552 Y66.217 Z-0.067
X45.553 Y66.216 Z-0.068
X45.555 Y66.214 Z-0.07
X45.574 Y66.195 Z-0.092
X45.585 Y66.188 Z-0.101
X45.598 Y66.2 Z-0.086
X45.606 Y66.209 Z-0.076
X45.613 Y66.215 Z-0.069
Y66.216 Z-0.068
X45.614 Y66.217 Z-0.067
X45.615 Y66.219 Z-0.066
X45.616 Y66.22
X45.617 Y66.221 Z-0.065
Y66.222
X45.618 Y66.225
X45.622 Y66.232
X45.648 Y66.26
X45.673 Y66.267
X45.698 Y66.261
X45.721 Y66.235
Y66.2
X45.681 Y66.162
X45.679 Y66.161
X45.678 Y66.16 Z-0.066
X45.677 Y66.159
X45.676
X45.675 Y66.158 Z-0.067
X45.674 Y66.157 Z-0.068
X45.672 Y66.156 Z-0.069
X45.666 Y66.149 Z-0.077
X45.657 Y66.141 Z-0.087
X45.629 Y66.112 Z-0.121
X45.627 Y66.062 Z-0.123
Y66.012
Y54.344
X45.631 Y54.307 Z-0.119
X45.635 Y54.303 Z-0.114
X45.649 Y54.288 Z-0.096
X45.654 Y54.283 Z-0.091
X45.658 Y54.279 Z-0.086
X45.663 Y54.269 Z-0.08
X45.669 Y54.239 Z-0.073
X45.67 Y54.234 Z-0.07
Y54.232 Z-0.064
G0 Z5.
X45.639 Y54.239
Z4.935
G1 Z-0.104 F200.
X45.637 Y54.241 Z-0.111
X45.598 Y54.28 Z-0.158
X45.596 Y54.281 Z-0.159
X45.595 Y54.283 Z-0.156
X45.594 Y54.287 Z-0.148
X45.593 Y54.292 Z-0.139
X45.594 Y54.287 Z-0.131
X45.596 Y54.277
X45.597 Y54.272 Z-0.139
X45.596 Y54.277 Z-0.148
X45.595 Y54.281 Z-0.156
Z-0.158
Y54.283 Z-0.161
Y66.137
G0 Z5.
X45.594
Z4.935
G1 Z-0.157 F200.
X45.596 Y66.14 Z-0.159
X45.672 Y66.215 Z-0.068
X45.674 Y66.217 Z-0.067
X45.678 Y66.221 Z-0.058
G0 Z5.
X45.572 Y66.137
Z4.935
G1 Z-0.158 F200.
X45.57 Y66.139 Z-0.159
X45.5 Y66.21 Z-0.075
X45.497 Y66.212 Z-0.067
G0 Z5.
X45.573 Y66.137
Z4.935
G1 Z-0.161 F200.
Y54.283
Y54.281 Z-0.158
X45.574 Y54.277 Z-0.149
X45.576 Y54.273 Z-0.138
X45.572 Y54.282 Z-0.131
X45.569 Y54.291 Z-0.138
X45.57 Y54.287 Z-0.149
X45.572 Y54.283 Z-0.158
X45.57 Y54.281 Z-0.159
X45.531 Y54.241 Z-0.112
X45.528 Y54.239 Z-0.104
G0 Z5.
X46.58 Y54.23
Z4.935
G1 Z-0.065 F200.
Y54.232 Z-0.072
Y54.239 Z-0.075
X46.581 Y54.254 Z-0.076
X46.587 Y54.274 Z-0.084
X46.594 Y54.283 Z-0.091
X46.602 Y54.292 Z-0.102
X46.609 Y54.298 Z-0.109
X46.614 Y54.303 Z-0.116
X46.62 Y54.309 Z-0.123
Y54.344
Y66.062
X46.619 Y66.112 Z-0.121
X46.612 Y66.119 Z-0.113
X46.597 Y66.133 Z-0.096
X46.59 Y66.14 Z-0.087
X46.579 Y66.152 Z-0.073
X46.574 Y66.156 Z-0.068
X46.573 Y66.158 Z-0.067
X46.571 Y66.159 Z-0.066
X46.569 Y66.16
X46.567 Z-0.065
X46.565 Y66.162
X46.536 Y66.184
X46.525 Y66.207
X46.53 Y66.237
X46.568 Y66.265
X46.59 Y66.263
X46.612 Y66.248
X46.626 Y66.229
X46.629 Y66.224
X46.63 Y66.221 Z-0.066
X46.631 Y66.219
X46.632 Y66.218
X46.633 Y66.216 Z-0.068
X46.635 Y66.214 Z-0.069
X46.638 Y66.211 Z-0.074
X46.645 Y66.204 Z-0.082
X46.657 Y66.192 Z-0.096
X46.669 Y66.189 Z-0.1
X46.683 Y66.203 Z-0.083
X46.693 Y66.213 Z-0.071
X46.695 Y66.215 Z-0.069
X46.696 Y66.217 Z-0.067
X46.697 Y66.218 Z-0.066
X46.698 Y66.22
X46.699 Y66.221 Z-0.065
X46.7 Y66.222
X46.703 Y66.228
X46.716 Y66.246
X46.759 Y66.258
X46.792 Y66.233
X46.798 Y66.206
X46.791 Y66.184
X46.765 Y66.162
X46.762 Y66.16
X46.76 Y66.159
X46.758 Y66.158 Z-0.066
X46.757 Y66.157 Z-0.067
X46.755 Y66.156 Z-0.068
X46.753 Y66.153 Z-0.07
X46.711 Y66.112 Z-0.12
X46.709 Y66.062 Z-0.123
Y66.012
Y54.344
Y54.309 Z-0.122
X46.715 Y54.303 Z-0.115
X46.721 Y54.297 Z-0.108
X46.727 Y54.292 Z-0.101
X46.731 Y54.287 Z-0.096
X46.737 Y54.281 Z-0.089
X46.741 Y54.276 Z-0.084
X46.746 Y54.264 Z-0.078
X46.749 Y54.239 Z-0.074
X46.75 Y54.233 Z-0.071
Y54.231 Z-0.064
G0 Z5.
X46.72 Y54.239
Z4.935
G1 Z-0.105 F200.
X46.717 Y54.241 Z-0.112
X46.678 Y54.281 Z-0.16
X46.676 Y54.283 Z-0.156
X46.671 Y54.285 Z-0.148
X46.667 Y54.287 Z-0.139
X46.672 Y54.285 Z-0.131
X46.681 Y54.281
X46.685 Y54.279 Z-0.139
X46.681 Y54.281 Z-0.148
X46.676 Y54.283 Z-0.156
Z-0.158
Y54.285 Z-0.161
Y66.137
G0 Z5.
Z4.935
G1 Z-0.157 F200.
X46.678 Y66.139 Z-0.159
X46.749 Y66.21 Z-0.074
X46.752 Y66.212 Z-0.067
G0 Z5.
X46.657 Y66.133
Z4.935
G1 Z-0.15 F200.
X46.655 Y66.135 Z-0.156
X46.651 Y66.139 Z-0.159
X46.575 Y66.215 Z-0.068
X46.572 Y66.218 Z-0.061
G0 Z5.
X46.652 Y66.137
Z4.935
G1 Z-0.161 F200.
Y66.135
X46.653 Y66.129
Y54.283
Y54.281 Z-0.158
Z-0.157
X46.65 Y54.277 Z-0.149
X46.648 Y54.273 Z-0.14
X46.65 Y54.278 Z-0.132
X46.655 Y54.286
X46.658 Y54.29 Z-0.14
X46.656 Y54.286 Z-0.149
X46.653 Y54.282 Z-0.157
X46.651 Y54.28 Z-0.159
X46.612 Y54.241 Z-0.112
X46.61 Y54.239 Z-0.105
G0 Z5.
X47.658 Y54.229
Z4.935
G1 Z-0.064 F200.
Y54.232 Z-0.071
Y54.239 Z-0.074
Y54.246
X47.661 Y54.263 Z-0.077
X47.665 Y54.273 Z-0.082
X47.672 Y54.283 Z-0.091
X47.677 Y54.288 Z-0.097
X47.693 Y54.304 Z-0.115
X47.699 Y54.324 Z-0.123
Y66.062
X47.698 Y66.112 Z-0.121
X47.693 Y66.116 Z-0.116
X47.686 Y66.124 Z-0.107
X47.679 Y66.13 Z-0.099
X47.675 Y66.135 Z-0.094
X47.671 Y66.139 Z-0.089
X47.661 Y66.149 Z-0.077
X47.655 Y66.154 Z-0.071
X47.653 Y66.156 Z-0.068
X47.652 Y66.157 Z-0.067
X47.65 Y66.158 Z-0.066
X47.649 Y66.159
X47.647 Y66.16 Z-0.065
X47.644 Y66.162
X47.617 Y66.186
X47.611 Y66.21
X47.617 Y66.234
X47.643 Y66.256
X47.679 Y66.254
X47.702 Y66.234
X47.709 Y66.223
Y66.222
X47.71 Y66.22 Z-0.066
Y66.219
X47.711 Y66.218
X47.712 Y66.216 Z-0.067
X47.713 Y66.215 Z-0.068
X47.715 Y66.213 Z-0.071
X47.718 Y66.211 Z-0.074
X47.724 Y66.204 Z-0.081
X47.728 Y66.2 Z-0.086
X47.733 Y66.196 Z-0.091
X47.75 Y66.192 Z-0.096
X47.769 Y66.211 Z-0.074
X47.774 Y66.216 Z-0.068
X47.775 Y66.217 Z-0.067
Y66.218 Z-0.066
X47.776 Y66.219
X47.777 Y66.221
X47.778 Y66.222 Z-0.065
Y66.223
X47.784 Y66.234
X47.818 Y66.263
X47.853 Y66.261
X47.865 Y66.253
X47.883 Y66.215
X47.865 Y66.177
X47.853 Y66.168
X47.842 Y66.162
X47.839 Y66.16
X47.837 Y66.159 Z-0.066
X47.835 Y66.158 Z-0.067
X47.834 Y66.157
X47.833 Y66.156 Z-0.068
X47.831 Y66.154 Z-0.071
X47.818 Y66.141 Z-0.086
X47.813 Y66.136 Z-0.092
X47.807 Y66.13 Z-0.099
X47.801 Y66.124 Z-0.106
X47.795 Y66.118 Z-0.114
X47.789 Y66.112 Z-0.121
X47.788 Y66.062 Z-0.123
Y54.324
X47.793 Y54.304 Z-0.116
X47.803 Y54.293 Z-0.104
X47.814 Y54.283 Z-0.092
X47.818 Y54.278 Z-0.086
X47.822 Y54.272 Z-0.081
X47.83 Y54.239 Z-0.072
X47.832 Y54.234 Z-0.068
Y54.232 Z-0.062
G0 Z5.
X47.8 Y54.236
Z4.935
G1 Z-0.102 F200.
X47.798 Y54.239 Z-0.11
X47.796 Y54.241 Z-0.113
X47.756 Y54.281 Z-0.16
X47.754 Y54.283 Z-0.157
X47.752 Y54.287 Z-0.148
X47.75 Y54.29 Z-0.137
X47.755 Y54.282 Z-0.13
X47.76 Y54.273 Z-0.137
X47.758 Y54.277 Z-0.148
X47.756 Y54.281 Z-0.157
Z-0.158
Y54.283 Z-0.161
Y66.129
X47.755 Y66.135
Y66.137
G0 Z5.
Z4.935
G1 Z-0.157 F200.
X47.757 Y66.14 Z-0.159
X47.833 Y66.215 Z-0.068
X47.835 Y66.218 Z-0.061
G0 Z5.
X47.736 Y66.133
Z4.935
G1 Z-0.15 F200.
X47.734 Y66.135 Z-0.156
X47.73 Y66.139 Z-0.159
X47.66 Y66.21 Z-0.075
X47.657 Y66.212 Z-0.068
G0 Z5.
X47.731 Y66.137
Z4.935
G1 Z-0.161 F200.
Y54.283
Y54.281 Z-0.158
Y54.276 Z-0.149
Y54.272 Z-0.138
Y54.282 Z-0.131
Y54.291 Z-0.138
Y54.287 Z-0.149
Y54.282 Z-0.158
X47.73 Y54.281 Z-0.159
X47.69 Y54.241 Z-0.112
X47.687 Y54.239 Z-0.104
G0 Z5.
X48.741 Y54.228
Z4.935
G1 Z-0.065 F200.
Y54.231 Z-0.073
Y54.239 Z-0.075
X48.74 Y54.249
X48.746 Y54.271 Z-0.082
X48.754 Y54.282 Z-0.091
X48.762 Y54.291 Z-0.101
X48.767 Y54.296 Z-0.107
X48.772 Y54.301 Z-0.113
X48.777 Y54.306 Z-0.119
X48.781 Y54.311 Z-0.123
Y66.107
X48.773 Y66.118 Z-0.114
X48.735 Y66.156 Z-0.068
X48.733 Y66.157 Z-0.067
X48.732 Y66.158 Z-0.066
X48.73 Y66.159
X48.729 Y66.16 Z-0.065
X48.728 Y66.161
X48.726 Y66.162
X48.694 Y66.186
X48.683 Y66.211
X48.688 Y66.24
X48.722 Y66.266
X48.762 Y66.258
X48.78 Y66.238
X48.789 Y66.225
X48.79 Y66.222
X48.791 Y66.221 Z-0.066
X48.792 Y66.22
Y66.218
X48.793 Y66.217 Z-0.067
X48.794 Y66.216
X48.795 Y66.215 Z-0.068
Y66.214 Z-0.069
X48.797 Y66.213 Z-0.071
X48.801 Y66.208 Z-0.077
X48.817 Y66.192 Z-0.096
X48.825 Y66.188 Z-0.101
X48.832 Y66.195 Z-0.092
X48.839 Y66.202 Z-0.084
X48.85 Y66.213 Z-0.071
X48.852 Y66.215 Z-0.069
X48.854 Y66.216 Z-0.067
Y66.217
X48.855 Y66.219 Z-0.066
X48.856 Y66.221
X48.857 Y66.222 Z-0.065
X48.86 Y66.228
X48.874 Y66.247
X48.911 Y66.258
X48.945 Y66.239
X48.955 Y66.212
X48.949 Y66.187
X48.922 Y66.162
X48.919 Y66.161
X48.918 Y66.16
X48.916 Y66.159 Z-0.066
X48.915
X48.914 Y66.157 Z-0.067
X48.913 Z-0.068
X48.911 Y66.155 Z-0.069
X48.886 Y66.13 Z-0.099
X48.88 Y66.124 Z-0.106
X48.874 Y66.118 Z-0.113
X48.868 Y66.112 Z-0.121
X48.866 Y66.062 Z-0.123
Y66.012
Y54.311
X48.875 Y54.301 Z-0.113
X48.892 Y54.284 Z-0.092
X48.896 Y54.278 Z-0.087
X48.902 Y54.267 Z-0.08
X48.905 Y54.257 Z-0.077
X48.906 Y54.239 Z-0.075
X48.907 Y54.232 Z-0.072
Y54.23 Z-0.065
G0 Z5.
X48.877 Y54.239
Z4.935
G1 Z-0.105 F200.
X48.874 Y54.241 Z-0.113
X48.835 Y54.28 Z-0.159
X48.834 Y54.281 Z-0.158
X48.837 Y54.285 Z-0.149
X48.84 Y54.289 Z-0.141
X48.837 Y54.285 Z-0.132
X48.831 Y54.277
X48.828 Y54.273 Z-0.141
X48.831 Y54.277 Z-0.149
X48.834 Y54.281 Z-0.158
Y54.283 Z-0.161
Y66.135
Y66.137
Y66.139 Z-0.158
X48.837 Y66.142 Z-0.15
X48.84 Y66.145 Z-0.138
X48.834 Y66.138 Z-0.131
X48.827 Y66.131 Z-0.138
X48.83 Y66.134 Z-0.15
X48.833 Y66.137 Z-0.158
X48.835 Y66.139 Z-0.159
X48.837 Y66.14 Z-0.158
X48.906 Y66.21 Z-0.075
X48.909 Y66.212 Z-0.068
G0 Z5.
X48.813 Y66.137
Z4.935
G1 Z-0.157 F200.
X48.811 Y66.14 Z-0.159
X48.735 Y66.215 Z-0.068
X48.733 Y66.217 Z-0.067
X48.729 Y66.221 Z-0.058
G0 Z5.
X48.813 Y66.14
Z4.935
G1 Z-0.155 F200.
Y66.137 Z-0.161
Y54.283
Y54.281 Z-0.158
Z-0.157
Y54.277 Z-0.149
Y54.272 Z-0.138
Y54.282 Z-0.131
Y54.292 Z-0.138
Y54.287 Z-0.149
Y54.283 Z-0.157
X48.811 Y54.28 Z-0.159
X48.809 Y54.279 Z-0.157
X48.772 Y54.241 Z-0.113
X48.769 Y54.239 Z-0.105
G0 Z5.
X49.821 Y54.23
Z4.935
G1 Z-0.067 F200.
Y54.233 Z-0.073
X49.822 Y54.239 Z-0.077
X49.826 Y54.269 Z-0.081
X49.831 Y54.278 Z-0.087
X49.835 Y54.283 Z-0.092
X49.858 Y54.306 Z-0.12
X49.861 Y54.344 Z-0.123
Y66.062
X49.859 Y66.112 Z-0.121
X49.851 Y66.121 Z-0.111
X49.837 Y66.134 Z-0.094
X49.832 Y66.139 Z-0.088
X49.826 Y66.145 Z-0.081
X49.816 Y66.155 Z-0.069
X49.814 Y66.157 Z-0.068
X49.813 Y66.158 Z-0.067
X49.811 Y66.159 Z-0.066
X49.81 Y66.16
X49.808 Z-0.065
X49.805 Y66.162
X49.775 Y66.187
X49.768 Y66.213
X49.777 Y66.241
X49.808 Y66.261
X49.832 Y66.26
X49.855 Y66.245
X49.867 Y66.227
X49.87 Y66.222
X49.871 Y66.219 Z-0.066
X49.872 Y66.218
X49.873 Y66.217 Z-0.067
X49.874 Y66.216 Z-0.068
X49.875 Y66.215 Z-0.069
X49.902 Y66.188 Z-0.101
X49.909 Y66.193 Z-0.095
X49.916 Y66.2 Z-0.087
X49.93 Y66.214 Z-0.07
X49.932 Y66.216 Z-0.068
X49.933 Y66.217 Z-0.067
X49.934 Y66.218 Z-0.066
X49.935 Y66.219
X49.936 Y66.222 Z-0.065
X49.937 Y66.224
X49.943 Y66.234
X49.958 Y66.252
X50. Y66.264
X50.035 Y66.24
X50.041 Y66.213
X50.033 Y66.187
X50.001 Y66.162
X49.998 Y66.16
X49.996 Y66.159 Z-0.066
X49.994 Y66.158
X49.993 Y66.157 Z-0.067
X49.991 Y66.156 Z-0.068
X49.989 Y66.153 Z-0.071
X49.965 Y66.13 Z-0.099
X49.958 Y66.123 Z-0.108
X49.951 Y66.116 Z-0.116
X49.945 Y66.108 Z-0.123
Y54.344
Y54.32
X49.948 Y54.306 Z-0.12
X49.951 Y54.304 Z-0.116
X49.958 Y54.296 Z-0.108
X49.972 Y54.283 Z-0.091
X49.977 Y54.276 Z-0.085
X49.981 Y54.269 Z-0.081
X49.985 Y54.239 Z-0.075
X49.986 Y54.233 Z-0.071
X49.987 Y54.231 Z-0.065
G0 Z5.
X49.956 Y54.239
Z4.935
G1 Z-0.105 F200.
X49.954 Y54.241 Z-0.113
X49.915 Y54.28 Z-0.159
X49.913 Y54.281 Z-0.158
X49.917 Y54.285 Z-0.149
X49.92 Y54.288 Z-0.141
X49.917 Y54.285 Z-0.132
X49.91 Y54.278
X49.906 Y54.274 Z-0.141
X49.91 Y54.278 Z-0.149
X49.913 Y54.281 Z-0.158
Y54.283 Z-0.161
Y66.129
Y66.137
Y66.139 Z-0.158
X49.911 Y66.143 Z-0.149
X49.909 Y66.147 Z-0.141
X49.911 Y66.143 Z-0.132
X49.915 Y66.134
X49.917 Y66.129 Z-0.141
X49.915 Y66.133 Z-0.149
X49.913 Y66.138 Z-0.158
X49.915 Y66.139 Z-0.159
X49.985 Y66.21 Z-0.075
X49.991 Y66.215 Z-0.068
X49.994 Y66.218 Z-0.061
G0 Z5.
X49.893 Y66.137
Z4.935
G1 Z-0.157 F200.
X49.891 Y66.14 Z-0.159
X49.818 Y66.212 Z-0.072
X49.815 Y66.215 Z-0.064
G0 Z5.
X49.893 Y66.14
Z4.935
G1 Z-0.155 F200.
Y66.137 Z-0.161
Y66.135
Y66.129
Y54.287
Y54.283
X49.892 Y54.281 Z-0.158
Z-0.157
X49.889 Y54.278 Z-0.148
X49.886 Y54.275 Z-0.14
X49.889 Y54.278 Z-0.131
X49.896 Y54.285
X49.9 Y54.289 Z-0.14
X49.897 Y54.285 Z-0.148
X49.893 Y54.282 Z-0.157
X49.891 Y54.28 Z-0.159
X49.853 Y54.241 Z-0.113
X49.85 Y54.239 Z-0.105
G0 Z5.
X50.901 Y54.227
Z4.935
G1 Z-0.065 F200.
Y54.23 Z-0.073
X50.9 Y54.238 Z-0.075
Y54.239
X50.902 Y54.262 Z-0.078
X50.907 Y54.273 Z-0.084
X50.915 Y54.284 Z-0.094
X50.935 Y54.304 Z-0.118
X50.939 Y54.344 Z-0.123
Y66.012
Y66.062
X50.938 Y66.112 Z-0.121
X50.93 Y66.12 Z-0.112
X50.894 Y66.155 Z-0.069
X50.893 Y66.157 Z-0.068
Z-0.067
X50.891 Y66.158 Z-0.066
X50.89 Y66.159
X50.888 Y66.16 Z-0.065
X50.887 Y66.161
X50.874 Y66.168
X50.855 Y66.184
X50.841 Y66.218
X50.855 Y66.252
X50.874 Y66.265
X50.904 Y66.267
X50.933 Y66.247
X50.949 Y66.223
X50.95 Y66.221
Y66.22 Z-0.066
X50.951 Y66.218
X50.952 Y66.217 Z-0.067
X50.953 Y66.216 Z-0.068
X50.955 Y66.214 Z-0.069
X50.978 Y66.191 Z-0.097
X50.986 Y66.189 Z-0.099
X50.992 Y66.195 Z-0.093
X51.012 Y66.215 Z-0.069
X51.013 Y66.217 Z-0.067
X51.014 Y66.218 Z-0.066
X51.015 Y66.22
X51.016 Y66.221 Z-0.065
X51.024 Y66.235
X51.042 Y66.256
X51.085 Y66.269
X51.121 Y66.241
X51.125 Y66.21
X51.113 Y66.186
X51.081 Y66.162
X51.078 Y66.16
X51.077 Y66.159 Z-0.066
X51.075 Y66.158
X51.074 Z-0.067
X51.073 Y66.156 Z-0.068
X51.064 Y66.148 Z-0.078
X51.059 Y66.143 Z-0.084
X51.048 Y66.132 Z-0.097
X51.028 Y66.112 Z-0.121
X51.027 Y66.062 Z-0.123
Y54.344
X51.031 Y54.304 Z-0.118
X51.036 Y54.299 Z-0.112
X51.051 Y54.284 Z-0.094
X51.059 Y54.274 Z-0.085
X51.063 Y54.264 Z-0.079
X51.066 Y54.238 Z-0.076
X51.067 Y54.232 Z-0.073
Y54.23 Z-0.066
G0 Z5.
X51.037 Y54.239
Z4.935
G1 Z-0.106 F200.
X51.034 Y54.241 Z-0.113
X50.995 Y54.28 Z-0.16
X50.994 Y54.282 Z-0.157
X50.992 Y54.286 Z-0.148
X50.99 Y54.29 Z-0.137
X50.994 Y54.281 Z-0.13
X50.998 Y54.272 Z-0.137
X50.996 Y54.276 Z-0.148
X50.995 Y54.28 Z-0.157
Z-0.158
Y54.282 Z-0.161
Y66.137
Y66.139 Z-0.158
Y66.144 Z-0.149
Y66.148 Z-0.141
Y66.143 Z-0.132
X50.994 Y66.133
Y66.128 Z-0.141
Y66.133 Z-0.149
Y66.138 Z-0.158
Z-0.159
X50.995 Y66.139
X51.07 Y66.214 Z-0.07
X51.072 Y66.216 Z-0.068
X51.073 Y66.217 Z-0.067
X51.075 Y66.218
X51.076 Y66.22 Z-0.066
X51.08 Y66.225 Z-0.056
G0 Z5.
X50.972 Y66.137
Z4.935
G1 Z-0.157 F200.
X50.97 Y66.14 Z-0.159
X50.894 Y66.215 Z-0.068
X50.893 Y66.217 Z-0.067
X50.891 Y66.218 Z-0.066
X50.887 Y66.223 Z-0.057
G0 Z5.
X50.972 Y66.14
Z4.935
G1 Z-0.155 F200.
Y66.137 Z-0.161
X50.971 Y66.135
Y54.283
Y54.281 Z-0.158
Z-0.157
X50.968 Y54.278 Z-0.148
X50.964 Y54.275 Z-0.139
X50.968 Y54.279 Z-0.131
X50.976 Y54.285
X50.98 Y54.288 Z-0.139
X50.976 Y54.285 Z-0.148
X50.972 Y54.282 Z-0.157
X50.971 Y54.28 Z-0.16
X50.932 Y54.241 Z-0.113
X50.929 Y54.239 Z-0.106
G0 Z5.
X51.98 Y54.227
Z4.935
G1 Z-0.066 F200.
Y54.23 Z-0.073
X51.979 Y54.238 Z-0.076
Y54.239
X51.98 Y54.254 Z-0.077
X51.984 Y54.269 Z-0.082
X51.989 Y54.279 Z-0.088
X51.993 Y54.283 Z-0.093
X52.005 Y54.295 Z-0.107
X52.012 Y54.301 Z-0.115
X52.017 Y54.307 Z-0.121
X52.018 Y54.344 Z-0.123
Y66.062
X52.017 Y66.112 Z-0.121
X52.012 Y66.117 Z-0.115
X52.005 Y66.124 Z-0.107
X51.999 Y66.13 Z-0.099
X51.988 Y66.141 Z-0.087
X51.977 Y66.151 Z-0.074
X51.974 Y66.155 Z-0.07
X51.972 Y66.156 Z-0.068
X51.971 Y66.158 Z-0.067
X51.969 Y66.159 Z-0.066
X51.967 Y66.16
X51.963 Y66.162 Z-0.065
X51.935 Y66.186
X51.927 Y66.209
X51.933 Y66.236
X51.963 Y66.259
X52.002 Y66.254
X52.028 Y66.221
X52.029 Y66.22 Z-0.066
X52.03 Y66.218
X52.031 Y66.217 Z-0.067
X52.032 Y66.215 Z-0.068
X52.038 Y66.209 Z-0.075
X52.044 Y66.203 Z-0.083
X52.051 Y66.197 Z-0.091
X52.066 Y66.188 Z-0.1
X52.089 Y66.211 Z-0.073
X52.093 Y66.216 Z-0.068
X52.095 Y66.218 Z-0.067
X52.096 Y66.219 Z-0.066
X52.097 Y66.221 Z-0.065
X52.1 Y66.227
X52.112 Y66.244
X52.134 Y66.259
X52.156 Y66.261
X52.177 Y66.254
X52.195 Y66.233
X52.198 Y66.202
X52.19 Y66.183
X52.162 Y66.162
X52.159 Y66.16
X52.157 Y66.159 Z-0.066
X52.155 Y66.158
X52.153 Y66.157 Z-0.068
X52.152 Y66.156 Z-0.069
X52.147 Y66.15 Z-0.075
X52.142 Y66.146 Z-0.081
X52.128 Y66.131 Z-0.098
X52.125 Y66.128 Z-0.101
X52.119 Y66.123 Z-0.108
X52.114 Y66.117 Z-0.114
X52.108 Y66.112 Z-0.121
X52.107 Y66.062 Z-0.123
Y54.344
X52.109 Y54.307 Z-0.12
X52.112 Y54.303 Z-0.116
X52.119 Y54.297 Z-0.108
X52.133 Y54.282 Z-0.091
X52.138 Y54.276 Z-0.086
X52.143 Y54.265 Z-0.079
X52.146 Y54.253 Z-0.076
X52.147 Y54.238 Z-0.075
Y54.232 Z-0.072
Y54.229 Z-0.065
G0 Z5.
X52.117 Y54.239
Z4.935
G1 Z-0.106 F200.
X52.115 Y54.241 Z-0.113
X52.077 Y54.28 Z-0.159
X52.076 Z-0.16
X52.074 Y54.282 Z-0.157
X52.07 Y54.284 Z-0.148
X52.065 Y54.286 Z-0.14
X52.07 Y54.284 Z-0.131
X52.079 Y54.279
X52.084 Y54.277 Z-0.14
X52.079 Y54.279 Z-0.148
X52.075 Y54.281 Z-0.157
Z-0.158
Y54.283 Z-0.161
X52.074 Y54.287
Y66.129
X52.075 Y66.135
Y66.137
Y66.139 Z-0.158
Z-0.157
X52.077 Y66.143 Z-0.149
X52.078 Y66.147 Z-0.137
X52.075 Y66.138 Z-0.13
X52.071 Y66.129 Z-0.137
X52.072 Y66.133 Z-0.149
X52.074 Y66.137 Z-0.157
X52.077 Y66.14 Z-0.159
X52.149 Y66.212 Z-0.072
X52.152 Y66.215 Z-0.064
G0 Z5.
X52.055 Y66.133
Z4.935
G1 Z-0.15 F200.
X52.053 Y66.135 Z-0.156
X52.049 Y66.139 Z-0.159
X51.976 Y66.212 Z-0.073
X51.974 Y66.214 Z-0.065
G0 Z5.
X52.051 Y66.14
Z4.935
G1 Z-0.155 F200.
Y66.137 Z-0.161
Y66.135
Y54.283
Y54.281 Z-0.158
Z-0.156
X52.047 Y54.279 Z-0.148
X52.043 Y54.278 Z-0.137
X52.052 Y54.282 Z-0.13
X52.061 Y54.286 Z-0.137
X52.057 Y54.284 Z-0.148
X52.053 Y54.282 Z-0.156
X52.049 Y54.279 Z-0.159
X52.048 Z-0.158
X52.011 Y54.241 Z-0.113
X52.008 Y54.239 Z-0.106
G0 Z5.
X53.06 Y54.227
Z4.935
G1 Z-0.066 F200.
Y54.23 Z-0.073
X53.059 Y54.238 Z-0.075
Y54.239
X53.06 Y54.255 Z-0.077
X53.064 Y54.268 Z-0.081
X53.071 Y54.281 Z-0.09
X53.076 Y54.286 Z-0.096
X53.081 Y54.29 Z-0.101
X53.087 Y54.296 Z-0.109
X53.09 Y54.3 Z-0.113
X53.097 Y54.307 Z-0.121
X53.098 Y54.344 Z-0.123
Y66.11
X53.097 Y66.112 Z-0.121
X53.084 Y66.125 Z-0.106
X53.079 Y66.13 Z-0.1
X53.065 Y66.144 Z-0.083
X53.053 Y66.156 Z-0.069
X53.052 Y66.157 Z-0.068
X53.051 Z-0.067
X53.05 Y66.158
X53.049 Y66.159 Z-0.066
X53.048
X53.047 Y66.16 Z-0.065
X53.044 Y66.162
X53.003 Y66.2
Y66.236
X53.025 Y66.262
X53.049 Y66.269
X53.073 Y66.263
X53.097 Y66.24
X53.101 Y66.235
X53.107 Y66.225
X53.109 Y66.221
X53.11 Y66.219 Z-0.066
X53.111 Y66.218 Z-0.067
X53.112 Y66.216 Z-0.068
X53.114 Y66.214 Z-0.07
X53.128 Y66.2 Z-0.086
X53.135 Y66.193 Z-0.095
X53.146 Y66.188 Z-0.1
X53.172 Y66.214 Z-0.07
X53.174 Y66.216 Z-0.068
X53.175 Y66.218 Z-0.067
X53.176 Y66.219 Z-0.066
X53.177 Y66.221 Z-0.065
X53.179 Y66.225
X53.185 Y66.235
X53.201 Y66.254
X53.243 Y66.266
X53.247 Y66.265
X53.277 Y66.244
X53.284 Y66.215
X53.275 Y66.188
X53.247 Y66.164
X53.245 Y66.163
X53.244 Y66.162
X53.243
X53.241 Y66.161
X53.239 Y66.16
X53.237 Y66.159 Z-0.066
X53.236 Y66.158
X53.234 Y66.157 Z-0.067
X53.233 Y66.156 Z-0.068
X53.232 Y66.155 Z-0.069
X53.23 Y66.153 Z-0.071
X53.227 Y66.15 Z-0.075
X53.193 Y66.116 Z-0.115
X53.187 Y66.11 Z-0.123
Y54.311
X53.195 Y54.3 Z-0.113
X53.206 Y54.289 Z-0.1
X53.212 Y54.283 Z-0.093
X53.216 Y54.278 Z-0.088
X53.222 Y54.266 Z-0.081
X53.225 Y54.238 Z-0.078
X53.226 Y54.232 Z-0.074
Y54.229 Z-0.068
G0 Z5.
X53.197 Y54.239
Z4.935
G1 Z-0.106 F200.
X53.194 Y54.241 Z-0.114
X53.158 Y54.277 Z-0.157
X53.157 Y54.279 Z-0.158
X53.156 Y54.28 Z-0.159
X53.152 Y54.282 Z-0.157
X53.149 Y54.285 Z-0.149
X53.146 Y54.287 Z-0.137
X53.153 Y54.281 Z-0.131
X53.161 Y54.275 Z-0.137
X53.158 Y54.277 Z-0.149
X53.155 Y54.28 Z-0.157
Z-0.158
Y54.282 Z-0.161
X53.154 Y54.287
Y66.137
Y66.139 Z-0.158
X53.152 Y66.143 Z-0.149
X53.15 Y66.147 Z-0.141
X53.153 Y66.142 Z-0.132
X53.157 Y66.134
X53.159 Y66.129 Z-0.141
X53.157 Y66.133 Z-0.149
X53.155 Y66.137 Z-0.158
X53.157 Y66.139 Z-0.159
X53.229 Y66.211 Z-0.073
X53.233 Y66.215 Z-0.068
X53.234 Y66.217 Z-0.067
X53.238 Y66.22 Z-0.058
G0 Z5.
X53.135 Y66.132
Z4.935
G1 Z-0.149 F200.
X53.133 Y66.134 Z-0.156
X53.129 Y66.139 Z-0.159
X53.128 Y66.14 Z-0.158
X53.053 Y66.215 Z-0.068
X53.052 Y66.217 Z-0.067
X53.05 Y66.219 Z-0.066
X53.044 Y66.223 Z-0.056
G0 Z5.
X53.131 Y66.14
Z4.935
G1 Z-0.155 F200.
Y66.137 Z-0.161
Y54.282
Y54.28 Z-0.158
Z-0.156
X53.129 Y54.276 Z-0.148
X53.127 Y54.272 Z-0.137
X53.131 Y54.281 Z-0.13
X53.135 Y54.29 Z-0.137
X53.133 Y54.286 Z-0.148
X53.132 Y54.282 Z-0.156
X53.128 Y54.279 Z-0.158
X53.091 Y54.241 Z-0.114
X53.088 Y54.239 Z-0.106
G0 Z5.
X54.139 Y54.227
Z4.935
G1 Z-0.063 F200.
Y54.23 Z-0.07
X54.138 Y54.238 Z-0.073
X54.137 Y54.244 Z-0.072
X54.144 Y54.269 Z-0.08
X54.152 Y54.281 Z-0.089
X54.16 Y54.288 Z-0.099
X54.166 Y54.294 Z-0.106
X54.17 Y54.298 Z-0.111
X54.174 Y54.303 Z-0.116
X54.18 Y54.312 Z-0.123
Y66.062
X54.178 Y66.112 Z-0.12
X54.169 Y66.121 Z-0.11
X54.163 Y66.127 Z-0.103
X54.16 Y66.13 Z-0.099
X54.152 Y66.138 Z-0.089
X54.135 Y66.155 Z-0.069
X54.134 Y66.156 Z-0.068
X54.133 Y66.157 Z-0.067
X54.131 Y66.158 Z-0.066
X54.129 Y66.159
X54.127 Y66.16 Z-0.065
X54.124 Y66.162
X54.091 Y66.19
X54.085 Y66.219
X54.092 Y66.24
X54.113 Y66.26
X54.144 Y66.264
X54.183 Y66.233
X54.189 Y66.223
Y66.222
X54.19 Y66.22 Z-0.066
X54.191 Y66.219
X54.192 Y66.218
Y66.217 Z-0.067
X54.194 Y66.215 Z-0.068
X54.198 Y66.211 Z-0.074
X54.203 Y66.206 Z-0.079
X54.208 Y66.201 Z-0.086
X54.213 Y66.196 Z-0.092
X54.218 Y66.191 Z-0.097
X54.222 Y66.187 Z-0.103
X54.226 Y66.189 Z-0.1
X54.234 Y66.197 Z-0.09
X54.24 Y66.203 Z-0.083
X54.25 Y66.213 Z-0.071
X54.252 Y66.215 Z-0.069
X54.253 Y66.217 Z-0.067
X54.254 Y66.218 Z-0.066
X54.255 Y66.219
X54.256 Y66.221
X54.257 Y66.222 Z-0.065
X54.259 Y66.228
X54.293 Y66.259
X54.326 Y66.258
X54.349 Y66.238
X54.357 Y66.217
X54.352 Y66.189
X54.321 Y66.162
X54.318 Y66.16
X54.316 Y66.159 Z-0.066
X54.315 Y66.158
X54.314 Z-0.067
X54.312 Y66.156 Z-0.068
X54.308 Y66.152 Z-0.073
X54.303 Y66.147 Z-0.079
X54.298 Y66.143 Z-0.084
X54.293 Y66.138 Z-0.09
X54.289 Y66.133 Z-0.095
X54.284 Y66.129 Z-0.101
X54.279 Y66.124 Z-0.107
X54.267 Y66.112 Z-0.121
X54.266 Y66.062 Z-0.123
Y54.312
X54.271 Y54.303 Z-0.116
X54.275 Y54.298 Z-0.112
X54.28 Y54.294 Z-0.106
X54.288 Y54.286 Z-0.097
X54.293 Y54.28 Z-0.09
X54.299 Y54.271 Z-0.083
X54.305 Y54.238 Z-0.077
X54.306 Y54.232 Z-0.073
Y54.23 Z-0.067
G0 Z5.
X54.275 Y54.238
Z4.935
G1 Z-0.106 F200.
X54.273 Y54.24 Z-0.113
Y54.241 Z-0.114
X54.234 Y54.28 Z-0.16
X54.233 Y54.281 Z-0.156
X54.23 Y54.285 Z-0.148
X54.228 Y54.289 Z-0.137
X54.233 Y54.28 Z-0.13
X54.238 Y54.272 Z-0.137
X54.236 Y54.276 Z-0.148
X54.234 Y54.28 Z-0.156
Z-0.158
Y54.282 Z-0.161
Y66.137
Y66.139 Z-0.158
Z-0.157
Y66.143 Z-0.149
X54.235 Y66.147 Z-0.137
X54.233 Y66.138 Z-0.13
X54.232 Y66.128 Z-0.137
Y66.133 Z-0.149
X54.233 Y66.137 Z-0.157
X54.236 Y66.14 Z-0.159
X54.308 Y66.212 Z-0.073
X54.31 Y66.214 Z-0.065
G0 Z5.
X54.212 Y66.137
Z4.935
G1 Z-0.158 F200.
X54.21 Y66.139 Z-0.159
X54.135 Y66.215 Z-0.069
X54.132 Y66.217 Z-0.061
G0 Z5.
X54.212 Y66.14
Z4.935
G1 Z-0.155 F200.
Y66.137 Z-0.161
Y66.135
Y66.129
Y54.282
Y54.28 Z-0.158
Y54.275 Z-0.149
Y54.27 Z-0.141
Y54.275 Z-0.132
Y54.285
Y54.29 Z-0.141
Y54.286 Z-0.149
Y54.281 Z-0.158
X54.21 Y54.28 Z-0.159
X54.172 Y54.241 Z-0.114
X54.169 Y54.239 Z-0.11
X54.167 Y54.236 Z-0.103
G0 Z5.
X55.219 Y54.229
Z4.935
G1 Z-0.066 F200.
Y54.231 Z-0.073
Y54.238 Z-0.076
X55.221 Y54.258 Z-0.078
X55.224 Y54.268 Z-0.082
X55.23 Y54.279 Z-0.089
X55.234 Y54.283 Z-0.093
X55.243 Y54.293 Z-0.104
X55.258 Y54.307 Z-0.121
X55.259 Y54.344 Z-0.123
Y66.062
X55.258 Y66.112 Z-0.121
X55.253 Y66.117 Z-0.116
X55.247 Y66.123 Z-0.108
X55.24 Y66.129 Z-0.101
X55.227 Y66.143 Z-0.085
X55.222 Y66.147 Z-0.079
X55.218 Y66.152 Z-0.074
X55.213 Y66.156 Z-0.068
X55.212 Y66.157 Z-0.067
X55.211 Y66.158
X55.21 Y66.159 Z-0.066
X55.209
X55.207 Y66.16 Z-0.065
X55.201 Y66.163
X55.194 Y66.168
X55.19 Y66.17
X55.171 Y66.21
X55.19 Y66.249
X55.194 Y66.251
X55.201 Y66.255
X55.204 Y66.256
X55.241 Y66.254
X55.268 Y66.224
X55.269 Y66.222
X55.27 Y66.221 Z-0.066
Y66.219
X55.271 Y66.218
X55.272 Y66.217 Z-0.067
X55.273 Y66.216 Z-0.068
X55.274 Y66.215 Z-0.069
X55.294 Y66.195 Z-0.093
X55.303 Y66.188 Z-0.101
X55.31 Y66.195 Z-0.093
X55.316 Y66.2 Z-0.086
X55.32 Y66.205 Z-0.081
X55.33 Y66.215 Z-0.069
X55.331 Y66.216 Z-0.068
X55.332 Y66.217 Z-0.067
X55.333 Y66.218 Z-0.066
Y66.219
X55.334 Y66.221
X55.335 Y66.222 Z-0.065
X55.336 Y66.224
X55.34 Y66.231
X55.365 Y66.26
X55.391 Y66.268
X55.416 Y66.262
X55.44 Y66.235
X55.439 Y66.2
X55.4 Y66.162
X55.397 Y66.16
X55.396 Z-0.066
X55.395 Y66.159
X55.394
X55.392 Y66.158 Z-0.067
X55.391 Y66.157 Z-0.068
X55.39 Y66.156 Z-0.069
X55.357 Y66.123 Z-0.108
X55.352 Y66.118 Z-0.114
X55.346 Y66.112 Z-0.121
X55.345 Y66.062 Z-0.123
Y54.344
X55.346 Y54.307 Z-0.122
X55.364 Y54.288 Z-0.099
X55.369 Y54.283 Z-0.094
X55.373 Y54.279 Z-0.089
X55.378 Y54.269 Z-0.083
X55.384 Y54.238 Z-0.076
X55.385 Y54.232 Z-0.073
Y54.23 Z-0.066
G0 Z5.
X55.354 Y54.239
Z4.935
G1 Z-0.107 F200.
X55.352 Y54.241 Z-0.114
X55.316 Y54.277 Z-0.157
X55.314 Y54.279 Z-0.159
X55.31 Y54.282 Z-0.157
X55.307 Y54.285 Z-0.148
X55.305 Y54.288 Z-0.137
X55.311 Y54.281 Z-0.13
X55.317 Y54.273 Z-0.137
X55.315 Y54.276 Z-0.148
X55.312 Y54.28 Z-0.157
Z-0.158
Y54.282 Z-0.161
X55.313 Y54.287
Y66.135
Y66.137
X55.312 Y66.139 Z-0.158
Z-0.157
X55.314 Y66.143 Z-0.149
X55.316 Y66.147 Z-0.137
X55.312 Y66.138 Z-0.13
X55.308 Y66.129 Z-0.137
X55.31 Y66.133 Z-0.149
X55.312 Y66.137 Z-0.157
X55.314 Y66.14 Z-0.159
X55.39 Y66.215 Z-0.068
X55.391 Y66.217 Z-0.067
X55.393 Y66.218 Z-0.066
X55.397 Y66.223 Z-0.057
G0 Z5.
X55.296 Y66.134
Z4.935
G1 Z-0.15 F200.
X55.294 Y66.135 Z-0.156
X55.29 Y66.139 Z-0.159
X55.22 Y66.21 Z-0.075
X55.217 Y66.212 Z-0.068
G0 Z5.
X55.291 Y66.14
Z4.935
G1 Z-0.155 F200.
Y66.137 Z-0.161
Y54.282
Y54.28 Z-0.158
X55.295 Y54.277 Z-0.149
X55.298 Y54.273 Z-0.141
X55.295 Y54.277 Z-0.132
X55.287 Y54.283
X55.283 Y54.287 Z-0.141
X55.287 Y54.283 Z-0.149
X55.29 Y54.28 Z-0.158
Z-0.159
X55.251 Y54.241 Z-0.114
X55.249 Y54.239 Z-0.106
G0 Z5.
X56.302 Y54.226
Z4.935
G1 Z-0.067 F200.
X56.301 Y54.23 Z-0.074
X56.3 Y54.237 Z-0.077
Y54.24 Z-0.076
X56.303 Y54.263 Z-0.08
X56.308 Y54.275 Z-0.086
X56.312 Y54.281 Z-0.091
X56.318 Y54.286 Z-0.097
X56.331 Y54.3 Z-0.113
X56.339 Y54.309 Z-0.123
Y66.062
X56.338 Y66.112 Z-0.121
X56.316 Y66.133 Z-0.095
X56.309 Y66.141 Z-0.087
X56.298 Y66.152 Z-0.073
X56.293 Y66.156 Z-0.068
X56.291 Y66.158 Z-0.067
X56.29 Y66.159 Z-0.066
X56.289
X56.287 Y66.16 Z-0.065
X56.285 Y66.162
X56.255 Y66.184
X56.244 Y66.207
X56.248 Y66.237
X56.286 Y66.265
X56.33 Y66.25
X56.345 Y66.23
X56.348 Y66.224
X56.349 Y66.221
X56.35 Y66.22 Z-0.066
X56.351 Y66.219
X56.352 Y66.217 Z-0.067
X56.353 Y66.215 Z-0.069
X56.357 Y66.211 Z-0.073
X56.37 Y66.199 Z-0.088
X56.375 Y66.193 Z-0.094
X56.386 Y66.189 Z-0.1
X56.393 Y66.196 Z-0.092
X56.405 Y66.208 Z-0.077
X56.412 Y66.215 Z-0.069
X56.413 Y66.216 Z-0.067
X56.414 Y66.218 Z-0.066
X56.415 Y66.219
X56.416 Y66.221
X56.417 Y66.222 Z-0.065
X56.418 Y66.225
X56.422 Y66.231
X56.439 Y66.25
X56.479 Y66.257
X56.509 Y66.234
X56.515 Y66.208
X56.508 Y66.185
X56.482 Y66.162
X56.479 Y66.16
X56.477 Y66.159 Z-0.066
X56.475 Y66.158
X56.474 Y66.157 Z-0.067
X56.472 Y66.156 Z-0.068
X56.47 Y66.154 Z-0.071
X56.459 Y66.143 Z-0.084
X56.452 Y66.136 Z-0.092
X56.448 Y66.132 Z-0.097
X56.444 Y66.128 Z-0.101
X56.438 Y66.122 Z-0.109
X56.433 Y66.117 Z-0.114
X56.428 Y66.112 Z-0.121
X56.426 Y66.062 Z-0.123
Y66.012
Y54.344
Y54.309
X56.434 Y54.3 Z-0.113
X56.443 Y54.291 Z-0.103
X56.452 Y54.282 Z-0.092
X56.458 Y54.273 Z-0.085
X56.465 Y54.237 Z-0.077
X56.466 Y54.232 Z-0.073
Y54.23 Z-0.067
G0 Z5.
X56.436 Y54.239
Z4.935
G1 Z-0.107 F200.
X56.433 Y54.241 Z-0.114
X56.397 Y54.277 Z-0.157
X56.395 Y54.279 Z-0.159
X56.392 Y54.281 Z-0.157
X56.389 Y54.284 Z-0.149
X56.386 Y54.286 Z-0.138
X56.393 Y54.28 Z-0.131
X56.401 Y54.275 Z-0.138
X56.398 Y54.277 Z-0.149
X56.394 Y54.28 Z-0.157
Z-0.158
Y54.282 Z-0.161
Y66.135
X56.393 Y66.137
Y66.139 Z-0.158
Z-0.157
X56.391 Y66.143 Z-0.148
X56.39 Y66.147 Z-0.137
X56.393 Y66.138 Z-0.13
X56.397 Y66.129 Z-0.137
X56.395 Y66.133 Z-0.148
X56.393 Y66.137 Z-0.157
X56.395 Y66.139 Z-0.16
X56.466 Y66.21 Z-0.075
X56.469 Y66.212 Z-0.067
G0 Z5.
X56.372 Y66.137
Z4.935
G1 Z-0.157 F200.
X56.37 Y66.14 Z-0.159
X56.3 Y66.21 Z-0.075
X56.293 Y66.216 Z-0.068
X56.291 Y66.219 Z-0.06
G0 Z5.
X56.371 Y66.14
Z4.935
G1 Z-0.155 F200.
Y66.137 Z-0.161
Y66.129
Y54.282
Y54.28 Z-0.158
Z-0.157
X56.368 Y54.277 Z-0.149
X56.364 Y54.275 Z-0.138
X56.372 Y54.281 Z-0.131
X56.38 Y54.286 Z-0.138
X56.376 Y54.284 Z-0.149
X56.373 Y54.281 Z-0.157
X56.37 Y54.279 Z-0.159
X56.368 Y54.277 Z-0.157
X56.332 Y54.241 Z-0.114
X56.33 Y54.239 Z-0.107
G0 Z5.
X57.379 Y54.227
Z4.935
G1 Z-0.067 F200.
Y54.23 Z-0.074
Y54.237 Z-0.077
Y54.249
X57.385 Y54.269 Z-0.083
X57.39 Y54.279 Z-0.089
X57.394 Y54.283 Z-0.094
X57.409 Y54.298 Z-0.112
X57.417 Y54.307 Z-0.122
X57.418 Y54.344 Z-0.123
Y66.062
X57.417 Y66.112 Z-0.121
X57.411 Y66.118 Z-0.114
X57.372 Y66.156 Z-0.069
X57.371 Y66.157 Z-0.067
X57.37 Y66.158
X57.369 Y66.159 Z-0.066
X57.368
X57.366 Y66.16 Z-0.065
X57.363 Y66.162
X57.335 Y66.186
X57.329 Y66.211
X57.336 Y66.234
X57.357 Y66.254
X57.389 Y66.257
X57.411 Y66.246
X57.424 Y66.228
X57.428 Y66.222
X57.429 Y66.22 Z-0.066
Y66.218
X57.431 Y66.217 Z-0.067
Y66.216 Z-0.068
X57.433 Y66.214 Z-0.07
X57.45 Y66.197 Z-0.09
X57.468 Y66.19 Z-0.098
X57.492 Y66.215 Z-0.069
X57.493 Y66.216 Z-0.068
X57.494 Y66.217 Z-0.067
X57.495 Y66.219 Z-0.066
X57.496 Y66.22
Y66.221 Z-0.065
X57.497 Y66.223
X57.498 Y66.225
X57.502 Y66.232
X57.537 Y66.262
X57.572 Y66.26
X57.582 Y66.254
X57.601 Y66.215
X57.582 Y66.176
X57.572 Y66.168
X57.561 Y66.162
X57.558 Y66.16
X57.556 Y66.159 Z-0.066
X57.554 Y66.158 Z-0.067
X57.553 Y66.157
X57.552 Y66.156 Z-0.068
X57.55 Y66.154 Z-0.071
X57.526 Y66.13 Z-0.099
X57.508 Y66.112 Z-0.121
X57.506 Y66.062 Z-0.123
Y54.344
X57.508 Y54.307 Z-0.121
X57.512 Y54.302 Z-0.116
X57.517 Y54.297 Z-0.11
X57.52 Y54.294 Z-0.106
X57.531 Y54.283 Z-0.093
X57.535 Y54.279 Z-0.088
X57.542 Y54.269 Z-0.081
X57.548 Y54.237 Z-0.073
X57.549 Y54.232 Z-0.069
X57.55 Y54.23 Z-0.063
G0 Z5.
X57.519 Y54.236
Z4.935
G1 Z-0.103 F200.
X57.517 Y54.238 Z-0.111
X57.514 Y54.241 Z-0.114
X57.476 Y54.279 Z-0.159
X57.474 Y54.281 Z-0.157
X57.473 Y54.286 Z-0.149
Y54.29 Z-0.14
Y54.285 Z-0.132
X57.475 Y54.276
Y54.271 Z-0.14
Y54.275 Z-0.149
X57.474 Y54.28 Z-0.157
Z-0.158
Y54.282 Z-0.161
Y66.137
Y66.139 Z-0.158
Z-0.157
X57.475 Y66.143 Z-0.149
X57.476 Y66.147 Z-0.137
X57.474 Y66.138 Z-0.13
X57.472 Y66.128 Z-0.137
X57.473 Y66.133 Z-0.149
X57.474 Y66.137 Z-0.157
X57.476 Y66.14 Z-0.159
X57.551 Y66.215 Z-0.069
X57.554 Y66.217 Z-0.062
G0 Z5.
X57.451 Y66.137
Z4.935
G1 Z-0.158 F200.
X57.449 Y66.139 Z-0.159
X57.447 Y66.14 Z-0.158
X57.378 Y66.21 Z-0.075
X57.376 Y66.212 Z-0.068
G0 Z5.
X57.45 Y66.14
Z4.935
G1 Z-0.155 F200.
Y66.137 Z-0.161
Y66.135
Y54.282
Y54.28 Z-0.158
X57.447 Y54.277 Z-0.149
X57.443 Y54.274 Z-0.138
X57.451 Y54.28 Z-0.131
X57.459 Y54.286 Z-0.138
X57.455 Y54.284 Z-0.149
X57.452 Y54.281 Z-0.158
X57.449 Y54.279 Z-0.159
X57.447 Y54.277 Z-0.158
X57.411 Y54.241 Z-0.115
X57.409 Y54.239 Z-0.107
G0 Z5.
X58.479 Y54.227
Z4.935
G1 Z-0.07 F200.
Y54.23 Z-0.077
Y54.237 Z-0.08
Y54.262
X58.486 Y54.276 Z-0.087
X58.49 Y54.282 Z-0.093
X58.501 Y54.293 Z-0.106
X58.506 Y54.298 Z-0.112
X58.515 Y54.307 Z-0.122
Y54.344 Z-0.123
Y57.735
X58.51 Y57.76 Z-0.116
X58.498 Y57.806 Z-0.102
X58.492 Y57.827 Z-0.095
X58.481 Y57.87 Z-0.082
X58.473 Y57.902 Z-0.072
X58.469 Y57.918 Z-0.068
X58.468 Y57.922 Z-0.067
X58.467 Y57.926 Z-0.066
X58.466 Y57.928
X58.465 Y57.932
X58.463 Y57.934 Z-0.065
X58.434 Y58.009
X58.426 Y58.034
Y58.084
X58.451 Y58.107
X58.479 Y58.111
X58.515 Y58.084
X58.53 Y58.009
X58.533 Y57.984
Y57.959
Y57.947 Z-0.066
X58.534 Y57.944
Y57.941
Y57.937 Z-0.067
Y57.934 Z-0.068
X58.538 Y57.918 Z-0.072
X58.543 Y57.902 Z-0.077
X58.547 Y57.885 Z-0.082
X58.551 Y57.87 Z-0.087
X58.557 Y57.849 Z-0.093
X58.568 Y57.806 Z-0.107
X58.573 Y57.785 Z-0.113
X58.576 Y57.776 Z-0.116
X58.589 Y57.769 Z-0.107
X58.596 Y57.771 Z-0.097
X58.604 Y57.773 Z-0.088
X58.612 Y57.775 Z-0.079
X58.62 Y57.777 Z-0.07
X58.622 Y57.778 Z-0.067
X58.624 Z-0.066
X58.626
X58.629 Z-0.065
X58.658 Y57.774
X58.679 Y57.753
X58.684 Y57.729
X58.677 Y57.706
X58.658 Y57.689
X58.655 Y57.687
X58.653 Y57.686
X58.651 Z-0.066
X58.649 Y57.685
X58.647 Y57.684 Z-0.067
X58.645 Y57.683 Z-0.069
X58.644 Y57.682 Z-0.071
X58.636 Y57.68 Z-0.08
X58.629 Y57.678 Z-0.088
X58.62 Y57.676 Z-0.099
X58.612 Y57.674 Z-0.109
X58.604 Y57.672 Z-0.118
X58.6 Y57.635 Z-0.123
Y54.344
X58.601 Y54.307 Z-0.122
X58.608 Y54.299 Z-0.113
X58.62 Y54.288 Z-0.099
X58.624 Y54.283 Z-0.094
X58.629 Y54.278 Z-0.088
X58.635 Y54.264 Z-0.081
X58.637 Y54.237 Z-0.078
X58.638 Y54.231 Z-0.075
Y54.228 Z-0.068
G0 Z5.
X58.609 Y54.239
Z4.935
G1 Z-0.107 F200.
X58.607 Y54.241 Z-0.115
X58.569 Y54.279 Z-0.16
X58.568 Y54.28 Z-0.159
Z-0.158
X58.573 Y54.278 Z-0.149
X58.578 Y54.277 Z-0.141
X58.573 Y54.278 Z-0.132
X58.563 Y54.281
X58.558 Y54.282 Z-0.141
X58.563 Y54.281 Z-0.149
X58.568 Y54.28 Z-0.158
Y54.282 Z-0.161
Y57.712
Y57.716 Z-0.158
Z-0.156
X58.566 Y57.72 Z-0.147
X58.565 Y57.724 Z-0.136
X58.568 Y57.714 Z-0.129
X58.571 Y57.705 Z-0.136
X58.569 Y57.709 Z-0.147
X58.568 Y57.713 Z-0.156
X58.57 Y57.714 Z-0.158
X58.573 Z-0.155
X58.577 Y57.715 Z-0.15
X58.578 Y57.716 Z-0.148
X58.613 Y57.725 Z-0.107
X58.621 Y57.727 Z-0.098
X58.625 Y57.728 Z-0.093
X58.636 Y57.731 Z-0.079
X58.639 Y57.732 Z-0.073
G0 Z5.
X58.548 Y57.75
Z4.935
G1 Z-0.158 F200.
Y57.747 Z-0.161
X58.547 Y57.744
Y54.282
Y54.28 Z-0.158
X58.552 Y54.278 Z-0.149
X58.556 Y54.276 Z-0.141
X58.552 Y54.278 Z-0.132
X58.543 Y54.282
X58.538 Y54.284 Z-0.141
X58.543 Y54.282 Z-0.149
X58.547 Y54.28 Z-0.158
Z-0.159
X58.546 Y54.279
X58.509 Y54.241 Z-0.115
X58.506 Y54.239 Z-0.107
G0 Z5.
X59.56 Y54.226
Z4.935
G1 Z-0.067 F200.
X59.559 Y54.229 Z-0.075
X59.558 Y54.237 Z-0.077
X59.56 Y54.258 Z-0.079
X59.563 Y54.268 Z-0.083
X59.569 Y54.279 Z-0.09
X59.573 Y54.283 Z-0.095
X59.583 Y54.293 Z-0.106
X59.587 Y54.297 Z-0.111
X59.597 Y54.307 Z-0.123
X59.596 Y54.344
Y56.588
X59.59 Y56.606 Z-0.115
X59.585 Y56.615 Z-0.11
X59.572 Y56.643 Z-0.093
X59.564 Y56.661 Z-0.084
X59.559 Y56.67 Z-0.078
X59.552 Y56.684 Z-0.07
X59.551 Y56.686 Z-0.068
X59.55 Y56.687
X59.549 Y56.69 Z-0.067
X59.547 Y56.692 Z-0.066
X59.546 Y56.693
X59.545 Y56.694
X59.544 Y56.695 Z-0.065
X59.535 Y56.705
X59.526 Y56.716
X59.511 Y56.738
X59.498 Y56.78
X59.506 Y56.804
X59.526 Y56.821
X59.55 Y56.826
X59.575 Y56.818
X59.601 Y56.779
X59.612 Y56.738
X59.613 Y56.733
Y56.729
Y56.727 Z-0.066
X59.614 Y56.724
X59.615 Y56.723 Z-0.067
Y56.721
X59.616 Y56.719 Z-0.068
X59.617 Y56.717 Z-0.069
X59.623 Y56.705 Z-0.076
X59.631 Y56.689 Z-0.086
X59.635 Y56.679 Z-0.091
X59.651 Y56.647 Z-0.11
X59.657 Y56.648 Z-0.105
X59.663 Y56.65 Z-0.098
X59.669 Y56.654 Z-0.09
X59.675 Y56.657 Z-0.082
X59.68 Y56.659 Z-0.076
X59.687 Y56.663 Z-0.069
X59.688 Z-0.067
X59.69 Y56.664 Z-0.066
X59.691 Y56.665
X59.692 Y56.666 Z-0.065
X59.693 Y56.667
X59.696 Y56.669
X59.717 Y56.679
X59.749 Y56.676
X59.771 Y56.656
X59.778 Y56.635
X59.775 Y56.611
X59.755 Y56.588
X59.738 Y56.581
X59.735 Y56.58
X59.734
X59.733 Y56.579 Z-0.066
X59.731
X59.73 Y56.578 Z-0.067
X59.729 Z-0.068
X59.727 Y56.577 Z-0.069
X59.722 Y56.575 Z-0.075
X59.717 Y56.572 Z-0.082
X59.696 Y56.562 Z-0.106
X59.691 Y56.56 Z-0.113
X59.686 Y56.557 Z-0.119
X59.682 Y56.551 Z-0.123
Y54.344
X59.683 Y54.307 Z-0.122
X59.706 Y54.283 Z-0.095
X59.71 Y54.279 Z-0.09
X59.715 Y54.269 Z-0.083
X59.721 Y54.237 Z-0.077
X59.722 Y54.231 Z-0.074
Y54.229 Z-0.067
G0 Z5.
X59.691 Y54.239
Z4.935
G1 Z-0.107 F200.
X59.689 Y54.241 Z-0.115
X59.652 Y54.278 Z-0.159
X59.65 Y54.28 Z-0.158
X59.655 Y54.281 Z-0.149
X59.66 Z-0.141
X59.655 Z-0.132
X59.645 Y54.279
X59.64 Y54.278 Z-0.141
X59.645 Y54.279 Z-0.149
X59.65 Y54.28 Z-0.158
Y54.282 Z-0.161
Y56.584
Y56.59
Y56.592
Y56.593 Z-0.158
Z-0.156
Y56.598 Z-0.148
X59.649 Y56.602 Z-0.139
X59.65 Y56.597 Z-0.131
X59.651 Y56.588
Y56.583 Z-0.139
Y56.587 Z-0.148
X59.65 Y56.592 Z-0.156
X59.652 Y56.593 Z-0.159
X59.657 Y56.596 Z-0.153
X59.663 Y56.599 Z-0.145
X59.681 Y56.607 Z-0.125
X59.687 Y56.609 Z-0.118
X59.698 Y56.615 Z-0.104
X59.705 Y56.619 Z-0.096
X59.71 Y56.621 Z-0.09
X59.728 Y56.63 Z-0.068
X59.731 Y56.632 Z-0.061
G0 Z5.
X59.629 Y56.612
Z4.935
G1 Z-0.153 F200.
Y56.609 Z-0.161
Y54.282
Y54.28 Z-0.158
Z-0.157
X59.625 Y54.277 Z-0.148
X59.621 Y54.274 Z-0.14
X59.625 Y54.277 Z-0.131
X59.633 Y54.283
X59.637 Y54.286 Z-0.14
X59.633 Y54.283 Z-0.148
X59.63 Y54.28 Z-0.157
X59.628 Y54.279 Z-0.16
X59.591 Y54.241 Z-0.115
X59.588 Y54.239 Z-0.107
G0 Z5.
X60.636 Y54.228
Z4.935
G1 Z-0.066 F200.
Y54.23 Z-0.072
X60.637 Y54.237 Z-0.076
X60.639 Y54.263 Z-0.078
X60.643 Y54.271 Z-0.083
X60.649 Y54.28 Z-0.091
X60.66 Y54.291 Z-0.104
X60.673 Y54.304 Z-0.119
X60.676 Y54.312 Z-0.123
Y56.065
X60.674 Y56.077 Z-0.12
X60.669 Y56.083 Z-0.114
X60.665 Y56.089 Z-0.109
X60.66 Y56.096 Z-0.103
X60.651 Y56.108 Z-0.092
X60.642 Y56.121 Z-0.082
X60.637 Y56.127 Z-0.076
X60.633 Y56.133 Z-0.071
X60.63 Y56.136 Z-0.068
X60.629 Y56.138 Z-0.067
X60.627 Y56.139 Z-0.066
X60.626 Y56.14
X60.624 Y56.141 Z-0.065
X60.623 Y56.142
X60.619 Y56.145
X60.612 Y56.15
X60.598 Y56.164
X60.582 Y56.19
X60.584 Y56.222
X60.603 Y56.245
X60.623 Y56.253
X60.667 Y56.237
X60.691 Y56.19 Z-0.066
Y56.188
X60.692 Y56.187
X60.693 Y56.185 Z-0.067
Y56.184 Z-0.068
X60.698 Y56.178 Z-0.073
X60.711 Y56.159 Z-0.089
X60.722 Y56.145 Z-0.102
X60.73 Y56.144 Z-0.099
X60.735 Y56.147 Z-0.094
X60.739 Y56.15 Z-0.089
X60.748 Y56.156 Z-0.079
X60.752 Y56.159 Z-0.074
X60.756 Y56.163 Z-0.069
X60.757 Y56.164 Z-0.067
X60.758 Y56.165
X60.759 Y56.166 Z-0.066
X60.76 Y56.167
X60.761 Y56.168 Z-0.065
X60.764 Y56.172
X60.774 Y56.182
X60.791 Y56.192
X60.825
X60.853 Y56.167
X60.858 Y56.139
X60.849 Y56.116
X60.825 Y56.098
X60.817 Y56.094
X60.815
X60.814 Y56.093 Z-0.066
X60.812
X60.811 Y56.092 Z-0.067
X60.81 Y56.091 Z-0.068
X60.807 Y56.089 Z-0.071
X60.801 Y56.085 Z-0.078
X60.795 Y56.081 Z-0.085
X60.786 Y56.074 Z-0.097
X60.765 Y56.058 Z-0.121
X60.764 Y56.052 Z-0.123
Y54.312
X60.767 Y54.304 Z-0.119
X60.775 Y54.296 Z-0.11
X60.779 Y54.291 Z-0.104
X60.784 Y54.287 Z-0.098
X60.791 Y54.28 Z-0.09
X60.797 Y54.269 Z-0.082
X60.801 Y54.259 Z-0.078
X60.804 Y54.237 Z-0.075
Y54.23 Z-0.072
Y54.228 Z-0.065
G0 Z5.
X60.774 Y54.238
Z4.935
G1 Z-0.106 F200.
X60.771 Y54.24 Z-0.113
X60.77 Y54.241 Z-0.115
X60.733 Y54.278 Z-0.159
X60.731 Y54.28 Z-0.158
X60.73 Y54.284 Z-0.149
X60.729 Y54.288 Z-0.138
X60.732 Y54.279 Z-0.131
X60.734 Y54.27 Z-0.138
X60.733 Y54.274 Z-0.149
X60.732 Y54.278 Z-0.158
Y54.28 Z-0.161
X60.731 Y54.282
Y54.287
Y56.088
Y56.09 Z-0.158
Z-0.156
X60.732 Y56.094 Z-0.148
X60.733 Y56.099 Z-0.139
X60.732 Y56.094 Z-0.131
X60.73 Y56.084
X60.729 Y56.079 Z-0.139
X60.73 Y56.084 Z-0.148
X60.731 Y56.089 Z-0.156
X60.733 Y56.09 Z-0.16
X60.734 Y56.092 Z-0.157
X60.743 Y56.098 Z-0.147
X60.746 Y56.099 Z-0.144
X60.76 Y56.11 Z-0.127
X60.761 Y56.111 Z-0.126
X60.766 Y56.115 Z-0.12
X60.771 Y56.119 Z-0.113
X60.777 Y56.123 Z-0.107
X60.783 Y56.127 Z-0.1
X60.789 Y56.131 Z-0.093
X60.792 Y56.134 Z-0.088
X60.795 Y56.136 Z-0.086
X60.806 Y56.144 Z-0.072
X60.808 Y56.146 Z-0.069
X60.811 Y56.147 Z-0.062
G0 Z5.
X60.707 Y56.087
Z4.935
G1 Z-0.15 F200.
Y56.09 Z-0.157
Y56.097 Z-0.16
Y56.098
X60.706 Y56.099 Z-0.158
X60.702 Y56.104 Z-0.154
X60.698 Y56.111 Z-0.148
X60.691 Y56.12 Z-0.14
X60.689 Y56.123 Z-0.138
X60.681 Y56.134 Z-0.128
X60.679 Y56.136 Z-0.126
X60.672 Y56.146 Z-0.117
X60.668 Y56.152 Z-0.112
X60.664 Y56.157 Z-0.108
X60.656 Y56.168 Z-0.099
X60.655 Y56.169 Z-0.098
X60.647 Y56.18 Z-0.087
X60.645 Y56.184 Z-0.085
X60.633 Y56.2 Z-0.071
X60.63 Y56.203 Z-0.068
X60.627 Y56.207 Z-0.06
G0 Z5.
X60.709 Y56.099
Z4.935
G1 Z-0.154 F200.
Y56.095 Z-0.161
Y56.088
Y54.287
X60.708 Y54.282
Y54.28
Y54.278 Z-0.158
Z-0.157
X60.707 Y54.274 Z-0.149
X60.706 Y54.27 Z-0.138
X60.709 Y54.279 Z-0.131
X60.711 Y54.289 Z-0.138
X60.71 Y54.285 Z-0.149
X60.709 Y54.28 Z-0.157
X60.707 Y54.278 Z-0.159
X60.67 Y54.241 Z-0.115
X60.668 Y54.239 Z-0.112
X60.665 Y54.236 Z-0.105
G0 Z5.
X61.717 Y54.229
Z4.935
G1 Z-0.068 F200.
Y54.231 Z-0.074
X61.718 Y54.236 Z-0.078
Y54.249
X61.723 Y54.269 Z-0.084
X61.728 Y54.279 Z-0.09
X61.732 Y54.283 Z-0.095
X61.741 Y54.293 Z-0.106
X61.746 Y54.297 Z-0.112
X61.751 Y54.302 Z-0.118
X61.755 Y54.307 Z-0.123
Y55.89
X61.751 Y55.899 Z-0.117
X61.742 Y55.907 Z-0.107
X61.734 Y55.916 Z-0.098
X61.726 Y55.925 Z-0.088
X61.713 Y55.94 Z-0.072
X61.709 Y55.943 Z-0.068
X61.708 Y55.945 Z-0.067
X61.706 Y55.946 Z-0.066
X61.704 Y55.947
X61.703 Y55.948 Z-0.065
X61.699 Y55.95
X61.66 Y55.99
X61.659 Y56.025
X61.685 Y56.053
X61.713 Y56.057
X61.741 Y56.044
X61.76 Y56.018
X61.764 Y56.01
X61.766 Y56.006
X61.767 Y56.004 Z-0.066
X61.768 Y56.002 Z-0.067
X61.769 Y56.001
X61.77 Y56. Z-0.068
X61.784 Y55.985 Z-0.084
X61.789 Y55.98 Z-0.09
X61.793 Y55.974 Z-0.096
X61.798 Y55.969 Z-0.101
X61.805 Y55.974 Z-0.096
X61.812 Y55.982 Z-0.087
X61.829 Y55.999 Z-0.069
X61.83 Y56.001 Z-0.067
X61.831 Y56.002 Z-0.066
X61.832 Y56.004
Y56.005
X61.833 Y56.006 Z-0.065
X61.841 Y56.022
X61.871 Y56.053
X61.918 Y56.05
X61.94 Y56.021
X61.939 Y55.99
X61.918 Y55.963
X61.902 Y55.951
X61.898 Y55.949
X61.896 Y55.948
X61.895 Y55.947 Z-0.066
X61.893 Y55.946
X61.891 Y55.944 Z-0.067
X61.89 Y55.943 Z-0.068
X61.889 Z-0.069
X61.88 Y55.933 Z-0.08
X61.872 Y55.925 Z-0.089
X61.864 Y55.916 Z-0.098
X61.857 Y55.907 Z-0.107
X61.848 Y55.899 Z-0.117
X61.844 Y55.89 Z-0.123
X61.843 Y55.84
Y54.344
X61.844 Y54.307
X61.848 Y54.302 Z-0.117
X61.857 Y54.293 Z-0.106
X61.867 Y54.283 Z-0.095
X61.871 Y54.279 Z-0.091
X61.88 Y54.236 Z-0.079
X61.882 Y54.231 Z-0.075
Y54.229 Z-0.069
G0 Z5.
X61.852 Y54.239
Z4.935
G1 Z-0.108 F200.
X61.849 Y54.241 Z-0.116
X61.813 Y54.277 Z-0.159
X61.811 Y54.28 Z-0.157
X61.81 Y54.284 Z-0.148
X61.809 Y54.288 Z-0.137
X61.811 Y54.279 Z-0.13
X61.813 Y54.27 Z-0.137
X61.812 Y54.274 Z-0.148
X61.811 Y54.278 Z-0.157
Z-0.158
Y54.28 Z-0.161
Y55.919
Y55.921 Z-0.158
X61.809 Y55.925 Z-0.149
X61.807 Y55.929 Z-0.141
X61.809 Y55.925 Z-0.132
X61.814 Y55.916
X61.816 Y55.912 Z-0.141
X61.814 Y55.916 Z-0.149
X61.812 Y55.92 Z-0.158
X61.813 Y55.921 Z-0.159
X61.815 Y55.923 Z-0.157
X61.816 Y55.925 Z-0.156
X61.822 Y55.931 Z-0.149
X61.828 Y55.938 Z-0.141
X61.833 Y55.944 Z-0.135
X61.839 Y55.949 Z-0.128
X61.845 Y55.956 Z-0.121
X61.849 Y55.961 Z-0.116
X61.856 Y55.969 Z-0.108
X61.86 Y55.972 Z-0.103
X61.865 Y55.978 Z-0.097
X61.871 Y55.984 Z-0.09
X61.876 Y55.99 Z-0.084
X61.88 Y55.993 Z-0.08
X61.881 Y55.996 Z-0.078
X61.887 Y56.001 Z-0.071
X61.889 Y56.004 Z-0.069
X61.89 Y56.005 Z-0.068
X61.891 Y56.006 Z-0.067
X61.892 Y56.007
X61.896 Y56.011 Z-0.057
G0 Z5.
X61.788 Y55.919
Z4.935
G1 Z-0.157 F200.
X61.785 Y55.922 Z-0.159
X61.781 Y55.926 Z-0.154
X61.776 Y55.932 Z-0.147
X61.771 Y55.938 Z-0.141
X61.764 Y55.945 Z-0.133
X61.76 Y55.949 Z-0.128
X61.753 Y55.957 Z-0.12
X61.75 Y55.961 Z-0.116
X61.744 Y55.967 Z-0.109
X61.741 Y55.97 Z-0.106
X61.739 Y55.972 Z-0.103
X61.734 Y55.978 Z-0.097
X61.728 Y55.984 Z-0.09
X61.723 Y55.99 Z-0.084
X61.717 Y55.996 Z-0.077
X61.712 Y56.001 Z-0.071
X61.71 Y56.004 Z-0.069
X61.709 Y56.005 Z-0.068
X61.707 Y56.007 Z-0.067
X61.706 Y56.008 Z-0.066
X61.702 Y56.013 Z-0.057
G0 Z5.
X61.787 Y55.923
Z4.935
G1 Z-0.155 F200.
Y55.919 Z-0.161
Y54.28
Y54.278 Z-0.158
Z-0.156
X61.786 Y54.274 Z-0.148
X61.785 Y54.27 Z-0.137
X61.788 Y54.279 Z-0.13
X61.79 Y54.288 Z-0.137
X61.789 Y54.285 Z-0.148
X61.788 Y54.28 Z-0.156
X61.786 Y54.278 Z-0.159
X61.785 Y54.277 Z-0.158
X61.75 Y54.241 Z-0.116
X61.747 Y54.239 Z-0.108
G0 Z5.
X62.795 Y54.226
Z4.935
G1 Z-0.063 F200.
Y54.229 Z-0.07
Y54.236 Z-0.073
X62.794 Y54.245 Z-0.072
X62.798 Y54.26 Z-0.076
X62.805 Y54.275 Z-0.085
X62.811 Y54.281 Z-0.093
X62.822 Y54.292 Z-0.105
X62.829 Y54.298 Z-0.113
X62.837 Y54.306 Z-0.123
Y54.314
Y55.99
Y56.052
X62.836 Y56.058 Z-0.121
X62.815 Y56.074 Z-0.096
X62.81 Y56.077 Z-0.091
X62.805 Y56.081 Z-0.085
X62.796 Y56.087 Z-0.074
X62.791 Y56.091 Z-0.069
X62.79 Y56.092 Z-0.067
X62.789
X62.788 Y56.093 Z-0.066
X62.787
X62.784 Y56.094 Z-0.065
X62.782 Y56.095
X62.777 Y56.097
X62.752 Y56.116
X62.742 Y56.139
X62.746 Y56.168
X62.777 Y56.194
X62.815 Y56.19
X62.831 Y56.178
X62.839 Y56.168
X62.84 Y56.167 Z-0.066
X62.841 Y56.166
X62.842 Y56.164 Z-0.067
X62.844 Y56.163 Z-0.068
X62.845 Y56.162 Z-0.069
X62.847 Y56.161 Z-0.072
X62.855 Y56.155 Z-0.082
X62.863 Y56.149 Z-0.091
X62.88 Y56.148 Z-0.098
X62.884 Y56.155 Z-0.092
X62.896 Y56.171 Z-0.078
X62.902 Y56.179 Z-0.071
X62.905 Y56.183 Z-0.068
X62.906 Y56.185 Z-0.067
X62.907 Y56.187 Z-0.066
X62.908 Y56.189
Y56.191 Z-0.065
X62.909 Y56.195
X62.912 Y56.203
X62.934 Y56.239
X62.964 Y56.253
X62.992 Y56.247
X63.012 Y56.226
X63.018 Y56.203
X63.006 Y56.171
X62.987 Y56.151
X62.975 Y56.143
X62.973 Y56.141 Z-0.066
X62.972 Y56.14
X62.971 Y56.139
X62.97 Y56.138 Z-0.067
X62.969 Y56.137 Z-0.068
X62.967 Y56.135 Z-0.07
X62.96 Y56.124 Z-0.079
X62.952 Y56.114 Z-0.087
X62.949 Y56.11 Z-0.092
X62.941 Y56.1 Z-0.1
X62.925 Y56.077 Z-0.12
X62.923 Y56.065 Z-0.123
Y54.314
X62.924 Y54.306 Z-0.122
X62.931 Y54.298 Z-0.112
X62.936 Y54.293 Z-0.106
X62.947 Y54.283 Z-0.094
X62.951 Y54.278 Z-0.089
X62.957 Y54.268 Z-0.082
X62.96 Y54.236 Z-0.078
X62.961 Y54.23 Z-0.074
X62.962 Y54.228 Z-0.068
G0 Z5.
X62.932 Y54.236
Z4.935
G1 Z-0.106 F200.
X62.93 Y54.24 Z-0.114
X62.929 Y54.241 Z-0.115
X62.892 Y54.278 Z-0.159
X62.89 Y54.28 Z-0.158
X62.891 Y54.285 Z-0.149
Y54.289 Z-0.138
X62.89 Y54.279 Z-0.131
X62.889 Y54.27 Z-0.138
X62.89 Y54.274 Z-0.149
Y54.278 Z-0.158
Y54.28 Z-0.161
Y56.094
X62.891 Y56.095
Y56.096 Z-0.159
X62.889 Y56.092 Z-0.15
X62.888 Y56.087 Z-0.141
X62.889 Y56.092 Z-0.133
X62.893 Y56.101
X62.894 Y56.106 Z-0.141
X62.893 Y56.101 Z-0.15
X62.891 Y56.097 Z-0.159
X62.892 Y56.098
Y56.099 Z-0.158
X62.895 Y56.103 Z-0.155
X62.907 Y56.119 Z-0.141
X62.91 Y56.123 Z-0.138
X62.913 Y56.128 Z-0.133
X62.918 Y56.134 Z-0.128
Y56.135 Z-0.127
X62.922 Y56.14 Z-0.123
X62.926 Y56.146 Z-0.118
X62.93 Y56.151 Z-0.114
X62.935 Y56.157 Z-0.108
X62.943 Y56.169 Z-0.098
X62.952 Y56.18 Z-0.088
X62.953 Y56.182 Z-0.086
X62.96 Y56.192 Z-0.078
X62.965 Y56.198 Z-0.072
X62.968 Y56.203 Z-0.068
X62.971 Y56.207 Z-0.06
G0 Z5.
X62.873 Y56.085
Z4.935
G1 Z-0.15 F200.
X62.872 Y56.086 Z-0.156
X62.868 Y56.09 Z-0.16
X62.866 Y56.092 Z-0.158
X62.861 Y56.096 Z-0.151
X62.856 Y56.099 Z-0.145
X62.849 Y56.104 Z-0.137
X62.843 Y56.108 Z-0.13
X62.84 Y56.111 Z-0.126
X62.838 Y56.112 Z-0.123
X62.826 Y56.121 Z-0.109
X62.824 Y56.123 Z-0.107
X62.82 Y56.125 Z-0.102
X62.814 Y56.129 Z-0.096
X62.808 Y56.134 Z-0.088
X62.803 Y56.138 Z-0.082
X62.797 Y56.142 Z-0.075
X62.792 Y56.146 Z-0.069
X62.791 Z-0.068
X62.789 Y56.148 Z-0.061
G0 Z5.
X62.869 Y56.093
Z4.935
G1 Z-0.154 F200.
Y56.088 Z-0.161
Y54.282
Y54.28
Y54.278 Z-0.158
X62.866 Y54.275 Z-0.149
X62.863 Y54.272 Z-0.138
X62.869 Y54.279 Z-0.131
X62.876 Y54.286 Z-0.138
X62.873 Y54.283 Z-0.149
X62.87 Y54.28 Z-0.158
Z-0.159
X62.868 Y54.278 Z-0.16
X62.866 Y54.277 Z-0.158
X62.826 Y54.236 Z-0.11
X62.823 Y54.234 Z-0.102
G0 Z5.
X63.88 Y54.225
Z4.935
G1 Z-0.067 F200.
Y54.228 Z-0.075
X63.879 Y54.236 Z-0.077
Y54.237
X63.88 Y54.256 Z-0.079
X63.887 Y54.275 Z-0.087
X63.894 Y54.284 Z-0.095
X63.911 Y54.301 Z-0.116
X63.917 Y54.31 Z-0.123
Y54.344
Y56.438
Y56.488
Y56.552
X63.913 Y56.558 Z-0.117
X63.908 Y56.56 Z-0.112
X63.903 Y56.563 Z-0.105
X63.889 Y56.569 Z-0.089
X63.88 Y56.573 Z-0.078
X63.872 Y56.577 Z-0.069
X63.871 Y56.578 Z-0.068
X63.868 Y56.579 Z-0.066
X63.866 Z-0.065
X63.861 Y56.581
X63.844 Y56.588
X63.824 Y56.611
X63.821 Y56.635
X63.831 Y56.66
X63.861 Y56.679
X63.88
X63.899 Y56.672
X63.903 Y56.669
X63.907 Y56.666
X63.908 Y56.665 Z-0.066
X63.909 Y56.664
X63.91 Z-0.067
X63.911 Y56.663 Z-0.068
X63.913 Y56.662 Z-0.069
X63.917 Y56.66 Z-0.074
X63.931 Y56.653 Z-0.091
X63.936 Y56.651 Z-0.097
X63.941 Y56.649 Z-0.102
X63.945 Y56.647 Z-0.107
X63.953 Y56.655 Z-0.105
X63.983 Y56.717 Z-0.069
X63.984 Y56.72 Z-0.068
Y56.721 Z-0.067
X63.985 Y56.722
X63.986 Y56.725 Z-0.066
Y56.727
Y56.729 Z-0.065
X63.987 Y56.73
Y56.733
Y56.738
X64.011 Y56.803
X64.051 Y56.822
X64.076 Y56.814
X64.099 Y56.781
X64.088 Y56.738
X64.056 Y56.697
X64.055 Y56.695
X64.053 Y56.694 Z-0.066
X64.052 Y56.693
X64.051 Y56.691
Y56.69 Z-0.067
X64.049 Y56.688 Z-0.068
Y56.686 Z-0.069
X64.043 Y56.676 Z-0.075
X64.039 Y56.666 Z-0.08
X64.033 Y56.655 Z-0.086
X64.026 Y56.639 Z-0.096
X64.022 Y56.63 Z-0.101
X64.011 Y56.608 Z-0.114
X64.006 Y56.598 Z-0.119
X64.003 Y56.588 Z-0.123
Y54.31
X64.011 Y54.298 Z-0.114
X64.017 Y54.292 Z-0.106
X64.022 Y54.287 Z-0.1
X64.028 Y54.281 Z-0.093
X64.032 Y54.275 Z-0.088
X64.037 Y54.264 Z-0.082
X64.04 Y54.252 Z-0.079
Y54.236 Z-0.078
Y54.229 Z-0.075
X64.041 Y54.226 Z-0.068
G0 Z5.
X64.011 Y54.239
Z4.935
G1 Z-0.108 F200.
X64.008 Y54.241 Z-0.116
X63.972 Y54.277 Z-0.159
X63.971 Y54.279 Z-0.158
X63.972 Y54.284 Z-0.149
X63.974 Y54.288 Z-0.141
X63.972 Y54.283 Z-0.132
X63.969 Y54.274
X63.968 Y54.269 Z-0.141
X63.969 Y54.274 Z-0.149
X63.97 Y54.278 Z-0.158
Y54.28 Z-0.161
Y54.282
X63.971 Y54.287
Y56.607
Y56.608 Z-0.158
Z-0.157
X63.973 Y56.612 Z-0.149
X63.975 Y56.615 Z-0.138
X63.97 Y56.607 Z-0.131
X63.965 Y56.599 Z-0.138
X63.967 Y56.602 Z-0.149
X63.969 Y56.606 Z-0.157
X63.972 Y56.61 Z-0.16
X63.973 Y56.613 Z-0.159
X63.974 Y56.617 Z-0.157
X63.976 Y56.619 Z-0.155
X63.98 Y56.628 Z-0.15
X63.981 Y56.63 Z-0.149
X63.987 Y56.642 Z-0.142
X63.992 Y56.653 Z-0.136
Z-0.135
X63.998 Y56.665 Z-0.128
X64.003 Y56.677 Z-0.122
X64.015 Y56.7 Z-0.109
X64.021 Y56.711 Z-0.102
X64.026 Y56.723 Z-0.096
X64.037 Y56.746 Z-0.082
X64.038 Y56.748 Z-0.081
X64.043 Y56.757 Z-0.075
X64.048 Y56.769 Z-0.069
X64.049 Y56.771 Z-0.068
Y56.772
Y56.779 Z-0.065
Y56.782 Z-0.058
G0 Z5.
X63.953 Y56.589
Z4.935
G1 Z-0.15 F200.
X63.948 Y56.593 Z-0.159
X63.946 Y56.594 Z-0.157
X63.943 Y56.596 Z-0.153
X63.94 Z-0.15
X63.923 Y56.605 Z-0.129
X63.919 Y56.607 Z-0.125
X63.911 Y56.611 Z-0.115
X63.899 Y56.617 Z-0.102
X63.888 Y56.622 Z-0.088
X63.872 Y56.63 Z-0.069
X63.871 Z-0.068
X63.868 Y56.632 Z-0.06
G0 Z5.
X63.95 Y56.596
Z4.935
G1 Z-0.153 F200.
Y56.592 Z-0.161
X63.949 Y56.59
Y54.282
Y54.28
X63.95 Y54.278 Z-0.158
Z-0.157
X63.948 Y54.274 Z-0.149
X63.947 Y54.27 Z-0.138
X63.95 Y54.279 Z-0.13
X63.953 Y54.288 Z-0.138
X63.951 Y54.284 Z-0.149
X63.95 Y54.28 Z-0.157
X63.948 Y54.279 Z-0.16
Y54.278 Z-0.159
X63.911 Y54.241 Z-0.115
X63.908 Y54.239 Z-0.108
G0 Z5.
X64.954 Y54.224
Z4.935
G1 Z-0.065 F200.
Y54.228 Z-0.073
X64.952 Y54.236 Z-0.075
Y54.237
X64.955 Y54.259 Z-0.078
X64.959 Y54.269 Z-0.083
X64.966 Y54.28 Z-0.091
X64.984 Y54.298 Z-0.113
X64.992 Y54.308 Z-0.123
Y57.668
X64.984 Y57.672 Z-0.113
X64.967 Y57.677 Z-0.093
X64.961 Y57.678 Z-0.086
X64.956 Y57.68 Z-0.079
X64.947 Y57.682 Z-0.069
X64.946 Y57.683 Z-0.068
X64.945 Z-0.067
X64.943 Z-0.066
X64.942 Y57.684
X64.941 Z-0.065
X64.939
X64.929 Y57.688
X64.908 Y57.707
X64.9 Y57.733
X64.908 Y57.759
X64.929 Y57.777
X64.939 Y57.781
X64.95 Y57.782
X64.961 Y57.781
X64.966 Y57.779
X64.967 Z-0.066
X64.969 Y57.778
X64.97 Z-0.067
X64.971 Z-0.068
X64.973 Y57.777 Z-0.069
X64.984 Y57.774 Z-0.083
X64.994 Y57.771 Z-0.094
X65.015 Y57.766 Z-0.119
X65.022 Y57.785 Z-0.115
X65.053 Y57.901 Z-0.078
X65.057 Y57.915 Z-0.074
X65.058 Y57.919 Z-0.072
X65.06 Y57.926 Z-0.07
X65.062 Y57.934 Z-0.068
X65.063 Y57.938 Z-0.067
Y57.942 Z-0.066
Y57.945
X65.064 Y57.949 Z-0.065
Y57.953
Y57.956
Y57.963
X65.065 Y57.993
X65.071 Y58.038
X65.083 Y58.084
X65.104 Y58.106
X65.127 Y58.111
X65.151 Y58.106
X65.172 Y58.084
X65.173 Y58.038
X65.159 Y57.993
X65.147 Y57.963
X65.141 Y57.949
X65.133 Y57.934
X65.132 Y57.932 Z-0.066
X65.131 Y57.93
X65.13 Y57.926
X65.129 Y57.922 Z-0.067
X65.128 Y57.919
X65.127 Y57.916 Z-0.068
X65.125 Y57.91 Z-0.07
X65.114 Y57.867 Z-0.083
X65.109 Y57.846 Z-0.089
X65.104 Y57.826 Z-0.096
X65.098 Y57.805 Z-0.103
X65.092 Y57.785 Z-0.109
X65.089 Y57.772 Z-0.113
X65.086 Y57.76 Z-0.117
X65.081 Y57.735 Z-0.123
Y57.635
Y54.344
Y54.308
X65.089 Y54.298 Z-0.113
X65.103 Y54.285 Z-0.096
X65.107 Y54.28 Z-0.091
X65.113 Y54.271 Z-0.084
X65.119 Y54.236 Z-0.077
X65.12 Y54.23 Z-0.074
Y54.228 Z-0.067
G0 Z5.
X65.091 Y54.236
Z4.935
G1 Z-0.106 F200.
X65.088 Y54.239 Z-0.114
X65.087 Y54.241 Z-0.115
X65.051 Y54.277 Z-0.158
X65.048 Y54.28 Z-0.157
X65.047 Y54.284 Z-0.148
X65.046 Y54.288 Z-0.137
X65.048 Y54.279 Z-0.13
X65.051 Y54.27 Z-0.137
X65.05 Y54.273 Z-0.148
X65.049 Y54.278 Z-0.157
Z-0.158
Y54.28 Z-0.161
Y57.752
Y57.755 Z-0.158
Z-0.157
X65.048 Y57.759 Z-0.149
X65.047 Y57.762 Z-0.138
X65.049 Y57.753 Z-0.131
X65.051 Y57.744 Z-0.138
X65.05 Y57.747 Z-0.149
X65.049 Y57.751 Z-0.157
Y57.754 Z-0.16
Y57.756
X65.051 Y57.761 Z-0.158
X65.054 Y57.772 Z-0.155
Y57.773 Z-0.154
X65.06 Y57.796 Z-0.147
X65.064 Y57.808 Z-0.143
X65.065 Y57.815 Z-0.141
X65.067 Y57.819 Z-0.14
X65.07 Y57.831 Z-0.136
X65.073 Y57.842 Z-0.132
X65.076 Y57.854 Z-0.128
X65.077 Y57.858
X65.079 Y57.865 Z-0.125
X65.082 Y57.877 Z-0.121
X65.085 Y57.888 Z-0.117
X65.088 Y57.9 Z-0.114
Y57.901
X65.091 Y57.911 Z-0.11
X65.097 Y57.935 Z-0.103
X65.099 Y57.946 Z-0.101
X65.111 Y57.992 Z-0.087
Y57.997 Z-0.086
X65.114 Y58.004 Z-0.084
X65.116 Y58.015 Z-0.081
X65.121 Y58.038 Z-0.074
X65.123 Y58.046 Z-0.072
X65.124 Y58.05 Z-0.071
X65.127 Y58.059 Z-0.068
Y58.061
X65.129 Y58.067 Z-0.064
Y58.069 Z-0.058
G0 Z5.
X65.029 Y57.711
Z4.935
G1 Z-0.151 F200.
X65.023 Y57.713 Z-0.16
X65.022 Z-0.158
X65.019 Y57.714 Z-0.154
X65.013 Y57.715 Z-0.147
X65.007 Y57.717 Z-0.141
X65.002 Y57.718 Z-0.134
X64.996 Y57.72 Z-0.127
X64.97 Y57.727 Z-0.096
X64.961 Y57.73 Z-0.085
X64.95 Y57.733 Z-0.072
X64.947 Z-0.065
G0 Z5.
X65.025 Y57.716
Z4.935
G1 Z-0.156 F200.
Y57.711 Z-0.161
Y54.287
X65.024 Y54.282
Y54.28
Y54.278 Z-0.158
Z-0.157
X65.023 Y54.273 Z-0.148
X65.021 Y54.269 Z-0.139
X65.023 Y54.274 Z-0.131
X65.026 Y54.283
X65.028 Y54.288 Z-0.139
X65.027 Y54.283 Z-0.148
X65.025 Y54.279 Z-0.157
X65.023 Y54.278 Z-0.16
Y54.277 Z-0.159
X64.987 Y54.241 Z-0.116
X64.984 Y54.239 Z-0.113
X64.982 Y54.237 Z-0.106
G0 Z5.
X66.015 Y54.225
Z4.935
G1 Z-0.063 F200.
Y54.228 Z-0.07
X66.014 Y54.236 Z-0.072
Y54.241
X66.019 Y54.264 Z-0.078
X66.026 Y54.275 Z-0.086
X66.032 Y54.281 Z-0.093
X66.051 Y54.3 Z-0.116
X66.057 Y54.309 Z-0.123
Y66.062
X66.055 Y66.112 Z-0.121
X66.048 Y66.12 Z-0.112
X66.041 Y66.127 Z-0.104
X66.034 Y66.133 Z-0.095
X66.015 Y66.152 Z-0.073
X66.011 Y66.156 Z-0.068
X66.009 Y66.158 Z-0.067
X66.007 Y66.159 Z-0.066
X66.005 Y66.16 Z-0.065
X66.002 Y66.162
X65.972 Y66.185
X65.962 Y66.207
X65.967 Y66.237
X66.004 Y66.265
X66.048 Y66.25
X66.062 Y66.23
X66.065 Y66.224
X66.067 Y66.222
X66.068 Y66.22 Z-0.066
Y66.219
X66.07 Y66.217 Z-0.067
X66.071 Y66.215 Z-0.069
X66.075 Y66.212 Z-0.073
X66.082 Y66.204 Z-0.081
X66.087 Y66.199 Z-0.088
X66.093 Y66.194 Z-0.094
X66.104 Y66.188 Z-0.101
X66.118 Y66.202 Z-0.084
X66.131 Y66.215 Z-0.069
X66.132 Y66.216 Z-0.068
X66.133 Y66.218 Z-0.067
X66.134 Y66.219 Z-0.066
X66.135 Y66.221
Y66.222 Z-0.065
X66.14 Y66.231
X66.157 Y66.25
X66.197 Y66.257
X66.227 Y66.234
X66.234 Y66.208
X66.227 Y66.185
X66.2 Y66.162
X66.197 Y66.16
X66.195 Y66.159 Z-0.066
X66.194 Y66.158
X66.192 Y66.157 Z-0.067
X66.19 Y66.156 Z-0.069
X66.184 Y66.149 Z-0.077
X66.176 Y66.142 Z-0.086
X66.17 Y66.136 Z-0.093
X66.149 Y66.115 Z-0.118
X66.146 Y66.112 Z-0.121
X66.145 Y66.062 Z-0.123
Y54.309
X66.152 Y54.3 Z-0.115
X66.169 Y54.282 Z-0.094
X66.176 Y54.273 Z-0.086
X66.183 Y54.236 Z-0.078
X66.184 Y54.23 Z-0.075
Y54.228 Z-0.068
G0 Z5.
X66.153 Y54.239
Z4.935
G1 Z-0.108 F200.
X66.151 Y54.241 Z-0.116
X66.116 Y54.277 Z-0.158
X66.115 Z-0.159
X66.113 Y54.279 Z-0.156
X66.112 Y54.283 Z-0.148
X66.111 Y54.288 Z-0.139
X66.112 Y54.283 Z-0.13
X66.114 Y54.273
Y54.268 Z-0.139
Y54.273 Z-0.148
X66.113 Y54.278 Z-0.156
Z-0.158
Y54.28 Z-0.161
Y54.282
Y66.135
Y66.137
Y66.139 Z-0.158
X66.116 Y66.142 Z-0.15
X66.119 Y66.145 Z-0.138
X66.112 Y66.138 Z-0.131
X66.106 Y66.131 Z-0.138
X66.108 Y66.134 Z-0.15
X66.112 Y66.137 Z-0.158
X66.114 Y66.139 Z-0.159
X66.116 Y66.14 Z-0.158
X66.185 Y66.21 Z-0.075
X66.187 Y66.212 Z-0.068
G0 Z5.
X66.09 Y66.137
Z4.935
G1 Z-0.157 F200.
X66.087 Y66.14 Z-0.159
X66.012 Y66.215 Z-0.068
X66.009 Y66.218 Z-0.061
G0 Z5.
X66.089 Y66.14
Z4.935
G1 Z-0.155 F200.
Y66.137 Z-0.161
Y66.129
Y54.287
Y54.28
Y54.278 Z-0.158
Z-0.157
X66.086 Y54.274 Z-0.149
X66.083 Y54.271 Z-0.137
X66.089 Y54.278 Z-0.13
X66.095 Y54.286 Z-0.137
X66.093 Y54.283 Z-0.149
X66.09 Y54.279 Z-0.157
X66.087 Y54.277 Z-0.159
X66.052 Y54.241 Z-0.117
X66.046 Y54.236 Z-0.11
X66.044 Y54.233 Z-0.102
G0 Z5.
X67.101 Y54.225
Z4.935
G1 Z-0.068 F200.
Y54.228 Z-0.075
X67.1 Y54.236 Z-0.078
Y54.249 Z-0.077
X67.105 Y54.269 Z-0.084
X67.111 Y54.279 Z-0.091
X67.115 Y54.283 Z-0.096
X67.134 Y54.302 Z-0.118
X67.138 Y54.307 Z-0.123
Y66.062
X67.137 Y66.112 Z-0.121
X67.131 Y66.118 Z-0.115
X67.112 Y66.137 Z-0.091
X67.107 Y66.142 Z-0.085
X67.097 Y66.152 Z-0.073
X67.092 Y66.156 Z-0.068
X67.091 Y66.157 Z-0.067
X67.09 Y66.158 Z-0.066
X67.089 Y66.159
X67.087 Y66.16
X67.086 Z-0.065
X67.084 Y66.162
X67.054 Y66.187
X67.047 Y66.212
X67.054 Y66.236
X67.078 Y66.258
X67.112 Y66.259
X67.14 Y66.237
X67.147 Y66.225
X67.148 Y66.222
X67.149 Y66.221 Z-0.066
X67.15 Y66.219
Y66.218
X67.152 Y66.216 Z-0.067
Y66.215 Z-0.068
X67.173 Y66.194 Z-0.093
X67.177 Y66.191 Z-0.097
X67.185 Y66.189 Z-0.1
X67.189 Y66.193 Z-0.095
X67.196 Y66.2 Z-0.087
X67.199 Y66.203 Z-0.083
X67.211 Y66.214 Z-0.069
X67.212 Y66.216 Z-0.068
X67.213 Y66.217 Z-0.067
X67.214 Y66.218 Z-0.066
Y66.219
X67.215 Y66.22
X67.216 Y66.222 Z-0.065
X67.217 Y66.224
X67.221 Y66.231
X67.256 Y66.262
X67.286 Y66.261
X67.291 Y66.259
X67.3 Y66.254
X67.32 Y66.214
X67.3 Y66.174
X67.291 Y66.168
X67.286 Y66.165
X67.281 Y66.162
X67.278 Y66.16
X67.276 Y66.159 Z-0.066
X67.273 Y66.158
X67.272 Y66.157 Z-0.067
X67.271 Y66.156 Z-0.068
X67.269 Y66.154 Z-0.07
X67.26 Y66.145 Z-0.081
X67.256 Y66.141 Z-0.086
X67.246 Y66.131 Z-0.098
X67.242 Y66.127 Z-0.103
X67.236 Y66.121 Z-0.11
X67.227 Y66.112 Z-0.12
X67.225 Y66.062 Z-0.123
Y54.307
X67.233 Y54.297 Z-0.113
X67.252 Y54.279 Z-0.091
X67.259 Y54.269 Z-0.082
X67.267 Y54.236 Z-0.073
X67.268 Y54.23 Z-0.069
X67.269 Y54.228 Z-0.063
G0 Z5.
X67.238 Y54.234
Z4.935
G1 Z-0.103 F200.
X67.235 Y54.236 Z-0.111
X67.195 Y54.277 Z-0.159
X67.193 Y54.279 Z-0.158
X67.191 Y54.283 Z-0.149
X67.189 Y54.287 Z-0.14
X67.191 Y54.283 Z-0.132
X67.195 Y54.274
X67.197 Y54.269 Z-0.14
X67.195 Y54.273 Z-0.149
