(1001)
(T1  D=2. CR=0. - ZMIN=-2.928 - FLAT END MILL)
G0 G90 G94 G17
G21
G53 G0 Z0.

(2MM  FLATEND  RAMP)
M5
M9
T1
S16000 M3
G4 P4.
G55
G0 X6.854 Y47.593
Z15.
Z1.906
G1 Z-0.061 F350.
G3 X6.518 Y47.439 I-0.136 J-0.147
G1 X6.555 Y46.457
X6.56 Y46.344
X6.567 Y46.231
X6.631 Y45.215 Z-0.062
Y45.21
X6.64 Y45.102
X6.73 Y44.086
X6.743 Y43.973
X6.858 Y42.956
X6.873 Y42.843
X6.999 Y41.94 Z-0.063
X7.015 Y41.827
X7.033 Y41.714
X7.182 Y40.811
X7.196 Y40.727
X7.201 Y40.698
X7.223 Y40.585
X7.395 Y39.682
X7.417 Y39.569 Z-0.064
X7.637 Y38.552
X7.648 Y38.505
X7.664 Y38.439
X7.883 Y37.536
X7.911 Y37.423
X7.941 Y37.31
X8.184 Y36.407 Z-0.065
X8.213 Y36.306
X8.483 Y35.39
X8.518 Y35.277
X8.809 Y34.374
X8.846 Y34.261
X8.885 Y34.148
X9.161 Y33.358 Z-0.066
X9.201 Y33.245
X9.23 Y33.168
X9.584 Y32.228
X9.629 Y32.116
X9.95 Y31.325 Z-0.067
X9.996 Y31.212
X10.021 Y31.153
X10.387 Y30.309
X10.437 Y30.196
X10.473 Y30.118
X10.855 Y29.292
X10.908 Y29.179
X10.925 Y29.146
X11.354 Y28.276 Z-0.068
X11.377 Y28.23
X11.411 Y28.163
X11.829 Y27.366
X11.885 Y27.26
X11.942 Y27.157
X12.394 Y26.342
X12.451 Y26.243
X12.914 Y25.453 Z-0.069
X12.959 Y25.378
X12.982 Y25.34
X13.472 Y24.55
X13.524 Y24.466
X13.543 Y24.437
X13.616 Y24.324
X14.088 Y23.6 Z-0.07
X14.133 Y23.533
X14.211 Y23.42
X14.677 Y22.743
X14.756 Y22.63
X15.331 Y21.834
X15.412 Y21.726
X15.927 Y21.049 Z-0.071
X16.009 Y20.942
X16.014 Y20.936
X16.104 Y20.823
X16.645 Y20.145
X16.687 Y20.093
X16.738 Y20.033
X17.306 Y19.355
X17.365 Y19.285
X17.402 Y19.242
X18.043 Y18.513 Z-0.072
X18.099 Y18.452
X18.156 Y18.389
X18.724 Y17.774
X18.829 Y17.661
X18.834 Y17.656
X18.947 Y17.539
X19.512 Y16.955
X19.596 Y16.871 Z-0.073
X20.303 Y16.174
X20.403 Y16.08
X21.003 Y15.516
X21.094 Y15.431
X21.125 Y15.403
X21.207 Y15.329
X21.469 Y15.095 F88.
X21.471 Y15.097
X21.47 Y15.101
X21.469 Y15.105 F350.
X21.468 Y15.108
X21.467 Y15.115
X21.465 Y15.124
X21.464 Y15.133
X21.461 Y15.152
X21.457 Y15.177
X21.451 Y15.233
X21.449 Y15.29
X21.45 Y15.346 Z-0.074
X21.454 Y15.403
X21.461 Y15.459
X21.471 Y15.516
X21.485 Y15.572
X21.503 Y15.628
X21.522 Y15.682
X21.546 Y15.735
X21.549 Y15.741
X21.579 Y15.798
X21.613 Y15.854
X21.659 Y15.918
X21.696 Y15.967
X21.772 Y16.065
X21.785 Y16.08
X21.835 Y16.133
X21.885 Y16.18
X21.901 Y16.193
X21.949 Y16.231
X21.998 Y16.264
X22.069 Y16.306
X22.111 Y16.327
X22.167 Y16.351
X22.224 Y16.372
X22.28 Y16.389
X22.337 Y16.402
X22.393 Y16.412
X22.45 Y16.419
X22.451
X22.507 Y16.422
X22.563
X22.626 Y16.419
X22.676 Y16.413
X22.732 Y16.404
X22.789 Y16.391
X22.845 Y16.374
X22.902 Y16.354
X22.928 Y16.344
X22.941 Y16.338 F88.
X22.943 Y16.337
X22.944
X24.64 Y18.57 Z-0.075 F350.
X24.882 Y18.889 F88.
X24.881 Y18.89
X24.88 Y18.892
X24.871 Y18.903 F350.
X24.823 Y18.969
X24.793 Y19.016
X24.762 Y19.073
X24.735 Y19.129
X24.71 Y19.194
X24.694 Y19.242
X24.679 Y19.299
X24.668 Y19.355 Z-0.076
X24.66 Y19.411
X24.655 Y19.468
X24.653 Y19.524
X24.655 Y19.581
X24.66 Y19.637
X24.668 Y19.694
X24.679 Y19.75
X24.694 Y19.807
X24.71 Y19.857
X24.734 Y19.92
X24.761 Y19.976
X24.791 Y20.033
X24.823 Y20.083
X24.868 Y20.145
X24.936 Y20.233
X24.955 Y20.258
X24.999 Y20.31
X25.049 Y20.362
X25.059 Y20.371
X25.11 Y20.417
X25.162 Y20.456
X25.204 Y20.484
X25.275 Y20.526
X25.331 Y20.554
X25.388 Y20.577
X25.446 Y20.597
X25.501 Y20.612
X25.557 Y20.625
X25.614 Y20.634
X25.67 Y20.64
X25.727 Y20.642
X25.783 Y20.641
X25.84 Y20.638
X25.896 Y20.63
X25.953 Y20.62
X25.996 Y20.61
X26.04 Y20.597
X26.066 Y20.589
X26.122 Y20.568
X26.179 Y20.542
X26.231 Y20.515
X26.282 Y20.484
X26.292 Y20.478
X26.405 Y20.395
X28.331 Y18.903 Z-0.077
X28.439 Y18.818
X28.552 Y18.726
X28.608 Y18.677
X28.665 Y18.626
X28.732 Y18.565
X28.778 Y18.522
X28.847 Y18.452
X28.891 Y18.406
X28.956 Y18.339 Z-0.078
X29.004 Y18.284
X29.053 Y18.226
X29.117 Y18.151
X29.147 Y18.113
X29.23 Y18.
X29.309 Y17.887
X29.343 Y17.833
X29.379 Y17.774
X29.445 Y17.661
X29.456 Y17.64
X29.502 Y17.548
X29.555 Y17.435 F88.
X29.557 Y17.431
X29.559 Y17.43
X29.562 Y17.431
X29.569 Y17.434 F350.
X29.573 Y17.435
X29.627 Y17.455
X29.681 Y17.47
X29.738 Y17.483
X29.794 Y17.493
X29.851 Y17.499
X29.907 Y17.503
X29.964 Y17.502
X30.02 Y17.499
X30.077 Y17.493
X30.133 Y17.483
X30.19 Y17.47
X30.246 Y17.453
X30.296 Y17.435
X30.359 Y17.408
X30.416 Y17.379
X30.472 Y17.346
X32.845 Y15.906 Z-0.079
X32.928 Y15.854
X32.958 Y15.833
X33.012 Y15.79
X33.066 Y15.741
X33.071 Y15.736
X33.121 Y15.682
X33.165 Y15.628 F88.
X33.167 Y15.627
X33.17 Y15.626
X33.175 Y15.625 F350.
X33.184 Y15.623
X33.241 Y15.607
X33.297 Y15.588
X33.41 Y15.539
X37.704 Y13.589 Z-0.081
X37.817 Y13.537
X37.864 Y13.512
X37.912 Y13.483
X37.93 Y13.471
X37.986 Y13.43
X38.043 Y13.382
X38.047 Y13.379 F88.
X38.048 Y13.378
X38.05
X38.057 F350.
X38.071
X38.099
X38.156 Y13.376
X38.216 Y13.37
X38.269 Y13.362
X38.325 Y13.35
X38.382 Y13.334
X43.019 Y12.015 Z-0.083
X43.074 Y11.998
X43.128 Y11.979
X43.184 Y11.954
X43.241 Y11.925
X43.281 Y11.902
X43.317 Y11.879
X43.354 Y11.853
X43.392 Y11.823
X43.431 Y11.789
X43.467 Y11.755
X43.504 Y11.716
X43.537 Y11.676
X43.58 Y11.62
X43.616 Y11.563
X43.647 Y11.507
X43.674 Y11.45
X43.679 Y11.439
X43.682 Y11.431 F88.
X43.685 Y11.425
X43.686 Y11.423
X43.693 Y11.427
X43.731 Y11.45 F350.
X43.806 Y11.49
X43.919 Y11.548
X43.953 Y11.563
X44.032 Y11.596
X44.145 Y11.641
X44.258 Y11.679
X44.371 Y11.712 Z-0.084
X44.484 Y11.74
X44.597 Y11.762
X44.71 Y11.781
X44.775 Y11.789
X44.823 Y11.793
X44.936 Y11.802
X45.049 Y11.805
X45.162
X45.218 Y11.803
X45.275 Y11.799
X45.388 Y11.789
X45.501 Y11.775
X45.613 Y11.756
X45.726 Y11.734
X45.839 Y11.708
X45.944 Y11.676
X46.065 Y11.636
X46.178 Y11.597
X46.219 Y11.581
X46.259 Y11.563
X46.291 Y11.547
X46.49 Y11.449 F88.
X46.517 Y11.463 F350.
X46.574 Y11.488
X46.63 Y11.509
X46.687 Y11.526
X46.743 Y11.54
X46.8 Y11.55
X46.856 Y11.557
X46.913 Y11.561
X46.969
X47.026 Y11.559
X47.082 Y11.553 Z-0.085
X47.195 Y11.537
X47.308 Y11.518
X47.365 Y11.504
X47.421 Y11.487
X47.467 Y11.47
X47.513 Y11.45
X47.534 Y11.44
X47.591 Y11.41
X47.647 Y11.375
X47.701 Y11.337
X47.76 Y11.289
X47.789 Y11.263
X47.803 Y11.249 F88.
X47.806 Y11.245
X47.808 Y11.243
X47.81
X47.817 Y11.245 F350.
X47.873 Y11.259
X47.93 Y11.27
X47.986 Y11.277
X48.043 Y11.281
X48.099 Y11.282
X48.212 Y11.281
X50.924 Y11.269 Z-0.086
X51.037 Y11.267
X51.15 Y11.264
X51.263 Y11.257
X51.376 Y11.249
X51.489 Y11.236
X51.586 Y11.224
X51.715 Y11.204
X51.828 Y11.182
X51.941 Y11.157
X52.054 Y11.128
X52.112 Y11.111
X52.167 Y11.093
X52.28 Y11.053
X52.393 Y11.012
X52.426 Y10.999
X52.506 Y10.961
X52.657 Y10.886
X52.732 Y10.845
X52.75 Y10.834 Z-0.087
X52.759 Y10.828 F88.
X52.762 Y10.827
X52.763 Y10.828
X52.764 Y10.83
X52.769 Y10.836 F350.
X52.805 Y10.886
X52.845 Y10.933
X52.876 Y10.966
X52.909 Y10.999
X52.958 Y11.041
X53.007 Y11.079
X53.055 Y11.111
X53.071 Y11.121
X53.128 Y11.153
X53.184 Y11.18
X53.241 Y11.203
X53.297 Y11.223
X53.303 Y11.224
X53.356 Y11.239
X53.41 Y11.25
X53.523 Y11.268
X56.235 Y11.666 Z-0.088
X56.319 Y11.676
X56.348 Y11.678
X56.404 Y11.679
X56.461 Y11.677
X56.479 Y11.676
X56.527 Y11.671
X56.574 Y11.664
X56.63 Y11.652
X56.687 Y11.637
X56.715 Y11.628
X56.729 Y11.623 F88.
X56.736 Y11.621
X56.738 Y11.622
X56.743 Y11.626 F350.
X56.8 Y11.664
X56.82 Y11.676
X56.866 Y11.702
X56.913 Y11.725
X56.969 Y11.749
X57.026 Y11.769
X57.098 Y11.789
X57.139 Y11.798
X57.252 Y11.815
X58.947 Y12.064 Z-0.089
X59.06 Y12.08
X59.116 Y12.085
X59.144 Y12.086
X59.151
X59.157
X59.159
X59.173 Y12.093
X59.217 Y12.111
X59.261 Y12.128
X59.286 Y12.136
X62.116 Y13.031 Z-0.09
X62.223 Y13.061
X62.336 Y13.089
X62.449 Y13.117
X62.562 Y13.142
X62.675 Y13.163
X62.788 Y13.184
X62.901 Y13.2
X63.014 Y13.213
X63.127 Y13.226
X63.24 Y13.232
X63.353 Y13.236
X63.466 Y13.238
X63.579 Y13.233
X63.692 Y13.228
X63.805 Y13.216
X63.918 Y13.199
X64.031 Y13.18 Z-0.091
X64.144 Y13.152
X64.257 Y13.12
X64.37 Y13.085
X64.483 Y13.037
X64.497 Y13.031
X64.596 Y12.988
X64.653 Y12.96
X64.709 Y12.928
X64.725 Y12.918
X64.822 Y12.855
X64.898 Y12.805
X64.935 Y12.78
X64.987 Y12.739
X65.04 Y12.692
X65.048 Y12.685
X65.161 Y12.582
X65.165 Y12.579
X65.221 Y12.523
X65.27 Y12.467
X65.361 Y12.354
X65.387 Y12.321
X65.401 Y12.304
X65.407 Y12.296 F88.
X65.41 Y12.293
X65.412 Y12.295
X65.417 Y12.354 F350.
X65.43 Y12.467
X65.451 Y12.579
X65.473 Y12.692
X65.495 Y12.805
X65.5 Y12.826
X65.527 Y12.918
X65.56 Y13.031
X65.594 Y13.144
X65.613 Y13.201
X65.636 Y13.257
X65.728 Y13.483 Z-0.092
X65.753 Y13.539
X65.781 Y13.596
X65.841 Y13.709
X65.901 Y13.822
X65.952 Y13.911
X65.968 Y13.935
X66.065 Y14.082
X66.117 Y14.16
X66.146 Y14.202
X66.178 Y14.243
X66.294 Y14.386
X66.387 Y14.499
X66.404 Y14.518
X66.496 Y14.612
X66.517 Y14.634
X66.607 Y14.725
X66.63 Y14.749
X66.731 Y14.838
X66.864 Y14.951
X66.969 Y15.037
X67.008 Y15.064
X67.195 Y15.195
X67.252 Y15.234
X67.308 Y15.269
X67.344 Y15.29
X67.543 Y15.403
X67.647 Y15.459 Z-0.093
X67.765 Y15.516
X67.873 Y15.567
X67.986 Y15.615
X68.016 Y15.628
X68.099 Y15.662
X68.212 Y15.705
X68.315 Y15.741
X68.438 Y15.781
X68.551 Y15.813
X68.664 Y15.842
X68.72 Y15.854
X68.777 Y15.866
X68.89 Y15.887
X69.003 Y15.905
X69.058 Y15.912
X69.09 Y15.915 F88.
X69.092 Y15.917
X69.094 Y15.921
X69.096 Y15.927 F350.
X69.102 Y15.939
X69.114 Y15.967
X69.116 Y15.972
X69.143 Y16.026
X69.175 Y16.08
X69.201 Y16.119
X69.229 Y16.158
X69.257 Y16.193
X69.297 Y16.238
X69.342 Y16.282
X69.368 Y16.306
X69.412 Y16.341
X69.455 Y16.373
X69.528 Y16.419
X69.568 Y16.44
X69.681 Y16.497
X69.752 Y16.532
X69.794 Y16.549
X69.85 Y16.569
X69.907 Y16.585
X69.963 Y16.598
X70.02 Y16.607
X70.076 Y16.613
X70.133 Y16.616
X70.189
X70.246 Y16.612 Z-0.094
X70.29 Y16.607
X70.301 Y16.605 F88.
X70.303
X70.304 Y16.607
X70.307 Y16.611
X70.312 Y16.617 F350.
X70.334 Y16.645
X70.359 Y16.673
X70.402 Y16.718
X70.444 Y16.758
X70.472 Y16.781
X70.585 Y16.866
X72.732 Y18.47 Z-0.095
X72.845 Y18.551
X72.867 Y18.565
X72.912 Y18.59
X72.935 Y18.602
X72.936 Y18.603
X72.938 Y18.604
X72.941 Y18.607
X72.946 Y18.613
X72.958 Y18.625
X73.014 Y18.677
X73.071 Y18.724
X75.331 Y20.41 Z-0.096
X75.384 Y20.449
X75.438 Y20.484
X75.444 Y20.488
X75.5 Y20.519
X75.557 Y20.545
X75.613 Y20.568
X75.67 Y20.587
X75.708 Y20.597
X75.783 Y20.613
X75.839 Y20.621
X75.896 Y20.626
X75.952 Y20.628
X76.009 Y20.627
X76.065 Y20.622
X76.122 Y20.614
X76.202 Y20.597
X76.235 Y20.588
X76.291 Y20.57
X76.348 Y20.548
X76.404 Y20.521
X76.461 Y20.491
X76.471 Y20.484
X76.523 Y20.451
X76.574 Y20.414
X76.624 Y20.371
X76.655 Y20.342
X76.687 Y20.31
X76.731 Y20.258
X76.8 Y20.166
X76.814 Y20.145
X76.891 Y20.033
X76.913 Y19.996
X76.951 Y19.92
X76.974 Y19.863
X76.994 Y19.807
X77.01 Y19.75
X77.022 Y19.694
X77.026 Y19.674
X77.032 Y19.628
X77.037 Y19.581 Z-0.097
X77.039 Y19.524
X77.038 Y19.468
X77.035 Y19.411
X77.027 Y19.355
X77.026 Y19.344
X77.016 Y19.293
X77.003 Y19.242
X76.986 Y19.186
X76.964 Y19.129
X76.94 Y19.075
X76.913 Y19.022
X76.909 Y19.016
X76.875 Y18.96
X76.835 Y18.903
X76.813 Y18.875
X76.801 Y18.861 F88.
Y18.859
X78.458 Y16.599 Z-0.098 F350.
X78.695 Y16.277 F88.
X78.697 Y16.275
X78.72 Y16.285 F350.
X78.779 Y16.306
X78.833 Y16.322
X78.89 Y16.335
X78.946 Y16.345
X79.003 Y16.351
X79.059 Y16.354
X79.116
X79.172 Y16.351
X79.229 Y16.345
X79.285 Y16.335
X79.341 Y16.322
X79.396 Y16.306
X79.398 Y16.305
X79.455 Y16.285
X79.511 Y16.261
X79.568 Y16.232
X79.624 Y16.199
X79.633 Y16.193
X79.685 Y16.157
X79.737 Y16.115
X79.776 Y16.08
X79.815 Y16.041
X79.85 Y16.002
X79.878 Y15.967
X79.961 Y15.854
X79.963 Y15.851
X80.003 Y15.796
X80.037 Y15.741
X80.076 Y15.668
X80.094 Y15.628
X80.116 Y15.572
X80.135 Y15.516 Z-0.099
X80.149 Y15.459
X80.161 Y15.403
X80.169 Y15.346
X80.173 Y15.29
X80.175 Y15.233
X80.173 Y15.177
X80.168 Y15.12
X80.16 Y15.064
X80.148 Y15.007
X80.133 Y14.951
X80.115 Y14.894
X80.092 Y14.838
X80.076 Y14.803
X80.057 Y14.764
X80.034 Y14.725
X80.028 Y14.714
X80.021 Y14.703
X80.015 Y14.693
X80.009 Y14.684
X80.004 Y14.677
X80. Y14.671
X79.996 Y14.666
X79.993 Y14.661
X79.99 Y14.657
X79.988 Y14.654
X79.986 Y14.651
X79.983 Y14.647 F88.
X79.979 Y14.642
X79.982 Y14.64
X80.055 Y14.703 F350.
X80.076 Y14.722
X80.754 Y15.329
X80.867 Y15.43
X80.958 Y15.516
X81.559 Y16.08 Z-0.1
X81.658 Y16.174
X82.365 Y16.871
X82.449 Y16.955
X83.023 Y17.548
X83.127 Y17.656
X83.132 Y17.661
X83.238 Y17.774
X83.805 Y18.389 Z-0.101
X83.863 Y18.452
X83.918 Y18.513
X84.559 Y19.242
X84.596 Y19.284
X84.656 Y19.355
X85.223 Y20.033
X85.274 Y20.093
X85.317 Y20.145
X85.858 Y20.823 Z-0.102
X85.948 Y20.936
X85.952 Y20.942
X86.034 Y21.049
X86.549 Y21.726
X86.63 Y21.834
X87.205 Y22.63 Z-0.103
X87.285 Y22.743
X87.76 Y23.434
X87.828 Y23.533
X87.873 Y23.6
X88.345 Y24.324
X88.419 Y24.437
X88.438 Y24.466
X88.49 Y24.55
X88.979 Y25.34 Z-0.104
X89.003 Y25.378
X89.047 Y25.453
X89.511 Y26.243
X89.568 Y26.342
X90.02 Y27.157
X90.077 Y27.26
X90.133 Y27.366
X90.55 Y28.163 Z-0.105
X90.585 Y28.23
X90.608 Y28.276
X91.037 Y29.146
X91.053 Y29.179
X91.106 Y29.292
X91.489 Y30.117 Z-0.106
X91.525 Y30.196
X91.574 Y30.309
X91.941 Y31.153
X91.966 Y31.212
X92.332 Y32.116
X92.377 Y32.228
X92.732 Y33.167 Z-0.107
X92.76 Y33.245
X92.8 Y33.358
X93.076 Y34.148
X93.116 Y34.261
X93.152 Y34.374
X93.444 Y35.277
X93.478 Y35.39
X93.748 Y36.306 Z-0.108
X93.777 Y36.407
X94.02 Y37.31
X94.05 Y37.423
X94.079 Y37.536
X94.298 Y38.439 Z-0.109
X94.313 Y38.505
X94.324 Y38.552
X94.544 Y39.569
X94.567 Y39.682
X94.739 Y40.585
X94.76 Y40.698
X94.765 Y40.727
X94.779 Y40.811
X94.928 Y41.714 Z-0.11
X94.946 Y41.827
X94.962 Y41.94
X95.088 Y42.843
X95.103 Y42.956
X95.219 Y43.973
X95.231 Y44.086 Z-0.111
X95.321 Y45.102
X95.33 Y45.211
X95.331 Y45.215
X95.395 Y46.231
X95.402 Y46.344
X95.406 Y46.457
X95.443 Y47.44 Z-0.112
X95.445 Y47.473
X95.447 Y47.586
X95.46 Y48.603
X95.459 Y48.716
X95.447 Y49.732
X95.445 Y49.845
X95.443 Y49.876 Z-0.113
X95.406 Y50.861
X95.402 Y50.974
X95.395 Y51.087
X95.338 Y51.99
X95.331 Y52.103
X95.321 Y52.216
X95.231 Y53.233 Z-0.114
X95.219 Y53.345
X95.104 Y54.35
X95.103 Y54.362
X95.088 Y54.475
X94.962 Y55.378
X94.946 Y55.491
X94.928 Y55.604
X94.779 Y56.507 Z-0.115
X94.765 Y56.589
X94.76 Y56.62
X94.738 Y56.733
X94.566 Y57.637
X94.544 Y57.75
X94.324 Y58.766 Z-0.116
X94.313 Y58.811
X94.297 Y58.879
X94.078 Y59.782
X94.05 Y59.895
X94.02 Y60.008
X93.777 Y60.911
X93.748 Y61.01
X93.477 Y61.928 Z-0.117
X93.443 Y62.041
X93.152 Y62.944
X93.115 Y63.057
X93.076 Y63.17
X92.799 Y63.96
X92.76 Y64.073
X92.732 Y64.149 Z-0.118
X92.393 Y65.047
X92.376 Y65.09
X92.331 Y65.203
X92.011 Y65.993
X91.965 Y66.106
X91.941 Y66.163
X91.573 Y67.009 Z-0.119
X91.524 Y67.122
X91.489 Y67.199
X91.106 Y68.026
X91.052 Y68.139
X91.037 Y68.171
X90.607 Y69.042
X90.585 Y69.087
X90.549 Y69.155
X90.133 Y69.951 Z-0.12
X90.076 Y70.058
X90.02 Y70.16
X89.568 Y70.975
X89.51 Y71.075
X89.046 Y71.865
X89.003 Y71.938 Z-0.121
X88.978 Y71.978
X88.489 Y72.769
X88.438 Y72.851
X88.418 Y72.882
X88.325 Y73.024
X87.873 Y73.717
X87.827 Y73.785
X87.749 Y73.898
X87.284 Y74.575 Z-0.122
X87.204 Y74.688
X86.63 Y75.483
X86.548 Y75.592
X86.033 Y76.269
X85.952 Y76.375
X85.946 Y76.382
X85.857 Y76.495
X85.316 Y77.173 Z-0.123
X85.274 Y77.224
X85.222 Y77.286
X84.655 Y77.963
X84.596 Y78.033
X84.558 Y78.076
X83.918 Y78.804
X83.862 Y78.867
X83.805 Y78.928 Z-0.124
X83.237 Y79.544
X83.131 Y79.657
X83.127 Y79.661
X83.014 Y79.778
X82.449 Y80.362
X82.364 Y80.448
X81.658 Y81.143 Z-0.125
X81.558 Y81.238
X80.957 Y81.803
X80.867 Y81.887
X80.835 Y81.916
X80.754 Y81.988
X80.076 Y82.596
X79.963 Y82.692
X79.285 Y83.271 Z-0.126
X79.172 Y83.364
X79.059 Y83.456
X78.455 Y83.948
X78.381 Y84.006
X77.703 Y84.531
X77.581 Y84.626
X77.477 Y84.703
X76.8 Y85.202 Z-0.127
X76.687 Y85.285
X75.896 Y85.838
X75.853 Y85.868
X75.783 Y85.916
X74.992 Y86.442 Z-0.128
X74.879 Y86.515
X74.088 Y87.014
X73.975 Y87.084
X73.175 Y87.562
X73.071 Y87.623
X72.28 Y88.07 Z-0.129
X72.179 Y88.126
X72.167 Y88.133
X72.054 Y88.194
X71.263 Y88.616
X71.15 Y88.674
X70.359 Y89.072
X70.246 Y89.128
X70.216 Y89.143
X69.342 Y89.555 Z-0.13
X69.258 Y89.594
X69.229 Y89.608
X68.325 Y90.007
X68.235 Y90.046
X67.415 Y90.385
X67.308 Y90.429
X67.195 Y90.474 Z-0.131
X66.404 Y90.778
X66.291 Y90.821
X66.25 Y90.837
X66.178 Y90.862
X65.274 Y91.184
X65.161 Y91.223
X64.257 Y91.52 Z-0.132
X64.144 Y91.556
X63.24 Y91.828
X63.155 Y91.853
X63.127 Y91.861
X62.223 Y92.109
X62.11 Y92.139
X61.997 Y92.168
X61.094 Y92.391 Z-0.133
X60.985 Y92.418
X60.077 Y92.618
X59.964 Y92.643
X59.959
X59.851 Y92.665
X58.947 Y92.841
X58.834 Y92.862 Z-0.134
X58.792 Y92.869
X57.817 Y93.033
X57.704 Y93.051
X56.687 Y93.195
X56.583 Y93.208
X55.607 Y93.321 Z-0.135
X55.557 Y93.327
X55.444 Y93.338
X54.54 Y93.419
X54.427 Y93.429
X54.367 Y93.434
X53.41 Y93.495
X53.297 Y93.503
X53.184 Y93.508
X52.167 Y93.547 Z-0.136
X52.054 Y93.549
X51.037 Y93.562
X50.924
X49.907 Y93.549 Z-0.137
X49.794 Y93.547
X48.777 Y93.508
X48.664 Y93.503
X48.551 Y93.495
X47.595 Y93.434
X47.534 Y93.429
X47.421 Y93.419
X46.517 Y93.338 Z-0.138
X46.404 Y93.327
X46.354 Y93.321
X45.379 Y93.208
X45.275 Y93.195
X44.258 Y93.051 Z-0.139
X44.145 Y93.033
X43.17 Y92.869
X43.128 Y92.862
X43.015 Y92.841
X42.111 Y92.665
X42.002 Y92.643
X41.998
X41.885 Y92.618
X40.977 Y92.418 Z-0.14
X40.868 Y92.391
X39.964 Y92.168
X39.851 Y92.14
X39.738 Y92.109
X38.834 Y91.861
X38.806 Y91.853
X38.721 Y91.828 Z-0.141
X37.817 Y91.556
X37.704 Y91.52
X36.8 Y91.223
X36.687 Y91.184
X35.783 Y90.862 Z-0.142
X35.711 Y90.837
X35.67 Y90.821
X35.557 Y90.778
X34.766 Y90.474
X34.653 Y90.429
X34.54 Y90.382
X33.727 Y90.046
X33.636 Y90.007
X32.732 Y89.608 Z-0.143
X32.703 Y89.594
X32.619 Y89.555
X31.745 Y89.143
X31.715 Y89.128
X31.602 Y89.072
X30.811 Y88.674
X30.698 Y88.616
X29.907 Y88.194 Z-0.144
X29.794 Y88.133
X29.782 Y88.126
X29.681 Y88.07
X28.891 Y87.623
X28.787 Y87.562
X27.987 Y87.084 Z-0.145
X27.874 Y87.014
X27.083 Y86.515
X26.97 Y86.442
X26.179 Y85.916
X26.108 Y85.868
X26.066 Y85.838
X25.275 Y85.285 Z-0.146
X25.162 Y85.202
X24.484 Y84.703
X24.38 Y84.626
X24.371 Y84.619
X24.258 Y84.531
X23.58 Y84.006
X23.507 Y83.948
X23.467 Y83.916
X22.789 Y83.364 Z-0.147
X22.676 Y83.271
X22.543 Y83.158
X21.998 Y82.692
X21.885 Y82.596
X21.207 Y81.988
X21.094 Y81.887 Z-0.148
X21.004 Y81.803
X20.403 Y81.238
X20.303 Y81.143
X19.597 Y80.448
X19.512 Y80.362
X18.939 Y79.77 Z-0.149
X18.834 Y79.661
X18.83 Y79.657
X18.725 Y79.544
X18.156 Y78.928
X18.1 Y78.867
X18.043 Y78.804
X17.403 Y78.076
X17.365 Y78.033
X17.307 Y77.963
X16.739 Y77.286 Z-0.15
X16.687 Y77.224
X16.646 Y77.173
X16.105 Y76.495
X16.015 Y76.382
X16.009 Y76.375
X15.928 Y76.269
X15.413 Y75.592
X15.331 Y75.483 Z-0.151
X14.757 Y74.688
X14.678 Y74.575
X14.201 Y73.883
X14.134 Y73.785
X14.088 Y73.717
X13.617 Y72.994 Z-0.152
X13.543 Y72.882
X13.524 Y72.851
X13.472 Y72.769
X12.983 Y71.978
X12.959 Y71.938
X12.915 Y71.865
X12.452 Y71.075
X12.394 Y70.975
X11.942 Y70.16 Z-0.153
X11.886 Y70.058
X11.829 Y69.951
X11.412 Y69.155
X11.377 Y69.087
X11.354 Y69.042
X10.925 Y68.171
X10.909 Y68.139
X10.856 Y68.026 Z-0.154
X10.473 Y67.199
X10.438 Y67.122
X10.388 Y67.009
X10.021 Y66.163
X9.996 Y66.106
X9.951 Y65.993
X9.63 Y65.203 Z-0.155
X9.585 Y65.09
X9.23 Y64.149
X9.202 Y64.073
X9.162 Y63.96
X8.886 Y63.17
X8.847 Y63.057
X8.81 Y62.944
X8.518 Y62.041 Z-0.156
X8.484 Y61.928
X8.213 Y61.01
X8.184 Y60.911
X7.942 Y60.008
X7.911 Y59.895
X7.883 Y59.782 Z-0.157
X7.664 Y58.879
X7.648 Y58.81
X7.638 Y58.766
X7.418 Y57.75
X7.395 Y57.637
X7.223 Y56.733 Z-0.158
X7.202 Y56.62
X7.196 Y56.589
X7.182 Y56.507
X7.034 Y55.604
X7.015 Y55.491
X6.999 Y55.378
X6.874 Y54.475
X6.858 Y54.362
X6.857 Y54.35
X6.743 Y53.345 Z-0.159
X6.73 Y53.233
X6.641 Y52.216
X6.631 Y52.103
X6.624 Y51.99
X6.567 Y51.087 Z-0.16
X6.56 Y50.974
X6.555 Y50.861
X6.518 Y49.876
X6.517 Y49.845
X6.515 Y49.732
X6.502 Y48.716
Y48.603
X6.515 Y47.586 Z-0.161
X6.517 Y47.473
X6.518 Y47.439
X6.555 Y46.457
X6.56 Y46.344
X6.567 Y46.231
X6.631 Y45.215
Y45.21
X6.64 Y45.102
X6.73 Y44.086
X6.743 Y43.973
X6.858 Y42.956
X6.873 Y42.843
X6.999 Y41.94
X7.015 Y41.827
X7.033 Y41.714
X7.182 Y40.811
X7.196 Y40.727
X7.201 Y40.698
X7.223 Y40.585
X7.395 Y39.682
X7.417 Y39.569
X7.637 Y38.552
X7.648 Y38.505
X7.664 Y38.439
X7.883 Y37.536
X7.911 Y37.423
X7.941 Y37.31
X8.184 Y36.407
X8.213 Y36.306
X8.483 Y35.39
X8.518 Y35.277
X8.809 Y34.374
X8.846 Y34.261
X8.885 Y34.148
X9.161 Y33.358
X9.201 Y33.245
X9.23 Y33.168
X9.584 Y32.228
X9.629 Y32.116
X9.95 Y31.325
X9.996 Y31.212
X10.021 Y31.153
X10.387 Y30.309
X10.437 Y30.196
X10.473 Y30.118
X10.855 Y29.292
X10.908 Y29.179
X10.925 Y29.146
X11.354 Y28.276
X11.377 Y28.23
X11.411 Y28.163
X11.829 Y27.366
X11.885 Y27.26
X11.942 Y27.157
X12.394 Y26.342
X12.451 Y26.243
X12.914 Y25.453
X12.959 Y25.378
X12.982 Y25.34
X13.472 Y24.55
X13.524 Y24.466
X13.543 Y24.437
X13.616 Y24.324
X14.088 Y23.6
X14.133 Y23.533
X14.211 Y23.42
X14.677 Y22.743
X14.756 Y22.63
X15.331 Y21.834
X15.412 Y21.726
X15.927 Y21.049
X16.009 Y20.942
X16.014 Y20.936
X16.104 Y20.823
X16.645 Y20.145
X16.687 Y20.093
X16.738 Y20.033
X17.306 Y19.355
X17.365 Y19.285
X17.402 Y19.242
X18.043 Y18.513
X18.099 Y18.452
X18.156 Y18.389
X18.724 Y17.774
X18.829 Y17.661
X18.834 Y17.656
X18.947 Y17.539
X19.512 Y16.955
X19.596 Y16.871
X20.303 Y16.174
X20.403 Y16.08
X21.003 Y15.516
X21.094 Y15.431
X21.125 Y15.403
X21.207 Y15.329
X21.469 Y15.095 F88.
X21.471 Y15.097
X21.47 Y15.101
X21.469 Y15.105 F350.
X21.468 Y15.108
X21.467 Y15.115
X21.465 Y15.124
X21.464 Y15.133
X21.461 Y15.152
X21.457 Y15.177
X21.451 Y15.233
X21.449 Y15.29
X21.45 Y15.346
X21.454 Y15.403
X21.461 Y15.459
X21.471 Y15.516
X21.485 Y15.572
X21.503 Y15.628
X21.522 Y15.682
X21.546 Y15.735
X21.549 Y15.741
X21.579 Y15.798
X21.613 Y15.854
X21.659 Y15.918
X21.696 Y15.967
X21.772 Y16.065
X21.785 Y16.08
X21.835 Y16.133
X21.885 Y16.18
X21.901 Y16.193
X21.949 Y16.231
X21.998 Y16.264
X22.069 Y16.306
X22.111 Y16.327
X22.167 Y16.351
X22.224 Y16.372
X22.28 Y16.389
X22.337 Y16.402
X22.393 Y16.412
X22.45 Y16.419
X22.451
X22.507 Y16.422
X22.563
X22.626 Y16.419
X22.676 Y16.413
X22.732 Y16.404
X22.789 Y16.391
X22.845 Y16.374
X22.902 Y16.354
X22.928 Y16.344
X22.941 Y16.338 F88.
X22.943 Y16.337
X22.944
X24.64 Y18.57 F350.
X24.882 Y18.889 F88.
X24.881 Y18.89
X24.88 Y18.892
X24.871 Y18.903 F350.
X24.823 Y18.969
X24.793 Y19.016
X24.762 Y19.073
X24.735 Y19.129
X24.71 Y19.194
X24.694 Y19.242
X24.679 Y19.299
X24.668 Y19.355
X24.66 Y19.411
X24.655 Y19.468
X24.653 Y19.524
X24.655 Y19.581
X24.66 Y19.637
X24.668 Y19.694
X24.679 Y19.75
X24.694 Y19.807
X24.71 Y19.857
X24.734 Y19.92
X24.761 Y19.976
X24.791 Y20.033
X24.823 Y20.083
X24.868 Y20.145
X24.936 Y20.233
X24.955 Y20.258
X24.999 Y20.31
X25.049 Y20.362
X25.059 Y20.371
X25.11 Y20.417
X25.162 Y20.456
X25.204 Y20.484
X25.275 Y20.526
X25.331 Y20.554
X25.388 Y20.577
X25.446 Y20.597
X25.501 Y20.612
X25.557 Y20.625
X25.614 Y20.634
X25.67 Y20.64
X25.727 Y20.642
X25.783 Y20.641
X25.84 Y20.638
X25.896 Y20.63
X25.953 Y20.62
X25.996 Y20.61
X26.04 Y20.597
X26.066 Y20.589
X26.122 Y20.568
X26.179 Y20.542
X26.231 Y20.515
X26.282 Y20.484
X26.292 Y20.478
X26.405 Y20.395
X28.331 Y18.903
X28.439 Y18.818
X28.552 Y18.726
X28.608 Y18.677
X28.665 Y18.626
X28.732 Y18.565
X28.778 Y18.522
X28.847 Y18.452
X28.891 Y18.406
X28.956 Y18.339
X29.004 Y18.284
X29.053 Y18.226
X29.117 Y18.151
X29.147 Y18.113
X29.23 Y18.
X29.309 Y17.887
X29.343 Y17.833
X29.379 Y17.774
X29.445 Y17.661
X29.456 Y17.64
X29.502 Y17.548
X29.555 Y17.435 F88.
X29.557 Y17.431
X29.559 Y17.43
X29.562 Y17.431
X29.569 Y17.434 F350.
X29.573 Y17.435
X29.627 Y17.455
X29.681 Y17.47
X29.738 Y17.483
X29.794 Y17.493
X29.851 Y17.499
X29.907 Y17.503
X29.964 Y17.502
X30.02 Y17.499
X30.077 Y17.493
X30.133 Y17.483
X30.19 Y17.47
X30.246 Y17.453
X30.296 Y17.435
X30.359 Y17.408
X30.416 Y17.379
X30.472 Y17.346
X32.845 Y15.906
X32.928 Y15.854
X32.958 Y15.833
X33.012 Y15.79
X33.066 Y15.741
X33.071 Y15.736
X33.121 Y15.682
X33.165 Y15.628 F88.
X33.167 Y15.627
X33.17 Y15.626
X33.175 Y15.625 F350.
X33.184 Y15.623
X33.241 Y15.607
X33.297 Y15.588
X33.41 Y15.539
X37.704 Y13.589
X37.817 Y13.537
X37.864 Y13.512
X37.912 Y13.483
X37.93 Y13.471
X37.986 Y13.43
X38.043 Y13.382
X38.047 Y13.379 F88.
X38.048 Y13.378
X38.05
X38.057 F350.
X38.071
X38.099
X38.156 Y13.376
X38.216 Y13.37
X38.269 Y13.362
X38.325 Y13.35
X38.382 Y13.334
X43.019 Y12.015
X43.074 Y11.998
X43.128 Y11.979
X43.184 Y11.954
X43.241 Y11.925
X43.281 Y11.902
X43.317 Y11.879
X43.354 Y11.853
X43.392 Y11.823
X43.431 Y11.789
X43.467 Y11.755
X43.504 Y11.716
X43.537 Y11.676
X43.58 Y11.62
X43.616 Y11.563
X43.647 Y11.507
X43.674 Y11.45
X43.679 Y11.439
X43.682 Y11.431 F88.
X43.685 Y11.425
X43.686 Y11.423
X43.693 Y11.427
X43.731 Y11.45 F350.
X43.806 Y11.49
X43.919 Y11.548
X43.953 Y11.563
X44.032 Y11.596
X44.145 Y11.641
X44.258 Y11.679
X44.371 Y11.712
X44.484 Y11.74
X44.597 Y11.762
X44.71 Y11.781
X44.775 Y11.789
X44.823 Y11.793
X44.936 Y11.802
X45.049 Y11.805
X45.162
X45.218 Y11.803
X45.275 Y11.799
X45.388 Y11.789
X45.501 Y11.775
X45.613 Y11.756
X45.726 Y11.734
X45.839 Y11.708
X45.944 Y11.676
X46.065 Y11.636
X46.178 Y11.597
X46.219 Y11.581
X46.259 Y11.563
X46.291 Y11.547
X46.49 Y11.449 F88.
X46.517 Y11.463 F350.
X46.574 Y11.488
X46.63 Y11.509
X46.687 Y11.526
X46.743 Y11.54
X46.8 Y11.55
X46.856 Y11.557
X46.913 Y11.561
X46.969
X47.026 Y11.559
X47.082 Y11.553
X47.195 Y11.537
X47.308 Y11.518
X47.365 Y11.504
X47.421 Y11.487
X47.467 Y11.47
X47.513 Y11.45
X47.534 Y11.44
X47.591 Y11.41
X47.647 Y11.375
X47.701 Y11.337
X47.76 Y11.289
X47.789 Y11.263
X47.803 Y11.249 F88.
X47.806 Y11.245
X47.808 Y11.243
X47.81
X47.817 Y11.245 F350.
X47.873 Y11.259
X47.93 Y11.27
X47.986 Y11.277
X48.043 Y11.281
X48.099 Y11.282
X48.212 Y11.281
X50.924 Y11.269
X51.037 Y11.267
X51.15 Y11.264
X51.263 Y11.257
X51.376 Y11.249
X51.489 Y11.236
X51.586 Y11.224
X51.715 Y11.204
X51.828 Y11.182
X51.941 Y11.157
X52.054 Y11.128
X52.112 Y11.111
X52.167 Y11.093
X52.28 Y11.053
X52.393 Y11.012
X52.426 Y10.999
X52.506 Y10.961
X52.657 Y10.886
X52.732 Y10.845
X52.75 Y10.834
X52.759 Y10.828 F88.
X52.762 Y10.827
X52.763 Y10.828
X52.764 Y10.83
X52.769 Y10.836 F350.
X52.805 Y10.886
X52.845 Y10.933
X52.876 Y10.966
X52.909 Y10.999
X52.958 Y11.041
X53.007 Y11.079
X53.055 Y11.111
X53.071 Y11.121
X53.128 Y11.153
X53.184 Y11.18
X53.241 Y11.203
X53.297 Y11.223
X53.303 Y11.224
X53.356 Y11.239
X53.41 Y11.25
X53.523 Y11.268
X56.235 Y11.666
X56.319 Y11.676
X56.348 Y11.678
X56.404 Y11.679
X56.461 Y11.677
X56.479 Y11.676
X56.527 Y11.671
X56.574 Y11.664
X56.63 Y11.652
X56.687 Y11.637
X56.715 Y11.628
X56.729 Y11.623 F88.
X56.736 Y11.621
X56.738 Y11.622
X56.743 Y11.626 F350.
X56.8 Y11.664
X56.82 Y11.676
X56.866 Y11.702
X56.913 Y11.725
X56.969 Y11.749
X57.026 Y11.769
X57.098 Y11.789
X57.139 Y11.798
X57.252 Y11.815
X58.947 Y12.064
X59.06 Y12.08
X59.116 Y12.085
X59.144 Y12.086
X59.151
X59.157
X59.159
X59.173 Y12.093
X59.217 Y12.111
X59.261 Y12.128
X59.286 Y12.136
X62.116 Y13.031
X62.223 Y13.061
X62.336 Y13.089
X62.449 Y13.117
X62.562 Y13.142
X62.675 Y13.163
X62.788 Y13.184
X62.901 Y13.2
X63.014 Y13.213
X63.127 Y13.226
X63.24 Y13.232
X63.353 Y13.236
X63.466 Y13.238
X63.579 Y13.233
X63.692 Y13.228
X63.805 Y13.216
X63.918 Y13.199
X64.031 Y13.18
X64.144 Y13.152
X64.257 Y13.12
X64.37 Y13.085
X64.483 Y13.037
X64.497 Y13.031
X64.596 Y12.988
X64.653 Y12.96
X64.709 Y12.928
X64.725 Y12.918
X64.822 Y12.855
X64.898 Y12.805
X64.935 Y12.78
X64.987 Y12.739
X65.04 Y12.692
X65.048 Y12.685
X65.161 Y12.582
X65.165 Y12.579
X65.221 Y12.523
X65.27 Y12.467
X65.361 Y12.354
X65.387 Y12.321
X65.401 Y12.304
X65.407 Y12.296 F88.
X65.41 Y12.293
X65.412 Y12.295
X65.417 Y12.354 F350.
X65.43 Y12.467
X65.451 Y12.579
X65.473 Y12.692
X65.495 Y12.805
X65.5 Y12.826
X65.527 Y12.918
X65.56 Y13.031
X65.594 Y13.144
X65.613 Y13.201
X65.636 Y13.257
X65.728 Y13.483
X65.753 Y13.539
X65.781 Y13.596
X65.841 Y13.709
X65.901 Y13.822
X65.952 Y13.911
X65.968 Y13.935
X66.065 Y14.082
X66.117 Y14.16
X66.146 Y14.202
X66.178 Y14.243
X66.294 Y14.386
X66.387 Y14.499
X66.404 Y14.518
X66.496 Y14.612
X66.517 Y14.634
X66.607 Y14.725
X66.63 Y14.749
X66.731 Y14.838
X66.864 Y14.951
X66.969 Y15.037
X67.008 Y15.064
X67.195 Y15.195
X67.252 Y15.234
X67.308 Y15.269
X67.344 Y15.29
X67.543 Y15.403
X67.647 Y15.459
X67.765 Y15.516
X67.873 Y15.567
X67.986 Y15.615
X68.016 Y15.628
X68.099 Y15.662
X68.212 Y15.705
X68.315 Y15.741
X68.438 Y15.781
X68.551 Y15.813
X68.664 Y15.842
X68.72 Y15.854
X68.777 Y15.866
X68.89 Y15.887
X69.003 Y15.905
X69.058 Y15.912
X69.09 Y15.915 F88.
X69.092 Y15.917
X69.094 Y15.921
X69.096 Y15.927 F350.
X69.102 Y15.939
X69.114 Y15.967
X69.116 Y15.972
X69.143 Y16.026
X69.175 Y16.08
X69.201 Y16.119
X69.229 Y16.158
X69.257 Y16.193
X69.297 Y16.238
X69.342 Y16.282
X69.368 Y16.306
X69.412 Y16.341
X69.455 Y16.373
X69.528 Y16.419
X69.568 Y16.44
X69.681 Y16.497
X69.752 Y16.532
X69.794 Y16.549
X69.85 Y16.569
X69.907 Y16.585
X69.963 Y16.598
X70.02 Y16.607
X70.076 Y16.613
X70.133 Y16.616
X70.189
X70.246 Y16.612
X70.29 Y16.607
X70.301 Y16.605 F88.
X70.303
X70.304 Y16.607
X70.307 Y16.611
X70.312 Y16.617 F350.
X70.334 Y16.645
X70.359 Y16.673
X70.402 Y16.718
X70.444 Y16.758
X70.472 Y16.781
X70.585 Y16.866
X72.732 Y18.47
X72.845 Y18.551
X72.867 Y18.565
X72.912 Y18.59
X72.935 Y18.602
X72.936 Y18.603
X72.938 Y18.604
X72.941 Y18.607
X72.946 Y18.613
X72.958 Y18.625
X73.014 Y18.677
X73.071 Y18.724
X75.331 Y20.41
X75.384 Y20.449
X75.438 Y20.484
X75.444 Y20.488
X75.5 Y20.519
X75.557 Y20.545
X75.613 Y20.568
X75.67 Y20.587
X75.708 Y20.597
X75.783 Y20.613
X75.839 Y20.621
X75.896 Y20.626
X75.952 Y20.628
X76.009 Y20.627
X76.065 Y20.622
X76.122 Y20.614
X76.202 Y20.597
X76.235 Y20.588
X76.291 Y20.57
X76.348 Y20.548
X76.404 Y20.521
X76.461 Y20.491
X76.471 Y20.484
X76.523 Y20.451
X76.574 Y20.414
X76.624 Y20.371
X76.655 Y20.342
X76.687 Y20.31
X76.731 Y20.258
X76.8 Y20.166
X76.814 Y20.145
X76.891 Y20.033
X76.913 Y19.996
X76.951 Y19.92
X76.974 Y19.863
X76.994 Y19.807
X77.01 Y19.75
X77.022 Y19.694
X77.026 Y19.674
X77.032 Y19.628
X77.037 Y19.581
X77.039 Y19.524
X77.038 Y19.468
X77.035 Y19.411
X77.027 Y19.355
X77.026 Y19.344
X77.016 Y19.293
X77.003 Y19.242
X76.986 Y19.186
X76.964 Y19.129
X76.94 Y19.075
X76.913 Y19.022
X76.909 Y19.016
X76.875 Y18.96
X76.835 Y18.903
X76.813 Y18.875
X76.801 Y18.861 F88.
Y18.859
X78.458 Y16.599 F350.
X78.695 Y16.277 F88.
X78.697 Y16.275
X78.72 Y16.285 F350.
X78.779 Y16.306
X78.833 Y16.322
X78.89 Y16.335
X78.946 Y16.345
X79.003 Y16.351
X79.059 Y16.354
X79.116
X79.172 Y16.351
X79.229 Y16.345
X79.285 Y16.335
X79.341 Y16.322
X79.396 Y16.306
X79.398 Y16.305
X79.455 Y16.285
X79.511 Y16.261
X79.568 Y16.232
X79.624 Y16.199
X79.633 Y16.193
X79.685 Y16.157
X79.737 Y16.115
X79.776 Y16.08
X79.815 Y16.041
X79.85 Y16.002
X79.878 Y15.967
X79.961 Y15.854
X79.963 Y15.851
X80.003 Y15.796
X80.037 Y15.741
X80.076 Y15.668
X80.094 Y15.628
X80.116 Y15.572
X80.135 Y15.516
X80.149 Y15.459
X80.161 Y15.403
X80.169 Y15.346
X80.173 Y15.29
X80.175 Y15.233
X80.173 Y15.177
X80.168 Y15.12
X80.16 Y15.064
X80.148 Y15.007
X80.133 Y14.951
X80.115 Y14.894
X80.092 Y14.838
X80.076 Y14.803
X80.057 Y14.764
X80.034 Y14.725
X80.028 Y14.714
X80.021 Y14.703
X80.015 Y14.693
X80.009 Y14.684
X80.004 Y14.677
X80. Y14.671
X79.996 Y14.666
X79.993 Y14.661
X79.99 Y14.657
X79.988 Y14.654
X79.986 Y14.651
X79.983 Y14.647 F88.
X79.979 Y14.642
X79.982 Y14.64
X80.055 Y14.703 F350.
X80.076 Y14.722
X80.754 Y15.329
X80.867 Y15.43
X80.958 Y15.516
X81.559 Y16.08
X81.658 Y16.174
X82.365 Y16.871
X82.449 Y16.955
X83.023 Y17.548
X83.127 Y17.656
X83.132 Y17.661
X83.238 Y17.774
X83.805 Y18.389
X83.863 Y18.452
X83.918 Y18.513
X84.559 Y19.242
X84.596 Y19.284
X84.656 Y19.355
X85.223 Y20.033
X85.274 Y20.093
X85.317 Y20.145
X85.858 Y20.823
X85.948 Y20.936
X85.952 Y20.942
X86.034 Y21.049
X86.549 Y21.726
X86.63 Y21.834
X87.205 Y22.63
X87.285 Y22.743
X87.76 Y23.434
X87.828 Y23.533
X87.873 Y23.6
X88.345 Y24.324
X88.419 Y24.437
X88.438 Y24.466
X88.49 Y24.55
X88.979 Y25.34
X89.003 Y25.378
X89.047 Y25.453
X89.511 Y26.243
X89.568 Y26.342
X90.02 Y27.157
X90.077 Y27.26
X90.133 Y27.366
X90.55 Y28.163
X90.585 Y28.23
X90.608 Y28.276
X91.037 Y29.146
X91.053 Y29.179
X91.106 Y29.292
X91.489 Y30.117
X91.525 Y30.196
X91.574 Y30.309
X91.941 Y31.153
X91.966 Y31.212
X92.332 Y32.116
X92.377 Y32.228
X92.732 Y33.167
X92.76 Y33.245
X92.8 Y33.358
X93.076 Y34.148
X93.116 Y34.261
X93.152 Y34.374
X93.444 Y35.277
X93.478 Y35.39
X93.748 Y36.306
X93.777 Y36.407
X94.02 Y37.31
X94.05 Y37.423
X94.079 Y37.536
X94.298 Y38.439
X94.313 Y38.505
X94.324 Y38.552
X94.544 Y39.569
X94.567 Y39.682
X94.739 Y40.585
X94.76 Y40.698
X94.765 Y40.727
X94.779 Y40.811
X94.928 Y41.714
X94.946 Y41.827
X94.962 Y41.94
X95.088 Y42.843
X95.103 Y42.956
X95.219 Y43.973
X95.231 Y44.086
X95.321 Y45.102
X95.33 Y45.211
X95.331 Y45.215
X95.395 Y46.231
X95.402 Y46.344
X95.406 Y46.457
X95.443 Y47.44
X95.445 Y47.473
X95.447 Y47.586
X95.46 Y48.603
X95.459 Y48.716
X95.447 Y49.732
X95.445 Y49.845
X95.443 Y49.876
X95.406 Y50.861
X95.402 Y50.974
X95.395 Y51.087
X95.338 Y51.99
X95.331 Y52.103
X95.321 Y52.216
X95.231 Y53.233
X95.219 Y53.345
X95.104 Y54.35
X95.103 Y54.362
X95.088 Y54.475
X94.962 Y55.378
X94.946 Y55.491
X94.928 Y55.604
X94.779 Y56.507
X94.765 Y56.589
X94.76 Y56.62
X94.738 Y56.733
X94.566 Y57.637
X94.544 Y57.75
X94.324 Y58.766
X94.313 Y58.811
X94.297 Y58.879
X94.078 Y59.782
X94.05 Y59.895
X94.02 Y60.008
X93.777 Y60.911
X93.748 Y61.01
X93.477 Y61.928
X93.443 Y62.041
X93.152 Y62.944
X93.115 Y63.057
X93.076 Y63.17
X92.799 Y63.96
X92.76 Y64.073
X92.732 Y64.149
X92.393 Y65.047
X92.376 Y65.09
X92.331 Y65.203
X92.011 Y65.993
X91.965 Y66.106
X91.941 Y66.163
X91.573 Y67.009
X91.524 Y67.122
X91.489 Y67.199
X91.106 Y68.026
X91.052 Y68.139
X91.037 Y68.171
X90.607 Y69.042
X90.585 Y69.087
X90.549 Y69.155
X90.133 Y69.951
X90.076 Y70.058
X90.02 Y70.16
X89.568 Y70.975
X89.51 Y71.075
X89.046 Y71.865
X89.003 Y71.938
X88.978 Y71.978
X88.489 Y72.769
X88.438 Y72.851
X88.418 Y72.882
X88.325 Y73.024
X87.873 Y73.717
X87.827 Y73.785
X87.749 Y73.898
X87.284 Y74.575
X87.204 Y74.688
X86.63 Y75.483
X86.548 Y75.592
X86.033 Y76.269
X85.952 Y76.375
X85.946 Y76.382
X85.857 Y76.495
X85.316 Y77.173
X85.274 Y77.224
X85.222 Y77.286
X84.655 Y77.963
X84.596 Y78.033
X84.558 Y78.076
X83.918 Y78.804
X83.862 Y78.867
X83.805 Y78.928
X83.237 Y79.544
X83.131 Y79.657
X83.127 Y79.661
X83.014 Y79.778
X82.449 Y80.362
X82.364 Y80.448
X81.658 Y81.143
X81.558 Y81.238
X80.957 Y81.803
X80.867 Y81.887
X80.835 Y81.916
X80.754 Y81.988
X80.076 Y82.596
X79.963 Y82.692
X79.285 Y83.271
X79.172 Y83.364
X79.059 Y83.456
X78.455 Y83.948
X78.381 Y84.006
X77.703 Y84.531
X77.581 Y84.626
X77.477 Y84.703
X76.8 Y85.202
X76.687 Y85.285
X75.896 Y85.838
X75.853 Y85.868
X75.783 Y85.916
X74.992 Y86.442
X74.879 Y86.515
X74.088 Y87.014
X73.975 Y87.084
X73.175 Y87.562
X73.071 Y87.623
X72.28 Y88.07
X72.179 Y88.126
X72.167 Y88.133
X72.054 Y88.194
X71.263 Y88.616
X71.15 Y88.674
X70.359 Y89.072
X70.246 Y89.128
X70.216 Y89.143
X69.342 Y89.555
X69.258 Y89.594
X69.229 Y89.608
X68.325 Y90.007
X68.235 Y90.046
X67.415 Y90.385
X67.308 Y90.429
X67.195 Y90.474
X66.404 Y90.778
X66.291 Y90.821
X66.25 Y90.837
X66.178 Y90.862
X65.274 Y91.184
X65.161 Y91.223
X64.257 Y91.52
X64.144 Y91.556
X63.24 Y91.828
X63.155 Y91.853
X63.127 Y91.861
X62.223 Y92.109
X62.11 Y92.139
X61.997 Y92.168
X61.094 Y92.391
X60.985 Y92.418
X60.077 Y92.618
X59.964 Y92.643
X59.959
X59.851 Y92.665
X58.947 Y92.841
X58.834 Y92.862
X58.792 Y92.869
X57.817 Y93.033
X57.704 Y93.051
X56.687 Y93.195
X56.583 Y93.208
X55.607 Y93.321
X55.557 Y93.327
X55.444 Y93.338
X54.54 Y93.419
X54.427 Y93.429
X54.367 Y93.434
X53.41 Y93.495
X53.297 Y93.503
X53.184 Y93.508
X52.167 Y93.547
X52.054 Y93.549
X51.037 Y93.562
X50.924
X49.907 Y93.549
X49.794 Y93.547
X48.777 Y93.508
X48.664 Y93.503
X48.551 Y93.495
X47.595 Y93.434
X47.534 Y93.429
X47.421 Y93.419
X46.517 Y93.338
X46.404 Y93.327
X46.354 Y93.321
X45.379 Y93.208
X45.275 Y93.195
X44.258 Y93.051
X44.145 Y93.033
X43.17 Y92.869
X43.128 Y92.862
X43.015 Y92.841
X42.111 Y92.665
X42.002 Y92.643
X41.998
X41.885 Y92.618
X40.977 Y92.418
X40.868 Y92.391
X39.964 Y92.168
X39.851 Y92.14
X39.738 Y92.109
X38.834 Y91.861
X38.806 Y91.853
X38.721 Y91.828
X37.817 Y91.556
X37.704 Y91.52
X36.8 Y91.223
X36.687 Y91.184
X35.783 Y90.862
X35.711 Y90.837
X35.67 Y90.821
X35.557 Y90.778
X34.766 Y90.474
X34.653 Y90.429
X34.54 Y90.382
X33.727 Y90.046
X33.636 Y90.007
X32.732 Y89.608
X32.703 Y89.594
X32.619 Y89.555
X31.745 Y89.143
X31.715 Y89.128
X31.602 Y89.072
X30.811 Y88.674
X30.698 Y88.616
X29.907 Y88.194
X29.794 Y88.133
X29.782 Y88.126
X29.681 Y88.07
X28.891 Y87.623
X28.787 Y87.562
X27.987 Y87.084
X27.874 Y87.014
X27.083 Y86.515
X26.97 Y86.442
X26.179 Y85.916
X26.108 Y85.868
X26.066 Y85.838
X25.275 Y85.285
X25.162 Y85.202
X24.484 Y84.703
X24.38 Y84.626
X24.371 Y84.619
X24.258 Y84.531
X23.58 Y84.006
X23.507 Y83.948
X23.467 Y83.916
X22.789 Y83.364
X22.676 Y83.271
X22.543 Y83.158
X21.998 Y82.692
X21.885 Y82.596
X21.207 Y81.988
X21.094 Y81.887
X21.004 Y81.803
X20.403 Y81.238
X20.303 Y81.143
X19.597 Y80.448
X19.512 Y80.362
X18.939 Y79.77
X18.834 Y79.661
X18.83 Y79.657
X18.725 Y79.544
X18.156 Y78.928
X18.1 Y78.867
X18.043 Y78.804
X17.403 Y78.076
X17.365 Y78.033
X17.307 Y77.963
X16.739 Y77.286
X16.687 Y77.224
X16.646 Y77.173
X16.105 Y76.495
X16.015 Y76.382
X16.009 Y76.375
X15.928 Y76.269
X15.413 Y75.592
X15.331 Y75.483
X14.757 Y74.688
X14.678 Y74.575
X14.201 Y73.883
X14.134 Y73.785
X14.088 Y73.717
X13.617 Y72.994
X13.543 Y72.882
X13.524 Y72.851
X13.472 Y72.769
X12.983 Y71.978
X12.959 Y71.938
X12.915 Y71.865
X12.452 Y71.075
X12.394 Y70.975
X11.942 Y70.16
X11.886 Y70.058
X11.829 Y69.951
X11.412 Y69.155
X11.377 Y69.087
X11.354 Y69.042
X10.925 Y68.171
X10.909 Y68.139
X10.856 Y68.026
X10.473 Y67.199
X10.438 Y67.122
X10.388 Y67.009
X10.021 Y66.163
X9.996 Y66.106
X9.951 Y65.993
X9.63 Y65.203
X9.585 Y65.09
X9.23 Y64.149
X9.202 Y64.073
X9.162 Y63.96
X8.886 Y63.17
X8.847 Y63.057
X8.81 Y62.944
X8.518 Y62.041
X8.484 Y61.928
X8.213 Y61.01
X8.184 Y60.911
X7.942 Y60.008
X7.911 Y59.895
X7.883 Y59.782
X7.664 Y58.879
X7.648 Y58.81
X7.638 Y58.766
X7.418 Y57.75
X7.395 Y57.637
X7.223 Y56.733
X7.202 Y56.62
X7.196 Y56.589
X7.182 Y56.507
X7.034 Y55.604
X7.015 Y55.491
X6.999 Y55.378
X6.874 Y54.475
X6.858 Y54.362
X6.857 Y54.35
X6.743 Y53.345
X6.73 Y53.233
X6.641 Y52.216
X6.631 Y52.103
X6.624 Y51.99
X6.567 Y51.087
X6.56 Y50.974
X6.555 Y50.861
X6.518 Y49.876
X6.517 Y49.845
X6.515 Y49.732
X6.502 Y48.716
Y48.603
X6.515 Y47.586
X6.517 Y47.473
X6.518 Y47.439
G3 X6.821 Y47.276 I0.2 J0.008
G0 Z5.
X7.658 Y47.078
Z1.904
G1 Z-0.061 F350.
G3 X8.024 Y47.135 I0.171 J0.104
G1 X8.051 Y47.248
X8.081 Y47.36
X8.1 Y47.416
X8.121 Y47.473
X8.163 Y47.586
X8.213 Y47.693
X8.243 Y47.756
X8.257 Y47.784 F88.
X8.258 Y47.786
Y47.787
X8.256 Y47.791
X8.25 Y47.798 F350.
X8.239 Y47.812
X8.1 Y47.992 Z-0.062
X8.064 Y48.038
X7.987 Y48.148
X7.907 Y48.264
X7.874 Y48.312
X7.834 Y48.377
X7.761 Y48.494
X7.696 Y48.603
X7.635 Y48.716
X7.574 Y48.828
X7.535 Y48.908
X7.465 Y49.054 Z-0.063
X7.422 Y49.153
X7.37 Y49.28
X7.325 Y49.393
X7.286 Y49.506
X7.246 Y49.619
X7.213 Y49.732
X7.18 Y49.845
X7.151 Y49.958
X7.124 Y50.071
X7.099 Y50.184 Z-0.064
X7.078 Y50.297
X7.058 Y50.409
X7.043 Y50.522
X7.017 Y50.748
X7.004 Y50.861
X6.995 Y50.974
X6.984 Y51.313
X6.981 Y51.426 Z-0.065
X6.983 Y51.539
X6.988 Y51.765
X6.993 Y51.877
X7.005 Y52.103
X7.013 Y52.216
X7.063 Y52.781 Z-0.066
X7.073 Y52.894
X7.092 Y53.12
X7.102 Y53.233
X7.111 Y53.345
X7.123 Y53.458
X7.134 Y53.515
X7.147 Y53.571
X7.165 Y53.628
X7.186 Y53.684
X7.196 Y53.707
X7.217 Y53.752
X7.241 Y53.797
X7.273 Y53.849 Z-0.067
X7.309 Y53.902
X7.315 Y53.91
X7.362 Y53.967
X7.416 Y54.023
X7.422 Y54.029
X7.478 Y54.079
X7.535 Y54.122
X7.555 Y54.136
X7.587 Y54.156
X7.617 Y54.174 F88.
X7.621 Y54.177
Y54.179
X7.62 Y54.183
X7.618 Y54.192 F350.
X7.608 Y54.249
X7.588 Y54.362
X7.569 Y54.475
X7.555 Y54.588
X7.541 Y54.701
X7.535 Y54.766
X7.531 Y54.814
X7.523 Y54.926 Z-0.068
X7.517 Y55.039
X7.514 Y55.152
X7.512 Y55.265
X7.514 Y55.378
X7.517 Y55.491
X7.521 Y55.604
X7.535 Y55.816
X7.536 Y55.83
X7.547 Y55.943
X7.574 Y56.169 Z-0.069
X7.602 Y56.394
X7.619 Y56.507
X7.678 Y56.846
X7.697 Y56.959
X7.72 Y57.072
X7.787 Y57.411 Z-0.07
X7.809 Y57.524
X7.831 Y57.637
X7.852 Y57.75
X7.874 Y57.862
X7.896 Y57.975
X7.91 Y58.032
X7.927 Y58.088
X7.949 Y58.145
X7.974 Y58.201
X7.987 Y58.227
X8.011 Y58.27
X8.038 Y58.314
X8.067 Y58.356
X8.1 Y58.398
X8.125 Y58.427
X8.169 Y58.474
X8.213 Y58.515 Z-0.071
X8.243 Y58.54
X8.284 Y58.572
X8.326 Y58.601
X8.371 Y58.628
X8.416 Y58.653 F88.
X8.417 Y58.654
X8.419 Y58.655
X8.416 Y58.681 F350.
X8.413 Y58.709
X8.409 Y58.766
X8.403 Y58.879
X8.393 Y59.105
X8.391 Y59.218
X8.395 Y59.331
X8.399 Y59.443
X8.403 Y59.556
X8.412 Y59.669 Z-0.072
X8.435 Y59.895
X8.439 Y59.933
X8.449 Y60.008
X8.467 Y60.121
X8.485 Y60.234
X8.504 Y60.347
X8.528 Y60.46
X8.552 Y60.576
X8.575 Y60.686
X8.605 Y60.799
X8.724 Y61.25 Z-0.073
X8.756 Y61.363
X8.929 Y61.928
X8.963 Y62.041 Z-0.074
X8.997 Y62.154
X9.031 Y62.267
X9.065 Y62.38
X9.082 Y62.436
X9.103 Y62.492
X9.117 Y62.527
X9.135 Y62.566
X9.156 Y62.605
X9.189 Y62.662
X9.228 Y62.718
X9.23 Y62.721
X9.274 Y62.776
X9.325 Y62.831
X9.343 Y62.849
X9.399 Y62.899
X9.456 Y62.942
X9.459 Y62.944
X9.514 Y62.98
X9.569 Y63.011
X9.615 Y63.034 Z-0.075
X9.639 Y63.044
X9.65 Y63.049
X9.656 Y63.051 F88.
X9.66 Y63.053
X9.662 Y63.054
Y63.057
X9.666 Y63.17 F350.
X9.677 Y63.396
X9.682 Y63.497
X9.683 Y63.509
X9.696 Y63.622
X9.726 Y63.848
X9.742 Y63.96
X9.765 Y64.073
X9.812 Y64.299 Z-0.076
X9.837 Y64.412
X9.869 Y64.525
X9.932 Y64.751
X9.967 Y64.864
X10.005 Y64.977
X10.043 Y65.09
X10.082 Y65.203
X10.125 Y65.316
X10.212 Y65.541 Z-0.077
X10.247 Y65.627
X10.497 Y66.219
X10.544 Y66.332
X10.59 Y66.445
X10.637 Y66.558 Z-0.078
X10.699 Y66.706
X10.734 Y66.784
X10.764 Y66.84
X10.8 Y66.897
X10.812 Y66.914
X10.848 Y66.962
X10.889 Y67.009
X10.925 Y67.047
X10.968 Y67.087
X11.01 Y67.122
X11.038 Y67.143
X11.094 Y67.181
X11.151 Y67.214
X11.191 Y67.235
X11.264 Y67.267
X11.32 Y67.287
X11.346 Y67.295
X11.359 Y67.299
X11.365 Y67.3 F88.
X11.369 Y67.302
X11.37 Y67.303
X11.371 Y67.308
X11.372 Y67.318 F350.
X11.376 Y67.348
X11.391 Y67.461 Z-0.079
X11.407 Y67.574
X11.428 Y67.687
X11.449 Y67.8
X11.475 Y67.913
X11.533 Y68.139
X11.563 Y68.252
X11.595 Y68.365
X11.603 Y68.386
X11.716 Y68.708 Z-0.08
X11.755 Y68.816
X11.804 Y68.929
X11.901 Y69.155
X11.942 Y69.249
X11.951 Y69.268
X12.118 Y69.607
X12.168 Y69.703
X12.507 Y70.322 Z-0.081
X12.547 Y70.397
X12.672 Y70.623
X12.734 Y70.736
X12.796 Y70.849
X12.819 Y70.889 Z-0.082
X12.846 Y70.929
X12.869 Y70.962
X12.911 Y71.013
X12.959 Y71.064
X12.969 Y71.075
X13.02 Y71.121
X13.072 Y71.162
X13.108 Y71.188
X13.146 Y71.212
X13.185 Y71.235
X13.241 Y71.264
X13.298 Y71.288
X13.331 Y71.301
X13.411 Y71.326
X13.467 Y71.339
X13.524 Y71.349
X13.58 Y71.355
X13.637 Y71.359
X13.693
X13.75 Y71.356
X13.806 Y71.349
X13.862 Y71.34 Z-0.083
X13.919 Y71.327
X13.975 Y71.31
X14.004 Y71.301
X14.046 Y71.284
X14.088 Y71.266
X14.145 Y71.238
X14.201 Y71.205
X14.227 Y71.188
X14.271 Y71.156
X14.314 Y71.122
X14.366 Y71.075
X14.398 Y71.042
X14.427 Y71.009
X14.465 Y70.962
X14.503 Y70.909
X14.522 Y70.879 F88.
X14.525 Y70.874
X14.526
X14.54 Y70.896 F350.
X14.581 Y70.962
X14.653 Y71.067
X14.766 Y71.216 Z-0.084
X14.831 Y71.301
X14.879 Y71.36
X14.928 Y71.414
X15.03 Y71.526
X15.105 Y71.61
X15.134 Y71.639
X15.218 Y71.72
X15.331 Y71.826
X15.373 Y71.865
X15.444 Y71.928
X15.644 Y72.091 Z-0.085
X15.67 Y72.113
X15.783 Y72.199
X15.949 Y72.317
X16.009 Y72.36
X16.114 Y72.43
X16.348 Y72.578
X16.461 Y72.646
X16.687 Y72.774 Z-0.086
X16.8 Y72.838
X16.886 Y72.882
X17.139 Y73.011
X17.252 Y73.066
X17.309 Y73.087
X17.365 Y73.105
X17.374 Y73.107
X17.426 Y73.12
X17.478 Y73.13
X17.535 Y73.137
X17.591 Y73.142
X17.648 Y73.143
X17.704 Y73.141
X17.761 Y73.135
X17.817 Y73.126
X17.901 Y73.107 Z-0.087
X17.93 Y73.099
X17.987 Y73.08
X18.043 Y73.057
X18.1 Y73.03
X18.156 Y72.998
X18.162 Y72.994
X18.215 Y72.959
X18.269 Y72.918
X18.311 Y72.882
X18.349 Y72.846
X18.382 Y72.81
X18.417 Y72.769
X18.459 Y72.713
X18.495 Y72.657
X18.496 Y72.656
X18.527 Y72.599
X18.554 Y72.543
X18.577 Y72.486
X18.595 Y72.43
X18.608 Y72.383
X18.622 Y72.317
X18.631 Y72.26 Z-0.088
X18.636 Y72.204
X18.638 Y72.148
X18.637 Y72.091
X18.627 Y71.752
X18.622 Y71.639
X18.608 Y71.409
X18.601 Y71.301
X18.591 Y71.188
X18.568 Y70.962 Z-0.089
X18.556 Y70.849
X18.539 Y70.736
X18.504 Y70.51
X18.495 Y70.455
X18.485 Y70.397
X18.46 Y70.284
X18.436 Y70.171
X18.411 Y70.058
X18.382 Y69.946
X18.317 Y69.72 Z-0.09
X18.284 Y69.607
X18.269 Y69.566
X18.201 Y69.381
X18.159 Y69.268
X18.156 Y69.26
X18.112 Y69.155
X18.008 Y68.929
X17.992 Y68.895
X17.977 Y68.863
X17.973 Y68.856
X17.971 Y68.852 F88.
X17.969 Y68.848
X17.971 Y68.846
X18.043 Y68.86 F350.
X18.156 Y68.881 Z-0.091
X18.213 Y68.887
X18.269 Y68.891
X18.326
X18.382 Y68.888
X18.439 Y68.881
X18.495 Y68.872
X18.552 Y68.859
X18.608 Y68.842
X18.678 Y68.816
X18.721 Y68.798
X18.778 Y68.769
X18.834 Y68.736
X18.882 Y68.703
X18.947 Y68.652
X18.98 Y68.623
X19.014 Y68.59
X19.06 Y68.539
X19.109 Y68.477
X19.143 Y68.427
X19.173 Y68.376
X19.18 Y68.365
X19.208 Y68.308 Z-0.092
X19.231 Y68.252
X19.251 Y68.195
X19.268 Y68.139
X19.278 Y68.094
X19.286 Y68.049
X19.29 Y68.026
X19.296 Y67.969
X19.298 Y67.913
Y67.856
X19.294 Y67.8
X19.286 Y67.734
X19.278 Y67.687
X19.264 Y67.631
X19.247 Y67.574
X19.226 Y67.518
X19.201 Y67.461
X19.173 Y67.404
X19.145 Y67.348
X18.918 Y66.897 Z-0.093
X18.861 Y66.784
X18.834 Y66.733
X18.721 Y66.524
X18.679 Y66.445
X18.615 Y66.332
X18.484 Y66.106
X18.416 Y65.993 Z-0.094
X18.269 Y65.761
X18.199 Y65.654
X18.041 Y65.428
X17.961 Y65.316
X17.93 Y65.276
X17.784 Y65.09
X17.704 Y64.988 Z-0.095
X17.695 Y64.977
X17.596 Y64.864
X17.44 Y64.69 F88.
Y64.688
X17.441 Y64.685
X17.455 Y64.638 F350.
X17.468 Y64.586
X17.478 Y64.534
X17.48 Y64.525
X17.487 Y64.469
X17.491 Y64.412
Y64.356
X17.489 Y64.299
X17.484 Y64.255
X17.478 Y64.212
X17.474 Y64.186
X17.461 Y64.13
X17.445 Y64.073
X17.405 Y63.96 Z-0.096
X17.191 Y63.396
X17.147 Y63.283
X17.054 Y63.057
X17.026 Y62.99
X17.007 Y62.944
X16.957 Y62.831
X16.907 Y62.718 Z-0.097
X16.856 Y62.605
X16.803 Y62.492
X16.687 Y62.259
X16.634 Y62.154
X16.574 Y62.046
X16.461 Y61.842
X16.446 Y61.815
X16.378 Y61.702 Z-0.098
X16.235 Y61.476
X16.161 Y61.363
X16.122 Y61.309
X15.981 Y61.113 F88.
Y61.112
X15.983 Y61.109
X15.985 Y61.103 F350.
X15.99 Y61.092
X16.009 Y61.047
X16.018 Y61.024
X16.036 Y60.968
X16.051 Y60.911
X16.063 Y60.855
X16.071 Y60.799
X16.076 Y60.742
X16.077 Y60.686
X16.076 Y60.629
X16.071 Y60.573 Z-0.099
X16.063 Y60.516
X16.052 Y60.46
X16.023 Y60.347
X15.874 Y59.782
X15.843 Y59.669
X15.777 Y59.443
X15.744 Y59.331 Z-0.1
X15.707 Y59.218
X15.633 Y58.992
X15.595 Y58.879
X15.511 Y58.653
X15.469 Y58.54
X15.444 Y58.477
X15.423 Y58.427
X15.327 Y58.201 Z-0.101
X15.278 Y58.088
X15.223 Y57.975
X15.167 Y57.862
X15.112 Y57.75
X15.105 Y57.737
X15.052 Y57.637
X14.899 Y57.37 F88.
X14.9 Y57.368
X14.908 Y57.354 F350.
X14.937 Y57.298
X14.963 Y57.241
X14.984 Y57.185
X14.992 Y57.157
X15.004 Y57.115 Z-0.102
X15.015 Y57.072
X15.025 Y57.016
X15.032 Y56.959
X15.036 Y56.903
Y56.846
X15.034 Y56.79
X15.028 Y56.733
X15.011 Y56.62
X14.923 Y56.056
X14.905 Y55.943
X14.863 Y55.717 Z-0.103
X14.842 Y55.604
X14.819 Y55.491
X14.766 Y55.246
X14.746 Y55.152
X14.717 Y55.039
X14.659 Y54.814
X14.653 Y54.791
X14.628 Y54.701
X14.54 Y54.414 Z-0.104
X14.524 Y54.362
X14.486 Y54.249
X14.403 Y54.023
X14.36 Y53.91
X14.314 Y53.802
X14.201 Y53.546
X14.182 Y53.502 Z-0.105
X14.178 Y53.494 F88.
X14.177 Y53.493
X14.178 Y53.491
X14.185 Y53.48 F350.
X14.198 Y53.458
X14.201 Y53.453
X14.23 Y53.399
X14.255 Y53.345
X14.277 Y53.289
X14.295 Y53.233
X14.314 Y53.156
X14.321 Y53.12
X14.329 Y53.063
X14.334 Y53.007
X14.335 Y52.95
X14.333 Y52.894
X14.306 Y52.329 Z-0.106
X14.3 Y52.216
X14.262 Y51.765
X14.253 Y51.652
X14.243 Y51.539
X14.229 Y51.426
X14.215 Y51.313
X14.201 Y51.207
Y51.2
X14.183 Y51.087 Z-0.107
X14.165 Y50.974
X14.146 Y50.861
X14.126 Y50.748
X14.079 Y50.522
X14.055 Y50.409
X14.026 Y50.297
X13.997 Y50.184
X13.975 Y50.1
X13.968 Y50.071
X13.934 Y49.958
X13.862 Y49.732 Z-0.108
X13.823 Y49.619
X13.737 Y49.393
X13.693 Y49.28
X13.641 Y49.167
X13.589 Y49.054
X13.537 Y48.941
X13.524 Y48.913
X13.479 Y48.828
X13.354 Y48.603 Z-0.109
X13.298 Y48.504
X13.289 Y48.49
X13.215 Y48.377
X13.141 Y48.264
X13.072 Y48.159
X13.066 Y48.151
X12.98 Y48.038
X12.846 Y47.863
X12.806 Y47.812
X12.733 Y47.728
X12.586 Y47.567 Z-0.11 F88.
X12.585 Y47.565
X12.623 Y47.473 F350.
X12.665 Y47.36
X12.697 Y47.248
X12.727 Y47.135
X12.733 Y47.11
X12.748 Y47.022
X12.765 Y46.909
X12.775 Y46.796
X12.781 Y46.683
X12.782 Y46.626
X12.779 Y46.57
X12.768 Y46.457 Z-0.111
X12.756 Y46.344
X12.749 Y46.288
X12.739 Y46.231
X12.733 Y46.201
X12.712 Y46.118
X12.698 Y46.062
X12.691 Y46.034
X12.687 Y46.019 F88.
X12.686 Y46.016
Y46.014
X12.846 Y45.874 F350.
X12.949 Y45.78
X12.959 Y45.769
X13.058 Y45.667
X13.185 Y45.536 Z-0.112
X13.272 Y45.441
X13.298 Y45.411
X13.459 Y45.215
X13.524 Y45.135
X13.548 Y45.102
X13.628 Y44.989
X13.75 Y44.816
X13.785 Y44.763
X13.854 Y44.65
X13.975 Y44.448 Z-0.113
X13.989 Y44.424
X14.049 Y44.311
X14.165 Y44.086
X14.201 Y44.009
X14.218 Y43.973
X14.316 Y43.747
X14.363 Y43.634
X14.406 Y43.521
X14.448 Y43.408 Z-0.114
X14.489 Y43.295
X14.526 Y43.182
X14.597 Y42.956
X14.63 Y42.843
X14.691 Y42.618
X14.719 Y42.505
X14.766 Y42.302
X14.772 Y42.279
X14.797 Y42.166 Z-0.115
X14.819 Y42.053
X14.904 Y41.601
X14.924 Y41.488
X14.942 Y41.375
X15.011 Y40.924 Z-0.116
X15.028 Y40.811
X15.033 Y40.754
X15.034 Y40.698
X15.033 Y40.641
X15.029 Y40.585
X15.021 Y40.528
X15.01 Y40.472
X14.992 Y40.407
X14.977 Y40.359
X14.955 Y40.303
X14.929 Y40.246
X14.898 Y40.19 F88.
X14.895 Y40.184
X14.896 Y40.183
X14.992 Y40.014 F350.
X15.053 Y39.907
X15.105 Y39.809 Z-0.117
X15.112 Y39.794
X15.223 Y39.569
X15.278 Y39.456
X15.327 Y39.343
X15.423 Y39.117
X15.444 Y39.066
X15.468 Y39.004
X15.51 Y38.891
X15.557 Y38.764
X15.594 Y38.665 Z-0.118
X15.632 Y38.552
X15.706 Y38.326
X15.742 Y38.214
X15.775 Y38.101
X15.842 Y37.875
X15.873 Y37.762
X16.022 Y37.197 Z-0.119
X16.05 Y37.084
X16.06 Y37.028
X16.068 Y36.971
X16.072 Y36.915
Y36.858
X16.07 Y36.802
X16.064 Y36.745
X16.055 Y36.689
X16.043 Y36.633
X16.028 Y36.578
X16.009 Y36.524
X16.008 Y36.52
X15.991 Y36.478
X15.989 Y36.473 F88.
X15.987 Y36.469
Y36.468
X16.122 Y36.28 Z-0.12 F350.
X16.193 Y36.181
X16.235 Y36.118
X16.267 Y36.068
X16.409 Y35.842
X16.461 Y35.756
X16.476 Y35.729
X16.539 Y35.616
X16.602 Y35.503
X16.664 Y35.39
X16.687 Y35.344
X16.72 Y35.277 Z-0.121
X16.832 Y35.052
X16.885 Y34.939
X16.986 Y34.713
X17.026 Y34.622
X17.035 Y34.6
X17.082 Y34.487
X17.175 Y34.261
X17.219 Y34.148 Z-0.122
X17.39 Y33.697
X17.432 Y33.584
X17.472 Y33.471
X17.478 Y33.449
X17.49 Y33.403
X17.499 Y33.358
X17.507 Y33.301
X17.512 Y33.245
X17.514 Y33.188
X17.512 Y33.132
X17.508 Y33.075
X17.5 Y33.019
X17.49 Y32.97
X17.478 Y32.921 Z-0.123
X17.474 Y32.906
X17.465 Y32.876
X17.462 Y32.868 F88.
Y32.866
X17.461 Y32.864
X17.626 Y32.68 F350.
X17.704 Y32.591
X17.724 Y32.567
X17.813 Y32.454
X17.93 Y32.305
X17.989 Y32.228
X18.043 Y32.152
X18.156 Y31.991
X18.227 Y31.89 Z-0.124
X18.269 Y31.825
X18.3 Y31.777
X18.442 Y31.551
X18.495 Y31.463
X18.51 Y31.438
X18.641 Y31.212
X18.704 Y31.099
X18.721 Y31.068
X18.834 Y30.858 Z-0.125
X18.886 Y30.76
X18.943 Y30.648
X19.173 Y30.19
X19.226 Y30.083
X19.25 Y30.026
X19.27 Y29.97
X19.286 Y29.912
X19.299 Y29.857
X19.308 Y29.801
X19.314 Y29.744 Z-0.126
X19.317 Y29.688
X19.316 Y29.631
X19.313 Y29.575
X19.306 Y29.518
X19.301 Y29.49
X19.3 Y29.483 F88.
X19.299 Y29.479
X19.301 Y29.478
X19.512 Y29.283 F350.
X19.62 Y29.179
X19.625 Y29.174
X19.738 Y29.056
X19.851 Y28.938
X19.939 Y28.841
X19.964 Y28.812 Z-0.127
X20.132 Y28.615
X20.19 Y28.547
X20.225 Y28.502
X20.416 Y28.257
X20.486 Y28.163
X20.529 Y28.103
X20.648 Y27.937
X20.728 Y27.824 Z-0.128
X20.755 Y27.784
X20.88 Y27.599
X20.955 Y27.486
X20.981 Y27.445
X21.244 Y27.034
X21.316 Y26.921
X21.32 Y26.914
X21.353 Y26.861
X21.382 Y26.808
X21.408 Y26.752 Z-0.129
X21.43 Y26.695
X21.433 Y26.687
X21.45 Y26.635
X21.463 Y26.582
X21.475 Y26.526
X21.483 Y26.469
X21.487 Y26.413
X21.489 Y26.356
X21.487 Y26.3
X21.483 Y26.243
X21.474 Y26.187
X21.463 Y26.131
X21.449 Y26.079
X21.433 Y26.027
X21.43 Y26.018
X21.407 Y25.961
X21.381 Y25.905
X21.352 Y25.853
X21.32 Y25.801
X21.314 Y25.792
X21.272 Y25.735
X21.224 Y25.679
X21.207 Y25.661
X21.154 Y25.61 Z-0.13
X21.1 Y25.566
X21.094 Y25.561
X21.038 Y25.521
X20.981 Y25.487
X20.916 Y25.453
X20.868 Y25.432
X20.812 Y25.411
X20.755 Y25.393
X20.699 Y25.379
X20.642 Y25.369
X20.586 Y25.362
X20.529 Y25.358
X20.473 Y25.357
X20.416 Y25.36
X20.303 Y25.37
X20.252 Y25.374 F88.
X20.25 Y25.373
X20.253 Y25.369
X20.256 Y25.364 F350.
X20.261 Y25.356
X20.271 Y25.34
X20.303 Y25.286
X20.416 Y25.095 Z-0.131
X20.47 Y25.001
X20.527 Y24.888
X20.637 Y24.662
X20.642 Y24.653
X20.686 Y24.55
X20.777 Y24.324
X20.819 Y24.211
X20.856 Y24.098
X20.893 Y23.985 Z-0.132
X20.93 Y23.872
X20.962 Y23.759
X21.021 Y23.533
X21.05 Y23.42
X21.121 Y23.082
X21.142 Y22.969
X21.18 Y22.743 Z-0.133
X21.199 Y22.63
X21.207 Y22.573
X21.244 Y22.291
X21.259 Y22.178
X21.264 Y22.122
X21.266 Y22.065
X21.264 Y22.009
X21.26 Y21.952
X21.252 Y21.896
X21.24 Y21.839
X21.226 Y21.783
X21.207 Y21.726
X21.185 Y21.67
X21.159 Y21.614 Z-0.134
X21.129 Y21.558
X21.094 Y21.503
X21.092 Y21.501
X21.051 Y21.444
X21.003 Y21.388
X20.981 Y21.364
X20.931 Y21.317
X20.881 Y21.275
X20.868 Y21.265
X20.812 Y21.225
X20.755 Y21.191
X20.698 Y21.162
X20.642 Y21.137
X20.586 Y21.116
X20.529 Y21.099
X20.473 Y21.085
X20.416 Y21.075
X20.36 Y21.068
X20.303 Y21.064
X20.247
X20.19 Y21.066
X20.134 Y21.072 Z-0.135
X20.077 Y21.081
X20.021 Y21.094
X19.964 Y21.11
X19.851 Y21.152
X19.532 Y21.275
X19.512 Y21.283
X19.399 Y21.331
X19.173 Y21.43
X19.06 Y21.482
X19.024 Y21.501
X18.797 Y21.614 Z-0.136
X18.721 Y21.652
X18.608 Y21.716
X18.495 Y21.781
X18.393 Y21.839
X18.382 Y21.846
X18.269 Y21.92
X18.156 Y21.994
X18.05 Y22.065
X18.043 Y22.07
X17.93 Y22.156 Z-0.137
X17.817 Y22.243
X17.755 Y22.291
X17.704 Y22.334
X17.627 Y22.404
X17.478 Y22.538
X17.387 Y22.63
X17.252 Y22.774
X17.178 Y22.856
X17.139 Y22.904
X17.111 Y22.939
X17.092 Y22.964 F88.
X17.09 Y22.965
X17.083 Y22.951 F350.
X17.057 Y22.903 Z-0.138
X17.027 Y22.856
X17.026 Y22.855
X16.986 Y22.799
X16.939 Y22.743
X16.913 Y22.715
X16.867 Y22.67
X16.82 Y22.63
X16.8 Y22.614
X16.744 Y22.574
X16.687 Y22.54
X16.645 Y22.517
X16.574 Y22.485
X16.518 Y22.464
X16.461 Y22.446
X16.405 Y22.432
X16.348 Y22.422
X16.292 Y22.415
X16.235 Y22.411
X16.179 Y22.41
X16.122 Y22.413
X16.066 Y22.418
X16.009 Y22.427
X15.953 Y22.44 Z-0.139
X15.896 Y22.455
X15.84 Y22.475
X15.783 Y22.498
X15.744 Y22.517
X15.67 Y22.558
X15.62 Y22.592
X15.569 Y22.63
X15.557 Y22.639
X15.503 Y22.687
X15.45 Y22.743
X15.444 Y22.749
X15.4 Y22.802
X15.362 Y22.856
X15.284 Y22.969
X15.218 Y23.063
X15.105 Y23.226 Z-0.14
X15.048 Y23.307
X14.879 Y23.548
X14.811 Y23.646
X14.766 Y23.712
X14.584 Y23.985
X14.54 Y24.05
X14.511 Y24.098
X14.314 Y24.42 Z-0.141
X14.304 Y24.437
X14.24 Y24.55
X14.088 Y24.838
X14.062 Y24.888
X14.006 Y25.001
X13.955 Y25.114
X13.905 Y25.227
X13.862 Y25.333
X13.815 Y25.453 Z-0.142
X13.775 Y25.566
X13.737 Y25.679
X13.7 Y25.792
X13.669 Y25.905
X13.637 Y26.018
Y26.021
X13.61 Y26.131
X13.595 Y26.202 F88.
X13.594 Y26.204
X13.589
X13.583 Y26.205 F350.
X13.567 Y26.207
X13.524 Y26.213
X13.467 Y26.225
X13.411 Y26.24
X13.399 Y26.243
X13.348 Y26.261
X13.298 Y26.281
X13.241 Y26.308 Z-0.143
X13.185 Y26.339
X13.157 Y26.356
X13.114 Y26.385
X13.072 Y26.418
X13.012 Y26.469
X12.959 Y26.523
X12.909 Y26.582
X12.875 Y26.628
X12.846 Y26.673
X12.832 Y26.695
X12.77 Y26.808
X12.708 Y26.921
X12.62 Y27.083
X12.585 Y27.147
X12.507 Y27.289 Z-0.144
X12.214 Y27.824
X12.168 Y27.909
X12.154 Y27.937
X12.043 Y28.163
X11.987 Y28.276
X11.942 Y28.375 Z-0.145
X11.887 Y28.502
X11.79 Y28.728
X11.748 Y28.841
X11.629 Y29.179
X11.603 Y29.266
X11.596 Y29.292
X11.566 Y29.405
X11.507 Y29.631 Z-0.146
X11.49 Y29.701
X11.48 Y29.744
X11.459 Y29.857
X11.438 Y29.97
X11.422 Y30.083
X11.403 Y30.228
X11.401 Y30.244
X11.4 Y30.25 F88.
Y30.252
X11.398 Y30.254
X11.394 Y30.255
X11.389 Y30.256 F350.
X11.377 Y30.26
X11.32 Y30.278
X11.264 Y30.3
X11.245 Y30.309
X11.198 Y30.332
X11.151 Y30.357
X11.103 Y30.388
X11.054 Y30.422
X11.038 Y30.435
X10.983 Y30.481
X10.929 Y30.535 Z-0.147
X10.925 Y30.539
X10.878 Y30.593
X10.837 Y30.648
X10.812 Y30.685
X10.769 Y30.76
X10.718 Y30.873
X10.671 Y30.986
X10.624 Y31.099
X10.529 Y31.325
X10.291 Y31.89 Z-0.148
X10.247 Y31.996
X10.244 Y32.003
X10.134 Y32.292
X10.115 Y32.341
X10.076 Y32.454
X10. Y32.68
X9.964 Y32.793 Z-0.149
X9.901 Y33.019
X9.87 Y33.132
X9.844 Y33.245
X9.795 Y33.48
X9.774 Y33.584
X9.757 Y33.697
X9.728 Y33.922
X9.713 Y34.035 Z-0.15
X9.707 Y34.148
X9.697 Y34.374
X9.692 Y34.487
X9.691 Y34.494 F88.
Y34.497
X9.689 Y34.499
X9.687 Y34.5
X9.682 Y34.502 F350.
X9.625 Y34.526
X9.569 Y34.554
X9.53 Y34.576
X9.492 Y34.6
X9.456 Y34.625
X9.403 Y34.666
X9.351 Y34.713
X9.343 Y34.721
X9.293 Y34.773
X9.25 Y34.826
X9.23 Y34.853
X9.201 Y34.896
X9.175 Y34.939
X9.145 Y34.995 Z-0.151
X9.12 Y35.052
X9.117 Y35.059
X9.097 Y35.112
X9.081 Y35.165
X9.047 Y35.277
X9.013 Y35.39
X8.945 Y35.616
X8.91 Y35.729
X8.771 Y36.181 Z-0.152
X8.739 Y36.294
X8.619 Y36.745
X8.59 Y36.858
X8.565 Y36.971
X8.541 Y37.084
X8.518 Y37.197
X8.498 Y37.31
X8.462 Y37.536 Z-0.153
X8.447 Y37.649
X8.424 Y37.875
X8.414 Y37.988
X8.409 Y38.101
X8.405 Y38.214
X8.402 Y38.326
Y38.439
X8.408 Y38.552
X8.418 Y38.778 Z-0.154
X8.428 Y38.891
X8.435 Y38.951 F88.
X8.433 Y38.953
X8.428 Y38.955
X8.423 Y38.958 F350.
X8.411 Y38.964
X8.388 Y38.977
X8.341 Y39.004
X8.326 Y39.014
X8.269 Y39.053
X8.213 Y39.099
X8.193 Y39.117
X8.143 Y39.166
X8.1 Y39.216
X8.088 Y39.23
X8.047 Y39.286
X8.011 Y39.343
X7.987 Y39.385
X7.953 Y39.456
X7.931 Y39.512
X7.912 Y39.569
X7.898 Y39.625 Z-0.155
X7.886 Y39.682
X7.864 Y39.794
X7.842 Y39.907
X7.798 Y40.133
X7.776 Y40.246
X7.709 Y40.585
X7.688 Y40.698
X7.63 Y41.037 Z-0.156
X7.61 Y41.15
X7.595 Y41.262
X7.554 Y41.601
X7.54 Y41.714
X7.535 Y41.774
X7.524 Y41.94
X7.517 Y42.053 Z-0.157
X7.514 Y42.166
X7.511 Y42.279
Y42.392
X7.52 Y42.618
X7.524 Y42.731
X7.534 Y42.843
X7.56 Y43.069
X7.574 Y43.182
X7.596 Y43.295 Z-0.158
X7.641 Y43.521
X7.648 Y43.554
X7.666 Y43.634
X7.698 Y43.747
X7.765 Y43.973
X7.801 Y44.086
X7.844 Y44.199
X7.933 Y44.424
X7.981 Y44.537 Z-0.159
X7.987 Y44.549
X8.034 Y44.65
X8.09 Y44.763
X8.149 Y44.876
X8.21 Y44.989
X8.275 Y45.102
X8.326 Y45.188
X8.392 Y45.293 F88.
X8.393 Y45.294
X8.389 Y45.3
X8.37 Y45.328 F350.
X8.326 Y45.398
X8.302 Y45.441
X8.238 Y45.554
X8.213 Y45.604 Z-0.16
X8.185 Y45.667
X8.137 Y45.78
X8.117 Y45.831
X8.1 Y45.883
X8.097 Y45.892
X8.063 Y46.005
X8.033 Y46.118
X8.013 Y46.231
X7.994 Y46.344
X7.987 Y46.405
X7.984 Y46.457
X7.977 Y46.57
X7.975 Y46.626
Y46.683
X7.981 Y46.796 Z-0.161
X7.987 Y46.894
X7.988 Y46.909
X8.005 Y47.022
X8.024 Y47.135
G3 X7.759 Y47.355 I-0.197 J0.032
G0 Z5.
X7.697 Y47.024
Z1.911
G1 Z-0.161 F350.
G3 X8.024 Y47.135 I0.131 J0.151
G1 X8.025 Y47.141
X8.026 Y47.147
X8.029 Y47.159
X8.035 Y47.183
X8.047 Y47.232
X8.072 Y47.328
X8.137 Y47.517
X8.174 Y47.61
X8.216 Y47.7
X8.238 Y47.745
X8.249 Y47.767
X8.254 Y47.778
X8.257 Y47.784 F88.
X8.258 Y47.788
X8.256 Y47.791
X8.195 Y47.869 F350.
X8.073 Y48.027 Z-0.162
X7.958 Y48.19
X7.847 Y48.356
X7.742 Y48.526
X7.644 Y48.7
X7.55 Y48.876
X7.464 Y49.056 Z-0.163
X7.386 Y49.24
X7.314 Y49.426
X7.248 Y49.615
X7.191 Y49.806
X7.141 Y50.
X7.097 Y50.194 Z-0.164
X7.061 Y50.391
X7.036 Y50.589
X7.013 Y50.787
X6.995 Y50.986
X6.988 Y51.186
X6.981 Y51.386 Z-0.165
X6.984 Y51.585
X6.988 Y51.785
X6.999 Y51.984
X7.01 Y52.184
X7.028 Y52.383
X7.063 Y52.781 Z-0.166
X7.08 Y52.98
X7.097 Y53.179
X7.114 Y53.378
X7.119 Y53.427
X7.126 Y53.477
X7.136 Y53.526
X7.148 Y53.574
X7.163 Y53.622
X7.18 Y53.669
X7.199 Y53.715
X7.221 Y53.76
X7.245 Y53.804
X7.271 Y53.846 Z-0.167
X7.299 Y53.888
X7.329 Y53.927
X7.361 Y53.966
X7.395 Y54.002
X7.431 Y54.037
X7.468 Y54.07
X7.506 Y54.1
X7.544 Y54.129
X7.585 Y54.155
X7.606 Y54.168
X7.612 Y54.171
X7.619 Y54.175 F88.
X7.621 Y54.178
Y54.182
X7.619 Y54.189 F350.
X7.584 Y54.386
X7.556 Y54.583
X7.534 Y54.782
X7.52 Y54.981 Z-0.168
X7.514 Y55.181
Y55.381
X7.519 Y55.58
X7.532 Y55.779
X7.551 Y55.978
X7.599 Y56.375 Z-0.169
X7.63 Y56.572
X7.664 Y56.769
X7.698 Y56.966
X7.737 Y57.162
X7.776 Y57.358 Z-0.17
X7.815 Y57.554
X7.852 Y57.75
X7.89 Y57.946
X7.9 Y57.995
X7.913 Y58.043
X7.928 Y58.091
X7.946 Y58.137
X7.965 Y58.183
X7.988 Y58.228
X8.012 Y58.272
X8.038 Y58.314
X8.067 Y58.355
X8.097 Y58.395
X8.13 Y58.432
X8.164 Y58.469
X8.2 Y58.503 Z-0.171
X8.238 Y58.536
X8.277 Y58.567
X8.318 Y58.595
X8.358 Y58.621
X8.398 Y58.644
X8.411 Y58.65
X8.414 Y58.652 F88.
X8.418 Y58.654
Y58.658
Y58.662
X8.415 Y58.689 F350.
X8.411 Y58.737
X8.401 Y58.937
X8.392 Y59.136
X8.395 Y59.336
X8.402 Y59.535
X8.419 Y59.734 Z-0.172
X8.439 Y59.933
X8.469 Y60.131
X8.5 Y60.328
X8.541 Y60.523
X8.584 Y60.718
X8.635 Y60.911 Z-0.173
X8.737 Y61.298
X8.794 Y61.489
X8.911 Y61.871
X8.969 Y62.062 Z-0.174
X9.027 Y62.253
X9.085 Y62.444
X9.102 Y62.491
X9.122 Y62.537
X9.143 Y62.582
X9.167 Y62.626
X9.193 Y62.669
X9.221 Y62.71
X9.252 Y62.75
X9.284 Y62.788
X9.318 Y62.824
X9.354 Y62.859
X9.391 Y62.892
X9.43 Y62.923
X9.471 Y62.952
X9.513 Y62.979
X9.556 Y63.004
X9.601 Y63.027
X9.647 Y63.047 Z-0.175
X9.654 Y63.05
X9.661 Y63.053 F88.
X9.662 Y63.057
Y63.061
Y63.068 F350.
X9.663 Y63.095
X9.667 Y63.187
X9.676 Y63.386
X9.692 Y63.585
X9.718 Y63.783
X9.745 Y63.981
X9.786 Y64.177
X9.828 Y64.372 Z-0.176
X9.88 Y64.565
X9.934 Y64.757
X9.995 Y64.947
X10.059 Y65.136
X10.128 Y65.324
X10.2 Y65.51 Z-0.177
X10.275 Y65.695
X10.509 Y66.247
X10.585 Y66.432
X10.661 Y66.616 Z-0.178
X10.7 Y66.708
X10.742 Y66.799
X10.766 Y66.843
X10.792 Y66.885
X10.821 Y66.926
X10.851 Y66.966
X10.884 Y67.004
X10.918 Y67.04
X10.954 Y67.074
X10.992 Y67.107
X11.031 Y67.138
X11.072 Y67.167
X11.114 Y67.194
X11.157 Y67.218
X11.202 Y67.24
X11.248 Y67.261
X11.294 Y67.278
X11.342 Y67.294
X11.356 Y67.298
X11.363 Y67.3 F88.
X11.37 Y67.302
X11.371 Y67.305
Y67.309
X11.372 Y67.316 F350.
X11.374 Y67.331
X11.393 Y67.471 Z-0.179
X11.424 Y67.668
X11.462 Y67.864
X11.512 Y68.058
X11.563 Y68.251
X11.622 Y68.441
X11.688 Y68.63
X11.756 Y68.818 Z-0.18
X11.835 Y69.001
X11.913 Y69.185
X11.999 Y69.365
X12.087 Y69.545
X12.178 Y69.722
X12.466 Y70.248 Z-0.181
X12.562 Y70.423
X12.658 Y70.598
X12.754 Y70.773
X12.802 Y70.861 Z-0.182
X12.828 Y70.903
X12.857 Y70.944
X12.887 Y70.984
X12.919 Y71.022
X12.953 Y71.059
X12.989 Y71.094
X13.026 Y71.127
X13.066 Y71.158
X13.106 Y71.187
X13.148 Y71.214
X13.192 Y71.239
X13.236 Y71.261
X13.282 Y71.282
X13.328 Y71.3
X13.376 Y71.316
X13.424 Y71.329
X13.472 Y71.34
X13.522 Y71.348
X13.571 Y71.354
X13.621 Y71.358
X13.671 Y71.359
X13.721 Y71.358
X13.771 Y71.354
X13.82 Y71.347
X13.869 Y71.338 Z-0.183
X13.918 Y71.327
X13.966 Y71.313
X14.013 Y71.297
X14.06 Y71.279
X14.105 Y71.258
X14.149 Y71.235
X14.192 Y71.21
X14.234 Y71.183
X14.275 Y71.154
X14.314 Y71.122
X14.351 Y71.089
X14.387 Y71.054
X14.42 Y71.017
X14.474 Y70.95
X14.499 Y70.914
X14.513 Y70.893
X14.518 Y70.884
X14.522 Y70.878 F88.
X14.524 Y70.875
X14.527
X14.537 Y70.891 F350.
X14.59 Y70.976
X14.647 Y71.058
X14.768 Y71.218 Z-0.184
X14.892 Y71.374
X15.026 Y71.522
X15.163 Y71.667
X15.308 Y71.804
X15.456 Y71.938
X15.611 Y72.064
X15.768 Y72.188 Z-0.185
X15.931 Y72.304
X16.095 Y72.418
X16.263 Y72.525
X16.433 Y72.63
X16.607 Y72.729
X16.781 Y72.827 Z-0.186
X16.958 Y72.918
X17.136 Y73.009
X17.225 Y73.054
X17.271 Y73.073
X17.318 Y73.09
X17.366 Y73.105
X17.414 Y73.118
X17.463 Y73.127
X17.513 Y73.135
X17.562 Y73.14
X17.612 Y73.142
X17.662
X17.712 Y73.14
X17.762 Y73.135
X17.811 Y73.128
X17.86 Y73.118 Z-0.187
X17.908 Y73.105
X17.956 Y73.091
X18.003 Y73.074
X18.049 Y73.054
X18.094 Y73.032
X18.138 Y73.009
X18.181 Y72.982
X18.222 Y72.954
X18.262 Y72.924
X18.3 Y72.892
X18.336 Y72.858
X18.371 Y72.822
X18.404 Y72.785
X18.435 Y72.746
X18.464 Y72.705
X18.491 Y72.663
X18.516 Y72.62
X18.539 Y72.575
X18.56 Y72.53
X18.578 Y72.483
X18.594 Y72.436
X18.607 Y72.388
X18.618 Y72.339
X18.627 Y72.29
X18.633 Y72.24 Z-0.188
X18.636 Y72.191
X18.638 Y72.141
X18.635 Y72.041
X18.63 Y71.841
X18.623 Y71.642
X18.61 Y71.442
X18.597 Y71.243
X18.577 Y71.044 Z-0.189
X18.555 Y70.846
X18.526 Y70.648
X18.495 Y70.451
X18.454 Y70.255
X18.412 Y70.06
X18.36 Y69.867
X18.305 Y69.675 Z-0.19
X18.24 Y69.486
X18.171 Y69.299
X18.093 Y69.115
X18.01 Y68.934
X17.991 Y68.893
X17.981 Y68.872
X17.975 Y68.859
X17.971 Y68.852 F88.
X17.97 Y68.849
X17.968 Y68.845
X17.983 Y68.848 F350.
X18.071 Y68.866
X18.169 Y68.883 Z-0.191
X18.219 Y68.888
X18.269 Y68.891
X18.319
X18.369 Y68.889
X18.418 Y68.884
X18.468 Y68.877
X18.517 Y68.867
X18.565 Y68.855
X18.613 Y68.84
X18.66 Y68.824
X18.706 Y68.804
X18.751 Y68.783
X18.795 Y68.759
X18.838 Y68.733
X18.879 Y68.705
X18.919 Y68.675
X18.958 Y68.643
X18.994 Y68.61
X19.029 Y68.574
X19.062 Y68.537
X19.094 Y68.498
X19.123 Y68.457
X19.15 Y68.415
X19.175 Y68.372
X19.198 Y68.328 Z-0.192
X19.219 Y68.282
X19.237 Y68.236
X19.253 Y68.189
X19.267 Y68.141
X19.278 Y68.092
X19.287 Y68.043
X19.293 Y67.993
X19.297 Y67.944
X19.299 Y67.894
X19.298 Y67.844
X19.294 Y67.794
X19.288 Y67.744
X19.279 Y67.695
X19.268 Y67.646
X19.255 Y67.598
X19.239 Y67.551
X19.221 Y67.504
X19.134 Y67.325
X18.954 Y66.968 Z-0.193
X18.864 Y66.79
X18.77 Y66.614
X18.675 Y66.438
X18.576 Y66.264
X18.476 Y66.092
X18.371 Y65.922 Z-0.194
X18.264 Y65.753
X18.153 Y65.587
X18.038 Y65.423
X17.92 Y65.262
X17.797 Y65.105
X17.672 Y64.95 Z-0.195
X17.539 Y64.8
X17.442 Y64.691 F88.
X17.44 Y64.688
X17.441 Y64.685
X17.443 Y64.678 F350.
X17.447 Y64.666
X17.455 Y64.64
X17.467 Y64.592
X17.477 Y64.543
X17.484 Y64.493
X17.489 Y64.444
X17.491 Y64.394
Y64.344
X17.488 Y64.294
X17.483 Y64.244
X17.475 Y64.195
X17.465 Y64.146
X17.453 Y64.098
X17.438 Y64.05
X17.368 Y63.863 Z-0.196
X17.227 Y63.489
X17.155 Y63.303
X17.079 Y63.118
X17.003 Y62.934
X16.921 Y62.751 Z-0.197
X16.84 Y62.569
X16.752 Y62.39
X16.663 Y62.211
X16.568 Y62.035
X16.472 Y61.86
X16.369 Y61.689 Z-0.198
X16.263 Y61.519
X16.154 Y61.352
X15.982 Y61.114 F88.
Y61.111
X15.983 Y61.108
X16.003 Y61.062 F350.
X16.021 Y61.016
X16.036 Y60.969
X16.049 Y60.921
X16.06 Y60.872
X16.068 Y60.822
X16.074 Y60.773
X16.077 Y60.723
Y60.673
X16.076 Y60.623
X16.071 Y60.573 Z-0.199
X16.065 Y60.524
X16.055 Y60.475
X16.044 Y60.426
X15.993 Y60.233
X15.892 Y59.847
X15.839 Y59.654
X15.782 Y59.463
X15.725 Y59.271 Z-0.2
X15.663 Y59.081
X15.6 Y58.892
X15.531 Y58.705
X15.461 Y58.517
X15.383 Y58.333
X15.305 Y58.15 Z-0.201
X15.22 Y57.969
X15.132 Y57.79
X15.038 Y57.613
X14.9 Y57.371 F88.
X14.901 Y57.367
X14.904 Y57.361 F350.
X14.911 Y57.349
X14.933 Y57.307
X14.953 Y57.263
X14.972 Y57.217
X14.988 Y57.17
X15.003 Y57.122 Z-0.202
X15.014 Y57.074
X15.023 Y57.024
X15.03 Y56.975
X15.034 Y56.925
X15.036 Y56.875
Y56.825
X15.032 Y56.776
X15.019 Y56.677
X14.989 Y56.479
X14.928 Y56.084
X14.895 Y55.887 Z-0.203
X14.859 Y55.691
X14.82 Y55.495
X14.778 Y55.3
X14.734 Y55.105
X14.684 Y54.912
X14.634 Y54.718
X14.575 Y54.527 Z-0.204
X14.516 Y54.337
X14.449 Y54.149
X14.38 Y53.961
X14.304 Y53.777
X14.223 Y53.594
X14.183 Y53.505 Z-0.205
X14.179 Y53.495 F88.
X14.178 Y53.492
X14.182 Y53.486
X14.185 Y53.48 F350.
X14.198 Y53.459
X14.222 Y53.416
X14.244 Y53.371
X14.264 Y53.325
X14.281 Y53.278
X14.296 Y53.231
X14.309 Y53.182
X14.319 Y53.133
X14.327 Y53.084
X14.332 Y53.034
X14.335 Y52.984
Y52.935
X14.331 Y52.835
X14.311 Y52.436
X14.301 Y52.236 Z-0.206
X14.285 Y52.037
X14.269 Y51.838
X14.252 Y51.639
X14.231 Y51.441
X14.206 Y51.242
X14.176 Y51.045 Z-0.207
X14.144 Y50.848
X14.106 Y50.652
X14.065 Y50.456
X14.017 Y50.262
X13.967 Y50.069
X13.909 Y49.878 Z-0.208
X13.848 Y49.688
X13.778 Y49.501
X13.706 Y49.314
X13.625 Y49.132
X13.541 Y48.951
X13.449 Y48.774
X13.352 Y48.599 Z-0.209
X13.249 Y48.428
X13.14 Y48.261
X13.026 Y48.097
X12.904 Y47.938
X12.78 Y47.782
X12.647 Y47.633 Z-0.21
X12.588 Y47.568 F88.
X12.585 Y47.565
X12.59 Y47.555 F350.
X12.626 Y47.465
X12.662 Y47.372
X12.689 Y47.276
X12.715 Y47.179
X12.738 Y47.082
X12.754 Y46.983
X12.768 Y46.884
X12.781 Y46.685
X12.782 Y46.635
X12.78 Y46.585
X12.771 Y46.486 Z-0.211
X12.749 Y46.287
X12.741 Y46.238
X12.73 Y46.189
X12.706 Y46.092
X12.694 Y46.045
X12.687 Y46.019 F88.
X12.686 Y46.015
X12.689 Y46.012
X12.705 Y45.998 F350.
X12.776 Y45.935
X12.925 Y45.803
X13.065 Y45.66
X13.204 Y45.517 Z-0.212
X13.335 Y45.366
X13.462 Y45.212
X13.583 Y45.054
X13.698 Y44.89
X13.81 Y44.724
X13.913 Y44.553
X14.013 Y44.381 Z-0.213
X14.105 Y44.203
X14.194 Y44.025
X14.275 Y43.842
X14.354 Y43.659
X14.424 Y43.472
X14.493 Y43.284 Z-0.214
X14.554 Y43.094
X14.613 Y42.903
X14.666 Y42.71
X14.716 Y42.517
X14.762 Y42.323
X14.805 Y42.128 Z-0.215
X14.842 Y41.932
X14.879 Y41.735
X14.916 Y41.539
X14.947 Y41.342
X15.022 Y40.848 Z-0.216
X15.029 Y40.799
X15.033 Y40.749
X15.034 Y40.699
X15.033 Y40.649
X15.03 Y40.599
X15.024 Y40.55
X15.016 Y40.5
X15.005 Y40.452
X14.991 Y40.403
X14.976 Y40.356
X14.958 Y40.31
X14.938 Y40.266
X14.916 Y40.222
X14.904 Y40.2
X14.898 Y40.189 F88.
X14.896 Y40.186
Y40.182
X14.9 Y40.176 F350.
X14.999 Y40.002
X15.096 Y39.828 Z-0.217
X15.184 Y39.649
X15.272 Y39.469
X15.351 Y39.286
X15.429 Y39.102
X15.501 Y38.916
X15.571 Y38.729
X15.636 Y38.54 Z-0.218
X15.698 Y38.35
X15.758 Y38.159
X15.814 Y37.968
X15.869 Y37.776
X15.92 Y37.583
X15.971 Y37.389 Z-0.219
X16.022 Y37.196
X16.047 Y37.1
X16.057 Y37.051
X16.064 Y37.001
X16.069 Y36.952
X16.072 Y36.902
Y36.852
X16.07 Y36.802
X16.065 Y36.752
X16.058 Y36.703
X16.048 Y36.654
X16.036 Y36.605
X16.022 Y36.561
X16.007 Y36.517
X15.997 Y36.492
X15.992 Y36.48
X15.989 Y36.474 F88.
X15.988 Y36.471
X15.987 Y36.467
X15.991 Y36.462 F350.
X16.135 Y36.262 Z-0.22
X16.248 Y36.098
X16.355 Y35.929
X16.46 Y35.759
X16.557 Y35.584
X16.653 Y35.41
X16.743 Y35.231 Z-0.221
X16.832 Y35.052
X16.915 Y34.871
X16.997 Y34.688
X17.075 Y34.505
X17.151 Y34.32
X17.224 Y34.134 Z-0.222
X17.366 Y33.76
X17.436 Y33.574
X17.469 Y33.479
X17.483 Y33.431
X17.494 Y33.383
X17.503 Y33.333
X17.509 Y33.284
X17.512 Y33.234
X17.514 Y33.184
X17.512 Y33.134
X17.509 Y33.084
X17.502 Y33.035
X17.494 Y32.986
X17.483 Y32.94 Z-0.223
X17.47 Y32.894
X17.466 Y32.881
X17.464 Y32.875
X17.462 Y32.868 F88.
Y32.864
X17.511 Y32.809 F350.
X17.644 Y32.66
X17.772 Y32.507
X17.896 Y32.35
X18.016 Y32.191
X18.131 Y32.027
X18.245 Y31.863 Z-0.224
X18.352 Y31.694
X18.458 Y31.525
X18.559 Y31.353
X18.659 Y31.18
X18.755 Y31.005
X18.85 Y30.829 Z-0.225
X18.941 Y30.652
X19.121 Y30.295
X19.21 Y30.116
X19.231 Y30.071
X19.25 Y30.025
X19.267 Y29.978
X19.282 Y29.93
X19.293 Y29.881
X19.303 Y29.832
X19.31 Y29.783 Z-0.226
X19.315 Y29.733
X19.317 Y29.683
X19.316 Y29.633
X19.313 Y29.584
X19.308 Y29.534
X19.304 Y29.508
X19.302 Y29.495
X19.301 Y29.488
X19.3 Y29.482 F88.
Y29.479
X19.303 Y29.476
X19.308 Y29.472 F350.
X19.406 Y29.382
X19.553 Y29.246
X19.693 Y29.104
X19.831 Y28.959
X19.965 Y28.811 Z-0.227
X20.095 Y28.66
X20.222 Y28.506
X20.345 Y28.348
X20.467 Y28.19
X20.583 Y28.028
X20.7 Y27.866
X20.812 Y27.7 Z-0.228
X20.923 Y27.535
X21.032 Y27.367
X21.246 Y27.03
X21.353 Y26.861
X21.377 Y26.817
X21.399 Y26.772 Z-0.229
X21.418 Y26.726
X21.436 Y26.679
X21.451 Y26.632
X21.463 Y26.583
X21.473 Y26.535
X21.481 Y26.485
X21.486 Y26.436
X21.489 Y26.386
Y26.336
X21.486 Y26.286
X21.482 Y26.236
X21.474 Y26.187
X21.465 Y26.138
X21.452 Y26.089
X21.438 Y26.042
X21.421 Y25.995
X21.402 Y25.949
X21.38 Y25.903
X21.356 Y25.86
X21.33 Y25.817
X21.302 Y25.776
X21.272 Y25.736
X21.24 Y25.697
X21.207 Y25.661
X21.171 Y25.626 Z-0.23
X21.134 Y25.593
X21.095 Y25.561
X21.054 Y25.532
X21.012 Y25.505
X20.969 Y25.48
X20.925 Y25.457
X20.879 Y25.436
X20.833 Y25.418
X20.785 Y25.402
X20.737 Y25.388
X20.689 Y25.377
X20.639 Y25.369
X20.59 Y25.362
X20.54 Y25.358
X20.49 Y25.357
X20.44 Y25.358
X20.391 Y25.362
X20.327 Y25.368
X20.252 Y25.374 F88.
X20.251 Y25.371
X20.253 Y25.368
X20.267 Y25.347 F350.
X20.281 Y25.323
X20.383 Y25.151 Z-0.231
X20.482 Y24.978
X20.571 Y24.799
X20.657 Y24.619
X20.732 Y24.434
X20.806 Y24.248
X20.869 Y24.059 Z-0.232
X20.931 Y23.869
X20.983 Y23.676
X21.035 Y23.483
X21.078 Y23.288
X21.119 Y23.093
X21.154 Y22.896
X21.187 Y22.699 Z-0.233
X21.216 Y22.502
X21.243 Y22.304
X21.256 Y22.205
X21.262 Y22.155
X21.265 Y22.105
X21.266 Y22.055
X21.264 Y22.005
X21.26 Y21.956
X21.253 Y21.906
X21.244 Y21.857
X21.233 Y21.808
X21.219 Y21.76
X21.203 Y21.713
X21.184 Y21.667
X21.163 Y21.622 Z-0.234
X21.14 Y21.577
X21.114 Y21.534
X21.087 Y21.493
X21.057 Y21.452
X21.026 Y21.414
X20.993 Y21.376
X20.957 Y21.341
X20.92 Y21.307
X20.882 Y21.276
X20.842 Y21.246
X20.8 Y21.218
X20.757 Y21.193
X20.713 Y21.169
X20.668 Y21.148
X20.622 Y21.129
X20.575 Y21.112
X20.527 Y21.098
X20.478 Y21.086
X20.429 Y21.077
X20.38 Y21.07
X20.33 Y21.065
X20.28 Y21.063
X20.23 Y21.064
X20.181 Y21.067
X20.131 Y21.072 Z-0.235
X20.082 Y21.08
X20.033 Y21.091
X19.985 Y21.104
X19.89 Y21.136
X19.704 Y21.208
X19.518 Y21.28
X19.334 Y21.36
X19.151 Y21.44
X18.971 Y21.526 Z-0.236
X18.793 Y21.615
X18.617 Y21.711
X18.444 Y21.81
X18.275 Y21.916
X18.108 Y22.026
X17.946 Y22.144
X17.788 Y22.265 Z-0.237
X17.636 Y22.395
X17.488 Y22.529
X17.348 Y22.671
X17.212 Y22.817
X17.151 Y22.889
X17.107 Y22.945
X17.092 Y22.964 F88.
X17.089 Y22.962
X17.086 Y22.958
X17.063 Y22.914 F350.
X17.037 Y22.871 Z-0.238
X17.009 Y22.83
X16.979 Y22.79
X16.947 Y22.751
X16.913 Y22.715
X16.878 Y22.68
X16.84 Y22.646
X16.801 Y22.615
X16.761 Y22.586
X16.719 Y22.559
X16.676 Y22.533
X16.632 Y22.511
X16.586 Y22.49
X16.54 Y22.471
X16.492 Y22.455
X16.444 Y22.442
X16.396 Y22.43
X16.347 Y22.422
X16.297 Y22.415
X16.247 Y22.411
X16.197 Y22.41
X16.148 Y22.411
X16.098 Y22.415
X16.048 Y22.421
X15.999 Y22.429 Z-0.239
X15.95 Y22.44
X15.902 Y22.454
X15.855 Y22.469
X15.808 Y22.488
X15.763 Y22.508
X15.718 Y22.531
X15.675 Y22.556
X15.633 Y22.583
X15.592 Y22.612
X15.553 Y22.643
X15.516 Y22.676
X15.48 Y22.71
X15.446 Y22.747
X15.414 Y22.785
X15.298 Y22.948
X15.184 Y23.112
X15.07 Y23.276 Z-0.24
X14.841 Y23.603
X14.729 Y23.768
X14.617 Y23.934
X14.508 Y24.102
X14.404 Y24.272 Z-0.241
X14.3 Y24.443
X14.204 Y24.618
X14.111 Y24.794
X14.019 Y24.972
X13.937 Y25.154
X13.86 Y25.338
X13.789 Y25.525 Z-0.242
X13.725 Y25.714
X13.668 Y25.905
X13.617 Y26.098
X13.595 Y26.2 F88.
X13.593 Y26.204
X13.589
X13.575 Y26.206 F350.
X13.551 Y26.209
X13.503 Y26.217
X13.454 Y26.228
X13.406 Y26.241
X13.359 Y26.257
X13.312 Y26.275
X13.266 Y26.295
X13.222 Y26.318 Z-0.243
X13.179 Y26.343
X13.136 Y26.37
X13.096 Y26.399
X13.057 Y26.43
X13.019 Y26.463
X12.983 Y26.497
X12.949 Y26.534
X12.917 Y26.572
X12.887 Y26.612
X12.858 Y26.653
X12.76 Y26.827
X12.664 Y27.002
X12.568 Y27.177
X12.376 Y27.527 Z-0.244
X12.184 Y27.878
X12.095 Y28.056
X12.007 Y28.236
X11.924 Y28.417 Z-0.245
X11.845 Y28.601
X11.768 Y28.785
X11.702 Y28.973
X11.635 Y29.162
X11.58 Y29.354
X11.529 Y29.547 Z-0.246
X11.481 Y29.741
X11.444 Y29.937
X11.415 Y30.135
X11.403 Y30.228
X11.401 Y30.242
X11.4 Y30.249 F88.
Y30.253
X11.396 Y30.255
X11.389 Y30.256 F350.
X11.382 Y30.258
X11.369 Y30.262
X11.323 Y30.277
X11.276 Y30.295
X11.231 Y30.315
X11.186 Y30.338
X11.143 Y30.362
X11.1 Y30.389
X11.06 Y30.418
X11.02 Y30.449
X10.983 Y30.481
X10.947 Y30.516 Z-0.247
X10.912 Y30.552
X10.88 Y30.59
X10.85 Y30.63
X10.821 Y30.671
X10.795 Y30.713
X10.77 Y30.757
X10.748 Y30.802
X10.671 Y30.986
X10.594 Y31.17
X10.516 Y31.354
X10.284 Y31.906 Z-0.248
X10.21 Y32.092
X10.139 Y32.279
X10.072 Y32.467
X10.008 Y32.656
X9.949 Y32.847 Z-0.249
X9.896 Y33.039
X9.847 Y33.233
X9.805 Y33.428
X9.767 Y33.624
X9.741 Y33.822
X9.715 Y34.02 Z-0.25
X9.704 Y34.22
X9.695 Y34.419
X9.692 Y34.482
Y34.489
X9.691 Y34.496 F88.
X9.689 Y34.499
X9.686 Y34.5
X9.679 Y34.503 F350.
X9.666 Y34.508
X9.623 Y34.527
X9.581 Y34.548
X9.537 Y34.572
X9.495 Y34.598
X9.454 Y34.627
X9.414 Y34.657
X9.376 Y34.689
X9.34 Y34.724
X9.305 Y34.76
X9.272 Y34.798
X9.242 Y34.837
X9.213 Y34.878
X9.186 Y34.92
X9.162 Y34.963 Z-0.251
X9.139 Y35.008
X9.119 Y35.054
X9.101 Y35.1
X9.086 Y35.148
X9.028 Y35.339
X8.971 Y35.53
X8.912 Y35.721
X8.795 Y36.103
X8.739 Y36.295 Z-0.252
X8.636 Y36.681
X8.586 Y36.874
X8.544 Y37.069
X8.505 Y37.265
X8.474 Y37.462 Z-0.253
X8.446 Y37.66
X8.426 Y37.859
X8.411 Y38.058
X8.404 Y38.258
X8.403 Y38.457
X8.412 Y38.657 Z-0.254
X8.424 Y38.856
X8.429 Y38.905
X8.434 Y38.949 F88.
X8.433 Y38.953
X8.43 Y38.954
X8.386 Y38.977 F350.
X8.344 Y39.002
X8.302 Y39.03
X8.262 Y39.059
X8.223 Y39.09
X8.186 Y39.124
X8.15 Y39.159
X8.117 Y39.196
X8.085 Y39.234
X8.055 Y39.274
X8.027 Y39.316
X8.002 Y39.359
X7.978 Y39.403
X7.957 Y39.448
X7.938 Y39.494
X7.921 Y39.541
X7.907 Y39.589
X7.895 Y39.637 Z-0.255
X7.856 Y39.833
X7.818 Y40.029
X7.78 Y40.225
X7.703 Y40.617
X7.668 Y40.814
X7.634 Y41.011 Z-0.256
X7.601 Y41.208
X7.577 Y41.406
X7.554 Y41.604
X7.533 Y41.803
X7.52 Y42.002
X7.513 Y42.202 Z-0.257
X7.512 Y42.402
X7.519 Y42.601
X7.529 Y42.801
X7.552 Y42.999
X7.577 Y43.197
X7.615 Y43.393 Z-0.258
X7.655 Y43.589
X7.708 Y43.782
X7.765 Y43.973
X7.829 Y44.162
X7.903 Y44.348
X7.979 Y44.532 Z-0.259
X8.064 Y44.713
X8.156 Y44.89
X8.253 Y45.065
X8.356 Y45.236
X8.391 Y45.29 F88.
X8.393 Y45.294
X8.386 Y45.304 F350.
X8.371 Y45.326
X8.322 Y45.404
X8.273 Y45.491
X8.225 Y45.578 Z-0.26
X8.184 Y45.669
X8.145 Y45.761
X8.109 Y45.854
X8.08 Y45.95
X8.051 Y46.046
X8.039 Y46.094
X8.028 Y46.143
X8.011 Y46.241
X7.994 Y46.34
X7.985 Y46.439
X7.979 Y46.539
X7.974 Y46.638
X7.978 Y46.738
X7.983 Y46.838 Z-0.261
X7.986 Y46.888
X7.992 Y46.937
X8.024 Y47.135
X8.025 Y47.14
G3 X7.864 Y47.377 I-0.196 J0.041
G0 Z5.
X7.777 Y46.994
Z1.922
G1 Z-0.261 F350.
G3 X8.025 Y47.139 I0.053 J0.193
G1 X8.051 Y47.248
X8.081 Y47.36
X8.1 Y47.416
X8.121 Y47.473
X8.163 Y47.586
X8.213 Y47.693
X8.243 Y47.756
X8.257 Y47.784 F88.
X8.258 Y47.786
Y47.787
X8.256 Y47.791
X8.25 Y47.798 F350.
X8.239 Y47.812
X8.151 Y47.925
X8.1 Y47.992
X8.064 Y48.038
X7.987 Y48.148
X7.907 Y48.264
X7.874 Y48.312
X7.834 Y48.377
X7.764 Y48.49
X7.761 Y48.494
X7.696 Y48.603
X7.635 Y48.716
X7.574 Y48.828
X7.535 Y48.908
X7.519 Y48.941
X7.465 Y49.054
X7.422 Y49.153
X7.37 Y49.28
X7.325 Y49.393
X7.286 Y49.506
X7.246 Y49.619
X7.213 Y49.732
X7.196 Y49.79
X7.18 Y49.845
X7.151 Y49.958
X7.124 Y50.071
X7.099 Y50.184
X7.083 Y50.271
X7.078 Y50.297
X7.058 Y50.409
X7.043 Y50.522
X7.017 Y50.748
X7.004 Y50.861
X6.995 Y50.974
X6.987 Y51.2
X6.984 Y51.313
X6.981 Y51.426
X6.983 Y51.539
X6.988 Y51.765
X6.993 Y51.877
X7.005 Y52.103
X7.013 Y52.216
X7.063 Y52.781
X7.073 Y52.894
X7.092 Y53.12
X7.102 Y53.233
X7.111 Y53.345
X7.123 Y53.458
X7.134 Y53.515
X7.147 Y53.571
X7.165 Y53.628
X7.186 Y53.684
X7.196 Y53.707
X7.217 Y53.752
X7.241 Y53.797
X7.273 Y53.849
X7.309 Y53.902
X7.315 Y53.91
X7.362 Y53.967
X7.416 Y54.023
X7.422 Y54.029
X7.478 Y54.079
X7.535 Y54.122
X7.555 Y54.136
X7.587 Y54.156
X7.617 Y54.174 F88.
X7.621 Y54.177
Y54.179
X7.62 Y54.183
X7.618 Y54.192 F350.
X7.608 Y54.249
X7.588 Y54.362
X7.569 Y54.475
X7.555 Y54.588
X7.541 Y54.701
X7.535 Y54.766
X7.531 Y54.814
X7.523 Y54.926
X7.517 Y55.039
X7.514 Y55.152
X7.512 Y55.265
X7.514 Y55.378
X7.517 Y55.491
X7.521 Y55.604
X7.528 Y55.717
X7.536 Y55.83
X7.547 Y55.943
X7.561 Y56.056
X7.602 Y56.394
X7.619 Y56.507
X7.658 Y56.733
X7.678 Y56.846
X7.697 Y56.959
X7.72 Y57.072
X7.787 Y57.411
X7.809 Y57.524
X7.831 Y57.637
X7.852 Y57.75
X7.874 Y57.862
X7.896 Y57.975
X7.91 Y58.032
X7.927 Y58.088
X7.949 Y58.145
X7.974 Y58.201
X7.987 Y58.227
X8.011 Y58.27
X8.038 Y58.314
X8.067 Y58.356
X8.1 Y58.398
X8.125 Y58.427
X8.169 Y58.474
X8.213 Y58.515
X8.243 Y58.54
X8.284 Y58.572
X8.326 Y58.601
X8.371 Y58.628
X8.416 Y58.653 F88.
X8.417 Y58.654
X8.419 Y58.655
X8.417 Y58.667 F350.
X8.416 Y58.681
X8.413 Y58.709
X8.408 Y58.766
X8.403 Y58.879
X8.397 Y58.992
X8.392 Y59.105
X8.391 Y59.218
X8.395 Y59.331
X8.399 Y59.443
X8.403 Y59.556
X8.412 Y59.669
X8.424 Y59.782
X8.435 Y59.895
X8.439 Y59.934
X8.449 Y60.008
X8.467 Y60.121
X8.485 Y60.234
X8.504 Y60.347
X8.528 Y60.46
X8.552 Y60.577
X8.575 Y60.686
X8.605 Y60.799
X8.635 Y60.911
X8.724 Y61.25
X8.756 Y61.363
X8.929 Y61.928
X8.963 Y62.041
X8.997 Y62.154
X9.031 Y62.267
X9.065 Y62.38
X9.082 Y62.436
X9.103 Y62.492
X9.117 Y62.527
X9.135 Y62.566
X9.156 Y62.605
X9.189 Y62.662
X9.228 Y62.718
X9.23 Y62.721
X9.274 Y62.776
X9.325 Y62.831
X9.343 Y62.849
X9.399 Y62.899
X9.456 Y62.942
X9.459 Y62.944
X9.514 Y62.98
X9.569 Y63.011
X9.615 Y63.034
X9.639 Y63.044
X9.65 Y63.049
X9.656 Y63.051 F88.
X9.66 Y63.053
X9.662 Y63.054
Y63.057
X9.666 Y63.17 F350.
X9.671 Y63.283
X9.677 Y63.396
X9.682 Y63.498
X9.683 Y63.509
X9.696 Y63.622
X9.711 Y63.735
X9.726 Y63.848
X9.742 Y63.96
X9.764 Y64.073
X9.788 Y64.186
X9.812 Y64.299
X9.837 Y64.412
X9.869 Y64.525
X9.932 Y64.751
X9.967 Y64.864
X10.005 Y64.977
X10.043 Y65.09
X10.082 Y65.203
X10.125 Y65.316
X10.212 Y65.541
X10.247 Y65.627
X10.497 Y66.219
X10.544 Y66.332
X10.59 Y66.445
X10.637 Y66.558
X10.699 Y66.706
X10.734 Y66.784
X10.764 Y66.84
X10.8 Y66.897
X10.812 Y66.914
X10.848 Y66.962
X10.889 Y67.009
X10.925 Y67.047
X10.968 Y67.087
X11.01 Y67.122
X11.038 Y67.143
X11.094 Y67.181
X11.151 Y67.214
X11.191 Y67.235
X11.264 Y67.267
X11.32 Y67.287
X11.346 Y67.295
X11.359 Y67.299
X11.365 Y67.3 F88.
X11.369 Y67.302
X11.37 Y67.303
X11.371 Y67.308
X11.372 Y67.318 F350.
X11.376 Y67.348
X11.391 Y67.461
X11.407 Y67.574
X11.428 Y67.687
X11.449 Y67.8
X11.475 Y67.913
X11.533 Y68.139
X11.563 Y68.252
X11.595 Y68.365
X11.603 Y68.386
X11.674 Y68.59
X11.716 Y68.708
X11.755 Y68.816
X11.804 Y68.929
X11.852 Y69.042
X11.901 Y69.155
X11.942 Y69.249
X11.951 Y69.268
X12.062 Y69.494
X12.118 Y69.607
X12.168 Y69.703
X12.424 Y70.171
X12.547 Y70.397
X12.672 Y70.623
X12.734 Y70.736
X12.796 Y70.849
X12.819 Y70.889
X12.846 Y70.929
X12.869 Y70.962
X12.911 Y71.013
X12.959 Y71.064
X12.969 Y71.075
X13.02 Y71.121
X13.072 Y71.162
X13.108 Y71.188
X13.146 Y71.212
X13.185 Y71.235
X13.241 Y71.264
X13.298 Y71.288
X13.331 Y71.301
X13.411 Y71.326
X13.467 Y71.339
X13.524 Y71.349
X13.58 Y71.355
X13.637 Y71.359
X13.693
X13.75 Y71.356
X13.806 Y71.349
X13.862 Y71.34
X13.919 Y71.327
X13.975 Y71.31
X14.004 Y71.301
X14.046 Y71.284
X14.088 Y71.266
X14.145 Y71.238
X14.201 Y71.205
X14.227 Y71.188
X14.271 Y71.156
X14.314 Y71.122
X14.366 Y71.075
X14.398 Y71.042
X14.427 Y71.009
X14.465 Y70.962
X14.503 Y70.909
X14.522 Y70.879 F88.
X14.525 Y70.874
X14.526
X14.54 Y70.897 F350.
X14.581 Y70.962
X14.653 Y71.067
X14.766 Y71.216
X14.831 Y71.301
X14.879 Y71.36
X14.928 Y71.414
X15.029 Y71.526
X15.105 Y71.61
X15.134 Y71.639
X15.218 Y71.72
X15.253 Y71.752
X15.331 Y71.826
X15.373 Y71.865
X15.444 Y71.928
X15.557 Y72.021
X15.644 Y72.091
X15.67 Y72.113
X15.783 Y72.199
X15.949 Y72.317
X16.009 Y72.36
X16.114 Y72.43
X16.292 Y72.543
X16.348 Y72.578
X16.461 Y72.646
X16.687 Y72.774
X16.8 Y72.838
X16.886 Y72.882
X17.107 Y72.994
X17.139 Y73.011
X17.252 Y73.066
X17.309 Y73.087
X17.365 Y73.105
X17.374 Y73.107
X17.426 Y73.12
X17.478 Y73.13
X17.535 Y73.137
X17.591 Y73.142
X17.648 Y73.143
X17.704 Y73.141
X17.761 Y73.135
X17.817 Y73.126
X17.901 Y73.107
X17.93 Y73.099
X17.987 Y73.08
X18.043 Y73.057
X18.1 Y73.03
X18.156 Y72.998
X18.162 Y72.994
X18.215 Y72.959
X18.269 Y72.918
X18.311 Y72.882
X18.349 Y72.846
X18.382 Y72.81
X18.417 Y72.769
X18.459 Y72.713
X18.495 Y72.657
X18.496 Y72.656
X18.527 Y72.599
X18.554 Y72.543
X18.577 Y72.486
X18.595 Y72.43
X18.608 Y72.383
X18.622 Y72.317
X18.631 Y72.26
X18.636 Y72.204
X18.638 Y72.148
X18.637 Y72.091
X18.627 Y71.752
X18.623 Y71.639
X18.608 Y71.409
X18.601 Y71.301
X18.592 Y71.188
X18.568 Y70.962
X18.556 Y70.849
X18.539 Y70.736
X18.522 Y70.623
X18.504 Y70.51
X18.495 Y70.455
X18.485 Y70.397
X18.461 Y70.284
X18.436 Y70.171
X18.411 Y70.058
X18.383 Y69.946
X18.35 Y69.833
X18.318 Y69.72
X18.284 Y69.607
X18.269 Y69.565
X18.243 Y69.494
X18.202 Y69.381
X18.159 Y69.268
X18.156 Y69.26
X18.112 Y69.155
X18.043 Y69.005
X18.008 Y68.929
X17.977 Y68.863
X17.973 Y68.856
X17.971 Y68.852 F88.
X17.969 Y68.848
X17.971 Y68.846
X18.043 Y68.86 F350.
X18.156 Y68.881
X18.213 Y68.887
X18.269 Y68.891
X18.326
X18.382 Y68.888
X18.439 Y68.881
X18.495 Y68.872
X18.552 Y68.859
X18.608 Y68.842
X18.678 Y68.816
X18.721 Y68.798
X18.778 Y68.769
X18.834 Y68.736
X18.882 Y68.703
X18.947 Y68.652
X18.98 Y68.623
X19.014 Y68.59
X19.06 Y68.539
X19.109 Y68.477
X19.143 Y68.427
X19.173 Y68.376
X19.18 Y68.365
X19.208 Y68.308
X19.231 Y68.252
X19.251 Y68.195
X19.268 Y68.139
X19.278 Y68.094
X19.286 Y68.049
X19.29 Y68.026
X19.296 Y67.969
X19.298 Y67.913
Y67.856
X19.294 Y67.8
X19.286 Y67.734
X19.278 Y67.687
X19.264 Y67.631
X19.247 Y67.574
X19.226 Y67.518
X19.201 Y67.461
X19.173 Y67.404
X19.146 Y67.348
X19.089 Y67.235
X18.919 Y66.897
X18.861 Y66.784
X18.834 Y66.733
X18.721 Y66.523
X18.679 Y66.445
X18.615 Y66.332
X18.549 Y66.219
X18.495 Y66.125
X18.484 Y66.106
X18.416 Y65.993
X18.344 Y65.88
X18.273 Y65.767
X18.269 Y65.761
X18.2 Y65.654
X18.156 Y65.592
X18.042 Y65.428
X17.961 Y65.316
X17.93 Y65.275
X17.874 Y65.203
X17.785 Y65.09
X17.704 Y64.988
X17.695 Y64.977
X17.596 Y64.864
X17.447 Y64.697
X17.442 Y64.691 F88.
X17.44 Y64.689
Y64.688
X17.441 Y64.685
X17.455 Y64.638 F350.
X17.468 Y64.586
X17.478 Y64.534
X17.48 Y64.525
X17.487 Y64.469
X17.491 Y64.412
Y64.356
X17.489 Y64.299
X17.484 Y64.255
X17.478 Y64.212
X17.474 Y64.186
X17.461 Y64.13
X17.445 Y64.073
X17.405 Y63.96
X17.365 Y63.855
X17.234 Y63.509
X17.191 Y63.396
X17.147 Y63.283
X17.054 Y63.057
X17.026 Y62.99
X17.007 Y62.944
X16.957 Y62.831
X16.907 Y62.718
X16.856 Y62.605
X16.803 Y62.492
X16.691 Y62.267
X16.687 Y62.259
X16.634 Y62.154
X16.574 Y62.045
X16.509 Y61.928
X16.461 Y61.842
X16.446 Y61.815
X16.378 Y61.702
X16.307 Y61.589
X16.236 Y61.476
X16.235 Y61.475
X16.161 Y61.363
X16.122 Y61.308
X15.982 Y61.113 F88.
X15.981 Y61.112
X15.983 Y61.109
X15.985 Y61.103 F350.
X15.99 Y61.092
X16.009 Y61.047
X16.018 Y61.024
X16.036 Y60.968
X16.051 Y60.911
X16.063 Y60.855
X16.071 Y60.799
X16.076 Y60.742
X16.077 Y60.686
X16.076 Y60.629
X16.071 Y60.573
X16.063 Y60.516
X16.052 Y60.46
X16.023 Y60.347
X16.009 Y60.293
X15.896 Y59.864
X15.875 Y59.782
X15.843 Y59.669
X15.777 Y59.443
X15.744 Y59.331
X15.707 Y59.218
X15.67 Y59.104
X15.633 Y58.992
X15.595 Y58.879
X15.557 Y58.777
X15.512 Y58.653
X15.469 Y58.54
X15.444 Y58.477
X15.424 Y58.427
X15.328 Y58.201
X15.278 Y58.088
X15.223 Y57.975
X15.168 Y57.862
X15.112 Y57.75
X15.105 Y57.737
X15.052 Y57.637
X14.992 Y57.532
X14.907 Y57.383
X14.903 Y57.376 F88.
X14.9 Y57.37
Y57.368
X14.908 Y57.354 F350.
X14.937 Y57.298
X14.963 Y57.241
X14.984 Y57.185
X14.992 Y57.157
X15.004 Y57.115
X15.015 Y57.072
X15.025 Y57.016
X15.032 Y56.959
X15.036 Y56.903
Y56.846
X15.034 Y56.79
X15.028 Y56.733
X15.011 Y56.62
X14.994 Y56.507
X14.941 Y56.169
X14.924 Y56.056
X14.905 Y55.943
X14.863 Y55.717
X14.842 Y55.604
X14.819 Y55.491
X14.771 Y55.265
X14.766 Y55.246
X14.746 Y55.152
X14.717 Y55.039
X14.688 Y54.926
X14.659 Y54.814
X14.653 Y54.791
X14.629 Y54.701
X14.594 Y54.588
X14.559 Y54.475
X14.54 Y54.413
X14.524 Y54.362
X14.486 Y54.249
X14.403 Y54.023
X14.36 Y53.91
X14.314 Y53.801
X14.213 Y53.571
X14.201 Y53.545
X14.178 Y53.494 F88.
Y53.492
X14.179 Y53.491
X14.185 Y53.48 F350.
X14.198 Y53.458
X14.201 Y53.453
X14.23 Y53.399
X14.255 Y53.345
X14.277 Y53.289
X14.295 Y53.233
X14.314 Y53.156
X14.321 Y53.12
X14.329 Y53.063
X14.334 Y53.007
X14.335 Y52.95
X14.333 Y52.894
X14.306 Y52.329
X14.3 Y52.216
X14.262 Y51.765
X14.253 Y51.652
X14.243 Y51.539
X14.229 Y51.426
X14.215 Y51.313
X14.201 Y51.2
X14.183 Y51.087
X14.165 Y50.974
X14.146 Y50.861
X14.126 Y50.748
X14.088 Y50.567
X14.079 Y50.522
X14.055 Y50.409
X14.026 Y50.297
X13.997 Y50.184
X13.975 Y50.1
X13.968 Y50.071
X13.934 Y49.958
X13.898 Y49.845
X13.862 Y49.732
X13.824 Y49.619
X13.781 Y49.506
X13.737 Y49.393
X13.693 Y49.28
X13.642 Y49.167
X13.59 Y49.054
X13.537 Y48.941
X13.524 Y48.913
X13.479 Y48.828
X13.411 Y48.704
X13.355 Y48.603
X13.298 Y48.504
X13.289 Y48.49
X13.216 Y48.377
X13.142 Y48.264
X13.072 Y48.159
X13.066 Y48.151
X12.981 Y48.038
X12.894 Y47.925
X12.846 Y47.863
X12.806 Y47.812
X12.733 Y47.727
X12.586 Y47.567 F88.
X12.585 Y47.565
X12.623 Y47.473 F350.
X12.665 Y47.36
X12.697 Y47.248
X12.727 Y47.135
X12.733 Y47.11
X12.748 Y47.022
X12.765 Y46.909
X12.775 Y46.796
X12.781 Y46.683
X12.782 Y46.626
X12.779 Y46.57
X12.768 Y46.457
X12.756 Y46.344
X12.749 Y46.288
X12.739 Y46.231
X12.733 Y46.201
X12.712 Y46.118
X12.698 Y46.062
X12.691 Y46.034
X12.687 Y46.019 F88.
X12.686 Y46.016
Y46.014
X12.846 Y45.874 F350.
X12.949 Y45.78
X12.959 Y45.769
X13.059 Y45.667
X13.185 Y45.537
X13.272 Y45.441
X13.298 Y45.411
X13.366 Y45.328
X13.459 Y45.215
X13.524 Y45.135
X13.548 Y45.102
X13.629 Y44.989
X13.708 Y44.876
X13.75 Y44.817
X13.785 Y44.763
X13.855 Y44.65
X13.922 Y44.537
X13.975 Y44.448
X13.989 Y44.424
X14.05 Y44.311
X14.107 Y44.199
X14.165 Y44.086
X14.201 Y44.009
X14.218 Y43.973
X14.267 Y43.86
X14.317 Y43.747
X14.363 Y43.634
X14.406 Y43.521
X14.448 Y43.408
X14.489 Y43.295
X14.526 Y43.182
X14.562 Y43.069
X14.598 Y42.956
X14.63 Y42.843
X14.653 Y42.756
X14.691 Y42.618
X14.719 Y42.505
X14.746 Y42.392
X14.772 Y42.279
X14.797 Y42.166
X14.819 Y42.053
X14.883 Y41.714
X14.905 Y41.601
X14.924 Y41.488
X14.942 Y41.375
X15.011 Y40.924
X15.028 Y40.811
X15.033 Y40.754
X15.034 Y40.698
X15.033 Y40.641
X15.029 Y40.585
X15.021 Y40.528
X15.01 Y40.472
X14.992 Y40.407
X14.977 Y40.359
X14.955 Y40.303
X14.929 Y40.246
X14.898 Y40.19 F88.
X14.895 Y40.184
X14.992 Y40.015 F350.
X15.053 Y39.907
X15.105 Y39.809
X15.113 Y39.794
X15.168 Y39.682
X15.224 Y39.569
X15.278 Y39.456
X15.327 Y39.343
X15.423 Y39.117
X15.444 Y39.066
X15.468 Y39.004
X15.511 Y38.891
X15.557 Y38.765
X15.594 Y38.665
X15.632 Y38.552
X15.67 Y38.436
X15.706 Y38.326
X15.742 Y38.214
X15.775 Y38.101
X15.809 Y37.988
X15.842 Y37.875
X15.873 Y37.762
X15.896 Y37.673
X16.009 Y37.245
X16.022 Y37.197
X16.05 Y37.084
X16.06 Y37.028
X16.068 Y36.971
X16.072 Y36.915
Y36.858
X16.07 Y36.802
X16.064 Y36.745
X16.055 Y36.689
X16.043 Y36.633
X16.028 Y36.578
X16.009 Y36.524
X16.008 Y36.52
X15.991 Y36.479
X15.989 Y36.473 F88.
X15.987 Y36.47
Y36.468
X15.995 Y36.458 F350.
X16.032 Y36.407
X16.122 Y36.281
X16.193 Y36.181
X16.235 Y36.118
X16.267 Y36.068
X16.409 Y35.842
X16.461 Y35.756
X16.476 Y35.729
X16.539 Y35.616
X16.602 Y35.503
X16.664 Y35.39
X16.687 Y35.344
X16.721 Y35.277
X16.832 Y35.052
X16.885 Y34.939
X16.913 Y34.875
X16.986 Y34.713
X17.026 Y34.622
X17.035 Y34.6
X17.082 Y34.487
X17.139 Y34.348
X17.175 Y34.261
X17.219 Y34.148
X17.252 Y34.061
X17.39 Y33.697
X17.432 Y33.584
X17.472 Y33.471
X17.478 Y33.449
X17.49 Y33.403
X17.499 Y33.358
X17.507 Y33.301
X17.512 Y33.245
X17.514 Y33.188
X17.512 Y33.132
X17.508 Y33.075
X17.5 Y33.019
X17.49 Y32.97
X17.478 Y32.921
X17.474 Y32.906
X17.465 Y32.876
X17.462 Y32.869 F88.
Y32.867
Y32.865
X17.627 Y32.68 F350.
X17.704 Y32.591
X17.724 Y32.567
X17.814 Y32.454
X17.93 Y32.306
X17.989 Y32.228
X18.043 Y32.153
X18.069 Y32.116
X18.156 Y31.991
X18.227 Y31.89
X18.269 Y31.825
X18.3 Y31.777
X18.443 Y31.551
X18.495 Y31.463
X18.51 Y31.438
X18.575 Y31.325
X18.641 Y31.212
X18.704 Y31.099
X18.721 Y31.068
X18.765 Y30.986
X18.834 Y30.858
X18.886 Y30.76
X18.944 Y30.648
X19.114 Y30.309
X19.171 Y30.196
X19.173 Y30.191
X19.226 Y30.083
X19.25 Y30.026
X19.27 Y29.97
X19.286 Y29.912
X19.299 Y29.857
X19.308 Y29.801
X19.314 Y29.744
X19.317 Y29.688
X19.316 Y29.631
X19.313 Y29.575
X19.306 Y29.518
X19.301 Y29.49
X19.3 Y29.483 F88.
Y29.481
Y29.479
X19.304 Y29.476
X19.319 Y29.462 F350.
X19.512 Y29.284
X19.62 Y29.179
X19.625 Y29.174
X19.729 Y29.067
X19.851 Y28.938
X19.939 Y28.841
X19.964 Y28.812
X20.036 Y28.728
X20.133 Y28.615
X20.19 Y28.547
X20.225 Y28.502
X20.303 Y28.402
X20.416 Y28.257
X20.486 Y28.163
X20.529 Y28.104
X20.649 Y27.937
X20.728 Y27.824
X20.755 Y27.784
X20.804 Y27.711
X20.88 Y27.599
X20.955 Y27.486
X20.981 Y27.446
X21.028 Y27.373
X21.244 Y27.034
X21.316 Y26.921
X21.32 Y26.914
X21.353 Y26.861
X21.382 Y26.808
X21.408 Y26.752
X21.43 Y26.695
X21.433 Y26.687
X21.45 Y26.635
X21.463 Y26.582
X21.475 Y26.526
X21.483 Y26.469
X21.487 Y26.413
X21.489 Y26.356
X21.487 Y26.3
X21.483 Y26.243
X21.474 Y26.187
X21.463 Y26.131
X21.449 Y26.079
X21.433 Y26.027
X21.43 Y26.018
X21.407 Y25.961
X21.381 Y25.905
X21.352 Y25.853
X21.32 Y25.801
X21.314 Y25.792
X21.272 Y25.735
X21.224 Y25.679
X21.207 Y25.661
X21.154 Y25.61
X21.1 Y25.566
X21.094 Y25.561
X21.038 Y25.521
X20.981 Y25.487
X20.916 Y25.453
X20.868 Y25.432
X20.812 Y25.411
X20.755 Y25.393
X20.699 Y25.379
X20.642 Y25.369
X20.586 Y25.362
X20.529 Y25.358
X20.473 Y25.357
X20.416 Y25.36
X20.303 Y25.37
X20.252 Y25.374 F88.
X20.25 Y25.373
X20.256 Y25.364 F350.
X20.261 Y25.356
X20.271 Y25.34
X20.303 Y25.286
X20.338 Y25.227
X20.416 Y25.095
X20.47 Y25.001
X20.527 Y24.888
X20.529 Y24.884
X20.582 Y24.775
X20.637 Y24.662
X20.642 Y24.653
X20.686 Y24.55
X20.731 Y24.437
X20.777 Y24.324
X20.819 Y24.211
X20.856 Y24.098
X20.893 Y23.985
X20.93 Y23.872
X20.962 Y23.759
X20.981 Y23.685
X21.021 Y23.533
X21.05 Y23.42
X21.121 Y23.082
X21.142 Y22.969
X21.18 Y22.743
X21.199 Y22.63
X21.207 Y22.573
X21.244 Y22.291
X21.259 Y22.178
X21.264 Y22.122
X21.266 Y22.065
X21.264 Y22.009
X21.26 Y21.952
X21.252 Y21.896
X21.24 Y21.839
X21.226 Y21.783
X21.207 Y21.726
X21.185 Y21.67
X21.159 Y21.614
X21.129 Y21.558
X21.094 Y21.503
X21.092 Y21.501
X21.051 Y21.444
X21.003 Y21.388
X20.981 Y21.364
X20.931 Y21.317
X20.881 Y21.275
X20.868 Y21.265
X20.812 Y21.225
X20.755 Y21.191
X20.698 Y21.162
X20.642 Y21.137
X20.586 Y21.116
X20.529 Y21.099
X20.473 Y21.085
X20.416 Y21.075
X20.36 Y21.068
X20.303 Y21.064
X20.247
X20.19 Y21.066
X20.134 Y21.072
X20.077 Y21.081
X20.021 Y21.094
X19.964 Y21.11
X19.851 Y21.152
X19.738 Y21.195
X19.532 Y21.275
X19.512 Y21.283
X19.399 Y21.331
X19.173 Y21.43
X19.06 Y21.482
X19.024 Y21.501
X18.947 Y21.539
X18.797 Y21.614
X18.721 Y21.652
X18.608 Y21.716
X18.495 Y21.781
X18.393 Y21.839
X18.382 Y21.846
X18.269 Y21.92
X18.156 Y21.994
X18.05 Y22.065
X18.043 Y22.07
X17.93 Y22.156
X17.817 Y22.243
X17.755 Y22.291
X17.704 Y22.334
X17.627 Y22.404
X17.478 Y22.538
X17.387 Y22.63
X17.365 Y22.653
X17.282 Y22.743
X17.252 Y22.774
X17.178 Y22.856
X17.139 Y22.904
X17.111 Y22.939
X17.097 Y22.957
X17.092 Y22.964 F88.
X17.09 Y22.965
X17.083 Y22.951 F350.
X17.057 Y22.903
X17.027 Y22.856
X17.026 Y22.855
X16.986 Y22.799
X16.939 Y22.743
X16.913 Y22.715
X16.867 Y22.67
X16.82 Y22.63
X16.8 Y22.614
X16.744 Y22.574
X16.687 Y22.54
X16.645 Y22.517
X16.574 Y22.485
X16.518 Y22.464
X16.461 Y22.446
X16.405 Y22.432
X16.348 Y22.422
X16.292 Y22.415
X16.235 Y22.411
X16.179 Y22.41
X16.122 Y22.413
X16.066 Y22.418
X16.009 Y22.427
X15.953 Y22.44
X15.896 Y22.455
X15.84 Y22.475
X15.783 Y22.498
X15.744 Y22.517
X15.67 Y22.558
X15.62 Y22.592
X15.569 Y22.63
X15.557 Y22.639
X15.503 Y22.687
X15.45 Y22.743
X15.444 Y22.749
X15.4 Y22.802
X15.362 Y22.856
X15.284 Y22.969
X15.218 Y23.063
X15.105 Y23.226
X15.048 Y23.307
X14.879 Y23.548
X14.811 Y23.646
X14.766 Y23.712
X14.653 Y23.881
X14.584 Y23.985
X14.54 Y24.05
X14.51 Y24.098
X14.373 Y24.324
X14.314 Y24.42
X14.304 Y24.437
X14.24 Y24.55
X14.121 Y24.775
X14.088 Y24.837
X14.062 Y24.888
X14.006 Y25.001
X13.975 Y25.068
X13.955 Y25.114
X13.905 Y25.227
X13.862 Y25.332
X13.86 Y25.34
X13.815 Y25.453
X13.775 Y25.566
X13.737 Y25.679
X13.7 Y25.792
X13.668 Y25.905
X13.637 Y26.018
Y26.021
X13.61 Y26.131
X13.595 Y26.202 F88.
X13.594 Y26.204
X13.589
X13.582 Y26.205 F350.
X13.567 Y26.207
X13.524 Y26.213
X13.467 Y26.225
X13.411 Y26.24
X13.399 Y26.243
X13.348 Y26.261
X13.298 Y26.281
X13.241 Y26.308
X13.185 Y26.339
X13.157 Y26.356
X13.114 Y26.385
X13.072 Y26.418
X13.012 Y26.469
X12.959 Y26.523
X12.909 Y26.582
X12.875 Y26.628
X12.846 Y26.673
X12.832 Y26.695
X12.77 Y26.808
X12.708 Y26.921
X12.646 Y27.034
X12.585 Y27.147
X12.507 Y27.289
X12.337 Y27.599
X12.214 Y27.824
X12.168 Y27.909
X12.154 Y27.937
X12.098 Y28.05
X11.987 Y28.276
X11.942 Y28.375
X11.887 Y28.502
X11.79 Y28.728
X11.748 Y28.841
