(1001)
(T1  D=1. CR=0. - ZMIN=-2.928 - FLAT END MILL)
G0 G90 G94 G17
G21
G53 G0 Z0.

(1MM  FLATEND  POCKET)
M5
M9
T1
S12000 M3
G4 P4.
G55
G0 X68.088 Y37.688
Z15.
Z2.505
G1 Z2.3 F17.
Z-0.297 F50.
X68.086 Z-0.299
X68.076 Y37.683
X67.94 Y37.439
X67.929 Y37.405
X67.93 Y37.369
X67.945 Y37.335
X67.97 Y37.309
X68.003 Y37.294
X68.039 Y37.291
X68.074 Y37.302
X68.102 Y37.324
X68.121 Y37.355
X68.128 Y37.39
X68.122 Y37.426
X68.068 Y37.568
X68.062 Y37.593
X68.063 Y37.62
X68.071 Y37.645
X68.076 Y37.655 Z-0.309
Z-0.489
X68.08 Y37.664 Z-0.499
X68.145 Y37.788
X68.327 Y38.108
X68.624 Y38.183
X68.56 Y38.483
X68.555 Y38.475 Z-0.509
Z-0.533
X68.549 Y38.467 Z-0.543
G3 X68.379 Y38.196 I3.365 J-2.306
G1 X68.076 Y37.67
Y37.669
X67.004 Y34.867
X67.001 Y34.857 Z-0.533
G0 Z5.
X72.238 Y36.672
Z1.724
G1 Z1.669 F17.
Z-0.878 F50.
X72.241 Y36.671 Z-0.881
X72.25 Y36.675
X72.544 Y37.057
X72.477 Y37.139
X72.575 Y37.102
X72.57 Y37.094 Z-0.891
Z-0.971
X72.564 Y37.085 Z-0.981
X72.544 Y37.057
X72.25 Y36.675
X72.093 Y36.694
X72.139 Y36.543
X72.146 Y36.551 Z-0.991
Z-1.01
X72.153 Y36.558 Z-1.02
X72.25 Y36.675
X72.544 Y37.057
X72.545 Y37.058
X73.98 Y39.692
X73.985 Y39.701 Z-1.01
G0 Z5.
X74.024 Y36.68
Z1.724
G1 Z1.669 F17.
Z-0.878 F50.
Y36.677 Z-0.881
X74.028 Y36.667
X74.418 Y36.387
X74.808 Y36.125
X74.955 Y36.18
X74.975 Y36.02
X74.966 Y36.025 Z-0.891
Z-0.971
X74.958 Y36.03 Z-0.981
X74.865 Y36.087
X74.418 Y36.387
X73.978 Y36.703
X74.01 Y36.835
X73.879 Y36.782
X73.887 Y36.775 Z-0.991
Z-1.01
X73.894 Y36.769 Z-1.02
X73.984 Y36.699
X74.418 Y36.388
X74.87 Y36.084
X74.871 Y36.083
X77.593 Y34.821
X77.602 Y34.817 Z-1.01
G0 Z5.
X75.924 Y35.386
Z1.724
G1 Z1.669 F17.
Z-0.878 F50.
X75.923 Y35.383 Z-0.881
X75.928 Y35.374
X76.63 Y34.903
X77.118 Y34.597
X77.159 Y34.572
X77.322 Y34.613
X77.503 Y34.505
X77.55 Y34.341
X77.542 Y34.345 Z-0.891
Z-0.971
X77.533 Y34.35 Z-0.981
X77.444 Y34.399
X77.118 Y34.597
X76.63 Y34.903
X75.758 Y35.488
X75.769 Y35.612
X75.662 Y35.56
X75.67 Y35.553 Z-0.991
Z-1.01
X75.678 Y35.547 Z-1.02
X75.769 Y35.48
X76.63 Y34.903
X77.118 Y34.597
X77.479 Y34.378
X77.633 Y34.417
X77.701 Y34.378
X77.748 Y34.221
X77.739 Y34.225 Z-1.03
Z-1.105
X77.73 Y34.23 Z-1.115
X77.634 Y34.283
X77.177 Y34.561
X77.529 Y35.369
X77.665 Y35.345
X77.557 Y35.426
X77.552 Y35.417 Z-1.125
Z-1.205
X77.547 Y35.408 Z-1.215
X77.529 Y35.369
X77.256 Y34.745
X77.177 Y34.561 F13.
X77.668 Y34.263 F50.
X77.775 Y34.344
X77.791 Y34.195
X77.782 Y34.199 Z-1.225
Z-1.248
X77.773 Y34.204 Z-1.258
X77.677 Y34.257
X77.177 Y34.561
X77.531 Y35.376
X77.669 Y35.351
X77.56 Y35.432
X77.555 Y35.423 Z-1.268
Z-1.344
X77.55 Y35.414 Z-1.354
X77.531 Y35.376
X77.256 Y34.745
X77.177 Y34.561 F13.
X77.691 Y34.248 F50.
X77.797 Y34.336
X77.805 Y34.186
X77.796 Y34.191 Z-1.364
Z-1.444
X77.787 Y34.195 Z-1.454
X77.691 Y34.248
X77.177 Y34.561
X77.532 Y35.376
X77.669 Y35.351
X77.56 Y35.432
X77.555 Y35.423 Z-1.464
Z-1.487
X77.55 Y35.414 Z-1.497
X77.532 Y35.376
X77.257 Y34.745
X77.177 Y34.561 F13.
X77.691 Y34.248 F50.
X77.797 Y34.336
X77.805 Y34.186
X77.796 Y34.191 Z-1.507
Z-1.587
X77.787 Y34.195 Z-1.597
X77.691 Y34.248
X77.177 Y34.561
X77.532 Y35.376
X77.669 Y35.351
X77.56 Y35.432
X77.555 Y35.423 Z-1.607
Z-1.63
X77.55 Y35.414 Z-1.64
X77.532 Y35.376
X77.257 Y34.745
X77.177 Y34.561 F13.
X77.691 Y34.248 F50.
X77.797 Y34.336
X77.805 Y34.186
X77.796 Y34.191 Z-1.65
Z-1.73
X77.787 Y34.195 Z-1.74
X77.691 Y34.248
X77.177 Y34.561
X77.532 Y35.376
X77.669 Y35.351
X77.56 Y35.432
X77.555 Y35.423 Z-1.75
Z-1.83
X77.551 Y35.414 Z-1.84
X77.532 Y35.376
X77.257 Y34.745
X77.177 Y34.561 F13.
X77.691 Y34.248 F50.
X77.797 Y34.336
X77.805 Y34.186
X77.796 Y34.191 Z-1.85
Z-1.93
X77.787 Y34.195 Z-1.94
X77.691 Y34.248
X77.177 Y34.561
X77.532 Y35.375
X77.669 Y35.351
X77.56 Y35.432
X77.555 Y35.423 Z-1.95
Z-2.03
X77.551 Y35.414 Z-2.04
X77.532 Y35.375
X77.257 Y34.745
X77.177 Y34.561 F13.
X77.691 Y34.248 F50.
X77.797 Y34.336
X77.805 Y34.186
X77.796 Y34.191 Z-2.05
Z-2.13
X77.787 Y34.195 Z-2.14
X77.691 Y34.248
X77.177 Y34.561
X77.532 Y35.376
X77.669 Y35.351
X77.559 Y35.429
X77.554 Y35.42 Z-2.15
Z-2.23
X77.549 Y35.411 Z-2.24
X77.53 Y35.372
X77.257 Y34.745
X77.177 Y34.561 F13.
X77.691 Y34.248 F50.
X77.797 Y34.336
X77.805 Y34.186
X77.796 Y34.191 Z-2.25
Z-2.33
X77.787 Y34.195 Z-2.34
X77.691 Y34.248
X77.177 Y34.561
X77.532 Y35.376
X77.669 Y35.351
X77.56 Y35.432
X77.555 Y35.423 Z-2.35
Z-2.43
X77.551 Y35.414 Z-2.44
X77.534 Y35.379
X77.257 Y34.745
X77.177 Y34.561 F13.
X77.691 Y34.248 F50.
X77.797 Y34.336
X77.805 Y34.186
X77.796 Y34.191 Z-2.45
Z-2.53
X77.787 Y34.195 Z-2.54
X77.691 Y34.248
X77.177 Y34.561
X77.534 Y35.379
X77.671 Y35.355
X77.56 Y35.432
X77.555 Y35.423 Z-2.55
Z-2.63
X77.551 Y35.414 Z-2.64
X77.534 Y35.379
X77.257 Y34.745
X77.177 Y34.561 F13.
X77.696 Y34.246 F50.
X77.804 Y34.334
X77.813 Y34.182
X77.804 Y34.186 Z-2.65
Z-2.73
X77.795 Y34.191 Z-2.74
X77.696 Y34.246
X77.177 Y34.561
X77.534 Y35.379
X77.642 Y35.369
X77.566 Y35.445
X77.561 Y35.437 Z-2.75
Z-2.83
X77.557 Y35.428 Z-2.84
X77.536 Y35.386
X77.257 Y34.745
X77.177 Y34.561 F13.
X77.696 Y34.246 F50.
X77.804 Y34.334
X77.813 Y34.182
X77.804 Y34.186 Z-2.85
Z-2.918
X77.795 Y34.191 Z-2.928
X77.696 Y34.246
X77.177 Y34.561
X77.542 Y35.398
Y35.399
X79.157 Y37.928
X79.163 Y37.936 Z-2.918
G0 Z5.
X79.254 Y33.261
Z1.724
G1 Z1.669 F17.
Z-0.877 F50.
X79.252 Y33.258 Z-0.881
X79.253 Y33.249
X79.326 Y33.128
X79.349 Y33.078
X79.38 Y32.986
X79.383 Y32.973
X79.391 Y32.961
X79.403 Y32.954
X79.417
X79.435 Y32.953
X79.449 Y32.941
X79.452 Y32.923
X79.443 Y32.907
X79.426 Y32.9
X79.408 Y32.905
X79.398 Y32.92
X79.395 Y32.93 Z-0.891
Z-0.971
X79.393 Y32.939 Z-0.981
X79.383 Y32.973
X79.38 Y32.986
X79.349 Y33.078
X79.326 Y33.128
X79.253 Y33.249
X79.339 Y33.333
X79.233 Y33.287
X79.237 Y33.278 Z-0.991
Z-1.01
X79.242 Y33.269 Z-1.02
X79.253 Y33.249
X79.326 Y33.128
X79.349 Y33.078
X79.38 Y32.986
X79.383 Y32.973
X79.391 Y32.961
X79.403 Y32.954
X79.417
X79.435 Y32.953
X79.449 Y32.941
X79.452 Y32.923
X79.443 Y32.907
X79.426 Y32.9
X79.408 Y32.905
X79.398 Y32.92
X79.395 Y32.93 Z-1.03
Z-1.105
X79.393 Y32.939 Z-1.115
X79.383 Y32.973
X79.38 Y32.986
X79.349 Y33.078
X79.326 Y33.128
X79.253 Y33.249
X79.339 Y33.333
X79.233 Y33.287
X79.237 Y33.278 Z-1.125
Z-1.205
X79.242 Y33.269 Z-1.215
X79.253 Y33.249
X79.326 Y33.128
X79.349 Y33.078
X79.38 Y32.986
X79.383 Y32.973
X79.391 Y32.961
X79.403 Y32.954
X79.417
X79.435 Y32.953
X79.449 Y32.941
X79.452 Y32.923
X79.443 Y32.907
X79.426 Y32.9
X79.408 Y32.905
X79.398 Y32.92
X79.395 Y32.93 Z-1.225
Z-1.248
X79.393 Y32.939 Z-1.258
X79.383 Y32.973
X79.38 Y32.986
X79.349 Y33.078
X79.326 Y33.128
X79.253 Y33.249
X79.339 Y33.333
X79.233 Y33.287
X79.237 Y33.278 Z-1.268
Z-1.344
X79.242 Y33.269 Z-1.354
X79.253 Y33.249
X79.326 Y33.128
X79.349 Y33.078
X79.38 Y32.986
X79.383 Y32.973
X79.417 Y32.954
X79.398 Y32.92
X79.395 Y32.93 Z-1.364
Z-1.444
X79.393 Y32.939 Z-1.454
X79.383 Y32.973
X79.38 Y32.986
X79.349 Y33.078
X79.326 Y33.128
X79.253 Y33.249
X79.339 Y33.333
X79.233 Y33.287
X79.237 Y33.278 Z-1.464
Z-1.487
X79.242 Y33.269 Z-1.497
X79.253 Y33.249
X79.326 Y33.128
X79.349 Y33.078
X79.38 Y32.986
X79.383 Y32.973
X79.417 Y32.954
X79.398 Y32.92
X79.395 Y32.93 Z-1.507
Z-1.587
X79.393 Y32.939 Z-1.597
X79.383 Y32.973
X79.38 Y32.986
X79.349 Y33.078
X79.326 Y33.128
X79.253 Y33.249
X79.339 Y33.333
X79.233 Y33.287
X79.237 Y33.278 Z-1.607
Z-1.63
X79.242 Y33.269 Z-1.64
X79.253 Y33.249
X79.326 Y33.128
X79.349 Y33.078
X79.38 Y32.986
X79.383 Y32.973
X79.417 Y32.954
X79.398 Y32.92
X79.395 Y32.93 Z-1.65
Z-1.73
X79.393 Y32.939 Z-1.74
X79.383 Y32.973
X79.38 Y32.986
X79.349 Y33.078
X79.326 Y33.128
X79.253 Y33.249
X79.339 Y33.333
X79.233 Y33.287
X79.237 Y33.278 Z-1.75
Z-1.83
X79.242 Y33.269 Z-1.84
X79.253 Y33.249
X79.326 Y33.128
X79.349 Y33.078
X79.38 Y32.986
X79.383 Y32.973
X79.417 Y32.954
X79.398 Y32.92
X79.395 Y32.93 Z-1.85
Z-1.93
X79.393 Y32.939 Z-1.94
X79.383 Y32.973
X79.38 Y32.986
X79.349 Y33.078
X79.326 Y33.128
X79.253 Y33.249
X79.339 Y33.333
X79.233 Y33.287
X79.237 Y33.278 Z-1.95
Z-2.03
X79.242 Y33.269 Z-2.04
X79.253 Y33.249
X79.326 Y33.128
X79.349 Y33.078
X79.38 Y32.986
X79.383 Y32.973
X79.417 Y32.954
X79.398 Y32.92
X79.395 Y32.93 Z-2.05
Z-2.13
X79.393 Y32.939 Z-2.14
X79.383 Y32.973
X79.38 Y32.986
X79.349 Y33.078
X79.326 Y33.128
X79.253 Y33.249
X79.339 Y33.333
X79.233 Y33.287
X79.237 Y33.278 Z-2.15
Z-2.23
X79.242 Y33.269 Z-2.24
X79.253 Y33.249
X79.326 Y33.128
X79.349 Y33.078
X79.38 Y32.986
X79.383 Y32.973
X79.417 Y32.954
X79.398 Y32.92
X79.395 Y32.93 Z-2.25
Z-2.33
X79.393 Y32.939 Z-2.34
X79.383 Y32.973
X79.38 Y32.986
X79.349 Y33.078
X79.326 Y33.128
X79.253 Y33.249
X79.339 Y33.333
X79.233 Y33.287
X79.237 Y33.278 Z-2.35
Z-2.43
X79.242 Y33.269 Z-2.44
X79.253 Y33.249
X79.326 Y33.128
X79.349 Y33.078
X79.38 Y32.986
X79.383 Y32.973
X79.417 Y32.954
X79.398 Y32.92
X79.395 Y32.93 Z-2.45
Z-2.53
X79.393 Y32.939 Z-2.54
X79.383 Y32.973
X79.38 Y32.986
X79.349 Y33.078
X79.326 Y33.128
X79.253 Y33.249
X79.339 Y33.333
X79.233 Y33.287
X79.237 Y33.278 Z-2.55
Z-2.63
X79.242 Y33.269 Z-2.64
X79.253 Y33.249
X79.326 Y33.128
X79.349 Y33.078
X79.38 Y32.986
X79.383 Y32.973
X79.417 Y32.954
X79.398 Y32.92
X79.395 Y32.93 Z-2.65
Z-2.73
X79.393 Y32.939 Z-2.74
X79.383 Y32.973
X79.38 Y32.986
X79.349 Y33.078
X79.326 Y33.128
X79.253 Y33.249
X79.339 Y33.333
X79.233 Y33.287
X79.237 Y33.278 Z-2.75
Z-2.83
X79.242 Y33.269 Z-2.84
X79.253 Y33.249
X79.326 Y33.128
X79.349 Y33.078
X79.38 Y32.986
X79.383 Y32.973
X79.391 Y32.961
X79.403 Y32.954
X79.417
X79.436 Y32.953
X79.449 Y32.94
X79.452 Y32.922
X79.443 Y32.907
X79.426 Y32.9
X79.408 Y32.905
X79.398 Y32.92
X79.395 Y32.93 Z-2.85
Z-2.918
X79.393 Y32.939 Z-2.928
X79.383 Y32.973
X79.38 Y32.986
X79.349 Y33.078
X79.326 Y33.128
X79.253 Y33.249
X79.252 Y33.25
X78.126 Y36.03
X78.122 Y36.04 Z-2.918
G0 Z5.
X78.19 Y30.272
Z1.724
G1 Z1.669 F17.
Z-0.878 F50.
X78.187 Z-0.881
X78.177 Y30.268
X78.133 Y30.194
X78.127 Y30.184
X77.799 Y29.691
X77.233 Y28.873
X77.223 Y28.846
X77.228 Y28.818
X77.247 Y28.797
X77.265 Y28.775
X77.27 Y28.747
X77.26 Y28.72
X77.239 Y28.702
X77.211 Y28.697
X77.184 Y28.706
X77.166 Y28.728
X77.161 Y28.756
X77.17 Y28.783
X77.176 Y28.791 Z-0.891
Z-0.971
X77.182 Y28.799 Z-0.981
X77.233 Y28.873
X77.799 Y29.691
X78.127 Y30.183
X78.133 Y30.194
X78.173 Y30.26
X78.321 Y30.243
X78.246 Y30.371
X78.241 Y30.363 Z-0.991
Z-1.01
X78.235 Y30.355 Z-1.02
X78.173 Y30.26
X78.133 Y30.194
X78.127 Y30.183
X77.799 Y29.691
X77.233 Y28.873
X77.223 Y28.846
X77.228 Y28.818
X77.247 Y28.797
X77.265 Y28.775
X77.27 Y28.747
X77.26 Y28.72
X77.239 Y28.702
X77.211 Y28.697
X77.184 Y28.706
X77.166 Y28.728
X77.161 Y28.756
X77.17 Y28.783
X77.176 Y28.791 Z-1.03
Z-1.105
X77.182 Y28.799 Z-1.115
X77.233 Y28.873
X77.799 Y29.691
X78.127 Y30.183
X78.133 Y30.194
X78.173 Y30.26
X78.304 Y30.214
X78.211 Y30.311
X78.205 Y30.303 Z-1.125
Z-1.205
X78.199 Y30.295 Z-1.215
X78.133 Y30.194
X78.127 Y30.183
X77.799 Y29.691
X77.233 Y28.873
X77.223 Y28.846
X77.228 Y28.818
X77.247 Y28.797
X77.265 Y28.775
X77.27 Y28.747
X77.26 Y28.72
X77.239 Y28.702
X77.211 Y28.697
X77.184 Y28.706
X77.166 Y28.728
X77.161 Y28.756
X77.17 Y28.783
X77.176 Y28.791 Z-1.225
Z-1.248
X77.182 Y28.799 Z-1.258
X77.233 Y28.873
X77.799 Y29.691
X78.127 Y30.183
X78.133 Y30.194
X78.169 Y30.253
X78.314 Y30.232
X78.238 Y30.357
X78.232 Y30.348 Z-1.268
Z-1.344
X78.226 Y30.34 Z-1.354
X78.164 Y30.245
X78.133 Y30.194
X78.127 Y30.183
X77.799 Y29.691
X77.233 Y28.873
X77.223 Y28.847
X77.228 Y28.819
X77.246 Y28.797
X77.247 Y28.796
X77.265 Y28.775
X77.27 Y28.747
X77.26 Y28.72
X77.238 Y28.702
X77.21 Y28.697
X77.184 Y28.707
X77.166 Y28.728
X77.161 Y28.756
X77.17 Y28.783
X77.176 Y28.791 Z-1.364
Z-1.444
X77.182 Y28.799 Z-1.454
X77.233 Y28.873
X77.799 Y29.691
X78.127 Y30.183
X78.134 Y30.194
X78.16 Y30.238
X78.307 Y30.22
X78.231 Y30.346
X78.226 Y30.338 Z-1.464
Z-1.487
X78.22 Y30.33 Z-1.497
X78.16 Y30.238
X78.134 Y30.194
X78.127 Y30.183
X77.799 Y29.691
X77.233 Y28.873
X77.223 Y28.847
X77.228 Y28.819
X77.246 Y28.797
X77.247 Y28.796
X77.265 Y28.775
X77.27 Y28.747
X77.26 Y28.72
X77.238 Y28.702
X77.21 Y28.697
X77.184 Y28.707
X77.166 Y28.728
X77.161 Y28.756
X77.17 Y28.783
X77.176 Y28.791 Z-1.507
Z-1.587
X77.182 Y28.799 Z-1.597
X77.233 Y28.873
X77.799 Y29.691
X78.127 Y30.184
X78.134 Y30.194
X78.16 Y30.238
X78.305 Y30.216
X78.227 Y30.339
X78.221 Y30.33 Z-1.607
Z-1.63
X78.216 Y30.322 Z-1.64
X78.156 Y30.231
X78.134 Y30.194
X78.127 Y30.184
X77.8 Y29.691
X77.233 Y28.873
X77.223 Y28.847
X77.228 Y28.819
X77.246 Y28.797
X77.247 Y28.796
X77.265 Y28.775
X77.27 Y28.747
X77.26 Y28.72
X77.238 Y28.702
X77.21 Y28.697
X77.184 Y28.707
X77.166 Y28.728
X77.161 Y28.756
X77.17 Y28.783
X77.176 Y28.791 Z-1.65
Z-1.73
X77.182 Y28.799 Z-1.74
X77.233 Y28.873
X77.8 Y29.691
X78.127 Y30.184
X78.134 Y30.194
X78.156 Y30.231
X78.299 Y30.207
X78.221 Y30.328
X78.215 Y30.32 Z-1.75
Z-1.83
X78.209 Y30.312 Z-1.84
X78.152 Y30.223
X78.134 Y30.194
X78.128 Y30.184
X77.8 Y29.691
X77.233 Y28.873
X77.223 Y28.845
X77.228 Y28.817
X77.247 Y28.794
X77.266 Y28.772
X77.271 Y28.743
X77.261 Y28.715
X77.239 Y28.696
X77.21 Y28.691
X77.182 Y28.701
X77.163 Y28.723
X77.158 Y28.752
X77.168 Y28.78
X77.174 Y28.788 Z-1.85
Z-1.93
X77.179 Y28.796 Z-1.94
X77.233 Y28.873
X77.8 Y29.691
X78.128 Y30.183
X78.134 Y30.194
X78.147 Y30.216
X78.292 Y30.194
X78.214 Y30.316
X78.208 Y30.308 Z-1.95
Z-2.03
X78.202 Y30.3 Z-2.04
X78.147 Y30.215
X78.134 Y30.194
X78.128 Y30.183
X77.8 Y29.691
X77.233 Y28.873
X77.223 Y28.851
Y28.828
X77.232 Y28.806
X77.248 Y28.789
X77.267 Y28.767
X77.274 Y28.74
X77.268 Y28.712
X77.25 Y28.69
X77.224 Y28.679
X77.196 Y28.68
X77.171 Y28.695
X77.156 Y28.719
X77.153 Y28.747
X77.163 Y28.773
X77.169 Y28.782 Z-2.05
Z-2.13
X77.175 Y28.79 Z-2.14
X77.233 Y28.873
X77.8 Y29.691
X78.128 Y30.183
X78.135 Y30.194
X78.144 Y30.209
X78.286 Y30.184
X78.206 Y30.302
X78.2 Y30.294 Z-2.15
Z-2.23
X78.194 Y30.286 Z-2.24
X78.141 Y30.204
X78.135 Y30.194
X78.128 Y30.183
X77.8 Y29.691
X77.229 Y28.868
X77.22 Y28.847
X77.219 Y28.823
X77.228 Y28.801
X77.245 Y28.784
X77.264 Y28.763
X77.271 Y28.735
X77.265 Y28.707
X77.247 Y28.685
X77.221 Y28.674
X77.193 Y28.676
X77.168 Y28.69
X77.153 Y28.714
X77.15 Y28.742
X77.16 Y28.768
X77.166 Y28.777 Z-2.25
Z-2.33
X77.171 Y28.785 Z-2.34
X77.229 Y28.868
X77.8 Y29.691
X78.128 Y30.183
X78.135 Y30.194
X78.141 Y30.204
X78.282 Y30.177
X78.201 Y30.294
X78.195 Y30.286 Z-2.35
Z-2.43
X78.189 Y30.278 Z-2.44
X78.138 Y30.199
X78.135 Y30.194
X78.128 Y30.183
X77.687 Y29.527
X77.226 Y28.864
X77.217 Y28.842
X77.216 Y28.817
X77.225 Y28.795
X77.242 Y28.777
X77.261 Y28.756
X77.269 Y28.728
X77.262 Y28.699
X77.244 Y28.677
X77.217 Y28.665
X77.188 Y28.667
X77.163 Y28.681
X77.148 Y28.706
X77.145 Y28.735
X77.155 Y28.762
X77.161 Y28.77 Z-2.45
Z-2.53
X77.167 Y28.778 Z-2.54
X77.222 Y28.858
X77.687 Y29.527
X78.128 Y30.183
X78.135 Y30.194
X78.286 Y30.185
X78.211 Y30.314
X78.206 Y30.306 Z-2.55
Z-2.63
X78.201 Y30.297 Z-2.64
X78.132 Y30.188
X78.128 Y30.183
X77.687 Y29.527
X77.222 Y28.858
X77.213 Y28.837
Y28.814
X77.221 Y28.793
X77.237 Y28.776
X77.255 Y28.756
X77.262 Y28.729
X77.257 Y28.703
X77.239 Y28.681
X77.214 Y28.67
X77.187 Y28.672
X77.163 Y28.686
X77.148 Y28.709
X77.145 Y28.736
X77.155 Y28.762
X77.161 Y28.77 Z-2.65
Z-2.73
X77.167 Y28.778 Z-2.74
X77.222 Y28.858
X77.687 Y29.527
X78.128 Y30.183
X78.132 Y30.188
X78.28 Y30.175
X78.205 Y30.304
X78.2 Y30.296 Z-2.75
Z-2.83
X78.195 Y30.287 Z-2.84
X78.132 Y30.188
X78.128 Y30.182
X77.63 Y29.444
X77.224 Y28.86
X77.215 Y28.839
X77.214 Y28.815
X77.223 Y28.793
X77.239 Y28.776
X77.258 Y28.755
X77.265 Y28.727
X77.259 Y28.699
X77.241 Y28.677
X77.215 Y28.666
X77.187 Y28.668
X77.162 Y28.682
X77.147 Y28.706
X77.144 Y28.734
X77.155 Y28.761
X77.16 Y28.769 Z-2.85
Z-2.918
X77.166 Y28.777 Z-2.928
X77.224 Y28.86
X77.63 Y29.444
X78.128 Y30.182
X78.132 Y30.188
X79.739 Y32.721
X79.745 Y32.73 Z-2.918
G0 Z5.
X80.529 Y29.036
Z1.724
G1 Z1.669 F17.
Z-0.878 F50.
X80.53 Y29.034 Z-0.881
Y29.023
X80.475 Y28.929
X80.384 Y28.805
X80.223 Y28.809
X80.27 Y28.649
X80.277 Y28.657 Z-0.891
Z-0.971
X80.283 Y28.664 Z-0.981
X80.325 Y28.716
X80.446 Y28.882
X80.522 Y29.011
X80.423 Y29.107
X80.557 Y29.077
X80.553 Y29.068 Z-0.991
Z-1.01
X80.548 Y29.059 Z-1.02
X80.522 Y29.011
X80.446 Y28.882
X80.328 Y28.721
X80.201 Y28.776
X80.281 Y28.665
X80.287 Y28.672 Z-1.03
Z-1.105
X80.294 Y28.68 Z-1.115
X80.335 Y28.732
X80.446 Y28.883
X80.515 Y29.
X80.415 Y29.096
X80.548 Y29.065
X80.544 Y29.056 Z-1.125
Z-1.205
X80.539 Y29.047 Z-1.215
X80.511 Y28.995
X80.446 Y28.884
X80.342 Y28.743
X80.213 Y28.794
X80.292 Y28.681
X80.298 Y28.688 Z-1.225
Z-1.248
X80.305 Y28.696 Z-1.258
X80.346 Y28.748
X80.446 Y28.884
X80.512 Y28.996
X80.411 Y29.091
X80.545 Y29.06
X80.54 Y29.051 Z-1.268
Z-1.344
X80.536 Y29.042 Z-1.354
X80.508 Y28.99
X80.446 Y28.885
X80.353 Y28.758
X80.226 Y28.813
X80.306 Y28.702
X80.312 Y28.71 Z-1.364
Z-1.444
X80.319 Y28.717 Z-1.454
X80.36 Y28.769
X80.445 Y28.886
X80.504 Y28.985
X80.404 Y29.08
X80.538 Y29.049
X80.533 Y29.04 Z-1.464
Z-1.487
X80.529 Y29.031 Z-1.497
X80.501 Y28.98
X80.445 Y28.886
X80.362 Y28.771
X80.235 Y28.826
X80.315 Y28.716
X80.321 Y28.723 Z-1.507
Z-1.587
X80.328 Y28.731 Z-1.597
X80.369 Y28.783
X80.445 Y28.887
X80.497 Y28.975
X80.398 Y29.071
X80.532 Y29.041
X80.528 Y29.032 Z-1.607
Z-1.63
X80.523 Y29.023 Z-1.64
X80.497 Y28.975
X80.445 Y28.887
X80.373 Y28.789
X80.219 Y28.803
X80.273 Y28.653
X80.28 Y28.661 Z-1.65
Z-1.93
X80.286 Y28.668 Z-1.94
X80.327 Y28.72
X80.414 Y28.839
X80.477 Y28.944
X80.377 Y29.039
X80.51 Y29.008
X80.506 Y28.999 Z-1.95
Z-2.03
X80.501 Y28.99 Z-2.04
X80.473 Y28.939
X80.414 Y28.839
X80.331 Y28.726
X80.204 Y28.78
X80.284 Y28.67
X80.29 Y28.677 Z-2.05
Z-2.13
X80.297 Y28.685 Z-2.14
X80.338 Y28.737
X80.414 Y28.84
X80.469 Y28.933
X80.37 Y29.029
X80.503 Y28.998
X80.498 Y28.989 Z-2.15
Z-2.23
X80.494 Y28.98 Z-2.24
X80.466 Y28.928
X80.413 Y28.84
X80.345 Y28.747
X80.204 Y28.78
X80.269 Y28.648
X80.275 Y28.655 Z-2.25
Z-2.43
X80.282 Y28.663 Z-2.44
X80.323 Y28.715
X80.397 Y28.815
X80.453 Y28.909
X80.353 Y29.004
X80.486 Y28.973
X80.482 Y28.964 Z-2.45
Z-2.53
X80.477 Y28.955 Z-2.54
X80.449 Y28.904
X80.397 Y28.816
X80.33 Y28.725
X80.183 Y28.75
X80.243 Y28.611
X80.249 Y28.618 Z-2.55
Z-2.83
X80.256 Y28.626 Z-2.84
X80.285 Y28.662
X80.379 Y28.791
X80.425 Y28.867
X80.328 Y28.967
X80.464 Y28.94
X80.459 Y28.931 Z-2.85
Z-2.918
X80.455 Y28.922 Z-2.928
X80.425 Y28.867
X80.379 Y28.791
X80.282 Y28.658
X80.281 Y28.657
X78.147 Y26.548
X78.14 Y26.541 Z-2.918
G0 Z5.
X83.53 Y29.548
Z2.505
G1 Z2.3 F17.
Z-0.295 F50.
X83.534 Y29.547 Z-0.299
X83.54 Y29.54
X83.557 Y29.481
X83.574 Y29.437
X83.6 Y29.397
X83.656 Y29.325
X83.66 Y29.32
X83.495 Y29.2
X83.473 Y29.182
X83.39 Y29.106
X83.305 Y29.185
X83.33 Y29.054
X83.338 Y29.061 Z-0.309
Z-0.389
X83.346 Y29.067 Z-0.399
X83.387 Y29.102
X83.472 Y29.181
X83.495 Y29.2
X83.66 Y29.32 F13.
X83.656 Y29.325 F50.
X83.6 Y29.397 F13.
X83.574 Y29.437 F50.
X83.557 Y29.481
X83.54 Y29.54
X83.418 Y29.509
X83.528 Y29.574
X83.531 Y29.564 Z-0.409
Z-0.489
X83.535 Y29.555 Z-0.499
X83.54 Y29.54
X83.557 Y29.481
X83.574 Y29.437
X83.6 Y29.397
X83.656 Y29.325
X83.659 Y29.321
X83.494 Y29.2
X83.471 Y29.181
X83.384 Y29.099
X83.291 Y29.179
X83.312 Y29.038
X83.32 Y29.044 Z-0.509
Z-0.533
X83.328 Y29.051 Z-0.543
X83.387 Y29.102
X83.471 Y29.181
X83.491 Y29.197
X83.657 Y29.324 F13.
X83.6 Y29.397
X83.574 Y29.437 F50.
X83.557 Y29.481
X83.54 Y29.54
X83.515 Y29.553
X83.526 Y29.577
X83.53 Y29.568 Z-0.553
Z-0.633
X83.534 Y29.559 Z-0.643
X83.54 Y29.54
X83.557 Y29.481
X83.574 Y29.437
X83.6 Y29.397
X83.657 Y29.324
X83.49 Y29.197
X83.471 Y29.18
X83.385 Y29.1
X83.287 Y29.178
X83.302 Y29.028
X83.31 Y29.034 Z-0.653
Z-0.723
X83.318 Y29.04 Z-0.733
X83.383 Y29.097
X83.471 Y29.18
X83.483 Y29.191
X83.596 Y29.284 F13.
X83.611 Y29.296
X83.655 Y29.327
X83.6 Y29.397 F50.
X83.574 Y29.437
X83.557 Y29.481
X83.538 Y29.546
X83.512 Y29.559
X83.524 Y29.585
X83.528 Y29.576 Z-0.743
Z-0.771
X83.531 Y29.567 Z-0.781
X83.536 Y29.552
X83.557 Y29.481
X83.574 Y29.437
X83.6 Y29.397
X83.655 Y29.327
X83.611 Y29.296
X83.596 Y29.284
X83.483 Y29.191
X83.471 Y29.18
X83.383 Y29.097
X83.381 Y29.096
X80.904 Y27.404
X80.896 Y27.398 Z-0.771
G0 Z5.
X84.33 Y31.316
Z2.505
G1 Z2.3 F17.
Z-0.296 F50.
X84.333 Z-0.299
X84.343 Y31.32
X84.608 Y31.697
X84.613 Y31.704
X85.143 Y32.404
X85.218 Y32.497
X85.288 Y32.578
X85.311 Y32.6
X85.52 Y32.788 F13.
X85.508 Y32.799 F50.
X85.437 Y32.87
X85.406 Y32.908
X85.383 Y32.951
X85.348 Y33.037
X85.332 Y33.091
X85.324 Y33.108
X85.308 Y33.119
X85.289 Y33.121
X85.268 Y33.124
X85.251 Y33.138
X85.245 Y33.159
X85.252 Y33.18
X85.269 Y33.193
X85.291 Y33.194
X85.31 Y33.184
X85.32 Y33.164
X85.321 Y33.154 Z-0.309
Z-0.389
X85.323 Y33.144 Z-0.399
X85.332 Y33.091
X85.348 Y33.037
X85.383 Y32.951
X85.406 Y32.908
X85.437 Y32.87
X85.508 Y32.799
X85.517 Y32.79
X85.308 Y32.599
X85.288 Y32.577
X85.214 Y32.492
X85.213 Y32.491
X82.925 Y30.551
X82.917 Y30.545 Z-0.389
G0 Z5.
X81.092 Y35.21
Z-0.398
G1 Y35.209 Z-0.399 F50.
X84.657 Y31.787
X84.658 Y31.774
X84.342 Y31.319
X84.26 Y31.39
X84.319 Y31.299
X84.325 Y31.307 Z-0.409
Z-0.489
X84.332 Y31.314 Z-0.499
X84.355 Y31.346
X84.669 Y31.8
X84.675 Y31.808
X84.761 Y31.923
X84.763 Y31.925
X85.738 Y34.762
X85.742 Y34.772 Z-0.489
G0 Z5.
X85.204 Y32.493
Z2.505
G1 Z2.101 F17.
Z-0.496 F50.
X85.207 Y32.492 Z-0.499
X85.217 Y32.495
X85.288 Y32.577
X85.302 Y32.593
X85.439 Y32.727 F13.
X85.45 Y32.737
X85.514 Y32.793
X85.508 Y32.799 F50.
X85.437 Y32.87
X85.406 Y32.908
X85.383 Y32.951
X85.348 Y33.037
X85.332 Y33.091
X85.324 Y33.108
X85.308 Y33.119
X85.289 Y33.121
X85.268 Y33.124
X85.251 Y33.138
X85.245 Y33.159
X85.252 Y33.18
X85.269 Y33.193
X85.291 Y33.194
X85.31 Y33.184
X85.32 Y33.164
X85.321 Y33.154 Z-0.509
Z-0.533
X85.323 Y33.144 Z-0.543
X85.332 Y33.091
X85.348 Y33.037
X85.383 Y32.951
X85.406 Y32.908
X85.437 Y32.87
X85.508 Y32.799
X85.514 Y32.793
X85.45 Y32.738
X85.439 Y32.727
X85.302 Y32.592
X85.288 Y32.577
X85.217 Y32.495
X84.773 Y31.942
X84.352 Y31.342
X84.307 Y31.335
X84.312 Y31.289
X84.318 Y31.297 Z-0.553
Z-0.633
X84.325 Y31.305 Z-0.643
X84.348 Y31.336
X84.776 Y31.951
X84.777 Y31.954
X85.643 Y34.826
X85.646 Y34.836 Z-0.633
G0 Z5.
X85.198 Y32.484
Z2.505
G1 Z1.907 F17.
Z-0.64 F50.
X85.201 Y32.483 Z-0.643
X85.211 Y32.486
X85.431 Y32.722
X85.451 Y32.741 F13.
X85.513 Y32.794
X85.508 Y32.799 F50.
X85.437 Y32.87
X85.406 Y32.908
X85.383 Y32.951
X85.348 Y33.037
X85.332 Y33.091
X85.324 Y33.108
X85.308 Y33.119
X85.289 Y33.121
X85.268 Y33.124
X85.251 Y33.138
X85.245 Y33.159
X85.252 Y33.18
X85.269 Y33.193
X85.291 Y33.194
X85.31 Y33.184
X85.32 Y33.164
X85.321 Y33.154 Z-0.653
Z-0.723
X85.323 Y33.144 Z-0.733
X85.332 Y33.091
X85.348 Y33.037
X85.383 Y32.951
X85.406 Y32.908
X85.437 Y32.87
X85.508 Y32.799
X85.512 Y32.795
X85.451 Y32.741
X85.431 Y32.722
X85.211 Y32.486
X84.729 Y32.454
X84.795 Y31.98
X84.345 Y31.331
X84.307 Y31.325
X84.311 Y31.287
X84.317 Y31.295 Z-0.743
Z-0.771
X84.323 Y31.303 Z-0.781
X84.345 Y31.331
X84.807 Y31.997
X84.743 Y32.456
X85.211 Y32.486
X85.431 Y32.722
X85.451 Y32.741 F13.
X85.512 Y32.795
X85.508 Y32.799 F50.
X85.437 Y32.87
X85.406 Y32.908
X85.383 Y32.951
X85.348 Y33.037
X85.332 Y33.091
X84.829 Y36.048
X84.827 Y36.058 Z-0.771
G0 Z5.
X81.289 Y35.63
Z-0.296
G1 X81.292 Y35.629 Z-0.299 F50.
X86.204 Y35.282
X86.213 Y35.287
X86.673 Y36.051
X86.683 Y36.066
X86.8 Y36.231
X86.818 Y36.254
X86.989 Y36.444 F13.
X86.962 Y36.464 F50.
X86.883 Y36.531
X86.847 Y36.569
X86.82 Y36.613
X86.798 Y36.659
X86.688 Y36.619
X86.777 Y36.697
X86.782 Y36.689 Z-0.309
Z-0.389
X86.787 Y36.68 Z-0.399
X86.798 Y36.659
X86.82 Y36.613
X86.847 Y36.569
X86.883 Y36.531
X86.962 Y36.464
X86.987 Y36.445
X86.818 Y36.254
X86.801 Y36.232
X86.642 Y36.007
X86.633 Y35.993
X86.409 Y35.625
X86.375 Y35.622
X86.376 Y35.596
X86.382 Y35.604 Z-0.409
Z-0.489
X86.388 Y35.612 Z-0.499
X86.446 Y35.7
X86.546 Y35.866
X86.555 Y35.88
X86.801 Y36.233
X86.815 Y36.25
X86.931 Y36.39 F13.
X86.941 Y36.4
X86.984 Y36.447
X86.962 Y36.464 F50.
X86.883 Y36.531
X86.847 Y36.569
X86.82 Y36.613
X86.798 Y36.659
X86.688 Y36.619
X86.777 Y36.697
X86.782 Y36.689 Z-0.509
Z-0.533
X86.787 Y36.68 Z-0.543
X86.798 Y36.659
X86.82 Y36.613
X86.847 Y36.569
X86.883 Y36.531
X86.962 Y36.464
X86.984 Y36.447
X86.94 Y36.401
X86.93 Y36.389
X86.814 Y36.25
X86.802 Y36.233
X86.555 Y35.88
X86.546 Y35.866
X86.41 Y35.642
X86.408 Y35.668
X86.414 Y35.676 Z-0.553
Z-0.633
X86.421 Y35.683 Z-0.643
X86.453 Y35.727
X86.723 Y36.124
X86.732 Y36.136
X86.8 Y36.223
X86.922 Y36.382 F13.
X86.938 Y36.401
X86.982 Y36.448
X86.962 Y36.464 F50.
X86.883 Y36.531
X86.847 Y36.569
X86.82 Y36.613
X86.798 Y36.659
X86.687 Y36.619
X86.777 Y36.697
X86.782 Y36.689 Z-0.653
Z-0.723
X86.787 Y36.68 Z-0.733
X86.798 Y36.659
X86.82 Y36.613
X86.847 Y36.569
X86.883 Y36.531
X86.962 Y36.464
X86.982 Y36.448
X86.937 Y36.401
X86.92 Y36.381
X86.732 Y36.135
X86.724 Y36.125
X86.451 Y35.73
X86.394 Y35.721
X86.401 Y35.664
X86.407 Y35.672 Z-0.743
Z-0.771
X86.414 Y35.679 Z-0.781
X86.44 Y35.714
X86.724 Y36.125
X86.732 Y36.135
X86.799 Y36.223
X86.92 Y36.381 F13.
X86.937 Y36.401
X86.982 Y36.448
X86.962 Y36.464 F50.
X86.883 Y36.531
X86.847 Y36.569
X86.82 Y36.613
X86.798 Y36.659
X86.797 Y36.661
X85.089 Y39.127
X85.084 Y39.136 Z-0.771
G0 Z5.
X88.015 Y42.072
Z2.505
G1 Z2.3 F17.
Z-0.296 F50.
X88.018 Y42.07 Z-0.299
X88.022 Y42.061
X87.82 Y40.898
X87.494 Y40.574
X87.879 Y40.418
X87.922 Y40.36
X87.953 Y40.325
X87.991 Y40.296
X88.069 Y40.248
X87.937 Y40.07
X87.921 Y40.045
X87.864 Y39.945
X87.754 Y39.995
X87.819 Y39.871
X87.824 Y39.879 Z-0.309
Z-0.389
X87.83 Y39.887 Z-0.399
X87.859 Y39.934
X87.921 Y40.044
X87.937 Y40.07
X88.069 Y40.248 F13.
X87.991 Y40.296
X87.953 Y40.325 F50.
X87.922 Y40.36
X87.879 Y40.418
X87.494 Y40.574
X87.82 Y40.898
X88.02 Y42.052
X87.909 Y42.095
X88.026 Y42.111
X88.025 Y42.101 Z-0.409
Z-0.489
X88.024 Y42.091 Z-0.499
X88.019 Y42.052
X87.82 Y40.898
X87.494 Y40.574
X87.879 Y40.418
X87.922 Y40.36
X87.953 Y40.325
X87.991 Y40.296
X88.068 Y40.249
X87.937 Y40.069
X87.921 Y40.044
X87.859 Y39.934
X87.741 Y39.985
X87.807 Y39.849
X87.812 Y39.857 Z-0.509
Z-0.533
X87.818 Y39.865 Z-0.543
X87.852 Y39.922
X87.921 Y40.044
X87.934 Y40.065
X88.065 Y40.251 F13.
X87.991 Y40.296
X87.953 Y40.325 F50.
X87.922 Y40.36
X87.879 Y40.418
X87.494 Y40.574
X87.82 Y40.898
X88.019 Y42.052
X87.909 Y42.098
X88.027 Y42.115
X88.026 Y42.105 Z-0.553
Z-0.633
X88.025 Y42.095 Z-0.643
X88.021 Y42.061
X87.82 Y40.898
X87.494 Y40.574
X87.879 Y40.418
X87.922 Y40.36
X87.953 Y40.325
X87.991 Y40.296
X88.065 Y40.251
X87.934 Y40.065
X87.92 Y40.043
X87.848 Y39.914
X87.741 Y39.941
X87.794 Y39.825
X87.799 Y39.833 Z-0.653
Z-0.723
X87.805 Y39.842 Z-0.733
X87.842 Y39.902
X87.92 Y40.043
X87.934 Y40.065
X88.065 Y40.251 F13.
X87.991 Y40.296
X87.953 Y40.325 F50.
X87.922 Y40.36
X87.879 Y40.418
X87.498 Y40.571
X87.819 Y40.891
X88.021 Y42.061
X87.914 Y42.101
X88.027 Y42.115
X88.026 Y42.105 Z-0.743
Z-0.771
X88.025 Y42.095 Z-0.781
X88.021 Y42.061
X87.819 Y40.891
X87.498 Y40.571
X87.879 Y40.418
X87.922 Y40.36
X87.953 Y40.325
X87.991 Y40.296
X88.065 Y40.251
X87.934 Y40.065
X87.92 Y40.043
X87.842 Y39.902
X87.841 Y39.9
X85.989 Y37.54
X85.983 Y37.532 Z-0.771
G0 Z5.
X85.711 Y41.9
Z1.724
G1 Z1.669 F17.
Z-0.878 F50.
X85.713 Y41.898 Z-0.881
X85.717 Y41.888
X85.698 Y41.754
X85.66 Y41.599
X85.614 Y41.573
X85.638 Y41.528
X85.641 Y41.537 Z-0.891
Z-0.971
X85.644 Y41.547 Z-0.981
X85.661 Y41.607
X85.697 Y41.754
X85.715 Y41.875
X85.681 Y41.918
X85.722 Y41.953
X85.721 Y41.943 Z-0.991
Z-1.01
Y41.933 Z-1.02
X85.715 Y41.875
X85.697 Y41.754
X85.663 Y41.614
X85.617 Y41.588
X85.641 Y41.543
X85.644 Y41.552 Z-1.03
Z-1.105
X85.647 Y41.562 Z-1.115
X85.664 Y41.622
X85.696 Y41.754
X85.712 Y41.861
X85.682 Y41.899
X85.717 Y41.929
Y41.919 Z-1.125
Z-1.205
X85.716 Y41.909 Z-1.215
X85.71 Y41.851
X85.691 Y41.723
X85.655 Y41.575
X85.606 Y41.548
X85.632 Y41.499
X85.635 Y41.509 Z-1.225
Z-1.248
X85.638 Y41.518 Z-1.258
X85.656 Y41.582
X85.691 Y41.723
X85.71 Y41.851
X85.68 Y41.888
X85.715 Y41.919
X85.714 Y41.909 Z-1.268
Z-1.344
X85.713 Y41.899 Z-1.354
X85.707 Y41.841
X85.686 Y41.692
X85.646 Y41.532
X85.602 Y41.507
X85.624 Y41.463
X85.627 Y41.472 Z-1.364
Z-1.444
X85.631 Y41.482 Z-1.454
X85.648 Y41.542
X85.685 Y41.692
X85.706 Y41.834
X85.673 Y41.875
X85.712 Y41.909
Y41.899 Z-1.464
Z-1.487
X85.711 Y41.889 Z-1.497
X85.704 Y41.827
X85.685 Y41.692
X85.648 Y41.542
X85.582 Y41.504
X85.619 Y41.436
X85.622 Y41.445 Z-1.507
Z-1.587
X85.625 Y41.455 Z-1.597
X85.642 Y41.515
X85.679 Y41.662
X85.698 Y41.797
X85.663 Y41.842
X85.706 Y41.879
Y41.869 Z-1.607
Z-1.63
X85.705 Y41.859 Z-1.64
X85.698 Y41.797
X85.679 Y41.662
X85.642 Y41.515
X85.59 Y41.485
X85.617 Y41.431
X85.621 Y41.441 Z-1.65
Z-1.73
X85.624 Y41.45 Z-1.74
X85.641 Y41.51
X85.679 Y41.662
X85.699 Y41.803
X85.668 Y41.843
X85.705 Y41.875
Y41.865 Z-1.75
Z-1.83
X85.704 Y41.855 Z-1.84
X85.697 Y41.793
X85.683 Y41.692
X85.652 Y41.567
X85.609 Y41.542
X85.631 Y41.499
X85.634 Y41.509 Z-1.85
Z-1.93
X85.637 Y41.518 Z-1.94
X85.656 Y41.582
X85.682 Y41.692
X85.696 Y41.786
X85.675 Y41.811
X85.697 Y41.83
X85.696 Y41.82 Z-1.95
Z-2.23
X85.695 Y41.81 Z-2.24
X85.689 Y41.752
X85.671 Y41.631
X85.64 Y41.505
X85.597 Y41.481
X85.619 Y41.437
X85.622 Y41.447 Z-2.25
Z-2.33
X85.625 Y41.456 Z-2.34
X85.643 Y41.52
X85.67 Y41.631
X85.686 Y41.739
X85.656 Y41.777
X85.692 Y41.807
X85.691 Y41.797 Z-2.35
Z-2.43
Y41.787 Z-2.44
X85.684 Y41.725
X85.67 Y41.631
X85.644 Y41.527
X85.563 Y41.48
X85.607 Y41.397
X85.61 Y41.406 Z-2.45
Z-2.918
X85.613 Y41.416 Z-2.928
X85.627 Y41.465
X85.667 Y41.63
X85.673 Y41.671
Y41.672
X85.645 Y44.672
Y44.682 Z-2.918
G0 Z5.
X80.456 Y43.918
Z1.485
G1 Z1.433 F17.
Z-1.113 F50.
X80.455 Y43.919 Z-1.115
X80.45 Y43.93
X80.701 Y44.987
X80.819 Y44.983
X80.718 Y45.044
X80.715 Y45.034 Z-1.125
Z-1.205
X80.711 Y45.025 Z-1.215
X80.701 Y44.987
X80.443 Y43.898
X80.481 Y43.839
X80.424 Y43.799
X80.425 Y43.808 Z-1.225
Z-1.248
X80.427 Y43.818 Z-1.258
X80.441 Y43.891
X80.701 Y44.987
X80.819 Y44.983
X80.718 Y45.044
X80.715 Y45.034 Z-1.268
Z-1.344
X80.711 Y45.025 Z-1.354
X80.701 Y44.987
X80.441 Y43.891
X80.477 Y43.836
X80.424 Y43.799
X80.425 Y43.809 Z-1.364
Z-1.444
X80.427 Y43.818 Z-1.454
X80.441 Y43.891
X80.701 Y44.987
X80.819 Y44.983
X80.718 Y45.044
X80.715 Y45.034 Z-1.464
Z-1.487
X80.711 Y45.025 Z-1.497
X80.701 Y44.987
X80.441 Y43.891
X80.477 Y43.836
X80.424 Y43.799
X80.425 Y43.809 Z-1.507
Z-1.587
X80.427 Y43.818 Z-1.597
X80.441 Y43.891
X80.701 Y44.987
X80.819 Y44.983
X80.718 Y45.044
X80.715 Y45.034 Z-1.607
Z-1.63
X80.711 Y45.025 Z-1.64
X80.701 Y44.987
X80.441 Y43.891
X80.477 Y43.836
X80.424 Y43.799
X80.425 Y43.809 Z-1.65
Z-1.73
X80.427 Y43.818 Z-1.74
X80.441 Y43.891
X80.701 Y44.987
X80.819 Y44.983
X80.718 Y45.044
X80.715 Y45.034 Z-1.75
Z-1.83
X80.711 Y45.025 Z-1.84
X80.701 Y44.987
X80.441 Y43.891
X80.477 Y43.836
X80.424 Y43.799
X80.425 Y43.809 Z-1.85
Z-1.93
X80.427 Y43.818 Z-1.94
X80.441 Y43.891
X80.701 Y44.987
X80.819 Y44.983
X80.718 Y45.044
X80.715 Y45.034 Z-1.95
Z-2.03
X80.711 Y45.025 Z-2.04
X80.701 Y44.987
X80.441 Y43.891
X80.477 Y43.836
X80.424 Y43.799
X80.425 Y43.809 Z-2.05
Z-2.13
X80.427 Y43.818 Z-2.14
X80.441 Y43.891
X80.701 Y44.987
X80.819 Y44.983
X80.718 Y45.044
X80.715 Y45.034 Z-2.15
Z-2.23
X80.711 Y45.025 Z-2.24
X80.701 Y44.987
X80.441 Y43.891
X80.477 Y43.836
X80.424 Y43.799
X80.425 Y43.809 Z-2.25
Z-2.33
X80.427 Y43.818 Z-2.34
X80.441 Y43.891
X80.701 Y44.987
X80.819 Y44.983
X80.718 Y45.044
X80.715 Y45.034 Z-2.35
Z-2.43
X80.711 Y45.025 Z-2.44
X80.701 Y44.987
X80.441 Y43.891
X80.477 Y43.836
X80.424 Y43.799
X80.425 Y43.809 Z-2.45
Z-2.53
X80.427 Y43.818 Z-2.54
X80.441 Y43.891
X80.701 Y44.987
X80.82 Y44.985
X80.719 Y45.047
X80.716 Y45.038 Z-2.55
Z-2.63
X80.713 Y45.028 Z-2.64
X80.701 Y44.987
X80.441 Y43.891
X80.477 Y43.836
X80.424 Y43.799
X80.425 Y43.809 Z-2.65
Z-2.73
X80.427 Y43.818 Z-2.74
X80.441 Y43.891
X80.701 Y44.987
X80.82 Y44.985
X80.719 Y45.047
X80.716 Y45.038 Z-2.75
Z-2.83
X80.713 Y45.028 Z-2.84
X80.701 Y44.987
X80.441 Y43.891
X80.477 Y43.836
X80.424 Y43.799
X80.425 Y43.809 Z-2.85
Z-2.918
X80.427 Y43.818 Z-2.928
X80.441 Y43.891
X80.701 Y44.987
Y44.988
X81.842 Y47.763
X81.846 Y47.773 Z-2.918
G0 Z5.
X75.787 Y42.975
Z1.485
G1 Z1.433 F17.
Z-1.112 F50.
X75.785 Y42.972 Z-1.115
X75.783 Y42.962
X75.965 Y42.505
X76.039 Y42.319 F13.
X76.582 Y42.815 F50.
X76.512 Y42.915
X76.615 Y42.848
X76.609 Y42.841 Z-1.125
Z-1.205
X76.602 Y42.834 Z-1.215
X76.582 Y42.815
X76.039 Y42.319
X75.783 Y42.962
X75.884 Y43.019
X75.768 Y43.007
X75.771 Y42.997 Z-1.225
Z-1.248
X75.774 Y42.988 Z-1.258
X75.783 Y42.962
X75.965 Y42.505
X76.039 Y42.319 F13.
X76.582 Y42.815 F50.
X76.512 Y42.915
X76.615 Y42.848
X76.609 Y42.841 Z-1.268
Z-1.344
X76.602 Y42.834 Z-1.354
X76.582 Y42.815
X76.039 Y42.319
X75.783 Y42.962
X75.884 Y43.019
X75.768 Y43.007
X75.771 Y42.997 Z-1.364
Z-1.444
X75.774 Y42.988 Z-1.454
X75.783 Y42.962
X75.965 Y42.505
X76.039 Y42.319 F13.
X76.582 Y42.815 F50.
X76.512 Y42.915
X76.615 Y42.848
X76.609 Y42.841 Z-1.464
Z-1.487
X76.602 Y42.834 Z-1.497
X76.582 Y42.815
X76.039 Y42.319
X75.783 Y42.962
X75.884 Y43.019
X75.768 Y43.007
X75.771 Y42.997 Z-1.507
Z-1.587
X75.774 Y42.988 Z-1.597
X75.783 Y42.962
X75.965 Y42.505
X76.039 Y42.319 F13.
X76.582 Y42.815 F50.
X76.512 Y42.915
X76.615 Y42.848
X76.609 Y42.841 Z-1.607
Z-1.63
X76.602 Y42.834 Z-1.64
X76.582 Y42.815
X76.039 Y42.319
X75.783 Y42.962
X75.884 Y43.019
X75.768 Y43.007
X75.771 Y42.997 Z-1.65
Z-1.73
X75.774 Y42.988 Z-1.74
X75.783 Y42.962
X75.965 Y42.505
X76.039 Y42.319 F13.
X76.582 Y42.815 F50.
X76.512 Y42.915
X76.615 Y42.848
X76.609 Y42.841 Z-1.75
Z-1.83
X76.602 Y42.834 Z-1.84
X76.582 Y42.815
X76.039 Y42.319
X75.783 Y42.962
X75.884 Y43.019
X75.768 Y43.007
X75.771 Y42.997 Z-1.85
Z-1.93
X75.774 Y42.988 Z-1.94
X75.783 Y42.962
X75.965 Y42.505
X76.039 Y42.319 F13.
X76.582 Y42.815 F50.
X76.512 Y42.915
X76.615 Y42.848
X76.609 Y42.841 Z-1.95
Z-2.03
X76.602 Y42.834 Z-2.04
X76.582 Y42.815
X76.039 Y42.319
X75.783 Y42.962
X75.884 Y43.019
X75.768 Y43.007
X75.771 Y42.997 Z-2.05
Z-2.13
X75.774 Y42.988 Z-2.14
X75.783 Y42.962
X75.965 Y42.505
X76.039 Y42.319 F13.
X76.582 Y42.815 F50.
X76.512 Y42.915
X76.615 Y42.848
X76.609 Y42.841 Z-2.15
Z-2.23
X76.602 Y42.834 Z-2.24
X76.582 Y42.815
X76.039 Y42.319
X75.783 Y42.962
X75.884 Y43.019
X75.768 Y43.007
X75.771 Y42.997 Z-2.25
Z-2.33
X75.774 Y42.988 Z-2.34
X75.783 Y42.962
X75.965 Y42.505
X76.039 Y42.319 F13.
X76.582 Y42.815 F50.
X76.512 Y42.915
X76.615 Y42.848
X76.609 Y42.841 Z-2.35
Z-2.43
X76.602 Y42.834 Z-2.44
X76.582 Y42.815
X76.039 Y42.319
X75.783 Y42.962
X75.884 Y43.019
X75.768 Y43.007
X75.771 Y42.997 Z-2.45
Z-2.53
X75.774 Y42.988 Z-2.54
X75.783 Y42.962
X75.965 Y42.505
X76.039 Y42.319 F13.
X76.582 Y42.815 F50.
X76.512 Y42.915
X76.615 Y42.848
X76.609 Y42.841 Z-2.55
Z-2.63
X76.602 Y42.834 Z-2.64
X76.582 Y42.815
X76.039 Y42.319
X75.783 Y42.962
X75.884 Y43.019
X75.768 Y43.007
X75.771 Y42.997 Z-2.65
Z-2.73
X75.774 Y42.988 Z-2.74
X75.783 Y42.962
X75.965 Y42.505
X76.039 Y42.319 F13.
X76.582 Y42.815 F50.
X76.512 Y42.915
X76.615 Y42.848
X76.609 Y42.841 Z-2.75
Z-2.83
X76.602 Y42.834 Z-2.84
X76.582 Y42.815
X76.039 Y42.319
X75.783 Y42.962
X75.884 Y43.019
X75.768 Y43.007
X75.771 Y42.997 Z-2.85
Z-2.918
X75.774 Y42.988 Z-2.928
X75.783 Y42.962
X75.965 Y42.505
X76.039 Y42.319 F13.
X76.582 Y42.815 F50.
X76.583 Y42.816
X78.456 Y45.159
X78.462 Y45.167 Z-2.918
G0 Z5.
X72.71 Y33.267
Z2.505
G1 Z2.3 F17.
Z-0.296 F50.
X72.713 Y33.266 Z-0.299
X72.718 Y33.257
X72.713 Y33.164
Y33.156
X72.701 Y33.145
X72.512 Y32.96
X72.379 Y32.942
X72.026 Y32.315
X72.091 Y32.195
X72.068 Y31.878
Y31.853
X72.071 Y31.76
X72.074 Y31.726
X72.082 Y31.693
X72.15 Y31.477
X72.154 Y31.467
X72.221 Y31.282
X72.24 Y31.242
X72.267 Y31.205
X72.36 Y31.096
X72.366 Y31.09
X72.503 Y30.941
X72.517 Y30.927
X72.595 Y30.854
X72.63 Y30.827
X72.67 Y30.807
X73.009 Y30.666
X73.061 Y30.651
X73.153 Y30.635
X73.211 Y30.631
X73.55 Y30.65
X73.537 Y30.589
X73.53 Y30.504
Y30.459
X73.539 Y30.414
X73.565 Y30.323
X73.582 Y30.28
X73.606 Y30.241
X73.659 Y30.171
X73.685 Y30.142
X73.716 Y30.117
X74.626 Y29.486
X74.663 Y29.465
X74.724 Y29.436
X74.762 Y29.422
X74.802 Y29.414
X74.894 Y29.404
X74.942 Y29.403
X74.988 Y29.411
X75.081 Y29.437
X75.124 Y29.453
X75.164 Y29.477
X75.234 Y29.53
X75.263 Y29.554
X75.288 Y29.583
X75.342 Y29.658
X75.579 Y29.729
X75.447 Y29.924
X75.448 Y30.01
Y30.02
X75.627 Y30.199
X75.628 Y30.2
X78.056 Y31.962
X78.064 Y31.967 Z-0.289
G0 Z5.
X74.993 Y32.714
Z2.505
G1 Z2.3 F17.
Z-0.295 F50.
X74.991 Y32.711 Z-0.299
X74.983 Y32.706
X74.639 Y32.687
X74.633 Y32.72
X74.611 Y32.812
X74.595 Y32.857
X74.571 Y32.898
X74.554 Y32.922
X74.567 Y33.166
X74.31 Y33.136
X73.678 Y33.576
X73.672 Y33.58
X73.585 Y33.637
X73.576 Y33.684
X73.529 Y33.677
X73.537 Y33.67 Z-0.309
Z-0.389
X73.545 Y33.664 Z-0.399
X73.573 Y33.644
X73.672 Y33.58
X73.678 Y33.576
X74.316 Y33.132
X74.567 Y33.161
X74.554 Y32.922
X74.571 Y32.898
X74.595 Y32.857
X74.611 Y32.812
X74.633 Y32.72 F13.
X74.639 Y32.687
X74.983 Y32.706 F50.
X74.987 Y32.822
X75.026 Y32.711
X75.016 Y32.71 Z-0.409
Z-0.489
X75.006 Y32.708 Z-0.499
X74.983 Y32.706
X74.639 Y32.687
X74.633 Y32.72
X74.611 Y32.812
X74.595 Y32.857
X74.571 Y32.898
X74.554 Y32.922
X74.553 Y32.924
X73.207 Y35.605
X73.202 Y35.614 Z-0.489
G0 Z5.
X71.667 Y31.448
Z2.505
G1 Z2.3 F17.
Z-0.296 F50.
X71.669 Y31.446 Z-0.299
X71.678 Y31.441
X71.765 Y31.446
X71.808 Y31.445
X71.85 Y31.436
X71.927 Y31.413
X71.965 Y31.399
X72. Y31.378
X72.068 Y31.33
X72.104 Y31.298
X72.199 Y31.199
X72.226 Y31.166
X72.247 Y31.129
X72.277 Y31.061
X72.292 Y31.019
X72.299 Y30.975
X72.306 Y30.875
X72.305 Y30.83
X72.296 Y30.786
X72.274 Y30.713
X72.259 Y30.672 F13.
X72.236 Y30.636
X72.211 Y30.602
X72.274 Y30.526
X73.204 Y29.637 F50.
X73.242 Y29.601
X73.263 Y29.579
X73.558 Y29.219
X73.589 Y29.17
X73.634 Y29.078
X73.645 Y29.052
X73.788 Y28.652
X73.796 Y28.626
X74.484 Y25.706
X74.487 Y25.696 Z-0.289
G0 Z5.
X73.709 Y29.454
Z2.505
G1 Z2.151 F17.
Z-0.393 F50.
X73.703 Y29.456 Z-0.399
X73.698 Y29.459
G3 X73.388 Y29.785 I-1.506 J-1.12
G2 X72.825 Y30.286 I6.67 J8.066
G1 X72.803 Y30.316
X72.791 Y30.352
X72.793 Y30.389
X72.806 Y30.424
X72.83 Y30.453
X72.862 Y30.472
X72.899 Y30.48
X72.936 Y30.475
X73.068 Y30.44
X73.135 Y30.429
X73.203 Y30.426
X73.243 Y30.421
X73.28 Y30.407
X73.311 Y30.383
X73.336 Y30.352
X73.352 Y30.316
G3 X73.829 Y29.702 I1.005 J0.289
G1 X73.899 Y29.661
X76.477 Y28.128
X76.486 Y28.123 Z-0.389
G0 Z5.
X73.808 Y28.608
Z2.505
G1 Z2.151 F17.
Z-0.396 F50.
X73.805 Y28.609 Z-0.399
X73.798 Y28.616
X73.788 Y28.651
X73.648 Y29.051
X73.634 Y29.083
X73.587 Y29.175
X73.558 Y29.219
X73.263 Y29.579
X73.242 Y29.601
X72.274 Y30.526
X72.211 Y30.602
X72.236 Y30.636
X72.259 Y30.672
X72.274 Y30.713
X72.296 Y30.786
X72.305 Y30.83
X72.306 Y30.875
X72.299 Y30.975
X72.292 Y31.019
X72.277 Y31.061
X72.247 Y31.129
X72.226 Y31.166
X72.199 Y31.199
X72.104 Y31.298
X72.068 Y31.33
X72. Y31.378
X71.965 Y31.399
X71.927 Y31.413
X71.85 Y31.436
X71.808 Y31.445
X71.765 Y31.446
X71.672 Y31.44
X68.677 Y31.267
X68.667 Y31.266 Z-0.389
G0 Z5.
X72.084 Y32.207
Z2.505
G1 Z2.151 F17.
Z-0.395 F50.
X72.087 Y32.204 Z-0.399
X72.091 Y32.196
X72.068 Y31.878
X72.067 Y31.851
X72.071 Y31.759
X72.074 Y31.726
X72.082 Y31.693
X72.15 Y31.477
X72.154 Y31.467
X72.221 Y31.282
X72.24 Y31.242
X72.267 Y31.205
X72.36 Y31.096
X72.366 Y31.09
X72.503 Y30.941
X72.517 Y30.927
X72.595 Y30.854
X72.63 Y30.827
X72.668 Y30.807
X72.946 Y30.69
X72.969 Y30.682
X73.092 Y30.644
X73.13 Y30.635
X73.169 Y30.633
X73.292 Y30.634
X73.305 Y30.635
X73.55 Y30.65
X73.537 Y30.589
X73.53 Y30.504
Y30.459
X73.539 Y30.414
X73.565 Y30.323
X73.582 Y30.28
X73.606 Y30.241
X73.659 Y30.171
X73.685 Y30.142
X73.716 Y30.117
X74.626 Y29.486
X74.663 Y29.465
X74.724 Y29.436
X74.762 Y29.422
X74.802 Y29.414
X74.894 Y29.404
X74.942 Y29.403
X74.988 Y29.411
X75.081 Y29.437
X75.124 Y29.453
X75.164 Y29.477
X75.234 Y29.53
X75.263 Y29.554
X75.288 Y29.583
X75.342 Y29.658
X75.576 Y29.728
X75.447 Y29.918
X75.448 Y30.01
Y30.021
X75.635 Y30.21
X75.668 Y30.209
X75.67 Y30.241
X75.662 Y30.235 Z-0.409
Z-0.489
X75.655 Y30.228 Z-0.499
X75.635 Y30.21
X75.448 Y30.021 F13.
Y30.01 F50.
X75.447 Y29.918
X75.397 Y26.918
Y26.908 Z-0.489
G0 Z5.
X73.606 Y27.65
Z2.505
G1 Z2.151 F17.
Z-0.396 F50.
X73.603 Z-0.399
X73.593 Y27.646
X73.393 Y27.355
X73.392 Y27.354
X72.1 Y24.647
X72.096 Y24.638 Z-0.389
G0 Z5.
X72.499 Y32.958
Z2.505
G1 Z2.151 F17.
Z-0.396 F50.
X72.502 Y32.957 Z-0.399
X72.512 Y32.96
X72.701 Y33.145 F13.
X72.713 Y33.156
Y33.164 F50.
X72.651 Y33.233
X72.72 Y33.296
X72.719 Y33.286 Z-0.409
Z-0.489
Y33.276 Z-0.499
X72.718 Y33.257
X72.713 Y33.164
Y33.156
X72.701 Y33.145
X72.512 Y32.96
X72.511 Y32.959
X70.066 Y31.22
X70.058 Y31.214 Z-0.489
G0 Z5.
X73.569 Y33.657
Z2.505
G1 Z2.101 F17.
Z-0.496 F50.
Y33.654 Z-0.499
X73.573 Y33.644
X73.672 Y33.58
X73.678 Y33.576
X74.316 Y33.132
X74.356 Y33.14
X74.366 Y33.101
X74.357 Y33.106 Z-0.509
Z-0.533
X74.349 Y33.111 Z-0.543
X74.316 Y33.132
X73.678 Y33.576
X73.672 Y33.58
X73.573 Y33.644
X73.572 Y33.645
X71.341 Y35.65
X71.333 Y35.657 Z-0.533
G0 Z5.
X74.555 Y32.935
Z2.505
G1 Z2.001 F17.
Z-0.54 F50.
X74.553 Y32.933 Z-0.543
X74.554 Y32.922
X74.571 Y32.898
X74.595 Y32.857
X74.611 Y32.812
X74.633 Y32.72 F13.
X74.639 Y32.687
X74.983 Y32.706 F50.
X74.984
X77.917 Y33.337
X77.927 Y33.339 Z-0.533
G0 Z5.
X73.909 Y29.648
Z2.505
G1 Z2.101 F17.
Z-0.493 F50.
X73.907 Y29.653 Z-0.499
X73.903 Y29.658
X73.829 Y29.702
G2 X73.352 Y30.316 I0.527 J0.903
G1 X73.336 Y30.353
X73.311 Y30.384
X73.278 Y30.408
X73.241 Y30.422
X73.201 Y30.426
X73.137 Y30.428
X73.074 Y30.434
X73.011 Y30.447
X72.95 Y30.466
X72.913 Y30.472
X72.875 Y30.466
X72.841 Y30.447
X72.816 Y30.419
X72.802 Y30.383
X72.8 Y30.345
X72.811 Y30.308
X72.834 Y30.277
G3 X73.387 Y29.782 I7.705 J8.06
G2 X73.694 Y29.461 I-1.262 J-1.51
G1 X75.505 Y27.069
X75.511 Y27.061 Z-0.489
G0 Z5.
X73.81 Y28.594
Z2.505
G1 Z2.101 F17.
Z-0.496 F50.
X73.807 Y28.595 Z-0.499
X73.8 Y28.603
X73.789 Y28.65
X73.651 Y29.05
X73.634 Y29.087
X73.584 Y29.179
X73.558 Y29.219
X73.263 Y29.579
X73.242 Y29.601
X72.274 Y30.526
X72.211 Y30.602
X72.236 Y30.636
X72.259 Y30.673
X72.274 Y30.713
X72.296 Y30.786
X72.305 Y30.83
X72.306 Y30.875
X72.299 Y30.975
X72.292 Y31.019
X72.277 Y31.061
X72.247 Y31.129
X72.226 Y31.166
X72.199 Y31.199
X72.104 Y31.298
X72.068 Y31.33
X72. Y31.378
X71.965 Y31.399
X71.927 Y31.413
X71.85 Y31.436
X71.808 Y31.445
X71.765 Y31.446
X71.672 Y31.44
X68.677 Y31.267
X68.667 Y31.266 Z-0.489
G0 Z5.
X72.083 Y32.207
Z2.505
G1 Z2.101 F17.
Z-0.496 F50.
X72.086 Y32.205 Z-0.499
X72.091 Y32.196
X72.067 Y31.879
Y31.85
X72.071 Y31.758
X72.074 Y31.725
X72.082 Y31.693
X72.15 Y31.477
X72.154 Y31.467
X72.221 Y31.282
X72.24 Y31.242
X72.267 Y31.205
X72.36 Y31.096
X72.366 Y31.09
X72.503 Y30.941
X72.517 Y30.927
X72.595 Y30.854
X72.63 Y30.827
X72.669 Y30.807
X73.008 Y30.665
X73.052 Y30.652
X73.113 Y30.638
X73.172 Y30.633
X73.418 Y30.639
X73.433 Y30.64
X73.55 Y30.649
X73.537 Y30.589
X73.53 Y30.504
Y30.459
X73.539 Y30.414
X73.565 Y30.323
X73.582 Y30.28
X73.606 Y30.241
X73.659 Y30.171
X73.685 Y30.142
X73.716 Y30.117
X74.626 Y29.486
X74.663 Y29.465
X74.724 Y29.436
X74.762 Y29.422
X74.802 Y29.414
X74.894 Y29.404
X74.942 Y29.403
X74.988 Y29.411
X75.081 Y29.437
X75.124 Y29.453
X75.164 Y29.477
X75.234 Y29.53
X75.263 Y29.554
X75.288 Y29.583
X75.342 Y29.658
X75.554 Y29.717
X75.446 Y29.882
Y29.892 Z-0.509
Z-0.533
X75.447 Y29.902 Z-0.543
Y29.918
X75.448 Y30.01
Y30.021
X75.635 Y30.21
X75.636 Y30.211
X78.052 Y31.99
X78.06 Y31.996 Z-0.533
G0 Z5.
X73.909 Y29.648
Z2.505
G1 Z2.001 F17.
Z-0.537 F50.
X73.907 Y29.653 Z-0.543
X73.903 Y29.658
X73.829 Y29.702
G2 X73.352 Y30.316 I0.527 J0.903
G1 X73.336 Y30.353
X73.311 Y30.384
X73.278 Y30.408
X73.241 Y30.422
X73.201 Y30.426
X73.137 Y30.428
X73.074 Y30.434
X73.011 Y30.447
X72.95 Y30.465
X72.913 Y30.472
X72.875 Y30.466
X72.841 Y30.447
X72.816 Y30.418
X72.802 Y30.383
X72.8 Y30.345
X72.811 Y30.308
X72.834 Y30.277
G3 X73.386 Y29.783 I7.854 J8.216
G2 X73.693 Y29.461 I-1.287 J-1.536
G1 X75.511 Y27.074
X75.517 Y27.066 Z-0.533
G0 Z5.
X73.81 Y28.59
Z2.505
G1 Z2.001 F17.
Z-0.54 F50.
X73.807 Y28.591 Z-0.543
X73.801 Y28.599
X73.789 Y28.65
X73.651 Y29.05
X73.634 Y29.088
X73.584 Y29.181
X73.558 Y29.219
X73.263 Y29.579
X73.242 Y29.601
X72.274 Y30.526
X72.211 Y30.602
X72.236 Y30.636
X72.259 Y30.673
X72.274 Y30.713
X72.296 Y30.786
X72.305 Y30.83
X72.306 Y30.875
X72.299 Y30.975
X72.292 Y31.019
X72.277 Y31.061
X72.247 Y31.129
X72.226 Y31.166
X72.199 Y31.199
X72.104 Y31.298
X72.068 Y31.33
X72. Y31.378
X71.965 Y31.399
X71.927 Y31.413
X71.85 Y31.436
X71.808 Y31.445
X71.765 Y31.446
X71.672 Y31.44
X68.677 Y31.267
X68.667 Y31.266 Z-0.533
G0 Z5.
X72.083 Y32.207
Z2.505
G1 Z2.001 F17.
Z-0.54 F50.
X72.086 Y32.205 Z-0.543
X72.091 Y32.196
X72.067 Y31.879
Y31.85
X72.071 Y31.758
X72.074 Y31.725
X72.082 Y31.693
X72.15 Y31.477
X72.154 Y31.467
X72.221 Y31.282
X72.24 Y31.242
X72.267 Y31.205
X72.36 Y31.096
X72.366 Y31.09
X72.503 Y30.941
X72.517 Y30.927
X72.595 Y30.854
X72.63 Y30.827
X72.669 Y30.807
X73.008 Y30.665
X73.052 Y30.651
X73.114 Y30.638
X73.172 Y30.633
X73.418 Y30.639
X73.433 Y30.64
X73.55 Y30.649
X73.537 Y30.589
X73.53 Y30.504
Y30.459
X73.539 Y30.414
X73.565 Y30.323
X73.582 Y30.28
X73.606 Y30.241
X73.659 Y30.171
X73.685 Y30.142
X73.716 Y30.117
X74.626 Y29.486
X74.663 Y29.465
X74.724 Y29.436
X74.762 Y29.422
X74.802 Y29.414
X74.894 Y29.404
X74.942 Y29.403
X74.988 Y29.411
X75.081 Y29.437
X75.124 Y29.453
X75.164 Y29.477
X75.234 Y29.53
X75.263 Y29.554
X75.288 Y29.583
X75.342 Y29.658
X75.343 Y29.659
X77.463 Y31.782
X77.47 Y31.789 Z-0.533
G0 Z5.
X72.499 Y32.958
Z2.505
G1 Z2.001 F17.
Z-0.54 F50.
X72.502 Y32.957 Z-0.543
X72.512 Y32.96
X72.701 Y33.145 F13.
X72.713 Y33.156
Y33.164 F50.
X72.718 Y33.257
X72.858 Y36.253
X72.859 Y36.263 Z-0.533
G0 Z5.
X73.569 Y33.657
Z2.505
G1 Z1.907 F17.
Z-0.64 F50.
Y33.654 Z-0.643
X73.573 Y33.644
X73.672 Y33.58
X73.678 Y33.576
X74.316 Y33.132
X74.567 Y33.161
X74.554 Y32.922
X74.571 Y32.898
X74.595 Y32.857
X74.611 Y32.812
X74.633 Y32.72 F13.
X74.639 Y32.687
X74.983 Y32.706 F50.
X75.005 Y32.733
X75.032 Y32.711
X75.022 Y32.71 Z-0.653
Z-0.723
X75.012 Y32.709 Z-0.733
X74.989 Y32.707
X74.639 Y32.687
X74.633 Y32.72
X74.611 Y32.812
X74.595 Y32.857
X74.571 Y32.898
X74.554 Y32.922
X74.553 Y32.924
X73.207 Y35.605
X73.202 Y35.614 Z-0.723
G0 Z5.
X72.71 Y33.267
Z2.505
G1 Z1.907 F17.
Z-0.64 F50.
X72.713 Y33.266 Z-0.643
X72.718 Y33.257
X72.713 Y33.164
Y33.156
X72.701 Y33.145
X72.512 Y32.96
X72.511 Y32.959
X70.066 Y31.22
X70.058 Y31.214 Z-0.633
G0 Z5.
X73.569 Y33.657
Z2.505
G1 Z1.857 F17.
Z-0.73 F50.
Y33.654 Z-0.733
X73.573 Y33.644
X73.672 Y33.58
X73.678 Y33.576
X74.316 Y33.132
X74.532 Y33.162
X74.519 Y32.977
X74.524 Y32.968 Z-0.743
Z-0.771
X74.529 Y32.96 Z-0.781
X74.55 Y32.927
X74.571 Y32.898
X74.595 Y32.857
X74.611 Y32.812
X74.633 Y32.72 F13.
X74.639 Y32.687
X74.995 Y32.707 F50.
X74.996
X77.929 Y33.338
X77.939 Y33.34 Z-0.771
G0 Z5.
X75.652 Y30.217
Z2.505
G1 Z1.907 F17.
Z-0.639 F50.
X75.648 Z-0.643
X75.64 Y30.214
X75.448 Y30.021 F13.
Y30.01 F50.
X75.447 Y29.918
X75.397 Y26.918
Y26.908 Z-0.633
G0 Z5.
X73.871 Y29.628
Z2.505
G1 Z1.907 F17.
Z-0.641 F50.
X73.872 Y29.63 Z-0.643
X73.868 Y29.641
G2 X73.435 Y30.112 I2.232 J2.486
G1 X73.408 Y30.154
X73.387 Y30.2
X73.356 Y30.296
X73.338 Y30.339
X73.308 Y30.375
X73.271 Y30.403
X73.227 Y30.42
X73.181 Y30.425
X73.158
X73.135 Y30.426
G3 X73. Y30.12 I-0.012 J-0.177
X73.46 Y29.696 I11.486 J12.015
G2 X73.693 Y29.448 I-1.217 J-1.373
G1 X75.532 Y27.078
X75.538 Y27.07 Z-0.633
G0 Z5.
X73.811 Y28.561
Z2.505
G1 Z1.907 F17.
Z-0.64 F50.
X73.809 Y28.563 Z-0.643
X73.803 Y28.571
X73.802 Y28.583
X73.798 Y28.617
X73.789 Y28.65
X73.652 Y29.05
X73.634 Y29.089
X73.583 Y29.181
X73.558 Y29.219
X73.263 Y29.579
X73.242 Y29.601
X72.274 Y30.526
X72.211 Y30.602
X72.236 Y30.636
X72.259 Y30.673
X72.274 Y30.713
X72.296 Y30.786
X72.305 Y30.83
X72.306 Y30.875
X72.299 Y30.975
X72.292 Y31.019
X72.277 Y31.061
X72.247 Y31.129
X72.226 Y31.166
X72.199 Y31.199
X72.104 Y31.298
X72.068 Y31.33
X72. Y31.378
X71.965 Y31.399
X71.927 Y31.413
X71.85 Y31.436
X71.808 Y31.445
X71.765 Y31.446
X71.672 Y31.44
X68.677 Y31.267
X68.667 Y31.266 Z-0.633
G0 Z5.
X72.084 Y32.212
Z2.505
G1 Z1.907 F17.
Z-0.639 F50.
X72.087 Y32.21 Z-0.643
X72.091 Y32.201
X72.067 Y31.879
Y31.85
X72.071 Y31.758
X72.074 Y31.725
X72.082 Y31.693
X72.15 Y31.477
X72.154 Y31.467
X72.221 Y31.282
X72.24 Y31.242
X72.267 Y31.205
X72.36 Y31.096
X72.366 Y31.09
X72.503 Y30.941
X72.517 Y30.927
X72.595 Y30.854
X72.63 Y30.827
X72.669 Y30.807
X73.008 Y30.665
X73.052 Y30.651
X73.114 Y30.638
X73.172 Y30.633
X73.418 Y30.639
X73.433 Y30.64
X73.55 Y30.649
X73.537 Y30.589
X73.53 Y30.504
Y30.459
X73.539 Y30.414
X73.565 Y30.323
X73.582 Y30.28
X73.606 Y30.241
X73.659 Y30.171
X73.685 Y30.142
X73.716 Y30.117
X74.626 Y29.486
X74.663 Y29.465
X74.724 Y29.436
X74.762 Y29.422
X74.802 Y29.414
X74.894 Y29.404
X74.942 Y29.403
X74.988 Y29.411
X75.081 Y29.437
X75.124 Y29.453
X75.164 Y29.477
X75.234 Y29.53
X75.263 Y29.554
X75.288 Y29.583
X75.346 Y29.664
X75.551 Y29.722
X75.446 Y29.882
Y29.892 Z-0.653
Z-0.723
X75.447 Y29.902 Z-0.733
Y29.918
X75.448 Y30.01
Y30.021
X75.64 Y30.214
X75.641 Y30.215
X78.057 Y31.994
X78.065 Y32. Z-0.723
G0 Z5.
X73.871 Y29.628
Z2.505
G1 Z1.857 F17.
Z-0.731 F50.
X73.872 Y29.63 Z-0.733
X73.868 Y29.641
G2 X73.435 Y30.112 I2.232 J2.486
G1 X73.408 Y30.154
X73.387 Y30.2
X73.356 Y30.296
X73.338 Y30.339
X73.308 Y30.375
X73.271 Y30.403
X73.227 Y30.42
X73.181 Y30.425
X73.158
X73.135 Y30.426
G3 X73. Y30.12 I-0.012 J-0.177
X73.46 Y29.696 I11.486 J12.015
G2 X73.693 Y29.448 I-1.217 J-1.373
G1 X75.532 Y27.078
X75.538 Y27.07 Z-0.723
G0 Z5.
X73.812 Y28.55
Z2.505
G1 Z1.857 F17.
Z-0.73 F50.
X73.809 Y28.551 Z-0.733
X73.803 Y28.56
X73.802 Y28.583
X73.798 Y28.617
X73.789 Y28.65
X73.652 Y29.05
X73.634 Y29.089
X73.583 Y29.181
X73.558 Y29.219
X73.263 Y29.579
X73.242 Y29.601
X72.274 Y30.526
X72.211 Y30.602
X72.236 Y30.636
X72.259 Y30.673
X72.274 Y30.713
X72.296 Y30.786
X72.305 Y30.83
X72.306 Y30.875
X72.299 Y30.975
X72.292 Y31.019
X72.277 Y31.061
X72.247 Y31.129
X72.226 Y31.166
X72.199 Y31.199
X72.104 Y31.298
X72.068 Y31.33
X72. Y31.378
X71.965 Y31.399
X71.927 Y31.413
X71.85 Y31.436
X71.808 Y31.445
X71.765 Y31.446
X71.672 Y31.44
X68.677 Y31.267
X68.667 Y31.266 Z-0.723
G0 Z5.
X72.084 Y32.212
Z2.505
G1 Z1.857 F17.
Z-0.73 F50.
X72.086 Y32.21 Z-0.733
X72.091 Y32.201
X72.067 Y31.879
Y31.85
X72.071 Y31.758
X72.074 Y31.725
X72.082 Y31.693
X72.15 Y31.477
X72.154 Y31.467
X72.221 Y31.282
X72.24 Y31.242
X72.267 Y31.205
X72.36 Y31.096
X72.366 Y31.09
X72.503 Y30.941
X72.517 Y30.927
X72.595 Y30.854
X72.63 Y30.827
X72.669 Y30.807
X73.008 Y30.665
X73.052 Y30.651
X73.114 Y30.638
X73.172 Y30.633
X73.418 Y30.639
X73.433 Y30.64
X73.55 Y30.649
X73.537 Y30.589
X73.53 Y30.504
Y30.459
X73.539 Y30.414
X73.565 Y30.323
X73.582 Y30.28
X73.606 Y30.241
X73.659 Y30.171
X73.685 Y30.142
X73.716 Y30.117
X74.626 Y29.486
X74.663 Y29.465
X74.724 Y29.436
X74.762 Y29.422
X74.802 Y29.414
X74.894 Y29.404
X74.942 Y29.403
X74.988 Y29.411
X75.081 Y29.437
X75.124 Y29.453
X75.164 Y29.477
X75.234 Y29.53
X75.263 Y29.554
X75.288 Y29.583
X75.346 Y29.664
X75.551 Y29.722
X75.446 Y29.882
Y29.892 Z-0.743
Z-0.771
X75.447 Y29.902 Z-0.781
Y29.918
X75.448 Y30.01
Y30.021
X75.645 Y30.219
X75.646 Y30.22
X78.061 Y31.999
X78.069 Y32.005 Z-0.771
G0 Z5.
X72.499 Y32.958
Z2.505
G1 Z1.857 F17.
Z-0.73 F50.
X72.502 Y32.957 Z-0.733
X72.512 Y32.96
X72.701 Y33.145 F13.
X72.713 Y33.156
Y33.164 F50.
X72.718 Y33.257
X72.713 Y33.271
X72.699 Y33.277
X72.685 Y33.284
X72.68 Y33.298
X72.687 Y33.312
X72.701 Y33.317
X72.715 Y33.31
X72.72 Y33.296
X72.719 Y33.286 Z-0.743
Z-0.771
Y33.276 Z-0.781
X72.718 Y33.257
X72.713 Y33.164
Y33.156
X72.701 Y33.145
X72.512 Y32.96
X72.511 Y32.959
X70.066 Y31.22
X70.058 Y31.214 Z-0.771
G0 Z5.
X73.569 Y33.657
Z2.505
G1 Z1.767 F17.
Z-0.778 F50.
Y33.654 Z-0.781
X73.573 Y33.644
X73.672 Y33.58
X73.678 Y33.576
X74.316 Y33.132
X74.318 Y33.131
X77.189 Y32.261
X77.199 Y32.258 Z-0.771
G0 Z5.
X73.871 Y29.628
Z2.505
G1 Z1.767 F17.
Z-0.779 F50.
X73.872 Y29.63 Z-0.781
X73.868 Y29.641
G2 X73.435 Y30.112 I2.232 J2.486
G1 X73.408 Y30.154
X73.387 Y30.2
X73.356 Y30.296
X73.338 Y30.339
X73.308 Y30.375
X73.271 Y30.403
X73.227 Y30.42
X73.181 Y30.425
X73.158
X73.135 Y30.426
G3 X73. Y30.12 I-0.012 J-0.177
X73.46 Y29.696 I11.486 J12.015
G2 X73.693 Y29.448 I-1.217 J-1.373
G1 X75.532 Y27.078
X75.538 Y27.07 Z-0.771
G0 Z5.
X73.812 Y28.544
Z2.505
G1 Z1.767 F17.
Z-0.778 F50.
X73.81 Y28.545 Z-0.781
X73.804 Y28.554
X73.802 Y28.583
X73.798 Y28.617
X73.789 Y28.65
X73.652 Y29.05
X73.634 Y29.089
X73.583 Y29.181
X73.558 Y29.219
X73.263 Y29.579
X73.242 Y29.601
X72.274 Y30.526
X72.211 Y30.602
X72.236 Y30.636
X72.259 Y30.673
X72.274 Y30.713
X72.296 Y30.786
X72.305 Y30.83
X72.306 Y30.875
X72.299 Y30.975
X72.292 Y31.019
X72.277 Y31.061
X72.247 Y31.129
X72.226 Y31.166
X72.199 Y31.199
X72.104 Y31.298
X72.068 Y31.33
X72. Y31.378
X71.965 Y31.399
X71.927 Y31.413
X71.85 Y31.436
X71.808 Y31.445
X71.765 Y31.446
X71.672 Y31.44
X68.677 Y31.267
X68.667 Y31.266 Z-0.771
G0 Z5.
X72.084 Y32.212
Z2.505
G1 Z1.767 F17.
Z-0.778 F50.
X72.086 Y32.21 Z-0.781
X72.091 Y32.201
X72.067 Y31.879
Y31.85
X72.071 Y31.758
X72.074 Y31.725
X72.082 Y31.693
X72.15 Y31.477
X72.154 Y31.467
X72.221 Y31.282
X72.24 Y31.242
X72.267 Y31.205
X72.36 Y31.096
X72.366 Y31.09
X72.503 Y30.941
X72.517 Y30.927
X72.595 Y30.854
X72.63 Y30.827
X72.669 Y30.807
X73.008 Y30.665
X73.052 Y30.651
X73.114 Y30.638
X73.172 Y30.633
X73.418 Y30.639
X73.433 Y30.64
X73.55 Y30.649
X73.537 Y30.589
X73.53 Y30.504
Y30.459
X73.539 Y30.414
X73.565 Y30.323
X73.582 Y30.28
X73.606 Y30.241
X73.659 Y30.171
X73.685 Y30.142
X73.716 Y30.117
X74.626 Y29.486
X74.663 Y29.465
X74.724 Y29.436
X74.762 Y29.422
X74.802 Y29.414
X74.894 Y29.404
X74.942 Y29.403
X74.988 Y29.411
X75.081 Y29.437
X75.124 Y29.453
X75.164 Y29.477
X75.234 Y29.53
X75.263 Y29.554
X75.288 Y29.583
X75.346 Y29.664
X75.347 Y29.666
X77.467 Y31.788
X77.474 Y31.795 Z-0.771
G0 Z5.
X70.212 Y29.978
Z2.505
G1 Z2.3 F17.
Z-0.295 F50.
X70.216 Y29.976 Z-0.299
X70.225 Y29.975
X70.257 Y29.984
X70.344 Y30.001
X70.39 Y30.005
X70.436 Y30.002
X70.528 Y29.986 F13.
X70.536 Y29.984
X70.521 Y30.041 F50.
X70.508 Y30.133
X70.506 Y30.181
X70.513 Y30.227
X70.524 Y30.273
X70.4 Y30.298
X70.533 Y30.32
X70.531 Y30.31 Z-0.309
Z-0.389
X70.529 Y30.3 Z-0.399
X70.524 Y30.273
X70.513 Y30.227
X70.506 Y30.181
X70.508 Y30.133
X70.521 Y30.041
X70.536 Y29.984
X70.528 Y29.986
X70.436 Y30.002
X70.39 Y30.005
X70.344 Y30.001
X70.257 Y29.984
X70.225 Y29.975
X70.207 Y29.976
X70.195 Y29.99
X70.183 Y30.003
X70.165 Y30.004
X70.151 Y29.992
X70.15 Y29.974
X70.162 Y29.961
X70.18 Y29.96
X70.189 Y29.963 Z-0.409
Z-0.489
X70.199 Y29.966 Z-0.499
X70.225 Y29.975
X70.257 Y29.984
X70.344 Y30.001
X70.39 Y30.005
X70.436 Y30.002
X70.528 Y29.986 F13.
X70.536 Y29.984
X70.521 Y30.041 F50.
X70.508 Y30.133
X70.506 Y30.181
X70.513 Y30.227
X70.524 Y30.273
X70.504 Y30.304
X70.533 Y30.324
X70.532 Y30.314 Z-0.509
Z-0.533
X70.53 Y30.304 Z-0.543
X70.524 Y30.273
X70.513 Y30.227
X70.506 Y30.181
X70.508 Y30.133
X70.521 Y30.041
X70.536 Y29.984
X70.528 Y29.986
X70.436 Y30.002
X70.39 Y30.005
X70.344 Y30.001
X70.257 Y29.984
X70.225 Y29.975
X70.182 Y29.995
X70.163 Y29.951
X70.172 Y29.954 Z-0.553
Z-0.633
X70.181 Y29.958 Z-0.643
X70.214 Y29.971
X70.257 Y29.984
X70.344 Y30.001
X70.39 Y30.005
X70.436 Y30.002
X70.528 Y29.986 F13.
X70.536 Y29.984
X70.521 Y30.041 F50.
X70.508 Y30.133
X70.506 Y30.181
X70.513 Y30.227
X70.524 Y30.273
X70.504 Y30.304
X70.533 Y30.324
X70.532 Y30.314 Z-0.653
Z-0.723
X70.53 Y30.304 Z-0.733
X70.524 Y30.273
X70.513 Y30.227
X70.506 Y30.181
X70.508 Y30.133
X70.521 Y30.041
X70.536 Y29.984
X70.528 Y29.986
X70.436 Y30.002
X70.39 Y30.005
X70.344 Y30.001
X70.257 Y29.984
X70.204 Y29.967
X70.164 Y29.982
X70.149 Y29.941
X70.158 Y29.945 Z-0.743
Z-0.771
X70.167 Y29.949 Z-0.781
X70.199 Y29.964
X70.257 Y29.984
X70.344 Y30.001
X70.39 Y30.005
X70.436 Y30.002
X70.528 Y29.986 F13.
X70.536 Y29.984
X70.521 Y30.041 F50.
X70.508 Y30.133
X70.506 Y30.181
X70.513 Y30.227
X70.524 Y30.273
Y30.275
X70.769 Y33.265
Y33.275 Z-0.771
G0 Z5.
X71.148 Y28.869
Z2.505
G1 Z0.51 F17.
X71.155 Y28.862 Z0.5
X71.774 Y28.276 Z0.484
X72.197 Y27.955 Z0.473
X72.221 Y27.95
X72.241 Y27.953
X72.435 Y28.081 Z0.468
X72.553 Y28.271 Z0.464
X72.571 Y28.468 Z0.46
X72.462 Y28.663 Z0.456
X72.128 Y29.003 Z0.447
X71.403 Y29.692 Z0.427
X71.377 Y29.711
X71.355 Y29.692 Z0.426
X71.318 Y29.666 Z0.425
X71.276 Y29.647
X71.184 Y29.615 Z0.423
X71.137 Y29.604 Z0.422
X71.089 Y29.601 Z0.421
X70.997 Y29.606 Z0.419
X70.957 Y29.611 Z0.418
X70.918 Y29.622 Z0.417
X70.934 Y29.584
X70.947 Y29.538 Z0.416
X70.952 Y29.49 Z0.415
X70.951 Y29.398 Z0.413
X70.947 Y29.353 Z0.412
X70.935 Y29.311 Z0.411
X70.905 Y29.231 Z0.41
X70.89 Y29.199 Z0.409
X70.87 Y29.169 Z0.408
X70.859 Y29.154
X70.896 Y29.107 Z0.407
X71.774 Y28.276 Z0.384
X72.197 Y27.955 Z0.373
X72.221 Y27.95
X72.241 Y27.953
X72.435 Y28.081 Z0.368
X72.553 Y28.271 Z0.364
X72.571 Y28.468 Z0.36
X72.462 Y28.663 Z0.356
X72.128 Y29.003 Z0.347
X71.403 Y29.692 Z0.327
X71.377 Y29.711
X71.355 Y29.692 Z0.326
X71.318 Y29.666 Z0.325
X71.276 Y29.647
X71.184 Y29.615 Z0.323
X71.137 Y29.604 Z0.322
X71.089 Y29.601 Z0.321
X70.997 Y29.606 Z0.319
X70.957 Y29.611 Z0.318
X70.918 Y29.622 Z0.317
X70.934 Y29.584
X70.947 Y29.538 Z0.316
X70.952 Y29.49 Z0.315
X70.951 Y29.398 Z0.313
X70.947 Y29.353 Z0.312
X70.935 Y29.311 Z0.311
X70.905 Y29.231 Z0.31
X70.89 Y29.199 Z0.309
X70.87 Y29.169 Z0.308
X70.859 Y29.154
X70.896 Y29.107 Z0.307
X71.774 Y28.276 Z0.284
X72.197 Y27.955 Z0.273
X72.221 Y27.95
X72.241 Y27.953
X72.435 Y28.081 Z0.268
X72.553 Y28.271 Z0.264
X72.571 Y28.468 Z0.26
X72.462 Y28.663 Z0.256
X72.128 Y29.003 Z0.247
X71.403 Y29.692 Z0.227
X71.377 Y29.711
X71.355 Y29.692 Z0.226
X71.318 Y29.666 Z0.225
X71.276 Y29.647
X71.184 Y29.615 Z0.223
X71.137 Y29.604 Z0.222
X71.089 Y29.601 Z0.221
X70.997 Y29.606 Z0.219
X70.957 Y29.611 Z0.218
X70.918 Y29.622 Z0.217
X70.934 Y29.584
X70.947 Y29.538 Z0.216
X70.952 Y29.49 Z0.215
X70.951 Y29.398 Z0.213
X70.947 Y29.353 Z0.212
X70.935 Y29.311 Z0.211
X70.905 Y29.231 Z0.21
X70.89 Y29.199 Z0.209
X70.87 Y29.169 Z0.208
X70.859 Y29.154
X70.896 Y29.107 Z0.207
X71.774 Y28.276 Z0.184
X72.197 Y27.955 Z0.173
X72.221 Y27.95
X72.241 Y27.953
X72.435 Y28.081 Z0.168
X72.553 Y28.271 Z0.164
X72.571 Y28.468 Z0.16
X72.462 Y28.663 Z0.156
X72.128 Y29.003 Z0.147
X71.403 Y29.692 Z0.127
X71.377 Y29.711
X71.355 Y29.692 Z0.126
X71.318 Y29.666 Z0.125
X71.276 Y29.647
X71.184 Y29.615 Z0.123
X71.137 Y29.604 Z0.122
X71.089 Y29.601 Z0.121
X70.997 Y29.606 Z0.119
X70.957 Y29.611 Z0.118
X70.918 Y29.622 Z0.117
X70.934 Y29.584
X70.947 Y29.538 Z0.116
X70.952 Y29.49 Z0.115
X70.951 Y29.398 Z0.113
X70.947 Y29.353 Z0.112
X70.935 Y29.311 Z0.111
X70.905 Y29.231 Z0.11
X70.89 Y29.199 Z0.109
X70.87 Y29.169 Z0.108
X70.859 Y29.154
X70.896 Y29.107 Z0.107
X71.774 Y28.276 Z0.084
X72.197 Y27.955 Z0.073
X72.221 Y27.95
X72.241 Y27.953
X72.435 Y28.081 Z0.068
X72.553 Y28.271 Z0.064
X72.571 Y28.468 Z0.06
X72.462 Y28.663 Z0.056
X72.128 Y29.003 Z0.047
X71.403 Y29.692 Z0.027
X71.377 Y29.711
X71.355 Y29.692 Z0.026
X71.318 Y29.666 Z0.025
X71.276 Y29.647
X71.184 Y29.615 Z0.023
X71.137 Y29.604 Z0.022
X71.089 Y29.601 Z0.021
X70.997 Y29.606 Z0.019
X70.957 Y29.611 Z0.018
X70.918 Y29.622 Z0.017
X70.934 Y29.584
X70.947 Y29.538 Z0.016
X70.952 Y29.49 Z0.015
X70.951 Y29.398 Z0.013
X70.947 Y29.353 Z0.012
X70.935 Y29.311 Z0.011
X70.905 Y29.231 Z0.01
X70.89 Y29.199 Z0.009
X70.87 Y29.169 Z0.008
X70.859 Y29.154
X70.896 Y29.107 Z0.007
X71.774 Y28.276 Z-0.016
X72.197 Y27.955 Z-0.027
X72.221 Y27.95
X72.241 Y27.953
X72.435 Y28.081 Z-0.032
X72.553 Y28.271 Z-0.036
X72.571 Y28.468 Z-0.04
X72.462 Y28.663 Z-0.044
X72.128 Y29.003 Z-0.053
X71.403 Y29.692 Z-0.073
X71.377 Y29.711
X71.355 Y29.692 Z-0.074
X71.318 Y29.666 Z-0.075
X71.276 Y29.647
X71.184 Y29.615 Z-0.077
X71.137 Y29.604 Z-0.078
X71.089 Y29.601 Z-0.079
X70.997 Y29.606 Z-0.081
X70.957 Y29.611 Z-0.082
X70.918 Y29.622 Z-0.083
X70.934 Y29.584
X70.947 Y29.538 Z-0.084
X70.952 Y29.49 Z-0.085
X70.951 Y29.398 Z-0.087
X70.947 Y29.353 Z-0.088
X70.935 Y29.311 Z-0.089
X70.905 Y29.231 Z-0.09
X70.89 Y29.199 Z-0.091
X70.87 Y29.169 Z-0.092
X70.859 Y29.154
X70.896 Y29.107 Z-0.093
X71.774 Y28.276 Z-0.116
X72.197 Y27.955 Z-0.127
X72.221 Y27.95
X72.241 Y27.953
X72.435 Y28.081 Z-0.132
X72.553 Y28.271 Z-0.136
X72.571 Y28.468 Z-0.14
X72.462 Y28.663 Z-0.144
X72.128 Y29.003 Z-0.153
X71.403 Y29.692 Z-0.173
X71.377 Y29.711
X71.355 Y29.692 Z-0.174
X71.318 Y29.666 Z-0.175
X71.276 Y29.647
X71.184 Y29.615 Z-0.177
X71.137 Y29.604 Z-0.178
X71.089 Y29.601 Z-0.179
X70.997 Y29.606 Z-0.181
X70.957 Y29.611 Z-0.182
X70.918 Y29.622 Z-0.183
X70.934 Y29.584
X70.947 Y29.538 Z-0.184
X70.952 Y29.49 Z-0.185
X70.951 Y29.398 Z-0.187
X70.947 Y29.353 Z-0.188
X70.935 Y29.311 Z-0.189
X70.905 Y29.231 Z-0.19
X70.89 Y29.199 Z-0.191
X70.87 Y29.169 Z-0.192
X70.859 Y29.154
X70.896 Y29.107 Z-0.193
X71.774 Y28.276 Z-0.216
X72.197 Y27.955 Z-0.227
X72.221 Y27.95
X72.241 Y27.953
X72.435 Y28.081 Z-0.232
X72.553 Y28.271 Z-0.236
X72.571 Y28.468 Z-0.24
X72.462 Y28.663 Z-0.244
X72.128 Y29.003 Z-0.253
X71.403 Y29.692 Z-0.273
X71.377 Y29.711
X71.355 Y29.692 Z-0.274
X71.318 Y29.666 Z-0.275
X71.276 Y29.647
X71.184 Y29.615 Z-0.277
X71.137 Y29.604 Z-0.278
X71.089 Y29.601 Z-0.279
X70.997 Y29.606 Z-0.281
X70.957 Y29.611 Z-0.282
X70.918 Y29.622 Z-0.283
X70.934 Y29.584
X70.947 Y29.538 Z-0.284
X70.952 Y29.49 Z-0.285
X70.951 Y29.398 Z-0.287
X70.947 Y29.353 Z-0.288
X70.935 Y29.311 Z-0.289
X70.905 Y29.231 Z-0.29
X70.89 Y29.199 Z-0.291
X70.87 Y29.169 Z-0.292
X70.859 Y29.154
X70.896 Y29.107 Z-0.293
X71.121 Y28.894 Z-0.299
X71.774 Y28.276 F50.
X72.037 Y28.076
X72.197 Y27.955 F13.
X72.221 Y27.95
X72.241 Y27.953
X72.435 Y28.081 F50.
X72.553 Y28.271 F13.
X72.571 Y28.468
X72.462 Y28.663 F50.
X72.128 Y29.003
X71.548 Y29.554
X71.403 Y29.692 F13.
X71.377 Y29.711
X71.355 Y29.692
X71.318 Y29.666 F50.
X71.276 Y29.647
X71.184 Y29.615
X71.137 Y29.604
X71.089 Y29.601
X70.997 Y29.606 F13.
X70.957 Y29.611
X70.918 Y29.622
X70.934 Y29.584
X70.947 Y29.538 F50.
X70.952 Y29.49
X70.951 Y29.398
X70.947 Y29.353
X70.935 Y29.311
X70.905 Y29.231
X70.89 Y29.199 F13.
X70.87 Y29.169
X70.859 Y29.154
X70.896 Y29.107
X71.051 Y28.961 F50.
X71.121 Y28.894
X71.13 Y28.892 Z-0.289
G0 Z5.
X71.148 Y28.869
Z2.505
G1 Z0.71 F17.
X71.155 Y28.862 Z0.7
X71.774 Y28.276 Z0.684
X72.196 Y27.956 Z0.673
X72.221 Y27.95
X72.242 Y27.953
X72.435 Y28.081 Z0.668
X72.553 Y28.271 Z0.664
X72.571 Y28.468 Z0.66
X72.462 Y28.663 Z0.656
X72.128 Y29.003 Z0.647
X71.403 Y29.692 Z0.627
X71.377 Y29.711
X71.355 Y29.692 Z0.626
X71.318 Y29.666 Z0.625
X71.276 Y29.647
X71.184 Y29.615 Z0.623
X71.137 Y29.604 Z0.622
X71.089 Y29.601 Z0.621
X70.997 Y29.606 Z0.619
X70.957 Y29.611 Z0.618
X70.918 Y29.622 Z0.617
X70.934 Y29.584
X70.947 Y29.538 Z0.616
X70.952 Y29.49 Z0.615
X70.951 Y29.398 Z0.613
X70.947 Y29.353 Z0.612
X70.935 Y29.311 Z0.611
X70.905 Y29.231 Z0.61
X70.89 Y29.199 Z0.609
X70.87 Y29.169 Z0.608
X70.859 Y29.154
X70.896 Y29.107 Z0.607
X71.774 Y28.276 Z0.584
X72.196 Y27.956 Z0.573
X72.221 Y27.95
X72.242 Y27.953
X72.435 Y28.081 Z0.568
X72.553 Y28.271 Z0.564
X72.571 Y28.468 Z0.56
X72.462 Y28.663 Z0.556
X72.128 Y29.003 Z0.547
X71.403 Y29.692 Z0.527
X71.377 Y29.711
X71.355 Y29.692 Z0.526
X71.318 Y29.666 Z0.525
X71.276 Y29.647
X71.184 Y29.615 Z0.523
X71.137 Y29.604 Z0.522
X71.089 Y29.601 Z0.521
X70.997 Y29.606 Z0.519
X70.957 Y29.611 Z0.518
X70.918 Y29.622 Z0.517
X70.934 Y29.584
X70.947 Y29.538 Z0.516
X70.952 Y29.49 Z0.515
X70.951 Y29.398 Z0.513
X70.947 Y29.353 Z0.512
X70.935 Y29.311 Z0.511
X70.905 Y29.231 Z0.51
X70.89 Y29.199 Z0.509
X70.87 Y29.169 Z0.508
X70.859 Y29.154
X70.896 Y29.107 Z0.507
X71.774 Y28.276 Z0.484
X72.196 Y27.956 Z0.473
X72.221 Y27.95
X72.242 Y27.953
X72.435 Y28.081 Z0.468
X72.553 Y28.271 Z0.464
X72.571 Y28.468 Z0.46
X72.462 Y28.663 Z0.456
X72.128 Y29.003 Z0.447
X71.403 Y29.692 Z0.427
X71.377 Y29.711
X71.355 Y29.692 Z0.426
X71.318 Y29.666 Z0.425
X71.276 Y29.647
X71.184 Y29.615 Z0.423
X71.137 Y29.604 Z0.422
X71.089 Y29.601 Z0.421
X70.997 Y29.606 Z0.419
X70.957 Y29.611 Z0.418
X70.918 Y29.622 Z0.417
X70.934 Y29.584
X70.947 Y29.538 Z0.416
X70.952 Y29.49 Z0.415
X70.951 Y29.398 Z0.413
X70.947 Y29.353 Z0.412
X70.935 Y29.311 Z0.411
X70.905 Y29.231 Z0.41
X70.89 Y29.199 Z0.409
X70.87 Y29.169 Z0.408
X70.859 Y29.154
X70.896 Y29.107 Z0.407
X71.774 Y28.276 Z0.384
X72.196 Y27.956 Z0.373
X72.221 Y27.95
X72.242 Y27.953
X72.435 Y28.081 Z0.368
X72.553 Y28.271 Z0.364
X72.571 Y28.468 Z0.36
X72.462 Y28.663 Z0.356
X72.128 Y29.003 Z0.347
X71.403 Y29.692 Z0.327
X71.377 Y29.711
X71.355 Y29.692 Z0.326
X71.318 Y29.666 Z0.325
X71.276 Y29.647
X71.184 Y29.615 Z0.323
X71.137 Y29.604 Z0.322
X71.089 Y29.601 Z0.321
X70.997 Y29.606 Z0.319
X70.957 Y29.611 Z0.318
X70.918 Y29.622 Z0.317
X70.934 Y29.584
X70.947 Y29.538 Z0.316
X70.952 Y29.49 Z0.315
X70.951 Y29.398 Z0.313
X70.947 Y29.353 Z0.312
X70.935 Y29.311 Z0.311
X70.905 Y29.231 Z0.31
X70.89 Y29.199 Z0.309
X70.87 Y29.169 Z0.308
X70.859 Y29.154
X70.896 Y29.107 Z0.307
X71.774 Y28.276 Z0.284
X72.196 Y27.956 Z0.273
X72.221 Y27.95
X72.242 Y27.953
X72.435 Y28.081 Z0.268
X72.553 Y28.271 Z0.264
X72.571 Y28.468 Z0.26
X72.462 Y28.663 Z0.256
X72.128 Y29.003 Z0.247
X71.403 Y29.692 Z0.227
X71.377 Y29.711
X71.355 Y29.692 Z0.226
X71.318 Y29.666 Z0.225
X71.276 Y29.647
X71.184 Y29.615 Z0.223
X71.137 Y29.604 Z0.222
X71.089 Y29.601 Z0.221
X70.997 Y29.606 Z0.219
X70.957 Y29.611 Z0.218
X70.918 Y29.622 Z0.217
X70.934 Y29.584
X70.947 Y29.538 Z0.216
X70.952 Y29.49 Z0.215
X70.951 Y29.398 Z0.213
X70.947 Y29.353 Z0.212
X70.935 Y29.311 Z0.211
X70.905 Y29.231 Z0.21
X70.89 Y29.199 Z0.209
X70.87 Y29.169 Z0.208
X70.859 Y29.154
X70.896 Y29.107 Z0.207
X71.774 Y28.276 Z0.184
X72.196 Y27.956 Z0.173
X72.221 Y27.95
X72.242 Y27.953
X72.435 Y28.081 Z0.168
X72.553 Y28.271 Z0.164
X72.571 Y28.468 Z0.16
X72.462 Y28.663 Z0.156
X72.128 Y29.003 Z0.147
X71.403 Y29.692 Z0.127
X71.377 Y29.711
X71.355 Y29.692 Z0.126
X71.318 Y29.666 Z0.125
X71.276 Y29.647
X71.184 Y29.615 Z0.123
X71.137 Y29.604 Z0.122
X71.089 Y29.601 Z0.121
X70.997 Y29.606 Z0.119
X70.957 Y29.611 Z0.118
X70.918 Y29.622 Z0.117
X70.934 Y29.584
X70.947 Y29.538 Z0.116
X70.952 Y29.49 Z0.115
X70.951 Y29.398 Z0.113
X70.947 Y29.353 Z0.112
X70.935 Y29.311 Z0.111
X70.905 Y29.231 Z0.11
X70.89 Y29.199 Z0.109
X70.87 Y29.169 Z0.108
X70.859 Y29.154
X70.896 Y29.107 Z0.107
X71.774 Y28.276 Z0.084
X72.196 Y27.956 Z0.073
X72.221 Y27.95
X72.242 Y27.953
X72.435 Y28.081 Z0.068
X72.553 Y28.271 Z0.064
X72.571 Y28.468 Z0.06
X72.462 Y28.663 Z0.056
X72.128 Y29.003 Z0.047
X71.403 Y29.692 Z0.027
X71.377 Y29.711
X71.355 Y29.692 Z0.026
X71.318 Y29.666 Z0.025
X71.276 Y29.647
X71.184 Y29.615 Z0.023
X71.137 Y29.604 Z0.022
X71.089 Y29.601 Z0.021
X70.997 Y29.606 Z0.019
X70.957 Y29.611 Z0.018
X70.918 Y29.622 Z0.017
X70.934 Y29.584
X70.947 Y29.538 Z0.016
X70.952 Y29.49 Z0.015
X70.951 Y29.398 Z0.013
X70.947 Y29.353 Z0.012
X70.935 Y29.311 Z0.011
X70.905 Y29.231 Z0.01
X70.89 Y29.199 Z0.009
X70.87 Y29.169 Z0.008
X70.859 Y29.154
X70.896 Y29.107 Z0.007
X71.774 Y28.276 Z-0.016
X72.196 Y27.956 Z-0.027
X72.221 Y27.95
X72.242 Y27.953
X72.435 Y28.081 Z-0.032
X72.553 Y28.271 Z-0.036
X72.571 Y28.468 Z-0.04
X72.462 Y28.663 Z-0.044
X72.128 Y29.003 Z-0.053
X71.403 Y29.692 Z-0.073
X71.377 Y29.711
X71.355 Y29.692 Z-0.074
X71.318 Y29.666 Z-0.075
X71.276 Y29.647
X71.184 Y29.615 Z-0.077
X71.137 Y29.604 Z-0.078
X71.089 Y29.601 Z-0.079
X70.997 Y29.606 Z-0.081
X70.957 Y29.611 Z-0.082
X70.918 Y29.622 Z-0.083
X70.934 Y29.584
X70.947 Y29.538 Z-0.084
X70.952 Y29.49 Z-0.085
X70.951 Y29.398 Z-0.087
X70.947 Y29.353 Z-0.088
X70.935 Y29.311 Z-0.089
X70.905 Y29.231 Z-0.09
X70.89 Y29.199 Z-0.091
X70.87 Y29.169 Z-0.092
X70.859 Y29.154
X70.896 Y29.107 Z-0.093
X71.774 Y28.276 Z-0.116
X72.196 Y27.956 Z-0.127
X72.221 Y27.95
X72.242 Y27.953
X72.435 Y28.081 Z-0.132
X72.553 Y28.271 Z-0.136
X72.571 Y28.468 Z-0.14
X72.462 Y28.663 Z-0.144
X72.128 Y29.003 Z-0.153
X71.403 Y29.692 Z-0.173
X71.377 Y29.711
X71.355 Y29.692 Z-0.174
X71.318 Y29.666 Z-0.175
X71.276 Y29.647
X71.184 Y29.615 Z-0.177
X71.137 Y29.604 Z-0.178
X71.089 Y29.601 Z-0.179
X70.997 Y29.606 Z-0.181
X70.957 Y29.611 Z-0.182
X70.918 Y29.622 Z-0.183
X70.934 Y29.584
X70.947 Y29.538 Z-0.184
X70.952 Y29.49 Z-0.185
X70.951 Y29.398 Z-0.187
X70.947 Y29.353 Z-0.188
X70.935 Y29.311 Z-0.189
X70.905 Y29.231 Z-0.19
X70.89 Y29.199 Z-0.191
X70.87 Y29.169 Z-0.192
X70.859 Y29.154
X70.896 Y29.107 Z-0.193
X71.774 Y28.276 Z-0.216
X72.196 Y27.956 Z-0.227
X72.221 Y27.95
X72.242 Y27.953
X72.435 Y28.081 Z-0.232
X72.553 Y28.271 Z-0.236
X72.571 Y28.468 Z-0.24
X72.462 Y28.663 Z-0.244
X72.128 Y29.003 Z-0.253
X71.403 Y29.692 Z-0.273
X71.377 Y29.711
X71.355 Y29.692 Z-0.274
X71.318 Y29.666 Z-0.275
X71.276 Y29.647
X71.184 Y29.615 Z-0.277
X71.137 Y29.604 Z-0.278
X71.089 Y29.601 Z-0.279
X70.997 Y29.606 Z-0.281
X70.957 Y29.611 Z-0.282
X70.918 Y29.622 Z-0.283
X70.934 Y29.584
X70.947 Y29.538 Z-0.284
X70.952 Y29.49 Z-0.285
X70.951 Y29.398 Z-0.287
X70.947 Y29.353 Z-0.288
X70.935 Y29.311 Z-0.289
X70.905 Y29.231 Z-0.29
X70.89 Y29.199 Z-0.291
X70.87 Y29.169 Z-0.292
X70.859 Y29.154
X70.896 Y29.107 Z-0.293
X71.774 Y28.276 Z-0.316
X72.196 Y27.956 Z-0.327
X72.221 Y27.95
X72.242 Y27.953
X72.435 Y28.081 Z-0.332
X72.553 Y28.271 Z-0.336
X72.571 Y28.468 Z-0.34
X72.462 Y28.663 Z-0.344
X72.128 Y29.003 Z-0.353
X71.403 Y29.692 Z-0.373
X71.377 Y29.711
X71.355 Y29.692 Z-0.374
X71.318 Y29.666 Z-0.375
X71.276 Y29.647
X71.184 Y29.615 Z-0.377
X71.137 Y29.604 Z-0.378
X71.089 Y29.601 Z-0.379
X70.997 Y29.606 Z-0.381
X70.957 Y29.611 Z-0.382
X70.918 Y29.622 Z-0.383
X70.934 Y29.584
X70.947 Y29.538 Z-0.384
X70.952 Y29.49 Z-0.385
X70.951 Y29.398 Z-0.387
X70.947 Y29.353 Z-0.388
X70.935 Y29.311 Z-0.389
X70.905 Y29.231 Z-0.39
X70.89 Y29.199 Z-0.391
X70.87 Y29.169 Z-0.392
X70.859 Y29.154
X70.896 Y29.107 Z-0.393
X71.121 Y28.894 Z-0.399
X71.774 Y28.276 F50.
X72.037 Y28.076
X72.196 Y27.956 F13.
X72.221 Y27.95
X72.242 Y27.953
X72.435 Y28.081 F50.
X72.553 Y28.271 F13.
X72.571 Y28.468
X72.462 Y28.663 F50.
X72.128 Y29.003
X71.548 Y29.554
X71.403 Y29.692 F13.
X71.377 Y29.711
X71.355 Y29.692
X71.318 Y29.666 F50.
X71.276 Y29.647
X71.184 Y29.615
X71.137 Y29.604
X71.089 Y29.601
X70.997 Y29.606 F13.
X70.957 Y29.611
X70.918 Y29.622
X70.934 Y29.584
X70.947 Y29.538 F50.
X70.952 Y29.49
X70.951 Y29.398
X70.947 Y29.353
X70.935 Y29.311
X70.905 Y29.231
X70.89 Y29.199 F13.
X70.87 Y29.169
X70.859 Y29.154
X70.896 Y29.107
X71.121 Y28.894 F50.
X71.13 Y28.892 Z-0.389
G0 Z5.
X71.148 Y28.869
Z2.505
G1 Z0.71 F17.
X71.155 Y28.862 Z0.7
X71.774 Y28.276 Z0.684
X72.196 Y27.956 Z0.673
X72.221 Y27.95
X72.242 Y27.953
X72.435 Y28.081 Z0.668
X72.553 Y28.271 Z0.664
X72.571 Y28.468 Z0.66
X72.462 Y28.663 Z0.656
X72.128 Y29.003 Z0.647
X71.403 Y29.692 Z0.627
X71.377 Y29.711
X71.355 Y29.692 Z0.626
X71.318 Y29.666 Z0.625
X71.276 Y29.647
X71.184 Y29.615 Z0.623
X71.137 Y29.604 Z0.622
X71.089 Y29.601 Z0.621
X70.997 Y29.606 Z0.619
X70.957 Y29.611 Z0.618
X70.918 Y29.622 Z0.617
X70.934 Y29.584
X70.947 Y29.538 Z0.616
X70.952 Y29.49 Z0.615
X70.951 Y29.398 Z0.613
X70.947 Y29.353 Z0.612
X70.935 Y29.311 Z0.611
X70.905 Y29.231 Z0.61
X70.89 Y29.199 Z0.609
X70.87 Y29.169 Z0.608
X70.859 Y29.154
X70.896 Y29.107 Z0.607
X71.774 Y28.276 Z0.584
X72.196 Y27.956 Z0.573
X72.221 Y27.95
X72.242 Y27.953
X72.435 Y28.081 Z0.568
X72.553 Y28.271 Z0.564
X72.571 Y28.468 Z0.56
X72.462 Y28.663 Z0.556
X72.128 Y29.003 Z0.547
X71.403 Y29.692 Z0.527
X71.377 Y29.711
X71.355 Y29.692 Z0.526
X71.318 Y29.666 Z0.525
X71.276 Y29.647
X71.184 Y29.615 Z0.523
X71.137 Y29.604 Z0.522
X71.089 Y29.601 Z0.521
X70.997 Y29.606 Z0.519
X70.957 Y29.611 Z0.518
X70.918 Y29.622 Z0.517
X70.934 Y29.584
X70.947 Y29.538 Z0.516
X70.952 Y29.49 Z0.515
X70.951 Y29.398 Z0.513
X70.947 Y29.353 Z0.512
X70.935 Y29.311 Z0.511
X70.905 Y29.231 Z0.51
X70.89 Y29.199 Z0.509
X70.87 Y29.169 Z0.508
X70.859 Y29.154
X70.896 Y29.107 Z0.507
X71.774 Y28.276 Z0.484
X72.196 Y27.956 Z0.473
X72.221 Y27.95
X72.242 Y27.953
X72.435 Y28.081 Z0.468
X72.553 Y28.271 Z0.464
X72.571 Y28.468 Z0.46
X72.462 Y28.663 Z0.456
X72.128 Y29.003 Z0.447
X71.403 Y29.692 Z0.427
X71.377 Y29.711
X71.355 Y29.692 Z0.426
X71.318 Y29.666 Z0.425
X71.276 Y29.647
X71.184 Y29.615 Z0.423
X71.137 Y29.604 Z0.422
X71.089 Y29.601 Z0.421
X70.997 Y29.606 Z0.419
X70.957 Y29.611 Z0.418
X70.918 Y29.622 Z0.417
X70.934 Y29.584
X70.947 Y29.538 Z0.416
X70.952 Y29.49 Z0.415
X70.951 Y29.398 Z0.413
X70.947 Y29.353 Z0.412
X70.935 Y29.311 Z0.411
X70.905 Y29.231 Z0.41
X70.89 Y29.199 Z0.409
X70.87 Y29.169 Z0.408
X70.859 Y29.154
X70.896 Y29.107 Z0.407
X71.774 Y28.276 Z0.384
X72.196 Y27.956 Z0.373
X72.221 Y27.95
X72.242 Y27.953
X72.435 Y28.081 Z0.368
X72.553 Y28.271 Z0.364
X72.571 Y28.468 Z0.36
X72.462 Y28.663 Z0.356
X72.128 Y29.003 Z0.347
X71.403 Y29.692 Z0.327
X71.377 Y29.711
X71.355 Y29.692 Z0.326
X71.318 Y29.666 Z0.325
X71.276 Y29.647
X71.184 Y29.615 Z0.323
X71.137 Y29.604 Z0.322
X71.089 Y29.601 Z0.321
X70.997 Y29.606 Z0.319
X70.957 Y29.611 Z0.318
X70.918 Y29.622 Z0.317
X70.934 Y29.584
X70.947 Y29.538 Z0.316
X70.952 Y29.49 Z0.315
X70.951 Y29.398 Z0.313
X70.947 Y29.353 Z0.312
X70.935 Y29.311 Z0.311
X70.905 Y29.231 Z0.31
X70.89 Y29.199 Z0.309
X70.87 Y29.169 Z0.308
X70.859 Y29.154
X70.896 Y29.107 Z0.307
X71.774 Y28.276 Z0.284
X72.196 Y27.956 Z0.273
X72.221 Y27.95
X72.242 Y27.953
X72.435 Y28.081 Z0.268
X72.553 Y28.271 Z0.264
X72.571 Y28.468 Z0.26
X72.462 Y28.663 Z0.256
X72.128 Y29.003 Z0.247
X71.403 Y29.692 Z0.227
X71.377 Y29.711
X71.355 Y29.692 Z0.226
X71.318 Y29.666 Z0.225
X71.276 Y29.647
X71.184 Y29.615 Z0.223
X71.137 Y29.604 Z0.222
X71.089 Y29.601 Z0.221
X70.997 Y29.606 Z0.219
X70.957 Y29.611 Z0.218
X70.918 Y29.622 Z0.217
X70.934 Y29.584
X70.947 Y29.538 Z0.216
X70.952 Y29.49 Z0.215
X70.951 Y29.398 Z0.213
X70.947 Y29.353 Z0.212
X70.935 Y29.311 Z0.211
X70.905 Y29.231 Z0.21
X70.89 Y29.199 Z0.209
X70.87 Y29.169 Z0.208
X70.859 Y29.154
X70.896 Y29.107 Z0.207
X71.774 Y28.276 Z0.184
X72.196 Y27.956 Z0.173
X72.221 Y27.95
X72.242 Y27.953
X72.435 Y28.081 Z0.168
X72.553 Y28.271 Z0.164
X72.571 Y28.468 Z0.16
X72.462 Y28.663 Z0.156
X72.128 Y29.003 Z0.147
X71.403 Y29.692 Z0.127
X71.377 Y29.711
X71.355 Y29.692 Z0.126
X71.318 Y29.666 Z0.125
X71.276 Y29.647
X71.184 Y29.615 Z0.123
X71.137 Y29.604 Z0.122
X71.089 Y29.601 Z0.121
X70.997 Y29.606 Z0.119
X70.957 Y29.611 Z0.118
X70.918 Y29.622 Z0.117
X70.934 Y29.584
X70.947 Y29.538 Z0.116
X70.952 Y29.49 Z0.115
X70.951 Y29.398 Z0.113
X70.947 Y29.353 Z0.112
X70.935 Y29.311 Z0.111
X70.905 Y29.231 Z0.11
X70.89 Y29.199 Z0.109
X70.87 Y29.169 Z0.108
X70.859 Y29.154
X70.896 Y29.107 Z0.107
X71.774 Y28.276 Z0.084
X72.196 Y27.956 Z0.073
X72.221 Y27.95
X72.242 Y27.953
X72.435 Y28.081 Z0.068
X72.553 Y28.271 Z0.064
X72.571 Y28.468 Z0.06
X72.462 Y28.663 Z0.056
X72.128 Y29.003 Z0.047
X71.403 Y29.692 Z0.027
X71.377 Y29.711
X71.355 Y29.692 Z0.026
X71.318 Y29.666 Z0.025
X71.276 Y29.647
X71.184 Y29.615 Z0.023
X71.137 Y29.604 Z0.022
X71.089 Y29.601 Z0.021
X70.997 Y29.606 Z0.019
X70.957 Y29.611 Z0.018
X70.918 Y29.622 Z0.017
X70.934 Y29.584
X70.947 Y29.538 Z0.016
X70.952 Y29.49 Z0.015
X70.951 Y29.398 Z0.013
X70.947 Y29.353 Z0.012
X70.935 Y29.311 Z0.011
X70.905 Y29.231 Z0.01
X70.89 Y29.199 Z0.009
X70.87 Y29.169 Z0.008
X70.859 Y29.154
X70.896 Y29.107 Z0.007
X71.774 Y28.276 Z-0.016
X72.196 Y27.956 Z-0.027
X72.221 Y27.95
X72.242 Y27.953
X72.435 Y28.081 Z-0.032
X72.553 Y28.271 Z-0.036
X72.571 Y28.468 Z-0.04
X72.462 Y28.663 Z-0.044
X72.128 Y29.003 Z-0.053
X71.403 Y29.692 Z-0.073
X71.377 Y29.711
X71.355 Y29.692 Z-0.074
X71.318 Y29.666 Z-0.075
X71.276 Y29.647
X71.184 Y29.615 Z-0.077
X71.137 Y29.604 Z-0.078
X71.089 Y29.601 Z-0.079
X70.997 Y29.606 Z-0.081
X70.957 Y29.611 Z-0.082
X70.918 Y29.622 Z-0.083
X70.934 Y29.584
X70.947 Y29.538 Z-0.084
X70.952 Y29.49 Z-0.085
X70.951 Y29.398 Z-0.087
X70.947 Y29.353 Z-0.088
X70.935 Y29.311 Z-0.089
X70.905 Y29.231 Z-0.09
X70.89 Y29.199 Z-0.091
X70.87 Y29.169 Z-0.092
X70.859 Y29.154
X70.896 Y29.107 Z-0.093
X71.774 Y28.276 Z-0.116
X72.196 Y27.956 Z-0.127
X72.221 Y27.95
X72.242 Y27.953
X72.435 Y28.081 Z-0.132
X72.553 Y28.271 Z-0.136
X72.571 Y28.468 Z-0.14
X72.462 Y28.663 Z-0.144
X72.128 Y29.003 Z-0.153
X71.403 Y29.692 Z-0.173
X71.377 Y29.711
X71.355 Y29.692 Z-0.174
X71.318 Y29.666 Z-0.175
X71.276 Y29.647
X71.184 Y29.615 Z-0.177
X71.137 Y29.604 Z-0.178
X71.089 Y29.601 Z-0.179
X70.997 Y29.606 Z-0.181
X70.957 Y29.611 Z-0.182
X70.918 Y29.622 Z-0.183
X70.934 Y29.584
X70.947 Y29.538 Z-0.184
X70.952 Y29.49 Z-0.185
X70.951 Y29.398 Z-0.187
X70.947 Y29.353 Z-0.188
X70.935 Y29.311 Z-0.189
X70.905 Y29.231 Z-0.19
X70.89 Y29.199 Z-0.191
X70.87 Y29.169 Z-0.192
X70.859 Y29.154
X70.896 Y29.107 Z-0.193
X71.774 Y28.276 Z-0.216
X72.196 Y27.956 Z-0.227
X72.221 Y27.95
X72.242 Y27.953
X72.435 Y28.081 Z-0.232
X72.553 Y28.271 Z-0.236
X72.571 Y28.468 Z-0.24
X72.462 Y28.663 Z-0.244
X72.128 Y29.003 Z-0.253
X71.403 Y29.692 Z-0.273
X71.377 Y29.711
X71.355 Y29.692 Z-0.274
X71.318 Y29.666 Z-0.275
X71.276 Y29.647
X71.184 Y29.615 Z-0.277
X71.137 Y29.604 Z-0.278
X71.089 Y29.601 Z-0.279
X70.997 Y29.606 Z-0.281
X70.957 Y29.611 Z-0.282
X70.918 Y29.622 Z-0.283
X70.934 Y29.584
X70.947 Y29.538 Z-0.284
X70.952 Y29.49 Z-0.285
X70.951 Y29.398 Z-0.287
X70.947 Y29.353 Z-0.288
X70.935 Y29.311 Z-0.289
X70.905 Y29.231 Z-0.29
X70.89 Y29.199 Z-0.291
X70.87 Y29.169 Z-0.292
X70.859 Y29.154
X70.896 Y29.107 Z-0.293
X71.774 Y28.276 Z-0.316
X72.196 Y27.956 Z-0.327
X72.221 Y27.95
X72.242 Y27.953
X72.435 Y28.081 Z-0.332
X72.553 Y28.271 Z-0.336
X72.571 Y28.468 Z-0.34
X72.462 Y28.663 Z-0.344
X72.128 Y29.003 Z-0.353
X71.403 Y29.692 Z-0.373
X71.377 Y29.711
X71.355 Y29.692 Z-0.374
X71.318 Y29.666 Z-0.375
X71.276 Y29.647
X71.184 Y29.615 Z-0.377
X71.137 Y29.604 Z-0.378
X71.089 Y29.601 Z-0.379
X70.997 Y29.606 Z-0.381
X70.957 Y29.611 Z-0.382
X70.918 Y29.622 Z-0.383
X70.934 Y29.584
X70.947 Y29.538 Z-0.384
X70.952 Y29.49 Z-0.385
X70.951 Y29.398 Z-0.387
X70.947 Y29.353 Z-0.388
X70.935 Y29.311 Z-0.389
X70.905 Y29.231 Z-0.39
X70.89 Y29.199 Z-0.391
X70.87 Y29.169 Z-0.392
X70.859 Y29.154
X70.896 Y29.107 Z-0.393
X71.774 Y28.276 Z-0.416
X72.196 Y27.956 Z-0.427
X72.221 Y27.95
X72.242 Y27.953
X72.435 Y28.081 Z-0.432
X72.553 Y28.271 Z-0.436
X72.571 Y28.468 Z-0.44
X72.462 Y28.663 Z-0.444
X72.128 Y29.003 Z-0.453
X71.403 Y29.692 Z-0.473
X71.377 Y29.711
X71.355 Y29.692 Z-0.474
X71.318 Y29.666 Z-0.475
X71.276 Y29.647
X71.184 Y29.615 Z-0.477
X71.137 Y29.604 Z-0.478
X71.089 Y29.601 Z-0.479
X70.997 Y29.606 Z-0.481
X70.957 Y29.611 Z-0.482
X70.918 Y29.622 Z-0.483
X70.934 Y29.584
X70.947 Y29.538 Z-0.484
X70.952 Y29.49 Z-0.485
X70.951 Y29.398 Z-0.487
X70.947 Y29.353 Z-0.488
X70.935 Y29.311 Z-0.489
X70.905 Y29.231 Z-0.49
X70.89 Y29.199 Z-0.491
X70.87 Y29.169 Z-0.492
X70.859 Y29.154
X70.896 Y29.107 Z-0.493
X71.121 Y28.894 Z-0.499
X71.774 Y28.276 F50.
X72.037 Y28.076
X72.196 Y27.956 F13.
X72.221 Y27.95
X72.242 Y27.953
X72.435 Y28.081 F50.
X72.553 Y28.271 F13.
X72.571 Y28.468
X72.462 Y28.663 F50.
X72.128 Y29.003
X71.548 Y29.554
X71.403 Y29.692 F13.
X71.377 Y29.711
X71.355 Y29.692
X71.318 Y29.666 F50.
X71.276 Y29.647
X71.184 Y29.615
X71.137 Y29.604
X71.089 Y29.601
X70.997 Y29.606 F13.
X70.957 Y29.611
X70.918 Y29.622
X70.934 Y29.584
X70.947 Y29.538 F50.
X70.952 Y29.49
X70.951 Y29.398
X70.947 Y29.353
X70.935 Y29.311
X70.905 Y29.231
X70.89 Y29.199 F13.
X70.87 Y29.169
X70.859 Y29.154
X70.896 Y29.107
X71.121 Y28.894 F50.
X71.13 Y28.892 Z-0.489
G0 Z5.
X72.353 Y28.774
Z2.505
G1 Z0.71 F17.
X72.346 Y28.781 Z0.7
X72.128 Y29.003 Z0.694
X71.403 Y29.692 Z0.675
X71.377 Y29.711 Z0.674
X71.355 Y29.692
X71.318 Y29.666 Z0.673
X71.276 Y29.647 Z0.672
X71.184 Y29.615 Z0.67
X71.137 Y29.604 Z0.669
X71.089 Y29.601 Z0.668
X70.997 Y29.606 Z0.666
X70.957 Y29.611
X70.918 Y29.622 Z0.665
X70.934 Y29.584 Z0.664
X70.947 Y29.538 Z0.663
X70.952 Y29.49 Z0.662
X70.951 Y29.398 Z0.66
X70.947 Y29.353
X70.935 Y29.311 Z0.659
X70.905 Y29.231 Z0.657
X70.89 Y29.199 Z0.656
X70.87 Y29.169
X70.859 Y29.154 Z0.655
X70.896 Y29.107 Z0.654
X71.774 Y28.276 Z0.631
X72.196 Y27.956 Z0.621
X72.221 Y27.95 Z0.62
X72.242 Y27.953
X72.435 Y28.081 Z0.616
X72.553 Y28.271 Z0.611
X72.571 Y28.468 Z0.607
X72.462 Y28.663 Z0.603
X72.128 Y29.003 Z0.594
X71.403 Y29.692 Z0.575
X71.377 Y29.711 Z0.574
X71.355 Y29.692
X71.318 Y29.666 Z0.573
X71.276 Y29.647 Z0.572
X71.184 Y29.615 Z0.57
X71.137 Y29.604 Z0.569
X71.089 Y29.601 Z0.568
X70.997 Y29.606 Z0.566
X70.957 Y29.611
X70.918 Y29.622 Z0.565
X70.934 Y29.584 Z0.564
X70.947 Y29.538 Z0.563
X70.952 Y29.49 Z0.562
X70.951 Y29.398 Z0.56
X70.947 Y29.353
X70.935 Y29.311 Z0.559
X70.905 Y29.231 Z0.557
X70.89 Y29.199 Z0.556
X70.87 Y29.169
X70.859 Y29.154 Z0.555
X70.896 Y29.107 Z0.554
X71.774 Y28.276 Z0.531
X72.196 Y27.956 Z0.521
X72.221 Y27.95 Z0.52
X72.242 Y27.953
X72.435 Y28.081 Z0.516
X72.553 Y28.271 Z0.511
X72.571 Y28.468 Z0.507
X72.462 Y28.663 Z0.503
X72.128 Y29.003 Z0.494
X71.403 Y29.692 Z0.475
X71.377 Y29.711 Z0.474
X71.355 Y29.692
X71.318 Y29.666 Z0.473
X71.276 Y29.647 Z0.472
X71.184 Y29.615 Z0.47
X71.137 Y29.604 Z0.469
X71.089 Y29.601 Z0.468
X70.997 Y29.606 Z0.466
X70.957 Y29.611
X70.918 Y29.622 Z0.465
X70.934 Y29.584 Z0.464
X70.947 Y29.538 Z0.463
X70.952 Y29.49 Z0.462
X70.951 Y29.398 Z0.46
X70.947 Y29.353
X70.935 Y29.311 Z0.459
X70.905 Y29.231 Z0.457
X70.89 Y29.199 Z0.456
X70.87 Y29.169
X70.859 Y29.154 Z0.455
X70.896 Y29.107 Z0.454
X71.774 Y28.276 Z0.431
X72.196 Y27.956 Z0.421
X72.221 Y27.95 Z0.42
X72.242 Y27.953
X72.435 Y28.081 Z0.416
X72.553 Y28.271 Z0.411
X72.571 Y28.468 Z0.407
X72.462 Y28.663 Z0.403
X72.128 Y29.003 Z0.394
X71.403 Y29.692 Z0.375
X71.377 Y29.711 Z0.374
X71.355 Y29.692
X71.318 Y29.666 Z0.373
X71.276 Y29.647 Z0.372
X71.184 Y29.615 Z0.37
X71.137 Y29.604 Z0.369
X71.089 Y29.601 Z0.368
X70.997 Y29.606 Z0.366
X70.957 Y29.611
X70.918 Y29.622 Z0.365
X70.934 Y29.584 Z0.364
X70.947 Y29.538 Z0.363
X70.952 Y29.49 Z0.362
X70.951 Y29.398 Z0.36
X70.947 Y29.353
X70.935 Y29.311 Z0.359
X70.905 Y29.231 Z0.357
X70.89 Y29.199 Z0.356
X70.87 Y29.169
X70.859 Y29.154 Z0.355
X70.896 Y29.107 Z0.354
X71.774 Y28.276 Z0.331
X72.196 Y27.956 Z0.321
X72.221 Y27.95 Z0.32
X72.242 Y27.953
X72.435 Y28.081 Z0.316
X72.553 Y28.271 Z0.311
X72.571 Y28.468 Z0.307
X72.462 Y28.663 Z0.303
X72.128 Y29.003 Z0.294
X71.403 Y29.692 Z0.275
X71.377 Y29.711 Z0.274
X71.355 Y29.692
X71.318 Y29.666 Z0.273
X71.276 Y29.647 Z0.272
X71.184 Y29.615 Z0.27
X71.137 Y29.604 Z0.269
X71.089 Y29.601 Z0.268
X70.997 Y29.606 Z0.266
X70.957 Y29.611
X70.918 Y29.622 Z0.265
X70.934 Y29.584 Z0.264
X70.947 Y29.538 Z0.263
X70.952 Y29.49 Z0.262
X70.951 Y29.398 Z0.26
X70.947 Y29.353
X70.935 Y29.311 Z0.259
X70.905 Y29.231 Z0.257
X70.89 Y29.199 Z0.256
X70.87 Y29.169
X70.859 Y29.154 Z0.255
X70.896 Y29.107 Z0.254
X71.774 Y28.276 Z0.231
X72.196 Y27.956 Z0.221
X72.221 Y27.95 Z0.22
X72.242 Y27.953
X72.435 Y28.081 Z0.216
X72.553 Y28.271 Z0.211
X72.571 Y28.468 Z0.207
X72.462 Y28.663 Z0.203
X72.128 Y29.003 Z0.194
X71.403 Y29.692 Z0.175
X71.377 Y29.711 Z0.174
X71.355 Y29.692
X71.318 Y29.666 Z0.173
X71.276 Y29.647 Z0.172
X71.184 Y29.615 Z0.17
X71.137 Y29.604 Z0.169
X71.089 Y29.601 Z0.168
X70.997 Y29.606 Z0.166
X70.957 Y29.611
X70.918 Y29.622 Z0.165
X70.934 Y29.584 Z0.164
X70.947 Y29.538 Z0.163
X70.952 Y29.49 Z0.162
X70.951 Y29.398 Z0.16
X70.947 Y29.353
X70.935 Y29.311 Z0.159
X70.905 Y29.231 Z0.157
X70.89 Y29.199 Z0.156
X70.87 Y29.169
X70.859 Y29.154 Z0.155
X70.896 Y29.107 Z0.154
X71.774 Y28.276 Z0.131
X72.196 Y27.956 Z0.121
X72.221 Y27.95 Z0.12
X72.242 Y27.953
X72.435 Y28.081 Z0.116
X72.553 Y28.271 Z0.111
X72.571 Y28.468 Z0.107
X72.462 Y28.663 Z0.103
X72.128 Y29.003 Z0.094
X71.403 Y29.692 Z0.075
X71.377 Y29.711 Z0.074
X71.355 Y29.692
X71.318 Y29.666 Z0.073
X71.276 Y29.647 Z0.072
X71.184 Y29.615 Z0.07
X71.137 Y29.604 Z0.069
X71.089 Y29.601 Z0.068
X70.997 Y29.606 Z0.066
X70.957 Y29.611
X70.918 Y29.622 Z0.065
X70.934 Y29.584 Z0.064
X70.947 Y29.538 Z0.063
X70.952 Y29.49 Z0.062
X70.951 Y29.398 Z0.06
X70.947 Y29.353
X70.935 Y29.311 Z0.059
X70.905 Y29.231 Z0.057
X70.89 Y29.199 Z0.056
X70.87 Y29.169
X70.859 Y29.154 Z0.055
X70.896 Y29.107 Z0.054
X71.774 Y28.276 Z0.031
X72.196 Y27.956 Z0.021
X72.221 Y27.95 Z0.02
X72.242 Y27.953
X72.435 Y28.081 Z0.016
X72.553 Y28.271 Z0.011
X72.571 Y28.468 Z0.007
X72.462 Y28.663 Z0.003
X72.128 Y29.003 Z-0.006
X71.403 Y29.692 Z-0.025
X71.377 Y29.711 Z-0.026
X71.355 Y29.692
X71.318 Y29.666 Z-0.027
X71.276 Y29.647 Z-0.028
X71.184 Y29.615 Z-0.03
X71.137 Y29.604 Z-0.031
X71.089 Y29.601 Z-0.032
X70.997 Y29.606 Z-0.034
X70.957 Y29.611
X70.918 Y29.622 Z-0.035
X70.934 Y29.584 Z-0.036
X70.947 Y29.538 Z-0.037
X70.952 Y29.49 Z-0.038
X70.951 Y29.398 Z-0.04
X70.947 Y29.353
X70.935 Y29.311 Z-0.041
X70.905 Y29.231 Z-0.043
X70.89 Y29.199 Z-0.044
X70.87 Y29.169
X70.859 Y29.154 Z-0.045
X70.896 Y29.107 Z-0.046
X71.774 Y28.276 Z-0.069
X72.196 Y27.956 Z-0.079
X72.221 Y27.95 Z-0.08
X72.242 Y27.953
X72.435 Y28.081 Z-0.084
X72.553 Y28.271 Z-0.089
X72.571 Y28.468 Z-0.093
X72.462 Y28.663 Z-0.097
X72.128 Y29.003 Z-0.106
X71.403 Y29.692 Z-0.125
X71.377 Y29.711 Z-0.126
X71.355 Y29.692
X71.318 Y29.666 Z-0.127
X71.276 Y29.647 Z-0.128
X71.184 Y29.615 Z-0.13
X71.137 Y29.604 Z-0.131
X71.089 Y29.601 Z-0.132
X70.997 Y29.606 Z-0.134
X70.957 Y29.611
X70.918 Y29.622 Z-0.135
X70.934 Y29.584 Z-0.136
X70.947 Y29.538 Z-0.137
X70.952 Y29.49 Z-0.138
X70.951 Y29.398 Z-0.14
X70.947 Y29.353
X70.935 Y29.311 Z-0.141
X70.905 Y29.231 Z-0.143
X70.89 Y29.199 Z-0.144
X70.87 Y29.169
X70.859 Y29.154 Z-0.145
X70.896 Y29.107 Z-0.146
X71.774 Y28.276 Z-0.169
X72.196 Y27.956 Z-0.179
X72.221 Y27.95 Z-0.18
X72.242 Y27.953
X72.435 Y28.081 Z-0.184
X72.553 Y28.271 Z-0.189
X72.571 Y28.468 Z-0.193
X72.462 Y28.663 Z-0.197
X72.128 Y29.003 Z-0.206
X71.403 Y29.692 Z-0.225
X71.377 Y29.711 Z-0.226
X71.355 Y29.692
X71.318 Y29.666 Z-0.227
X71.276 Y29.647 Z-0.228
X71.184 Y29.615 Z-0.23
X71.137 Y29.604 Z-0.231
X71.089 Y29.601 Z-0.232
X70.997 Y29.606 Z-0.234
X70.957 Y29.611
X70.918 Y29.622 Z-0.235
X70.934 Y29.584 Z-0.236
X70.947 Y29.538 Z-0.237
X70.952 Y29.49 Z-0.238
X70.951 Y29.398 Z-0.24
X70.947 Y29.353
X70.935 Y29.311 Z-0.241
X70.905 Y29.231 Z-0.243
X70.89 Y29.199 Z-0.244
X70.87 Y29.169
X70.859 Y29.154 Z-0.245
X70.896 Y29.107 Z-0.246
X71.774 Y28.276 Z-0.269
X72.196 Y27.956 Z-0.279
X72.221 Y27.95 Z-0.28
X72.242 Y27.953
X72.435 Y28.081 Z-0.284
X72.553 Y28.271 Z-0.289
X72.571 Y28.468 Z-0.293
X72.462 Y28.663 Z-0.297
X72.128 Y29.003 Z-0.306
X71.403 Y29.692 Z-0.325
X71.377 Y29.711 Z-0.326
X71.355 Y29.692
X71.318 Y29.666 Z-0.327
X71.276 Y29.647 Z-0.328
X71.184 Y29.615 Z-0.33
X71.137 Y29.604 Z-0.331
X71.089 Y29.601 Z-0.332
X70.997 Y29.606 Z-0.334
X70.957 Y29.611
X70.918 Y29.622 Z-0.335
X70.934 Y29.584 Z-0.336
X70.947 Y29.538 Z-0.337
X70.952 Y29.49 Z-0.338
X70.951 Y29.398 Z-0.34
X70.947 Y29.353
X70.935 Y29.311 Z-0.341
X70.905 Y29.231 Z-0.343
X70.89 Y29.199 Z-0.344
X70.87 Y29.169
X70.859 Y29.154 Z-0.345
X70.896 Y29.107 Z-0.346
X71.774 Y28.276 Z-0.369
X72.196 Y27.956 Z-0.379
X72.221 Y27.95 Z-0.38
X72.242 Y27.953
X72.435 Y28.081 Z-0.384
X72.553 Y28.271 Z-0.389
X72.571 Y28.468 Z-0.393
X72.462 Y28.663 Z-0.397
X72.128 Y29.003 Z-0.406
X71.403 Y29.692 Z-0.425
X71.377 Y29.711 Z-0.426
X71.355 Y29.692
X71.318 Y29.666 Z-0.427
X71.276 Y29.647 Z-0.428
X71.184 Y29.615 Z-0.43
X71.137 Y29.604 Z-0.431
X71.089 Y29.601 Z-0.432
X70.997 Y29.606 Z-0.434
X70.957 Y29.611
X70.918 Y29.622 Z-0.435
X70.934 Y29.584 Z-0.436
X70.947 Y29.538 Z-0.437
X70.952 Y29.49 Z-0.438
X70.951 Y29.398 Z-0.44
X70.947 Y29.353
X70.935 Y29.311 Z-0.441
X70.905 Y29.231 Z-0.443
X70.89 Y29.199 Z-0.444
X70.87 Y29.169
X70.859 Y29.154 Z-0.445
X70.896 Y29.107 Z-0.446
X71.774 Y28.276 Z-0.469
X72.196 Y27.956 Z-0.479
X72.221 Y27.95 Z-0.48
X72.242 Y27.953
X72.435 Y28.081 Z-0.484
X72.553 Y28.271 Z-0.489
X72.571 Y28.468 Z-0.493
X72.462 Y28.663 Z-0.497
X72.128 Y29.003 Z-0.506
X71.403 Y29.692 Z-0.525
X71.377 Y29.711 Z-0.526
X71.355 Y29.692
X71.318 Y29.666 Z-0.527
X71.276 Y29.647 Z-0.528
X71.184 Y29.615 Z-0.53
X71.137 Y29.604 Z-0.531
X71.089 Y29.601 Z-0.532
X70.997 Y29.606 Z-0.534
X70.957 Y29.611
X70.918 Y29.622 Z-0.535
X70.934 Y29.584 Z-0.536
X70.947 Y29.538 Z-0.537
X70.952 Y29.49 Z-0.538
X70.951 Y29.398 Z-0.54
X70.947 Y29.353
X70.935 Y29.311 Z-0.541
X70.911 Y29.247 Z-0.543
X70.905 Y29.231 F50.
X70.89 Y29.199 F13.
X70.87 Y29.169
X70.859 Y29.154
X70.896 Y29.107
X71.774 Y28.276 F50.
X72.037 Y28.076
X72.196 Y27.956 F13.
X72.221 Y27.95
X72.242 Y27.953
X72.435 Y28.081 F50.
X72.553 Y28.271 F13.
X72.571 Y28.468
X72.462 Y28.663 F50.
X72.128 Y29.003
X71.548 Y29.554
X71.403 Y29.692 F13.
X71.377 Y29.711
X71.355 Y29.692
X71.318 Y29.666 F50.
X71.276 Y29.647
X71.184 Y29.615
X71.137 Y29.604
X71.089 Y29.601
X70.997 Y29.606 F13.
X70.957 Y29.611
X70.918 Y29.622
X70.934 Y29.584
X70.947 Y29.538 F50.
X70.952 Y29.49
X70.951 Y29.398
X70.947 Y29.353
X70.935 Y29.311
X70.911 Y29.247
X70.912 Y29.238 Z-0.533
G0 Z5.
X72.015 Y29.11
Z2.505
G1 Z0.71 F17.
X72.008 Y29.117 Z0.7
X71.403 Y29.692 Z0.684
X71.377 Y29.711 Z0.683
X71.355 Y29.692
X71.318 Y29.666 Z0.682
X71.276 Y29.647 Z0.681
X71.184 Y29.615 Z0.679
X71.137 Y29.604 Z0.678
X71.089 Y29.601 Z0.677
X70.997 Y29.606 Z0.676
X70.957 Y29.611 Z0.675
X70.918 Y29.622 Z0.674
X70.934 Y29.584 Z0.673
X70.947 Y29.538 Z0.672
X70.952 Y29.49 Z0.671
X70.951 Y29.398 Z0.67
X70.947 Y29.353 Z0.669
X70.935 Y29.311 Z0.668
X70.905 Y29.231 Z0.666
X70.89 Y29.199
X70.87 Y29.169 Z0.665
X70.859 Y29.154
X70.896 Y29.107 Z0.663
X71.774 Y28.276 Z0.64
X72.196 Y27.956 Z0.63
X72.221 Y27.95
X72.242 Y27.953 Z0.629
X72.435 Y28.081 Z0.625
X72.553 Y28.271 Z0.62
X72.571 Y28.468 Z0.617
X72.462 Y28.663 Z0.612
X72.128 Y29.003 Z0.603
X71.403 Y29.692 Z0.584
X71.377 Y29.711 Z0.583
X71.355 Y29.692
X71.318 Y29.666 Z0.582
X71.276 Y29.647 Z0.581
X71.184 Y29.615 Z0.579
X71.137 Y29.604 Z0.578
X71.089 Y29.601 Z0.577
X70.997 Y29.606 Z0.576
X70.957 Y29.611 Z0.575
X70.918 Y29.622 Z0.574
X70.934 Y29.584 Z0.573
X70.947 Y29.538 Z0.572
X70.952 Y29.49 Z0.571
X70.951 Y29.398 Z0.57
X70.947 Y29.353 Z0.569
X70.935 Y29.311 Z0.568
X70.905 Y29.231 Z0.566
X70.89 Y29.199
X70.87 Y29.169 Z0.565
X70.859 Y29.154
X70.896 Y29.107 Z0.563
X71.774 Y28.276 Z0.54
X72.196 Y27.956 Z0.53
X72.221 Y27.95
X72.242 Y27.953 Z0.529
X72.435 Y28.081 Z0.525
X72.553 Y28.271 Z0.52
X72.571 Y28.468 Z0.517
X72.462 Y28.663 Z0.512
X72.128 Y29.003 Z0.503
X71.403 Y29.692 Z0.484
X71.377 Y29.711 Z0.483
X71.355 Y29.692
X71.318 Y29.666 Z0.482
X71.276 Y29.647 Z0.481
X71.184 Y29.615 Z0.479
X71.137 Y29.604 Z0.478
X71.089 Y29.601 Z0.477
X70.997 Y29.606 Z0.476
X70.957 Y29.611 Z0.475
X70.918 Y29.622 Z0.474
X70.934 Y29.584 Z0.473
X70.947 Y29.538 Z0.472
X70.952 Y29.49 Z0.471
X70.951 Y29.398 Z0.47
X70.947 Y29.353 Z0.469
X70.935 Y29.311 Z0.468
X70.905 Y29.231 Z0.466
X70.89 Y29.199
X70.87 Y29.169 Z0.465
X70.859 Y29.154
X70.896 Y29.107 Z0.463
X71.774 Y28.276 Z0.44
X72.196 Y27.956 Z0.43
X72.221 Y27.95
X72.242 Y27.953 Z0.429
X72.435 Y28.081 Z0.425
X72.553 Y28.271 Z0.42
X72.571 Y28.468 Z0.417
X72.462 Y28.663 Z0.412
X72.128 Y29.003 Z0.403
X71.403 Y29.692 Z0.384
X71.377 Y29.711 Z0.383
X71.355 Y29.692
X71.318 Y29.666 Z0.382
X71.276 Y29.647 Z0.381
X71.184 Y29.615 Z0.379
X71.137 Y29.604 Z0.378
X71.089 Y29.601 Z0.377
X70.997 Y29.606 Z0.376
X70.957 Y29.611 Z0.375
X70.918 Y29.622 Z0.374
X70.934 Y29.584 Z0.373
X70.947 Y29.538 Z0.372
X70.952 Y29.49 Z0.371
X70.951 Y29.398 Z0.37
X70.947 Y29.353 Z0.369
X70.935 Y29.311 Z0.368
X70.905 Y29.231 Z0.366
X70.89 Y29.199
X70.87 Y29.169 Z0.365
X70.859 Y29.154
X70.896 Y29.107 Z0.363
X71.774 Y28.276 Z0.34
X72.196 Y27.956 Z0.33
X72.221 Y27.95
X72.242 Y27.953 Z0.329
X72.435 Y28.081 Z0.325
X72.553 Y28.271 Z0.32
X72.571 Y28.468 Z0.317
X72.462 Y28.663 Z0.312
X72.128 Y29.003 Z0.303
X71.403 Y29.692 Z0.284
X71.377 Y29.711 Z0.283
X71.355 Y29.692
X71.318 Y29.666 Z0.282
X71.276 Y29.647 Z0.281
X71.184 Y29.615 Z0.279
X71.137 Y29.604 Z0.278
X71.089 Y29.601 Z0.277
X70.997 Y29.606 Z0.276
X70.957 Y29.611 Z0.275
X70.918 Y29.622 Z0.274
X70.934 Y29.584 Z0.273
X70.947 Y29.538 Z0.272
X70.952 Y29.49 Z0.271
X70.951 Y29.398 Z0.27
X70.947 Y29.353 Z0.269
X70.935 Y29.311 Z0.268
X70.905 Y29.231 Z0.266
X70.89 Y29.199
X70.87 Y29.169 Z0.265
X70.859 Y29.154
X70.896 Y29.107 Z0.263
X71.774 Y28.276 Z0.24
X72.196 Y27.956 Z0.23
X72.221 Y27.95
X72.242 Y27.953 Z0.229
X72.435 Y28.081 Z0.225
X72.553 Y28.271 Z0.22
X72.571 Y28.468 Z0.217
X72.462 Y28.663 Z0.212
X72.128 Y29.003 Z0.203
X71.403 Y29.692 Z0.184
X71.377 Y29.711 Z0.183
X71.355 Y29.692
X71.318 Y29.666 Z0.182
X71.276 Y29.647 Z0.181
X71.184 Y29.615 Z0.179
X71.137 Y29.604 Z0.178
X71.089 Y29.601 Z0.177
X70.997 Y29.606 Z0.176
X70.957 Y29.611 Z0.175
X70.918 Y29.622 Z0.174
X70.934 Y29.584 Z0.173
X70.947 Y29.538 Z0.172
X70.952 Y29.49 Z0.171
X70.951 Y29.398 Z0.17
X70.947 Y29.353 Z0.169
X70.935 Y29.311 Z0.168
X70.905 Y29.231 Z0.166
X70.89 Y29.199
X70.87 Y29.169 Z0.165
X70.859 Y29.154
X70.896 Y29.107 Z0.163
X71.774 Y28.276 Z0.14
X72.196 Y27.956 Z0.13
X72.221 Y27.95
X72.242 Y27.953 Z0.129
X72.435 Y28.081 Z0.125
X72.553 Y28.271 Z0.12
X72.571 Y28.468 Z0.117
X72.462 Y28.663 Z0.112
X72.128 Y29.003 Z0.103
X71.403 Y29.692 Z0.084
X71.377 Y29.711 Z0.083
X71.355 Y29.692
X71.318 Y29.666 Z0.082
X71.276 Y29.647 Z0.081
X71.184 Y29.615 Z0.079
X71.137 Y29.604 Z0.078
X71.089 Y29.601 Z0.077
X70.997 Y29.606 Z0.076
X70.957 Y29.611 Z0.075
X70.918 Y29.622 Z0.074
X70.934 Y29.584 Z0.073
X70.947 Y29.538 Z0.072
X70.952 Y29.49 Z0.071
X70.951 Y29.398 Z0.07
X70.947 Y29.353 Z0.069
X70.935 Y29.311 Z0.068
X70.905 Y29.231 Z0.066
X70.89 Y29.199
X70.87 Y29.169 Z0.065
X70.859 Y29.154
X70.896 Y29.107 Z0.063
X71.774 Y28.276 Z0.04
X72.196 Y27.956 Z0.03
X72.221 Y27.95
X72.242 Y27.953 Z0.029
X72.435 Y28.081 Z0.025
X72.553 Y28.271 Z0.02
X72.571 Y28.468 Z0.017
X72.462 Y28.663 Z0.012
X72.128 Y29.003 Z0.003
X71.403 Y29.692 Z-0.016
X71.377 Y29.711 Z-0.017
X71.355 Y29.692
X71.318 Y29.666 Z-0.018
X71.276 Y29.647 Z-0.019
X71.184 Y29.615 Z-0.021
X71.137 Y29.604 Z-0.022
X71.089 Y29.601 Z-0.023
X70.997 Y29.606 Z-0.024
X70.957 Y29.611 Z-0.025
X70.918 Y29.622 Z-0.026
X70.934 Y29.584 Z-0.027
X70.947 Y29.538 Z-0.028
X70.952 Y29.49 Z-0.029
X70.951 Y29.398 Z-0.03
X70.947 Y29.353 Z-0.031
X70.935 Y29.311 Z-0.032
X70.905 Y29.231 Z-0.034
X70.89 Y29.199
X70.87 Y29.169 Z-0.035
X70.859 Y29.154
X70.896 Y29.107 Z-0.037
X71.774 Y28.276 Z-0.06
X72.196 Y27.956 Z-0.07
X72.221 Y27.95
X72.242 Y27.953 Z-0.071
X72.435 Y28.081 Z-0.075
X72.553 Y28.271 Z-0.08
X72.571 Y28.468 Z-0.083
X72.462 Y28.663 Z-0.088
X72.128 Y29.003 Z-0.097
X71.403 Y29.692 Z-0.116
X71.377 Y29.711 Z-0.117
X71.355 Y29.692
X71.318 Y29.666 Z-0.118
X71.276 Y29.647 Z-0.119
X71.184 Y29.615 Z-0.121
X71.137 Y29.604 Z-0.122
X71.089 Y29.601 Z-0.123
X70.997 Y29.606 Z-0.124
X70.957 Y29.611 Z-0.125
X70.918 Y29.622 Z-0.126
X70.934 Y29.584 Z-0.127
X70.947 Y29.538 Z-0.128
X70.952 Y29.49 Z-0.129
X70.951 Y29.398 Z-0.13
X70.947 Y29.353 Z-0.131
X70.935 Y29.311 Z-0.132
X70.905 Y29.231 Z-0.134
X70.89 Y29.199
X70.87 Y29.169 Z-0.135
X70.859 Y29.154
X70.896 Y29.107 Z-0.137
X71.774 Y28.276 Z-0.16
X72.196 Y27.956 Z-0.17
X72.221 Y27.95
X72.242 Y27.953 Z-0.171
X72.435 Y28.081 Z-0.175
X72.553 Y28.271 Z-0.18
X72.571 Y28.468 Z-0.183
X72.462 Y28.663 Z-0.188
X72.128 Y29.003 Z-0.197
X71.403 Y29.692 Z-0.216
X71.377 Y29.711 Z-0.217
X71.355 Y29.692
X71.318 Y29.666 Z-0.218
X71.276 Y29.647 Z-0.219
X71.184 Y29.615 Z-0.221
X71.137 Y29.604 Z-0.222
X71.089 Y29.601 Z-0.223
X70.997 Y29.606 Z-0.224
X70.957 Y29.611 Z-0.225
X70.918 Y29.622 Z-0.226
X70.934 Y29.584 Z-0.227
X70.947 Y29.538 Z-0.228
X70.952 Y29.49 Z-0.229
X70.951 Y29.398 Z-0.23
X70.947 Y29.353 Z-0.231
X70.935 Y29.311 Z-0.232
X70.905 Y29.231 Z-0.234
X70.89 Y29.199
X70.87 Y29.169 Z-0.235
X70.859 Y29.154
X70.896 Y29.107 Z-0.237
X71.774 Y28.276 Z-0.26
X72.196 Y27.956 Z-0.27
X72.221 Y27.95
X72.242 Y27.953 Z-0.271
X72.435 Y28.081 Z-0.275
X72.553 Y28.271 Z-0.28
X72.571 Y28.468 Z-0.283
X72.462 Y28.663 Z-0.288
X72.128 Y29.003 Z-0.297
X71.403 Y29.692 Z-0.316
X71.377 Y29.711 Z-0.317
X71.355 Y29.692
X71.318 Y29.666 Z-0.318
X71.276 Y29.647 Z-0.319
X71.184 Y29.615 Z-0.321
X71.137 Y29.604 Z-0.322
X71.089 Y29.601 Z-0.323
X70.997 Y29.606 Z-0.324
X70.957 Y29.611 Z-0.325
