(1001)
(T1  D=1. CR=0. - ZMIN=-2.928 - FLAT END MILL)
G0 G90 G94 G17
G21
G53 G0 Z0.

(1MM  FLATEND  RAMP)
M5
M9
T1
S12000 M3
G4 P4.
G55
G0 X6.401 Y44.062
Z15.
Z1.927
G1 Z-0.061 F50.
X6.366 Y44.079
X6.327 Y44.082
X6.29 Y44.07
X6.261 Y44.044
X6.243 Y44.009
X6.241 Y43.97
X6.254 Y43.859
X6.503 Y41.89 Z-0.062
X6.54 Y41.644
X6.889 Y39.675
X6.937 Y39.429
X7.389 Y37.46 Z-0.063
X7.451 Y37.214
X8.006 Y35.245 Z-0.064
X8.085 Y34.999
X8.706 Y33.151 Z-0.065
X8.749 Y33.03
X8.844 Y32.783
X9.519 Y31.06 Z-0.066
X9.626 Y30.814
X10.431 Y29.019
X10.518 Y28.845
X11.417 Y27.076 Z-0.067
X11.528 Y26.876
X12.511 Y25.153 Z-0.068
X12.65 Y24.933
X13.636 Y23.382 Z-0.069
X13.769 Y23.184
X14.868 Y21.625
X14.987 Y21.461
X15.115 Y21.297
X16.137 Y19.984 Z-0.07
X16.334 Y19.738
X16.347 Y19.723
X16.594 Y19.435
X17.601 Y18.261 Z-0.071
X17.824 Y18.015
X19.059 Y16.708 Z-0.072
X19.222 Y16.539
X19.305 Y16.458
X20.538 Y15.272
X20.757 Y15.062
X21.038 Y14.816 Z-0.073
X22.263 Y13.744
X22.451 Y13.585
X24.002 Y12.354 Z-0.074
X24.235 Y12.18
X25.714 Y11.118 Z-0.075
X25.961 Y10.948
X27.44 Y9.99
X27.59 Y9.893
X27.686 Y9.831 Z-0.076
X29.412 Y8.829
X29.658 Y8.692
X31.384 Y7.798 Z-0.077
X31.63 Y7.679
X33.356 Y6.89 Z-0.078
X33.602 Y6.784
X35.328 Y6.096 Z-0.079
X35.574 Y6.
X37.3 Y5.409
X37.546 Y5.325
X37.793 Y5.25
X39.624 Y4.724 Z-0.08
X39.765 Y4.684
X40.011 Y4.627
X41.737 Y4.224 Z-0.081
X41.983 Y4.169
X43.955 Y3.813 Z-0.082
X44.202 Y3.771
X46.174 Y3.518
X46.364 Y3.493 Z-0.083
X46.42 Y3.488
X48.392 Y3.336
X48.639 Y3.317
X48.885 Y3.309
X50.857 Y3.258 Z-0.084
X51.104
X53.076 Y3.309 Z-0.085
X53.322 Y3.317
X53.569 Y3.336
X55.541 Y3.488 Z-0.086
X55.597 Y3.493
X55.787 Y3.518
X57.759 Y3.771 Z-0.087
X58.006 Y3.813
X59.978 Y4.169
X60.224 Y4.224
X61.95 Y4.627 Z-0.088
X62.197 Y4.684
X62.337 Y4.724
X64.169 Y5.25 Z-0.089
X64.415 Y5.325
X64.662 Y5.409
X66.387 Y6. Z-0.09
X66.634 Y6.096
X68.359 Y6.784
X68.606 Y6.89 Z-0.091
X70.331 Y7.679
X70.578 Y7.798
X72.303 Y8.691 Z-0.092
X72.55 Y8.829
X74.275 Y9.831 Z-0.093
X74.371 Y9.893
X74.522 Y9.99
X76.001 Y10.948 Z-0.094
X76.247 Y11.117
X77.726 Y12.18
X77.96 Y12.354
X78.58 Y12.847 Z-0.095
X79.511 Y13.585
X79.698 Y13.744
X81.205 Y15.062 Z-0.096
X81.67 Y15.509
X82.656 Y16.458 Z-0.097
X82.74 Y16.539
X82.903 Y16.708
X84.138 Y18.015
X84.36 Y18.261
X85.417 Y19.492 Z-0.098
X85.614 Y19.722
X85.628 Y19.738
X85.824 Y19.984
X86.847 Y21.297 Z-0.099
X86.974 Y21.461
X87.093 Y21.625
X88.193 Y23.184 Z-0.1
X88.326 Y23.382
X89.312 Y24.933
X89.451 Y25.153
X90.433 Y26.876 Z-0.101
X90.544 Y27.075
X91.444 Y28.845 Z-0.102
X91.53 Y29.019
X92.336 Y30.814 Z-0.103
X92.443 Y31.06
X93.117 Y32.783
X93.213 Y33.03 Z-0.104
X93.256 Y33.151
X93.877 Y34.999
X93.955 Y35.245
X94.511 Y37.214 Z-0.105
X94.573 Y37.46
X94.981 Y39.242 Z-0.106
X95.024 Y39.429
X95.072 Y39.675
X95.422 Y41.644 Z-0.107
X95.458 Y41.89
X95.707 Y43.859
X95.721 Y43.971 Z-0.108
X95.734 Y44.106
X95.883 Y46.075
X95.901 Y46.321
X95.908 Y46.567
X95.957 Y48.536 Z-0.109
Y48.782
X95.908 Y50.751 Z-0.11
X95.901 Y50.997
X95.882 Y51.244
X95.734 Y53.213 Z-0.111
X95.721 Y53.345
X95.707 Y53.459
X95.458 Y55.428 Z-0.112
X95.421 Y55.674
X95.072 Y57.643
X95.024 Y57.889
X94.572 Y59.858 Z-0.113
X94.51 Y60.104
X93.955 Y62.073 Z-0.114
X93.876 Y62.32
X93.256 Y64.166 Z-0.115
X93.212 Y64.289
X93.116 Y64.535
X92.442 Y66.258 Z-0.116
X92.335 Y66.504
X91.53 Y68.297
X91.443 Y68.473
X90.544 Y70.241 Z-0.117
X90.432 Y70.442
X89.45 Y72.165 Z-0.118
X89.312 Y72.384
X88.326 Y73.935 Z-0.119
X88.192 Y74.134
X87.093 Y75.692
X86.973 Y75.857
X86.847 Y76.02
X85.823 Y77.334 Z-0.12
X85.627 Y77.58
X85.614 Y77.594
X85.368 Y77.882
X84.359 Y79.057 Z-0.121
X84.135 Y79.304
X82.903 Y80.609 Z-0.122
X82.738 Y80.78
X82.656 Y80.859
X81.424 Y82.045
X81.204 Y82.256
X80.923 Y82.503 Z-0.123
X79.698 Y83.574
X79.51 Y83.733
X77.959 Y84.964 Z-0.124
X77.726 Y85.138
X76.247 Y86.2 Z-0.125
X76.001 Y86.369
X74.522 Y87.327
X74.37 Y87.425
X74.275 Y87.487 Z-0.126
X72.55 Y88.489
X72.303 Y88.626
X70.578 Y89.52 Z-0.127
X70.331 Y89.639
X68.606 Y90.428 Z-0.128
X68.359 Y90.534
X66.634 Y91.222 Z-0.129
X66.387 Y91.318
X64.662 Y91.909
X64.415 Y91.993
X64.169 Y92.068
X62.337 Y92.594 Z-0.13
X62.197 Y92.634
X61.95 Y92.691
X60.224 Y93.094 Z-0.131
X59.978 Y93.149
X58.006 Y93.506 Z-0.132
X57.759 Y93.547
X55.787 Y93.801
X55.597 Y93.825 Z-0.133
X55.541 Y93.831
X53.569 Y93.982
X53.322 Y94.001
X53.076 Y94.009
X51.104 Y94.06 Z-0.134
X50.857
X48.885 Y94.009 Z-0.135
X48.639 Y94.001
X48.392 Y93.982
X46.42 Y93.831 Z-0.136
X46.364 Y93.825
X46.174 Y93.801
X44.202 Y93.547 Z-0.137
X43.955 Y93.506
X41.983 Y93.149
X41.737 Y93.094
X40.011 Y92.691 Z-0.138
X39.765 Y92.634
X39.624 Y92.594
X37.793 Y92.068 Z-0.139
X37.546 Y91.993
X37.3 Y91.909
X35.574 Y91.318 Z-0.14
X35.328 Y91.222
X33.602 Y90.534
X33.356 Y90.428 Z-0.141
X31.63 Y89.639
X31.384 Y89.52
X29.658 Y88.626 Z-0.142
X29.412 Y88.489
X27.686 Y87.487 Z-0.143
X27.591 Y87.425
X27.44 Y87.327
X25.961 Y86.369 Z-0.144
X25.714 Y86.2
X24.235 Y85.138
X24.002 Y84.964
X23.382 Y84.472 Z-0.145
X22.452 Y83.733
X22.263 Y83.573
X20.757 Y82.256 Z-0.146
X20.501 Y82.01
X19.305 Y80.859 Z-0.147
X19.223 Y80.78
X19.059 Y80.609
X17.825 Y79.303
X17.602 Y79.057
X16.546 Y77.826 Z-0.148
X16.335 Y77.58
X16.138 Y77.334
X15.115 Y76.02 Z-0.149
X14.988 Y75.857
X14.868 Y75.692
X13.77 Y74.134 Z-0.15
X13.636 Y73.935
X12.65 Y72.384
X12.512 Y72.165
X11.529 Y70.442 Z-0.151
X11.417 Y70.241
X10.519 Y68.473 Z-0.152
X10.431 Y68.297
X9.626 Y66.504 Z-0.153
X9.519 Y66.258
X8.845 Y64.535
X8.749 Y64.289 Z-0.154
X8.706 Y64.166
X8.085 Y62.32
X8.007 Y62.073
X7.451 Y60.104 Z-0.155
X7.389 Y59.858
X6.938 Y57.889 Z-0.156
X6.889 Y57.643
X6.54 Y55.674 Z-0.157
X6.503 Y55.428
X6.255 Y53.459
X6.241 Y53.345 Z-0.158
X6.228 Y53.213
X6.079 Y51.244
X6.061 Y50.997
X6.054 Y50.751
X6.004 Y48.782 Z-0.159
Y48.536
X6.054 Y46.567 Z-0.16
X6.06 Y46.321
X6.079 Y46.075
X6.228 Y44.106 Z-0.161
X6.241 Y43.97
X6.25 Y43.937
X6.271 Y43.908
X6.3 Y43.888
X6.334 Y43.88
X6.369 Y43.884
G0 Z5.
X6.347 Y44.082
Z1.931
G1 Z-0.161 F50.
X6.312 Y44.079
X6.281 Y44.063
X6.257 Y44.038
X6.243 Y44.006
X6.241 Y43.97
X6.247 Y43.916
X6.513 Y41.811 Z-0.162
X6.586 Y41.381
X6.89 Y39.666
X6.98 Y39.24
X7.37 Y37.543 Z-0.163
X7.477 Y37.121
X7.95 Y35.445 Z-0.164
X8.075 Y35.028
X8.63 Y33.377 Z-0.165
X8.773 Y32.966
X9.09 Y32.155
X9.408 Y31.344
X9.57 Y30.94 Z-0.166
X9.748 Y30.543
X10.282 Y29.351
X10.463 Y28.955
X10.66 Y28.566
X11.251 Y27.402 Z-0.167
X11.45 Y27.014
X11.665 Y26.636
X12.312 Y25.501 Z-0.168
X12.529 Y25.124
X12.762 Y24.756
X13.463 Y23.653
X13.698 Y23.287 Z-0.169
X13.948 Y22.93
X14.7 Y21.863
X14.952 Y21.507
X15.219 Y21.163 Z-0.17
X16.022 Y20.133
X16.29 Y19.79
X16.573 Y19.459
X17.424 Y18.468 Z-0.171
X17.708 Y18.138
X18.007 Y17.821
X18.904 Y16.872 Z-0.172
X19.204 Y16.556
X19.517 Y16.254
X20.459 Y15.348
X20.773 Y15.047
X21.101 Y14.761 Z-0.173
X22.084 Y13.901
X22.413 Y13.615
X23.777 Y12.533 Z-0.174
X24.119 Y12.263
X25.534 Y11.247 Z-0.175
X25.889 Y10.995
X27.35 Y10.048
X27.717 Y9.813 Z-0.176
X29.223 Y8.938
X29.6 Y8.721
X31.147 Y7.921 Z-0.177
X31.535 Y7.722
X33.119 Y6.998 Z-0.178
X33.515 Y6.819
X35.133 Y6.174
X35.538 Y6.013 Z-0.179
X35.95 Y5.871
X37.185 Y5.449
X37.598 Y5.308
X38.016 Y5.186 Z-0.18
X39.271 Y4.826
X39.69 Y4.706
X40.113 Y4.603
X41.809 Y4.207 Z-0.181
X42.236 Y4.123
X43.95 Y3.814 Z-0.182
X44.38 Y3.748
X46.108 Y3.526
X46.54 Y3.478 Z-0.183
X48.277 Y3.345
X48.711 Y3.313
X50.887 Y3.258 Z-0.184
X51.323 Y3.264
X53.064 Y3.308 Z-0.185
X53.498 Y3.33
X55.235 Y3.464 Z-0.186
X55.668 Y3.502
X56.1 Y3.558
X57.396 Y3.724
X57.828 Y3.781 Z-0.187
X58.256 Y3.858
X59.97 Y4.168
X60.395 Y4.263
X62.091 Y4.659 Z-0.188
X62.511 Y4.774
X64.185 Y5.255 Z-0.189
X64.599 Y5.388
X66.247 Y5.952 Z-0.19
X66.655 Y6.104
X68.272 Y6.749
X68.673 Y6.921 Z-0.191
X70.257 Y7.645
X70.648 Y7.835
X72.195 Y8.635 Z-0.192
X72.577 Y8.844
X74.083 Y9.719 Z-0.193
X74.454 Y9.946
X75.916 Y10.893
X76.276 Y11.138 Z-0.194
X77.69 Y12.154
X78.038 Y12.416
X79.061 Y13.228 Z-0.195
X79.402 Y13.499
X79.737 Y13.778
X81.048 Y14.924 Z-0.196
X81.368 Y15.219
X82.623 Y16.426 Z-0.197
X82.929 Y16.736
X84.125 Y18.002
X84.416 Y18.326
X85.55 Y19.648 Z-0.198
X85.825 Y19.985
X86.895 Y21.359 Z-0.199
X87.153 Y21.71
X88.157 Y23.133 Z-0.2
X88.398 Y23.496
X89.333 Y24.965
X89.556 Y25.339 Z-0.201
X90.419 Y26.852
X90.625 Y27.235
X91.414 Y28.788 Z-0.202
X91.603 Y29.18
X92.315 Y30.769 Z-0.203
X92.486 Y31.17
X93.12 Y32.792
X93.272 Y33.2 Z-0.204
X93.827 Y34.851
X93.961 Y35.265
X94.434 Y36.941 Z-0.205
X94.55 Y37.361
X94.939 Y39.058 Z-0.206
X95.035 Y39.483
X95.114 Y39.911
X95.342 Y41.197 Z-0.207
X95.418 Y41.626
X95.479 Y42.057
X95.698 Y43.785
X95.742 Y44.218 Z-0.208
X95.874 Y45.955
X95.903 Y46.389
X95.958 Y48.565 Z-0.209
X95.952 Y49.001
X95.908 Y50.742 Z-0.21
X95.887 Y51.176
X95.756 Y52.913 Z-0.211
X95.72 Y53.347
X95.666 Y53.779
X95.448 Y55.507 Z-0.212
X95.375 Y55.936
X95.071 Y57.651
X94.981 Y58.077
X94.591 Y59.775 Z-0.213
X94.484 Y60.196
X94.011 Y61.873 Z-0.214
X93.886 Y62.29
X93.747 Y62.702
X93.331 Y63.941 Z-0.215
X93.187 Y64.351
X93.029 Y64.757
X92.553 Y65.973
X92.39 Y66.377 Z-0.216
X92.213 Y66.775
X91.679 Y67.967
X91.497 Y68.363
X91.301 Y68.751
X90.71 Y69.916 Z-0.217
X90.51 Y70.303
X90.296 Y70.682
X89.648 Y71.816 Z-0.218
X89.431 Y72.194
X89.199 Y72.562
X88.498 Y73.664
X88.263 Y74.031 Z-0.219
X88.013 Y74.387
X87.261 Y75.455
X87.009 Y75.81
X86.742 Y76.154 Z-0.22
X85.939 Y77.185
X85.671 Y77.527
X85.388 Y77.858
X84.537 Y78.849 Z-0.221
X84.252 Y79.179
X83.954 Y79.496
X83.057 Y80.446 Z-0.222
X82.757 Y80.761
X82.444 Y81.064
X81.503 Y81.969
X81.188 Y82.27
X80.86 Y82.557 Z-0.223
X79.877 Y83.417
X79.548 Y83.702
X78.184 Y84.785 Z-0.224
X77.842 Y85.054
X76.427 Y86.071 Z-0.225
X76.073 Y86.323
X74.611 Y87.27
X74.244 Y87.505 Z-0.226
X72.738 Y88.379
X72.361 Y88.596
X70.814 Y89.397 Z-0.227
X70.427 Y89.596
X68.843 Y90.32 Z-0.228
X68.446 Y90.499
X66.828 Y91.144
X66.423 Y91.305 Z-0.229
X66.012 Y91.447
X64.776 Y91.869
X64.364 Y92.009
X63.946 Y92.132 Z-0.23
X62.69 Y92.493
X62.272 Y92.612
X61.849 Y92.715
X60.577 Y93.012 Z-0.231
X60.153 Y93.111
X59.725 Y93.195
X58.012 Y93.504 Z-0.232
X57.581 Y93.57
X55.854 Y93.792
X55.421 Y93.84 Z-0.233
X53.685 Y93.974
X53.25 Y94.005
X51.074 Y94.061 Z-0.234
X50.639 Y94.054
X48.898 Y94.01 Z-0.235
X48.463 Y93.988
X46.727 Y93.854 Z-0.236
X46.293 Y93.815
X45.861 Y93.76
X44.566 Y93.594
X44.134 Y93.537 Z-0.237
X43.705 Y93.46
X41.991 Y93.151
X41.567 Y93.055
X39.871 Y92.659 Z-0.238
X39.451 Y92.544
X37.777 Y92.063 Z-0.239
X37.362 Y91.93
X35.715 Y91.366 Z-0.24
X35.307 Y91.214
X33.689 Y90.569
X33.289 Y90.397 Z-0.241
X32.497 Y90.035
X31.705 Y89.673
X31.313 Y89.483
X30.927 Y89.283
X29.767 Y88.682 Z-0.242
X29.385 Y88.473
X29.008 Y88.255
X27.879 Y87.598 Z-0.243
X27.508 Y87.371
X27.142 Y87.135
X26.046 Y86.424
X25.686 Y86.179 Z-0.244
X25.332 Y85.926
X24.271 Y85.164
X23.924 Y84.901
X23.583 Y84.631 Z-0.245
X22.559 Y83.819
X22.225 Y83.54
X20.914 Y82.393 Z-0.246
X20.593 Y82.099
X19.652 Y81.193
X19.339 Y80.891 Z-0.247
X19.033 Y80.582
X18.136 Y79.632
X17.837 Y79.315
X17.546 Y78.991
X16.695 Y78. Z-0.248
X16.412 Y77.67
X16.137 Y77.332
X15.334 Y76.302 Z-0.249
X15.067 Y75.958
X14.809 Y75.608
X14.056 Y74.54
X13.805 Y74.184 Z-0.25
X13.564 Y73.822
X12.863 Y72.72
X12.63 Y72.352
X12.405 Y71.979 Z-0.251
X11.758 Y70.844
X11.543 Y70.466
X11.336 Y70.082
X10.745 Y68.918 Z-0.252
X10.548 Y68.53
X10.359 Y68.137
X9.646 Y66.548 Z-0.253
X9.476 Y66.148
X8.842 Y64.526
X8.689 Y64.118 Z-0.254
X8.135 Y62.467
X8.001 Y62.053
X7.528 Y60.376 Z-0.255
X7.412 Y59.957
X7.314 Y59.532
X7.023 Y58.259 Z-0.256
X6.927 Y57.834
X6.847 Y57.406
X6.619 Y56.12 Z-0.257
X6.544 Y55.691
X6.482 Y55.26
X6.264 Y53.533
X6.219 Y53.1 Z-0.258
X6.088 Y51.363
X6.058 Y50.929
X6.004 Y48.752 Z-0.259
X6.01 Y48.317
X6.054 Y46.576 Z-0.26
X6.074 Y46.141
X6.205 Y44.404 Z-0.261
X6.241 Y43.97
X6.247 Y43.921
X6.26 Y43.813
X6.301 Y43.49
X6.464 Y42.196
X6.52 Y41.764 Z-0.262
X6.594 Y41.336
X6.898 Y39.624
X6.99 Y39.199
X7.378 Y37.504 Z-0.263
X7.488 Y37.083
X7.96 Y35.41 Z-0.264
X8.087 Y34.994
X8.225 Y34.582
X8.64 Y33.346 Z-0.265
X8.786 Y32.936
X8.943 Y32.531
X9.418 Y31.317
X9.582 Y30.914 Z-0.266
X9.759 Y30.517
X10.293 Y29.327
X10.475 Y28.932
X10.671 Y28.544
X11.262 Y27.382 Z-0.267
X11.462 Y26.996
X11.676 Y26.617
X12.322 Y25.485 Z-0.268
X12.54 Y25.108
X12.772 Y24.741
X13.471 Y23.64
X13.707 Y23.275 Z-0.269
X13.956 Y22.918
X14.708 Y21.853
X14.96 Y21.499
X15.226 Y21.155 Z-0.27
X16.027 Y20.126
X16.296 Y19.784
X16.578 Y19.453
X17.428 Y18.464 Z-0.271
X17.712 Y18.135
X18.01 Y17.819
X18.905 Y16.871 Z-0.272
X19.205 Y16.556
X19.518 Y16.254
X20.458 Y15.349
X20.772 Y15.049
X21.099 Y14.762 Z-0.273
X22.08 Y13.904
X22.408 Y13.619
X23.771 Y12.538 Z-0.274
X24.112 Y12.269
X25.524 Y11.254 Z-0.275
X25.878 Y11.002
X27.338 Y10.056
X27.703 Y9.821 Z-0.276
X29.207 Y8.948
X29.583 Y8.73
X31.128 Y7.931 Z-0.277
X31.514 Y7.732
X31.909 Y7.551
X33.096 Y7.009 Z-0.278
X33.491 Y6.83
X33.895 Y6.667
X35.106 Y6.184
X35.511 Y6.025 Z-0.279
X35.921 Y5.881
X37.155 Y5.459
X37.567 Y5.32
X37.983 Y5.195
X39.237 Y4.835 Z-0.28
X39.655 Y4.716
X40.076 Y4.611
X41.346 Y4.315 Z-0.281
X41.77 Y4.217
X42.196 Y4.131
X43.479 Y3.899
X43.907 Y3.822 Z-0.282
X44.336 Y3.754
X46.061 Y3.532
X46.493 Y3.482 Z-0.283
X48.227 Y3.348
X48.66 Y3.316
X49.095 Y3.303
X50.833 Y3.259 Z-0.284
X51.268 Y3.262
X53.006 Y3.307 Z-0.285
X53.44 Y3.326
X53.873 Y3.359
X55.174 Y3.459 Z-0.286
X55.607 Y3.495
X56.038 Y3.55
X57.763 Y3.772 Z-0.287
X58.191 Y3.846
X59.902 Y4.155
X60.327 Y4.248
X62.02 Y4.643 Z-0.288
X62.441 Y4.754
X62.858 Y4.874
X64.112 Y5.234 Z-0.289
X64.527 Y5.364
X64.938 Y5.504
X66.172 Y5.926 Z-0.29
X66.58 Y6.076
X66.984 Y6.236
X68.196 Y6.719
X68.597 Y6.887 Z-0.291
X68.992 Y7.067
X70.178 Y7.609
X70.571 Y7.796
X70.957 Y7.995
X72.116 Y8.594 Z-0.292
X72.499 Y8.8
X72.875 Y9.018
X74.002 Y9.673 Z-0.293
X74.375 Y9.896
X74.741 Y10.132
X75.835 Y10.841
X76.197 Y11.082 Z-0.294
X76.55 Y11.335
X77.609 Y12.096
X77.959 Y12.354
X78.3 Y12.624
X79.321 Y13.435 Z-0.295
X79.658 Y13.709
X80.967 Y14.854 Z-0.296
X81.291 Y15.144
X82.231 Y16.049
X82.544 Y16.35
X82.853 Y16.656 Z-0.297
X83.749 Y17.603
X84.047 Y17.92
X84.341 Y18.24
X85.191 Y19.229 Z-0.298
X85.474 Y19.559
X85.753 Y19.893
X86.554 Y20.921 Z-0.299
X86.821 Y21.264
X87.084 Y21.611
X87.334 Y21.966
X87.836 Y22.678
X88.087 Y23.034 Z-0.3
X88.333 Y23.393
X89.267 Y24.863
X89.496 Y25.233
X90.359 Y26.746 Z-0.301
X90.57 Y27.126
X91.359 Y28.679 Z-0.302
X91.553 Y29.069
X92.266 Y30.658 Z-0.303
X92.441 Y31.056
X93.076 Y32.678
X93.232 Y33.085 Z-0.304
X93.372 Y33.497
X93.788 Y34.735
X93.925 Y35.149
X94.046 Y35.567
X94.401 Y36.824 Z-0.305
X94.517 Y37.243
X94.62 Y37.666
X94.912 Y38.94 Z-0.306
X95.008 Y39.364
X95.093 Y39.791
X95.321 Y41.077
X95.397 Y41.506 Z-0.307
X95.464 Y41.936
X95.682 Y43.664
X95.733 Y44.097 Z-0.308
X95.864 Y45.833
X95.897 Y46.267
X95.911 Y46.702
X95.955 Y48.444 Z-0.309
Y48.879
X95.911 Y50.62 Z-0.31
X95.896 Y51.055
X95.864 Y51.489
X95.733 Y53.226 Z-0.311
X95.681 Y53.658
X95.463 Y55.386 Z-0.312
X95.396 Y55.816
X95.32 Y56.245
X95.092 Y57.531
X95.007 Y57.958
X94.91 Y58.383 Z-0.313
X94.619 Y59.656
X94.515 Y60.079
X94.399 Y60.498
X94.044 Y61.755 Z-0.314
X93.922 Y62.173
X93.786 Y62.587
X93.37 Y63.825 Z-0.315
X93.23 Y64.237
X93.074 Y64.644
X92.598 Y65.86
X92.438 Y66.265 Z-0.316
X92.263 Y66.664
X91.55 Y68.253
X91.356 Y68.643
X90.567 Y70.195 Z-0.317
X90.356 Y70.576
X89.493 Y72.089 Z-0.318
X89.264 Y72.459
X89.03 Y72.827
X88.33 Y73.929 Z-0.319
X88.083 Y74.288
X87.832 Y74.644
X87.08 Y75.711
X86.816 Y76.058
X86.549 Y76.402 Z-0.32
X85.746 Y77.432
X85.467 Y77.766
X85.183 Y78.096
X84.333 Y79.088 Z-0.321
X84.037 Y79.407
X83.739 Y79.724
X82.842 Y80.674 Z-0.322
X82.531 Y80.979
X82.218 Y81.281
X81.277 Y82.187
X80.952 Y82.477 Z-0.323
X80.624 Y82.764
X79.641 Y83.624
X79.303 Y83.897
X77.938 Y84.98 Z-0.324
X77.587 Y85.237
X76.526 Y85.999 Z-0.325
X76.172 Y86.253
X75.809 Y86.493
X74.713 Y87.203
X74.347 Y87.44
X73.973 Y87.662 Z-0.326
X72.844 Y88.318
X72.467 Y88.536
X72.082 Y88.741
X70.922 Y89.341 Z-0.327
X70.535 Y89.54
X70.141 Y89.726
X68.953 Y90.269 Z-0.328
X68.557 Y90.449
X68.155 Y90.616
X66.941 Y91.099
X66.536 Y91.259 Z-0.329
X66.127 Y91.407
X64.891 Y91.83
X64.479 Y91.97
X64.063 Y92.098
X62.807 Y92.459 Z-0.33
X62.389 Y92.578
X61.967 Y92.687
X60.695 Y92.984 Z-0.331
X60.271 Y93.083
X59.845 Y93.173
X58.131 Y93.483 Z-0.332
X57.702 Y93.554
X55.975 Y93.777
X55.543 Y93.831 Z-0.333
X53.806 Y93.964
X53.372 Y93.997
X52.937 Y94.013
X51.196 Y94.058 Z-0.334
X50.761 Y94.057
X49.02 Y94.013 Z-0.335
X48.584 Y93.997
X48.15 Y93.964
X46.414 Y93.83 Z-0.336
X45.982 Y93.776
X44.254 Y93.554 Z-0.337
X43.825 Y93.482
X42.111 Y93.172
X41.685 Y93.082
X41.261 Y92.983 Z-0.338
X39.989 Y92.686
X39.568 Y92.577
X39.149 Y92.458
X37.894 Y92.097 Z-0.339
X37.478 Y91.968
X37.066 Y91.828
X35.83 Y91.405 Z-0.34
X35.42 Y91.257
X35.015 Y91.098
X33.802 Y90.614
X33.4 Y90.446 Z-0.341
X33.004 Y90.267
X31.816 Y89.724
X31.422 Y89.538
X31.035 Y89.339
X29.875 Y88.738 Z-0.342
X29.491 Y88.533
X29.113 Y88.316
X27.984 Y87.66 Z-0.343
X27.61 Y87.436
X27.244 Y87.201
X26.148 Y86.491
X25.785 Y86.25 Z-0.344
X25.431 Y85.997
X24.37 Y85.235
X24.019 Y84.977
X23.678 Y84.706
X22.996 Y84.165 Z-0.345
X22.655 Y83.894
X22.317 Y83.62
X21.006 Y82.474 Z-0.346
X20.681 Y82.183
X19.74 Y81.278
X19.427 Y80.976
X19.116 Y80.67 Z-0.347
X18.219 Y79.721
X17.921 Y79.404
X17.625 Y79.084
X16.775 Y78.093 Z-0.348
X16.491 Y77.762
X16.212 Y77.428
X15.409 Y76.398 Z-0.349
X15.142 Y76.054
X14.879 Y75.707
X14.126 Y74.64
X13.876 Y74.283 Z-0.35
X13.629 Y73.925
X12.928 Y72.822
X12.695 Y72.455
X12.466 Y72.085
X11.819 Y70.95 Z-0.351
X11.603 Y70.571
X11.392 Y70.191
X10.8 Y69.027 Z-0.352
X10.603 Y68.638
X10.409 Y68.248
X9.696 Y66.659 Z-0.353
X9.521 Y66.261
X9.362 Y65.855
X8.886 Y64.639
X8.73 Y64.233 Z-0.354
X8.59 Y63.82
X8.174 Y62.582
X8.038 Y62.169
X7.916 Y61.751
X7.561 Y60.494 Z-0.355
X7.445 Y60.074
X7.342 Y59.651
X7.05 Y58.378 Z-0.356
X6.954 Y57.953
X6.869 Y57.526
X6.64 Y56.24
X6.565 Y55.811 Z-0.357
X6.497 Y55.381
X6.279 Y53.653
X6.228 Y53.221 Z-0.358
X6.097 Y51.484
X6.065 Y51.05
X6.05 Y50.615
X6.007 Y48.874 Z-0.359
Y48.439
X6.05 Y46.698 Z-0.36
X6.065 Y46.263
X6.097 Y45.828
X6.229 Y44.092 Z-0.361
X6.28 Y43.659
X6.498 Y41.931 Z-0.362
X6.566 Y41.501
X6.641 Y41.073
X6.869 Y39.786
X6.955 Y39.36
X7.051 Y38.935 Z-0.363
X7.342 Y37.662
X7.446 Y37.239
X7.562 Y36.819
X7.917 Y35.562 Z-0.364
X8.039 Y35.144
X8.175 Y34.731
X8.591 Y33.492 Z-0.365
X8.732 Y33.08
X8.887 Y32.674
X9.363 Y31.457
X9.523 Y31.052 Z-0.366
X9.698 Y30.654
X10.411 Y29.065
X10.605 Y28.675
X10.802 Y28.286 Z-0.367
X11.393 Y27.122
X11.605 Y26.742
X11.821 Y26.363
X12.468 Y25.229 Z-0.368
X12.697 Y24.859
X12.931 Y24.491
X13.631 Y23.389 Z-0.369
X13.878 Y23.03
X14.129 Y22.674
X14.881 Y21.606
X15.145 Y21.26
X15.412 Y20.916 Z-0.37
X16.215 Y19.885
X16.494 Y19.552
X16.778 Y19.221
X17.628 Y18.23 Z-0.371
X17.924 Y17.91
X18.223 Y17.593
X19.12 Y16.644 Z-0.372
X19.43 Y16.339
X19.743 Y16.036
X20.685 Y15.131
X21.009 Y14.841 Z-0.373
X21.337 Y14.554
X22.32 Y13.694
X22.659 Y13.42
X24.023 Y12.338 Z-0.374
X24.374 Y12.08
X25.081 Y11.572
X25.435 Y11.318 Z-0.375
X25.789 Y11.065
X26.152 Y10.824
X27.248 Y10.114
X27.614 Y9.878
X27.988 Y9.656 Z-0.376
X29.118 Y9.
X29.495 Y8.782
X29.879 Y8.577
X31.039 Y7.977 Z-0.377
X31.426 Y7.778
X31.82 Y7.592
X33.008 Y7.049 Z-0.378
X33.405 Y6.869
X33.807 Y6.702
X35.02 Y6.219
X35.425 Y6.059 Z-0.379
X35.834 Y5.911
X37.07 Y5.488
X37.483 Y5.349
X37.899 Y5.22
X39.154 Y4.859 Z-0.38
X39.573 Y4.74
X39.994 Y4.631
X41.266 Y4.334 Z-0.381
X41.69 Y4.236
X42.116 Y4.145
X43.402 Y3.913
X43.83 Y3.836 Z-0.382
X44.259 Y3.764
X45.987 Y3.542
X46.419 Y3.488 Z-0.383
X46.853 Y3.454
X48.155 Y3.354
X48.589 Y3.321
X49.025 Y3.305
X50.766 Y3.261 Z-0.384
X51.201
X52.942 Y3.305 Z-0.385
X53.377 Y3.322
X53.811 Y3.354
X55.113 Y3.455 Z-0.386
X55.547 Y3.488
X55.98 Y3.542
X57.707 Y3.764 Z-0.387
X58.136 Y3.836
X58.565 Y3.914
X59.85 Y4.146
X60.276 Y4.237
X60.7 Y4.335 Z-0.388
X61.972 Y4.632
X62.393 Y4.742
X62.812 Y4.86
X64.068 Y5.221 Z-0.389
X64.483 Y5.35
X64.896 Y5.49
X66.132 Y5.912 Z-0.39
X66.541 Y6.061
X66.946 Y6.22
X68.159 Y6.704
X68.561 Y6.872 Z-0.391
X68.958 Y7.051
X70.146 Y7.594
X70.539 Y7.781
X70.927 Y7.979
X72.087 Y8.58 Z-0.392
X72.471 Y8.785
X72.848 Y9.002
X73.977 Y9.658 Z-0.393
X74.351 Y9.881
X74.717 Y10.117
X75.448 Y10.59
X75.814 Y10.827
X76.176 Y11.068 Z-0.394
X76.531 Y11.321
X76.884 Y11.575
X77.592 Y12.083
X77.942 Y12.341
X78.284 Y12.611
X78.625 Y12.882 Z-0.395
X79.307 Y13.423
X79.645 Y13.698
X80.956 Y14.844 Z-0.396
X81.28 Y15.134
X82.222 Y16.04
X82.535 Y16.342
X82.845 Y16.647 Z-0.397
X83.742 Y17.597
X84.041 Y17.914
X84.336 Y18.234
X85.187 Y19.225 Z-0.398
X85.47 Y19.556
X85.75 Y19.889
X86.553 Y20.92 Z-0.399
X86.82 Y21.264
X87.083 Y21.61
X87.363 Y22.007
X87.865 Y22.719
X88.115 Y23.075 Z-0.4
X88.36 Y23.435
X89.06 Y24.537
X89.293 Y24.905
X89.521 Y25.276
X90.168 Y26.411 Z-0.401
X90.383 Y26.79
X90.593 Y27.171
X91.185 Y28.335 Z-0.402
X91.381 Y28.724
X91.573 Y29.115
X92.108 Y30.306
X92.285 Y30.704 Z-0.403
X92.459 Y31.103
X92.935 Y32.319
X93.094 Y32.725
X93.249 Y33.132 Z-0.404
X93.388 Y33.544
X93.665 Y34.37
X93.804 Y34.783
X93.939 Y35.196
X94.06 Y35.615
X94.414 Y36.872 Z-0.405
X94.529 Y37.292
X94.631 Y37.715
X94.923 Y38.988 Z-0.406
X95.018 Y39.413
X95.102 Y39.84
X95.33 Y41.127
X95.405 Y41.556 Z-0.407
X95.47 Y41.986
X95.634 Y43.282
X95.688 Y43.714
X95.737 Y44.146 Z-0.408
X95.868 Y45.883
X95.9 Y46.317
X95.912 Y46.753
X95.956 Y48.494 Z-0.409
X95.953 Y48.929
X95.91 Y50.67 Z-0.41
X95.892 Y51.105
X95.86 Y51.539
X95.762 Y52.842 Z-0.411
X95.728 Y53.276
X95.675 Y53.708
X95.457 Y55.436 Z-0.412
X95.387 Y55.865
X95.311 Y56.294
X95.083 Y57.58
X94.995 Y58.007
X94.899 Y58.431 Z-0.413
X94.607 Y59.705
X94.501 Y60.127
X94.385 Y60.546
X94.031 Y61.804 Z-0.414
X93.906 Y62.221
X93.77 Y62.634
X93.354 Y63.873 Z-0.415
X93.211 Y64.284
X93.055 Y64.69
X92.579 Y65.907
X92.417 Y66.311 Z-0.416
X92.242 Y66.709
X92.064 Y67.107
X91.708 Y67.901
X91.527 Y68.297
X91.333 Y68.687
X91.136 Y69.076 Z-0.417
X90.742 Y69.852
X90.543 Y70.239
X90.33 Y70.619
X90.115 Y70.998
X89.684 Y71.754 Z-0.418
X89.467 Y72.132
X89.236 Y72.501
X89.004 Y72.869
X88.536 Y73.604
X88.302 Y73.971 Z-0.419
X88.054 Y74.328
X87.804 Y74.685
X87.051 Y75.752
X86.785 Y76.097
X86.518 Y76.441 Z-0.42
X85.716 Y77.472
X85.434 Y77.804
X85.151 Y78.134
X84.3 Y79.126 Z-0.421
X84.003 Y79.444
X83.704 Y79.761
X82.807 Y80.71 Z-0.422
X82.495 Y81.014
X82.182 Y81.316
X81.24 Y82.222
X80.914 Y82.51 Z-0.423
X80.586 Y82.797
X79.603 Y83.657
X79.263 Y83.928
X77.899 Y85.011 Z-0.424
X77.547 Y85.267
X76.839 Y85.775
X76.132 Y86.282 Z-0.425
X75.767 Y86.521
X75.036 Y86.994
X74.671 Y87.23
X74.305 Y87.466
X73.93 Y87.687 Z-0.426
X73.177 Y88.125
X72.8 Y88.343
X72.423 Y88.561
X72.038 Y88.764
X71.264 Y89.164 Z-0.427
X70.878 Y89.364
X70.49 Y89.563
X70.096 Y89.747
X69.304 Y90.109
X68.908 Y90.289 Z-0.428
X68.511 Y90.469
X68.108 Y90.634
X66.895 Y91.118
X66.49 Y91.277 Z-0.429
X66.08 Y91.423
X64.844 Y91.846
X64.431 Y91.985
X64.015 Y92.112
X62.759 Y92.473 Z-0.43
X62.34 Y92.591
X61.918 Y92.699
X60.646 Y92.996 Z-0.431
X60.222 Y93.093
X59.796 Y93.182
X58.511 Y93.414
X58.082 Y93.491 Z-0.432
X57.652 Y93.561
X56.357 Y93.727
X55.925 Y93.783
X55.493 Y93.834 Z-0.433
X53.756 Y93.968
X53.322 Y94.001
X52.887 Y94.014
X51.146 Y94.059 Z-0.434
X50.71 Y94.056
X48.969 Y94.012 Z-0.435
X48.535 Y93.993
X48.1 Y93.96
X46.798 Y93.86 Z-0.436
X46.364 Y93.823
X45.932 Y93.769
X44.205 Y93.547 Z-0.437
X43.776 Y93.473
X43.347 Y93.396
X42.062 Y93.163
X41.637 Y93.07
X41.213 Y92.972 Z-0.438
X39.941 Y92.675
X39.52 Y92.563
X39.101 Y92.444
X37.846 Y92.083 Z-0.439
X37.431 Y91.951
X37.018 Y91.812
X35.782 Y91.389 Z-0.44
X35.374 Y91.238
X34.969 Y91.079
X33.756 Y90.595
X33.355 Y90.425 Z-0.441
X32.958 Y90.246
X31.77 Y89.703
X31.378 Y89.514
X30.99 Y89.316
X29.83 Y88.715 Z-0.442
X29.448 Y88.508
X29.07 Y88.291
X28.317 Y87.853
X27.941 Y87.634 Z-0.443
X27.568 Y87.409
X27.202 Y87.173
X26.837 Y86.937
X26.106 Y86.463
X25.745 Y86.22 Z-0.444
X25.39 Y85.967
X25.037 Y85.713
X24.329 Y85.205
X23.98 Y84.945
X23.639 Y84.675
X23.298 Y84.405 Z-0.445
X22.616 Y83.863
X22.279 Y83.587
X20.968 Y82.441 Z-0.446
X20.645 Y82.149
X20.018 Y81.545
X19.704 Y81.243
X19.391 Y80.941
X19.082 Y80.634 Z-0.447
X18.185 Y79.684
X17.887 Y79.367
X17.593 Y79.046
X16.742 Y78.055 Z-0.448
X16.459 Y77.724
X16.181 Y77.389
X15.378 Y76.358 Z-0.449
X15.112 Y76.014
X14.85 Y75.666
X14.097 Y74.599
X13.848 Y74.242 Z-0.45
X13.602 Y73.882
X12.901 Y72.78
X12.669 Y72.412
X12.441 Y72.041
X11.794 Y70.906 Z-0.451
X11.58 Y70.527
X11.369 Y70.146
X10.777 Y68.982 Z-0.452
X10.581 Y68.593
X10.389 Y68.203
X9.854 Y67.011
X9.677 Y66.613 Z-0.453
X9.502 Y66.214
X9.026 Y64.998
X8.869 Y64.592
X8.713 Y64.185 Z-0.454
X8.574 Y63.773
X8.296 Y62.948
X8.158 Y62.535
X8.023 Y62.121
X7.902 Y61.703
X7.666 Y60.864 Z-0.455
X7.548 Y60.445
X7.433 Y60.025
X7.33 Y59.602
X7.039 Y58.329 Z-0.456
X6.944 Y57.904
X6.86 Y57.477
X6.632 Y56.191
X6.557 Y55.762 Z-0.457
X6.491 Y55.332
X6.328 Y54.036
X6.274 Y53.604
X6.225 Y53.171 Z-0.458
X6.093 Y51.434
X6.062 Y51.
X6.049 Y50.565
X6.005 Y48.824 Z-0.459
X6.008 Y48.389
X6.052 Y46.648 Z-0.46
X6.069 Y46.213
X6.101 Y45.778
X6.2 Y44.476 Z-0.461
X6.234 Y44.042
X6.286 Y43.61
X6.34 Y43.178
X6.504 Y41.882 Z-0.462
X6.575 Y41.452
X6.65 Y41.023
X6.878 Y39.737
X6.966 Y39.311
X7.062 Y38.886 Z-0.463
X7.354 Y37.613
X7.46 Y37.191
X7.576 Y36.771
X7.93 Y35.514 Z-0.464
X8.056 Y35.097
X8.191 Y34.683
X8.607 Y33.445 Z-0.465
X8.751 Y33.034
X8.906 Y32.627
X9.064 Y32.222
X9.382 Y31.411
X9.544 Y31.007 Z-0.466
X9.719 Y30.608
X9.897 Y30.211
X10.253 Y29.416
X10.434 Y29.02
X10.628 Y28.63
X10.824 Y28.242 Z-0.467
X11.219 Y27.466
X11.418 Y27.078
X11.631 Y26.699
X11.846 Y26.32
X12.277 Y25.563 Z-0.468
X12.494 Y25.186
X12.725 Y24.817
X12.957 Y24.449
X13.425 Y23.714
X13.659 Y23.347 Z-0.469
X13.908 Y22.989
X14.157 Y22.633
X14.659 Y21.921
X14.91 Y21.565
X15.176 Y21.221
X15.443 Y20.876 Z-0.47
X16.245 Y19.846
X16.527 Y19.514
X16.81 Y19.183
X17.661 Y18.192 Z-0.471
X17.959 Y17.874
X18.257 Y17.557
X19.154 Y16.607 Z-0.472
X19.466 Y16.304
X19.78 Y16.002
X20.721 Y15.096
X21.047 Y14.808 Z-0.473
X21.375 Y14.521
X22.03 Y13.948
X22.358 Y13.661
X22.698 Y13.389
X24.062 Y12.307 Z-0.474
X24.415 Y12.051
X25.122 Y11.543
X25.83 Y11.036 Z-0.475
X26.194 Y10.797
X26.925 Y10.324
X27.291 Y10.088
X27.656 Y9.852
X28.032 Y9.631 Z-0.476
X28.784 Y9.193
X29.161 Y8.975
X29.538 Y8.757
X29.924 Y8.554
X30.697 Y8.154 Z-0.477
X31.084 Y7.954
X31.471 Y7.756
X31.866 Y7.571
X32.658 Y7.209
X33.054 Y7.029 Z-0.478
X33.451 Y6.849
X33.853 Y6.684
X34.662 Y6.361
X35.067 Y6.201
X35.472 Y6.041 Z-0.479
X35.882 Y5.895
X36.706 Y5.613
X37.118 Y5.472
X37.53 Y5.333
X37.947 Y5.206
X39.202 Y4.845 Z-0.48
X39.621 Y4.727
X40.043 Y4.619
X41.315 Y4.322 Z-0.481
X41.739 Y4.225
X42.165 Y4.136
X43.451 Y3.904
X43.879 Y3.828 Z-0.482
X44.309 Y3.757
X45.605 Y3.591
X46.037 Y3.536
X46.469 Y3.484 Z-0.483
X48.205 Y3.35
X48.639 Y3.318
X49.075 Y3.304
X50.816 Y3.259 Z-0.484
X51.251 Y3.262
X52.992 Y3.307 Z-0.485
X53.427 Y3.326
X53.861 Y3.358
X55.163 Y3.458 Z-0.486
X55.597 Y3.495
X56.029 Y3.549
X56.893 Y3.66
X57.757 Y3.771 Z-0.487
X58.185 Y3.846
X58.614 Y3.922
X59.899 Y4.155
X60.325 Y4.248
X60.749 Y4.346 Z-0.488
X62.021 Y4.643
X62.441 Y4.756
X62.86 Y4.874
X64.116 Y5.235 Z-0.489
X64.531 Y5.367
X64.943 Y5.506
X66.179 Y5.929 Z-0.49
X66.587 Y6.08
X66.993 Y6.239
X68.206 Y6.723
X68.606 Y6.893 Z-0.491
X69.003 Y7.072
X69.399 Y7.253
X70.191 Y7.615
X70.584 Y7.804
X70.971 Y8.002
X71.358 Y8.202 Z-0.492
X72.131 Y8.603
X72.514 Y8.81
X72.891 Y9.027
X73.268 Y9.246
X74.021 Y9.683 Z-0.493
X74.393 Y9.909
X74.759 Y10.145
X75.125 Y10.381
X75.856 Y10.854
X76.217 Y11.097 Z-0.494
X76.571 Y11.351
X76.925 Y11.604
X77.632 Y12.112
X77.981 Y12.372
X78.664 Y12.913 Z-0.495
X79.346 Y13.454
X79.682 Y13.731
X80.994 Y14.877 Z-0.496
X81.316 Y15.169
X81.944 Y15.773
X82.571 Y16.377
X82.88 Y16.684 Z-0.497
X83.478 Y17.317
X83.777 Y17.633
X84.075 Y17.951
X84.369 Y18.272
X85.22 Y19.263 Z-0.498
X85.502 Y19.594
X85.781 Y19.929
X86.583 Y20.959 Z-0.499
X86.85 Y21.304
X87.112 Y21.651
X87.392 Y22.048
X87.892 Y22.758
X88.141 Y23.114 Z-0.5
X88.384 Y23.474
X89.083 Y24.573
X89.314 Y24.941
X89.541 Y25.312
X90.187 Y26.444 Z-0.501
X90.4 Y26.822
X90.609 Y27.203
X91.199 Y28.365 Z-0.502
X91.394 Y28.753
X91.586 Y29.143
X92.119 Y30.332
X92.295 Y30.729 Z-0.503
X92.469 Y31.127
X92.944 Y32.341
X93.1 Y32.746
X93.255 Y33.151 Z-0.504
X93.394 Y33.563
X93.671 Y34.387
X93.808 Y34.799
X93.943 Y35.212
X94.064 Y35.629
X94.299 Y36.465 Z-0.505
X94.417 Y36.883
X94.531 Y37.302
X94.633 Y37.725
X94.828 Y38.571 Z-0.506
X94.924 Y38.995
X95.018 Y39.419
X95.103 Y39.845
X95.33 Y41.128
X95.404 Y41.556 Z-0.507
X95.47 Y41.985
X95.634 Y43.278
X95.687 Y43.709
X95.736 Y44.141 Z-0.508
X95.867 Y45.873
X95.899 Y46.307
X95.912 Y46.741
X95.956 Y48.478 Z-0.509
X95.954 Y48.912
X95.91 Y50.649 Z-0.51
X95.893 Y51.083
X95.862 Y51.516
X95.764 Y52.816 Z-0.511
X95.73 Y53.249
X95.678 Y53.68
X95.624 Y54.111
X95.461 Y55.404
X95.391 Y55.833 Z-0.512
X95.317 Y56.261
X95.09 Y57.544
X95.002 Y57.969
X94.908 Y58.393 Z-0.513
X94.617 Y59.664
X94.512 Y60.085
X94.397 Y60.504
X94.044 Y61.758 Z-0.514
X93.92 Y62.175
X93.785 Y62.588
X93.647 Y63.
X93.371 Y63.823 Z-0.515
X93.228 Y64.233
X93.074 Y64.639
X92.917 Y65.044
X92.6 Y65.853
X92.439 Y66.257
X92.265 Y66.655 Z-0.516
X92.089 Y67.052
X91.733 Y67.845
X91.555 Y68.24
X91.361 Y68.629
X91.166 Y69.017 Z-0.517
X90.576 Y70.179
X90.363 Y70.558
X90.15 Y70.937
X89.505 Y72.069 Z-0.518
X89.275 Y72.437
X89.044 Y72.805
X88.345 Y73.905 Z-0.519
X88.098 Y74.263
X87.85 Y74.619
X87.099 Y75.684
X86.836 Y76.03
X86.571 Y76.374 Z-0.52
X85.77 Y77.402
X85.491 Y77.735
X85.21 Y78.066
X84.361 Y79.055 Z-0.521
X84.067 Y79.374
X83.77 Y79.691
X83.471 Y80.007
X82.875 Y80.638 Z-0.522
X82.566 Y80.944
X82.254 Y81.246
X81.941 Y81.547
X81.315 Y82.15
X80.992 Y82.44 Z-0.523
X80.339 Y83.013
X79.685 Y83.585
X79.349 Y83.86
X77.988 Y84.94 Z-0.524
X77.64 Y85.2
X76.934 Y85.706
X76.228 Y86.213 Z-0.525
X75.868 Y86.455
X75.139 Y86.928
X74.774 Y87.163
X74.409 Y87.399
X74.038 Y87.624 Z-0.526
X73.287 Y88.061
X72.911 Y88.279
X72.535 Y88.496
X72.153 Y88.704
X71.382 Y89.103 Z-0.527
X70.996 Y89.303
X70.609 Y89.501
X70.219 Y89.691
X69.428 Y90.052
X69.033 Y90.232 Z-0.528
X68.637 Y90.411
X68.238 Y90.582
X67.431 Y90.904
X67.028 Y91.065
X66.624 Y91.224
X66.217 Y91.376 Z-0.529
X64.984 Y91.798
X64.572 Y91.937
X64.159 Y92.071
X62.907 Y92.43 Z-0.53
X62.489 Y92.549
X62.07 Y92.663
X60.801 Y92.96 Z-0.531
X60.377 Y93.057
X59.954 Y93.153
X58.671 Y93.385
X58.244 Y93.462 Z-0.532
X57.816 Y93.537
X57.386 Y93.595
X56.524 Y93.706
X56.093 Y93.761
X55.662 Y93.815
X55.229 Y93.855 Z-0.533
X53.93 Y93.955
X53.497 Y93.987
X53.063 Y94.01
X51.326 Y94.054 Z-0.534
X50.892 Y94.061
X48.721 Y94.005 Z-0.535
X48.288 Y93.974
X47.854 Y93.941
X46.555 Y93.841 Z-0.536
X46.123 Y93.793
X45.692 Y93.739
X44.4 Y93.572
X43.971 Y93.506 Z-0.537
X43.543 Y93.431
X42.261 Y93.199
X41.835 Y93.114
X41.411 Y93.018
X40.988 Y92.92 Z-0.538
X40.142 Y92.722
X39.72 Y92.618
X39.302 Y92.501
X38.884 Y92.382
X38.049 Y92.142 Z-0.539
X37.633 Y92.018
X37.221 Y91.88
X36.81 Y91.741
X35.988 Y91.46
X35.577 Y91.317 Z-0.54
X35.173 Y91.159
X34.769 Y90.999
X33.962 Y90.677
X33.559 Y90.516
X33.162 Y90.338 Z-0.541
X32.767 Y90.159
X31.581 Y89.617
X31.194 Y89.42
X30.808 Y89.221
X29.651 Y88.622 Z-0.542
X29.273 Y88.407
X28.897 Y88.19
X28.146 Y87.754 Z-0.543
X27.77 Y87.535
X27.402 Y87.301
X27.036 Y87.066
X26.305 Y86.593
X25.94 Y86.356
X25.584 Y86.105 Z-0.544
X25.23 Y85.852
X24.876 Y85.598
X24.169 Y85.09
X23.825 Y84.822
X23.484 Y84.552 Z-0.545
X23.143 Y84.282
X22.46 Y83.74
X22.13 Y83.457
X20.819 Y82.31 Z-0.546
X20.503 Y82.011
X20.189 Y81.71
X19.875 Y81.407
X19.248 Y80.803 Z-0.547
X18.946 Y80.49
X18.348 Y79.857
X17.751 Y79.223
X17.464 Y78.896
X16.897 Y78.235 Z-0.548
X16.614 Y77.904
X16.331 Y77.573
X16.059 Y77.233
X15.524 Y76.546 Z-0.549
X15.258 Y76.201
X14.991 Y75.857
X14.736 Y75.505
X14.234 Y74.793
X13.984 Y74.436
X13.735 Y74.079 Z-0.55
X13.496 Y73.715
X13.029 Y72.981
X12.796 Y72.613
X12.565 Y72.244
X12.343 Y71.869 Z-0.551
X11.912 Y71.113
X11.697 Y70.734
X11.483 Y70.354
X11.279 Y69.97
X10.885 Y69.194 Z-0.552
X10.688 Y68.805
X10.494 Y68.416
X10.308 Y68.022
X9.951 Y67.228
X9.774 Y66.83 Z-0.553
X9.598 Y66.432
X9.43 Y66.03
X9.113 Y65.219
X8.954 Y64.813
X8.799 Y64.407
X8.649 Y63.998 Z-0.554
X8.233 Y62.76
X8.098 Y62.346
X7.966 Y61.931
X7.612 Y60.674 Z-0.555
X7.496 Y60.254
X7.383 Y59.834
X7.092 Y58.56 Z-0.556
X6.996 Y58.136
X6.902 Y57.711
X6.825 Y57.282
X6.673 Y56.425
X6.598 Y55.996 Z-0.557
X6.525 Y55.567
X6.466 Y55.135
X6.357 Y54.271
X6.303 Y53.839
X6.251 Y53.407
X6.21 Y52.974 Z-0.558
X6.111 Y51.671
X6.079 Y51.237
X6.055 Y50.802
X6.011 Y49.061 Z-0.559
X6.002 Y48.626
X6.057 Y46.45 Z-0.56
X6.084 Y46.015
X6.116 Y45.581
X6.214 Y44.279 Z-0.561
X6.258 Y43.845
X6.311 Y43.413
X6.474 Y42.117
X6.536 Y41.686 Z-0.562
X6.609 Y41.257
X6.684 Y40.828
X6.836 Y39.971
X6.916 Y39.543
X7.01 Y39.118
X7.106 Y38.693 Z-0.563
X7.3 Y37.844
X7.399 Y37.42
X7.513 Y37.
X7.629 Y36.581
X7.984 Y35.323 Z-0.564
X8.118 Y34.909
X8.254 Y34.495
X8.67 Y33.257 Z-0.565
X8.822 Y32.85
X8.978 Y32.443
X9.454 Y31.226
X9.625 Y30.826 Z-0.566
X9.8 Y30.427
X9.978 Y30.03
X10.334 Y29.235
X10.523 Y28.843
X10.717 Y28.454
X10.914 Y28.065 Z-0.567
X11.309 Y27.289
X11.516 Y26.906
X11.729 Y26.526
X11.944 Y26.148
X12.375 Y25.391 Z-0.568
X12.6 Y25.018
X12.831 Y24.649
X13.064 Y24.281
X13.531 Y23.547
X13.773 Y23.185 Z-0.569
X14.021 Y22.827
X14.272 Y22.471
X14.773 Y21.759
X15.032 Y21.409
X15.298 Y21.064 Z-0.57
X15.564 Y20.72
X16.1 Y20.033
X16.374 Y19.695
X16.656 Y19.364
X16.939 Y19.033
X17.506 Y18.372 Z-0.571
X17.797 Y18.048
X18.095 Y17.73
X18.393 Y17.413
X18.991 Y16.78 Z-0.572
X19.296 Y16.469
X19.609 Y16.167
X19.922 Y15.864
X20.55 Y15.261
X20.869 Y14.965
X21.524 Y14.391 Z-0.573
X22.179 Y13.817
X22.512 Y13.537
X23.876 Y12.454 Z-0.574
X24.222 Y12.189
X24.929 Y11.682
X25.637 Y11.174 Z-0.575
X25.995 Y10.926
X26.726 Y10.453
X27.091 Y10.217
X27.457 Y9.981
X27.826 Y9.75 Z-0.576
X28.579 Y9.312
X28.956 Y9.094
X29.333 Y8.876
X29.713 Y8.663
X30.486 Y8.263 Z-0.577
X30.873 Y8.063
X31.26 Y7.864
X31.65 Y7.67
X32.442 Y7.308
X32.838 Y7.127 Z-0.578
X33.234 Y6.948
X33.633 Y6.772
X34.846 Y6.288
X35.251 Y6.129
X35.657 Y5.972 Z-0.579
X36.893 Y5.549
X37.306 Y5.41
X37.719 Y5.271
X38.974 Y4.911 Z-0.58
X39.393 Y4.792
X39.812 Y4.674
X40.236 Y4.574
X41.084 Y4.376 Z-0.581
X41.508 Y4.279
X41.933 Y4.182
X42.36 Y4.101
X43.217 Y3.946
X43.646 Y3.869 Z-0.582
X44.075 Y3.794
X44.506 Y3.732
X45.369 Y3.621
X45.801 Y3.566
X46.233 Y3.512
X46.666 Y3.469 Z-0.583
X47.969 Y3.368
X48.403 Y3.336
X48.837 Y3.31
X50.578 Y3.265 Z-0.584
X51.014 Y3.256
X53.19 Y3.312 Z-0.585
X53.624 Y3.34
X54.058 Y3.373
X55.361 Y3.474 Z-0.586
X55.794 Y3.52
X56.226 Y3.574
X57.521 Y3.741
X57.952 Y3.805 Z-0.587
X58.38 Y3.881
X58.809 Y3.958
X59.666 Y4.113
X60.093 Y4.197
X60.518 Y4.293
X60.942 Y4.391 Z-0.588
X61.79 Y4.589
X62.213 Y4.693
X62.632 Y4.81
X63.051 Y4.929
X63.888 Y5.169 Z-0.589
X64.305 Y5.292
X64.718 Y5.431
X65.131 Y5.57
X65.955 Y5.852
X66.366 Y5.994 Z-0.59
X66.771 Y6.153
X67.177 Y6.312
X67.985 Y6.635
X68.39 Y6.796
X69.184 Y7.154 Z-0.591
X70.372 Y7.697
X70.76 Y7.895
X71.147 Y8.093
X71.92 Y8.493 Z-0.592
X72.307 Y8.694
X72.685 Y8.91
X73.062 Y9.127
X73.439 Y9.345
X74.192 Y9.783 Z-0.593
X74.559 Y10.017
X74.925 Y10.252
X75.291 Y10.489
X76.022 Y10.962
X76.378 Y11.213 Z-0.594
X76.732 Y11.466
X77.086 Y11.72
X77.793 Y12.228
X78.136 Y12.496
X78.819 Y13.036 Z-0.595
X79.501 Y13.577
X79.831 Y13.861
X81.143 Y15.007 Z-0.596
X81.459 Y15.306
X81.773 Y15.608
X82.4 Y16.212
X82.713 Y16.515 Z-0.597
X83.016 Y16.828
X83.614 Y17.461
X84.21 Y18.095
X84.498 Y18.422
X85.065 Y19.083 Z-0.598
X85.348 Y19.414
X85.63 Y19.745
X85.902 Y20.085
X86.437 Y20.772 Z-0.599
X86.704 Y21.116
X86.97 Y21.461
X87.226 Y21.813
X87.728 Y22.525
X87.977 Y22.881
X88.227 Y23.238 Z-0.6
X88.466 Y23.602
X88.933 Y24.337
X89.165 Y24.705
X89.397 Y25.074
X89.619 Y25.448 Z-0.601
X90.05 Y26.205
X90.265 Y26.584
X90.478 Y26.963
X90.683 Y27.347
X91.077 Y28.124 Z-0.602
X91.273 Y28.513
X91.468 Y28.902
X91.654 Y29.295
X92.011 Y30.09
X92.188 Y30.488 Z-0.603
X92.363 Y30.886
X92.532 Y31.287
X92.849 Y32.098
X93.007 Y32.504
X93.162 Y32.911
X93.313 Y33.319 Z-0.604
X93.59 Y34.145
X93.728 Y34.558
X93.863 Y34.972
X93.995 Y35.386
X94.35 Y36.644 Z-0.605
X94.465 Y37.064
X94.578 Y37.484
X94.87 Y38.757 Z-0.606
X94.965 Y39.182
X95.059 Y39.607
X95.136 Y40.036
X95.288 Y40.893
X95.363 Y41.322 Z-0.607
X95.436 Y41.751
X95.495 Y42.182
X95.604 Y43.046
X95.658 Y43.478
X95.711 Y43.911
X95.752 Y44.344 Z-0.608
X95.85 Y45.646
X95.882 Y46.081
X95.906 Y46.515
X95.95 Y48.256 Z-0.609
X95.959 Y48.692
X95.905 Y50.868 Z-0.61
X95.877 Y51.302
X95.845 Y51.737
X95.747 Y53.039 Z-0.611
X95.703 Y53.472
X95.65 Y53.904
X95.487 Y55.2
X95.425 Y55.631 Z-0.612
X95.352 Y56.06
X95.277 Y56.489
X95.125 Y57.347
X95.045 Y57.774
X94.951 Y58.2
X94.855 Y58.624 Z-0.613
X94.66 Y59.473
X94.562 Y59.897
X94.447 Y60.317
X94.332 Y60.737
X93.977 Y61.994 Z-0.614
X93.842 Y62.408
X93.707 Y62.822
X93.291 Y64.06 Z-0.615
X93.138 Y64.468
X92.983 Y64.875
X92.825 Y65.28
X92.507 Y66.091
X92.336 Y66.491 Z-0.616
X92.161 Y66.89
X91.983 Y67.287
X91.627 Y68.082
X91.437 Y68.474
X91.243 Y68.864
X91.047 Y69.252 Z-0.617
X90.652 Y70.028
X90.445 Y70.411
X90.232 Y70.791
X90.017 Y71.17
X89.586 Y71.926 Z-0.618
X89.361 Y72.299
X89.13 Y72.668
X88.897 Y73.036
X88.43 Y73.771
X88.188 Y74.133 Z-0.619
X87.939 Y74.49
X87.689 Y74.847
X87.188 Y75.558
X86.929 Y75.908
X86.663 Y76.253 Z-0.62
X86.397 Y76.597
X85.861 Y77.284
X85.587 Y77.622
X85.304 Y77.954
X85.022 Y78.285
X84.455 Y78.945 Z-0.621
X84.164 Y79.27
X83.866 Y79.587
X83.568 Y79.905
X82.97 Y80.538 Z-0.622
X82.665 Y80.848
X82.039 Y81.453
X81.411 Y82.057
X81.092 Y82.353
X80.437 Y82.927 Z-0.623
X80.11 Y83.214
X79.782 Y83.5
X79.449 Y83.781
X78.085 Y84.864 Z-0.624
X77.739 Y85.128
X77.386 Y85.382
X77.032 Y85.636
X76.324 Y86.143 Z-0.625
X75.967 Y86.392
X75.236 Y86.865
X74.504 Y87.337
X74.135 Y87.568 Z-0.626
X73.382 Y88.005
X73.005 Y88.224
X72.628 Y88.441
X72.249 Y88.654
X71.475 Y89.055 Z-0.627
X71.088 Y89.254
X70.701 Y89.453
X70.312 Y89.648
X69.52 Y90.01
X69.123 Y90.191 Z-0.628
X68.727 Y90.37
X68.329 Y90.546
X67.52 Y90.869
X67.115 Y91.03
X66.71 Y91.189
X66.304 Y91.346 Z-0.629
X65.48 Y91.628
X65.068 Y91.769
X64.656 Y91.908
X64.243 Y92.047
X62.987 Y92.407 Z-0.63
X62.568 Y92.525
X62.149 Y92.643
X61.726 Y92.744
X60.878 Y92.942 Z-0.631
X60.453 Y93.039
X60.029 Y93.136
X59.601 Y93.217
X58.744 Y93.372
X58.316 Y93.448 Z-0.632
X57.887 Y93.524
X57.456 Y93.586
X56.592 Y93.697
X56.16 Y93.752
X55.728 Y93.806
X55.295 Y93.85 Z-0.633
X53.993 Y93.95
X53.559 Y93.982
X53.124 Y94.008
X51.383 Y94.053 Z-0.634
X50.948 Y94.062
X48.772 Y94.006 Z-0.635
X48.337 Y93.978
X47.903 Y93.945
X46.601 Y93.845 Z-0.636
X46.168 Y93.798
X45.736 Y93.744
X44.44 Y93.578
X44.01 Y93.512 Z-0.637
X43.581 Y93.437
X43.152 Y93.36
X42.296 Y93.206
X41.869 Y93.121
X41.444 Y93.025
X41.02 Y92.927 Z-0.638
X40.172 Y92.729
X39.749 Y92.625
X39.33 Y92.508
X38.911 Y92.389
X38.074 Y92.149 Z-0.639
X37.656 Y92.025
X37.243 Y91.887
X36.831 Y91.748
X36.007 Y91.466
X35.596 Y91.323 Z-0.64
X34.785 Y91.006
X33.976 Y90.683
X33.572 Y90.521
X32.778 Y90.163 Z-0.641
X32.382 Y89.983
X31.59 Y89.621
X31.202 Y89.423
X30.815 Y89.224
X30.428 Y89.025 Z-0.642
X29.654 Y88.624
X29.277 Y88.408
X28.899 Y88.191
X28.522 Y87.972
X28.103 Y87.729 Z-0.643
X27.914 Y87.619
X27.726 Y87.509
X26.993 Y87.038
X26.627 Y86.801
X25.896 Y86.327
X25.187 Y85.821 Z-0.644
X24.833 Y85.567
X24.125 Y85.058
X23.783 Y84.788
X23.1 Y84.247 Z-0.645
X22.417 Y83.706
X22.088 Y83.42
X20.776 Y82.272 Z-0.646
X20.461 Y81.971
X20.147 Y81.669
X19.206 Y80.762 Z-0.647
X18.905 Y80.447
X18.606 Y80.13
X18.307 Y79.813
X17.71 Y79.178
X17.424 Y78.849
X17.14 Y78.519 Z-0.648
X16.857 Y78.188
X16.291 Y77.525
X16.021 Y77.183
X15.753 Y76.839
X15.485 Y76.495 Z-0.649
X14.953 Y75.806
X14.699 Y75.452
X14.196 Y74.739
X13.698 Y74.025 Z-0.65
X13.46 Y73.659
X12.993 Y72.924
X12.529 Y72.186
X12.309 Y71.81 Z-0.651
X11.877 Y71.053
X11.664 Y70.673
X11.45 Y70.293
X11.248 Y69.908
X10.853 Y69.131 Z-0.652
X10.658 Y68.741
X10.463 Y68.351
X10.278 Y67.957
X9.922 Y67.162
X9.745 Y66.763 Z-0.653
X9.57 Y66.364
X9.403 Y65.962
X9.086 Y65.15
X8.929 Y64.744
X8.773 Y64.337
X8.625 Y63.927 Z-0.654
X8.348 Y63.101
X8.21 Y62.687
X8.075 Y62.273
X7.946 Y61.857
X7.709 Y61.018 Z-0.655
X7.592 Y60.599
X7.477 Y60.178
X7.366 Y59.757
X7.171 Y58.907
X7.074 Y58.483 Z-0.656
X6.98 Y58.057
X6.887 Y57.631
X6.659 Y56.344
X6.585 Y55.915 Z-0.657
X6.512 Y55.485
X6.456 Y55.053
X6.347 Y54.189
X6.293 Y53.756
X6.241 Y53.324
X6.203 Y52.89 Z-0.658
X6.105 Y51.586
X6.073 Y51.151
X6.053 Y50.716
X6.009 Y48.974 Z-0.659
X6.004 Y48.538
X6.048 Y46.796 Z-0.66
X6.059 Y46.36
X6.091 Y45.926
X6.123 Y45.491
X6.221 Y44.188 Z-0.661
X6.27 Y43.755
X6.322 Y43.322
X6.486 Y42.025
X6.552 Y41.594 Z-0.662
X6.625 Y41.165
X6.701 Y40.736
X6.853 Y39.878
X6.937 Y39.45
X7.031 Y39.025 Z-0.663
X7.127 Y38.6
X7.322 Y37.75
X7.425 Y37.327
X7.54 Y36.907
X7.656 Y36.487
X7.892 Y35.648 Z-0.664
X8.015 Y35.23
X8.15 Y34.815
X8.285 Y34.401
X8.563 Y33.575
X8.704 Y33.163 Z-0.665
X9.015 Y32.349
X9.332 Y31.537
X9.492 Y31.132
X9.842 Y30.334 Z-0.666
X10.02 Y29.936
X10.377 Y29.141
X10.765 Y28.36
X10.962 Y27.972 Z-0.667
X11.357 Y27.195
X11.569 Y26.814
X11.782 Y26.434
X11.997 Y26.055
X12.428 Y25.298 Z-0.668
X12.658 Y24.928
X12.889 Y24.558
X13.122 Y24.19
X13.59 Y23.454
X13.836 Y23.095 Z-0.669
X14.085 Y22.738
X14.335 Y22.381
X14.837 Y21.669
X15.1 Y21.321
X15.366 Y20.976 Z-0.67
X15.633 Y20.632
X16.169 Y19.944
X16.448 Y19.61
X16.73 Y19.278
X17.013 Y18.946
X17.581 Y18.285 Z-0.671
X17.876 Y17.964
X18.174 Y17.646
X18.472 Y17.329
X19.071 Y16.696 Z-0.672
X19.38 Y16.389
X20.007 Y15.783
X20.635 Y15.179
X20.958 Y14.887
X21.613 Y14.312 Z-0.673
X21.941 Y14.025
X22.269 Y13.739
X22.606 Y13.462
X23.971 Y12.379 Z-0.674
X24.321 Y12.118
X24.675 Y11.864
X25.737 Y11.103 Z-0.675
X26.098 Y10.859
X26.464 Y10.622
X26.83 Y10.386
X27.562 Y9.913
X27.935 Y9.687 Z-0.676
X28.688 Y9.249
X29.443 Y8.813
X29.826 Y8.605
X30.599 Y8.204 Z-0.677
X31.375 Y7.806
X31.767 Y7.616
X32.559 Y7.254
X32.956 Y7.074 Z-0.678
X33.353 Y6.895
X33.754 Y6.723
X34.563 Y6.401
X34.969 Y6.241
X35.374 Y6.081
X35.782 Y5.929 Z-0.679
X36.607 Y5.647
X37.02 Y5.507
X37.433 Y5.368
X37.847 Y5.234
X38.685 Y4.994 Z-0.68
X39.104 Y4.874
X39.523 Y4.756
X39.944 Y4.642
X40.793 Y4.444
X41.217 Y4.346 Z-0.681
X41.642 Y4.249
X42.067 Y4.154
X43.354 Y3.921
X44.212 Y3.771 Z-0.682
X44.644 Y3.714
X45.508 Y3.603
X45.941 Y3.549
X46.373 Y3.495
X46.807 Y3.458 Z-0.683
X47.676 Y3.391
X48.111 Y3.358
X48.545 Y3.325
X48.98 Y3.306
X50.723 Y3.262 Z-0.684
X51.158 Y3.26
X52.901 Y3.304 Z-0.685
X53.336 Y3.319
X53.771 Y3.352
X54.205 Y3.385
X55.509 Y3.485 Z-0.686
X55.941 Y3.539
X56.373 Y3.593
X57.67 Y3.76
X58.1 Y3.832 Z-0.687
X58.529 Y3.907
X58.958 Y3.985
X59.815 Y4.14
X60.241 Y4.231
X60.666 Y4.328 Z-0.688
X61.091 Y4.426
X61.939 Y4.624
X62.361 Y4.735
X62.78 Y4.853
X63.199 Y4.972
X64.037 Y5.212 Z-0.689
X64.453 Y5.343
X64.866 Y5.481
X65.279 Y5.621
X66.103 Y5.903 Z-0.69
X66.512 Y6.053
X66.918 Y6.212
X67.324 Y6.371
X68.133 Y6.694
X68.535 Y6.863
X68.932 Y7.042 Z-0.691
X69.329 Y7.221
X70.122 Y7.583
X70.515 Y7.771
X71.291 Y8.167 Z-0.692
X72.065 Y8.568
X72.449 Y8.774
X73.204 Y9.209
X73.581 Y9.428
X73.957 Y9.646 Z-0.693
X74.331 Y9.87
X75.064 Y10.342
X75.43 Y10.578
X75.796 Y10.815
X76.158 Y11.057 Z-0.694
X76.867 Y11.564
X77.222 Y11.817
X77.576 Y12.072
X77.927 Y12.33
X78.951 Y13.141 Z-0.695
X79.293 Y13.412
X79.631 Y13.686
X80.943 Y14.833 Z-0.696
X81.269 Y15.123
X81.583 Y15.425
X82.21 Y16.03
X82.524 Y16.332
X82.836 Y16.637 Z-0.697
X83.434 Y17.271
X84.031 Y17.905
X84.328 Y18.224
X84.896 Y18.885 Z-0.698
X85.179 Y19.217
X85.462 Y19.548
X85.743 Y19.881
X86.279 Y20.568
X86.546 Y20.913 Z-0.699
X86.812 Y21.257
X87.078 Y21.603
X87.58 Y22.315
X87.83 Y22.672
X88.08 Y23.029
X88.329 Y23.387 Z-0.7
X88.796 Y24.122
X89.029 Y24.49
X89.493 Y25.228
X89.709 Y25.607 Z-0.701
X89.925 Y25.985
X90.14 Y26.364
X90.567 Y27.124
X90.766 Y27.512
X90.963 Y27.9
X91.16 Y28.289 Z-0.702
X91.549 Y29.068
X91.73 Y29.465
X91.909 Y29.862
X92.087 Y30.26
X92.437 Y31.058 Z-0.703
X92.6 Y31.462
X92.918 Y32.274
X93.229 Y33.088
X93.373 Y33.499 Z-0.704
X93.65 Y34.325
X93.786 Y34.739
X93.922 Y35.153
X94.047 Y35.57
X94.284 Y36.409 Z-0.705
X94.4 Y36.829
X94.515 Y37.249
X94.621 Y37.672
X94.816 Y38.521
X94.912 Y38.946 Z-0.706
X95.006 Y39.372
X95.094 Y39.798
X95.247 Y40.656
X95.322 Y41.086
X95.395 Y41.515 Z-0.707
X95.465 Y41.945
X95.629 Y43.242
X95.734 Y44.107
X95.832 Y45.411 Z-0.708
X95.865 Y45.845
X95.896 Y46.28
X95.911 Y46.715
X95.955 Y48.458 Z-0.709
X95.954 Y48.893
X95.91 Y50.636 Z-0.71
X95.893 Y51.071
X95.862 Y51.506
X95.83 Y51.94
X95.764 Y52.809 Z-0.711
X95.73 Y53.244
X95.677 Y53.676
X95.625 Y54.109
X95.461 Y55.406
X95.389 Y55.835 Z-0.712
X95.316 Y56.265
X95.24 Y56.694
X95.088 Y57.552
X94.998 Y57.979
X94.904 Y58.404 Z-0.713
X94.808 Y58.829
X94.613 Y59.678
X94.505 Y60.1
X94.39 Y60.521
X94.274 Y60.941
X94.038 Y61.779 Z-0.714
X93.91 Y62.196
X93.775 Y62.61
X93.639 Y63.024
X93.362 Y63.85 Z-0.715
X93.216 Y64.261
X93.06 Y64.668
X92.905 Y65.075
X92.587 Y65.887
X92.422 Y66.29
X92.073 Y67.088 Z-0.716
X91.716 Y67.883
X91.533 Y68.279
X91.145 Y69.059 Z-0.717
X90.948 Y69.447
X90.75 Y69.836
X90.549 Y70.223
X90.123 Y70.983
X89.908 Y71.362
X89.692 Y71.74 Z-0.718
X89.473 Y72.117
X89.011 Y72.856
X88.778 Y73.224
X88.544 Y73.592
X88.308 Y73.958 Z-0.719
X87.81 Y74.673
X87.56 Y75.03
X87.309 Y75.386
X87.056 Y75.741
X86.525 Y76.431 Z-0.72
X86.258 Y76.776
X85.99 Y77.12
X85.721 Y77.463
X85.156 Y78.126
X84.873 Y78.458 Z-0.721
X84.59 Y78.788
X84.305 Y79.119
X83.709 Y79.754
X83.41 Y80.071
X82.812 Y80.705 Z-0.722
X82.499 Y81.008
X81.872 Y81.614
X81.244 Y82.218
X80.917 Y82.506 Z-0.723
X80.262 Y83.08
X79.934 Y83.367
X79.606 Y83.654
X79.266 Y83.926
X77.9 Y85.01 Z-0.724
X77.548 Y85.266
X77.194 Y85.52
X76.131 Y86.282 Z-0.725
X75.767 Y86.521
X75.401 Y86.758
X74.669 Y87.23
X74.303 Y87.466
X73.928 Y87.688 Z-0.726
X73.551 Y87.907
X73.174 Y88.126
X72.419 Y88.561
X72.034 Y88.765
X71.647 Y88.966 Z-0.727
X71.26 Y89.165
X70.485 Y89.563
X70.091 Y89.749
X69.695 Y89.93
X69.298 Y90.111
X68.504 Y90.47 Z-0.728
X68.101 Y90.637
X67.697 Y90.798
X67.292 Y90.959
X66.481 Y91.278 Z-0.729
X66.071 Y91.426
X65.247 Y91.708
X64.421 Y91.986
X64.004 Y92.115
X63.167 Y92.356 Z-0.73
X62.747 Y92.474
X62.328 Y92.592
X61.906 Y92.702
X61.058 Y92.9 Z-0.731
X60.633 Y92.997
X60.208 Y93.094
X59.782 Y93.185
X58.924 Y93.34
X58.495 Y93.416
X58.066 Y93.491 Z-0.732
X57.636 Y93.563
X56.772 Y93.674
X56.34 Y93.729
X55.907 Y93.783
X55.475 Y93.836
X54.172 Y93.936 Z-0.733
X53.737 Y93.969
X53.302 Y94.001
X53.085 Y94.009
X52.868 Y94.015
X51.126 Y94.059 Z-0.734
X50.691 Y94.056
X48.949 Y94.011 Z-0.735
X48.514 Y93.99
X48.08 Y93.958
X47.645 Y93.925
X46.777 Y93.858 Z-0.736
X46.343 Y93.819
X45.911 Y93.765
X45.479 Y93.711
X44.615 Y93.6
X44.183 Y93.542
X43.325 Y93.392 Z-0.737
X42.039 Y93.159
X41.19 Y92.966 Z-0.738
X40.766 Y92.868
X39.917 Y92.669
X39.497 Y92.554
X39.078 Y92.436
X38.659 Y92.317
X37.822 Y92.076 Z-0.739
X37.408 Y91.941
X36.995 Y91.803
X36.582 Y91.663
X35.758 Y91.381 Z-0.74
X35.351 Y91.226
X34.945 Y91.068
X34.54 Y90.908
X33.731 Y90.585
X33.332 Y90.412
X32.934 Y90.233 Z-0.741
X32.537 Y90.054
X31.745 Y89.692
X31.354 Y89.5
X30.579 Y89.103 Z-0.742
X29.805 Y88.702
X29.424 Y88.492
X28.669 Y88.057
X28.292 Y87.839
X27.916 Y87.62 Z-0.743
X27.545 Y87.392
X26.812 Y86.921
X26.447 Y86.684
X26.081 Y86.447
X25.721 Y86.202 Z-0.744
X25.012 Y85.695
X24.658 Y85.442
X24.305 Y85.188
X23.957 Y84.926
X22.932 Y84.115 Z-0.745
X22.591 Y83.844
X22.256 Y83.566
X20.944 Y82.419 Z-0.746
X20.622 Y82.126
X20.308 Y81.824
X19.368 Y80.917
X19.059 Y80.61 Z-0.747
X18.76 Y80.293
X18.461 Y79.976
X17.865 Y79.342
X17.571 Y79.02
X17.004 Y78.359 Z-0.748
X16.438 Y77.696
X16.16 Y77.362
X15.625 Y76.674
X15.092 Y75.985 Z-0.749
X14.83 Y75.637
X14.328 Y74.926
X14.078 Y74.568
X13.829 Y74.211 Z-0.75
X13.583 Y73.852
X13.116 Y73.117
X12.883 Y72.748
X12.652 Y72.379
X12.423 Y72.009
X11.991 Y71.252 Z-0.751
X11.777 Y70.873
X11.564 Y70.493
X11.352 Y70.113
X10.957 Y69.336 Z-0.752
X10.761 Y68.947
X10.567 Y68.557
X10.373 Y68.167
X10.016 Y67.373
X9.839 Y66.975
X9.489 Y66.177 Z-0.753
X9.329 Y65.772
X9.171 Y65.366
X9.013 Y64.96
X8.702 Y64.147 Z-0.754
X8.561 Y63.735
X8.422 Y63.322
X8.284 Y62.909
X8.013 Y62.081
X7.891 Y61.663
X7.773 Y61.244 Z-0.755
X7.655 Y60.824
X7.425 Y59.984
X7.321 Y59.561
X7.126 Y58.712 Z-0.756
X7.032 Y58.287
X6.937 Y57.862
X6.852 Y57.435
X6.7 Y56.577
X6.626 Y56.148
X6.552 Y55.718 Z-0.757
X6.486 Y55.288
X6.377 Y54.424
X6.323 Y53.992
X6.27 Y53.559
X6.221 Y53.127 Z-0.758
X6.123 Y51.824
X6.091 Y51.389
X6.06 Y50.955
X6.048 Y50.519
X6.004 Y48.778 Z-0.759
X6.009 Y48.342
X6.053 Y46.601 Z-0.76
X6.074 Y46.166
X6.105 Y45.731
X6.137 Y45.297
X6.203 Y44.428 Z-0.761
X6.241 Y43.995
X6.294 Y43.562
X6.346 Y43.13
X6.456 Y42.266
X6.512 Y41.834
X6.658 Y40.975 Z-0.762
X6.734 Y40.546
X6.887 Y39.688
X6.98 Y39.263
X7.074 Y38.838 Z-0.763
X7.17 Y38.413
X7.365 Y37.564
X7.477 Y37.143
X7.591 Y36.723
X7.708 Y36.303
X7.944 Y35.465 Z-0.764
X8.075 Y35.049
X8.21 Y34.635
X8.346 Y34.221
X8.623 Y33.396 Z-0.765
X8.773 Y32.987
X8.928 Y32.58
X9.083 Y32.173
X9.401 Y31.362
X9.569 Y30.96
X9.918 Y30.162 Z-0.766
X10.275 Y29.367
X10.461 Y28.973
X10.849 Y28.194 Z-0.767
X11.046 Y27.805
X11.244 Y27.417
X11.448 Y27.032
X11.873 Y26.272
X12.089 Y25.894
X12.304 Y25.515 Z-0.768
X12.526 Y25.14
X12.988 Y24.402
X13.221 Y24.034
X13.455 Y23.666
X13.693 Y23.302 Z-0.769
X14.191 Y22.587
X14.441 Y22.231
X14.692 Y21.875
X14.947 Y21.522
X15.479 Y20.832 Z-0.77
X15.746 Y20.487
X16.013 Y20.144
X16.284 Y19.803
X16.849 Y19.14
X17.132 Y18.808 Z-0.771
X17.416 Y18.478
X17.702 Y18.15
X18.298 Y17.515
X18.597 Y17.197
X18.896 Y16.881
X19.197 Y16.566 Z-0.772
X20.137 Y15.658
X20.45 Y15.356
X20.766 Y15.056
X21.748 Y14.195 Z-0.773
X22.076 Y13.908
X22.405 Y13.622
X23.77 Y12.539 Z-0.774
X24.111 Y12.269
X24.465 Y12.015
X25.881 Y11. Z-0.775
X26.612 Y10.526
X27.71 Y9.818
X28.087 Y9.599 Z-0.776
X28.463 Y9.38
X29.218 Y8.944
X29.595 Y8.726
X29.981 Y8.525
X30.368 Y8.324 Z-0.777
X30.755 Y8.125
X31.53 Y7.727
X31.925 Y7.544
X32.321 Y7.363
X32.718 Y7.183
X33.511 Y6.824 Z-0.778
X33.915 Y6.659
X34.319 Y6.498
X34.724 Y6.338
X35.535 Y6.019 Z-0.779
X35.945 Y5.873
X36.357 Y5.732
X36.769 Y5.592
X37.595 Y5.314
X38.012 Y5.187
X38.43 Y5.067 Z-0.78
X38.849 Y4.947
X39.688 Y4.711
X40.11 Y4.604
X40.958 Y4.406 Z-0.781
X41.807 Y4.212
X42.234 Y4.124
X42.662 Y4.046
X43.216 Y3.946
X44.202 Y3.773
X44.448 Y3.74
X45.434 Y3.613
X45.681 Y3.582
X46.42 Y3.49
X46.667 Y3.469
X47.899 Y3.374
X48.639 Y3.319
X48.885 Y3.309
X50.857 Y3.258
X51.104
X53.076 Y3.309
X53.322 Y3.319
X53.815 Y3.355
X54.062 Y3.374
X55.294 Y3.469
X55.541 Y3.49
X56.28 Y3.581
X56.527 Y3.613
X57.513 Y3.74
X57.759 Y3.773
X58.499 Y3.903
X58.745 Y3.946
X59.731 Y4.124
X59.978 Y4.172
X60.717 Y4.34
X60.964 Y4.396
X61.95 Y4.627
X62.197 Y4.69
X62.936 Y4.897
X63.194 Y4.97
X64.169 Y5.25
X64.415 Y5.331
X65.155 Y5.579
X65.401 Y5.662
X66.255 Y5.955
X66.387 Y6.004
X67.127 Y6.294
X67.373 Y6.391
X68.132 Y6.693
X68.359 Y6.784
X69.345 Y7.228
X69.592 Y7.341
X70.331 Y7.679
X70.578 Y7.803
X71.317 Y8.182
X71.564 Y8.309
X72.303 Y8.691
X72.55 Y8.833
X73.289 Y9.259
X73.536 Y9.401
X74.029 Y9.688
X74.275 Y9.835
X75.261 Y10.469
X76.001 Y10.948
X76.247 Y11.12
X76.987 Y11.649
X77.233 Y11.826
X77.726 Y12.18
X77.957 Y12.354
X78.959 Y13.147
X79.205 Y13.342
X79.511 Y13.585
X79.698 Y13.745
X81.204 Y15.062
X81.424 Y15.272
X81.716 Y15.554
X82.737 Y16.539
X82.903 Y16.708
X83.208 Y17.031
X83.396 Y17.23
X84.135 Y18.016
X84.36 Y18.261
X84.875 Y18.861
X84.993 Y19.
X85.623 Y19.738
X85.824 Y19.984
X86.208 Y20.477
X86.354 Y20.665
X86.969 Y21.461
X87.093 Y21.625
X87.586 Y22.324
X87.672 Y22.446
X88.326 Y23.383
X88.357 Y23.43
X88.826 Y24.169
X88.981 Y24.415
X89.445 Y25.153
X89.558 Y25.342
X90.012 Y26.138
X90.051 Y26.207
X90.566 Y27.122
X90.693 Y27.368
X91.068 Y28.107
X91.284 Y28.538
X91.56 Y29.091
X91.673 Y29.338
X92.023 Y30.118
X92.113 Y30.322
X92.438 Y31.06
X92.516 Y31.248
X92.828 Y32.045
X92.924 Y32.291
X93.256 Y33.16
X93.298 Y33.276
X93.629 Y34.26
X93.709 Y34.506
X93.951 Y35.245
X93.995 Y35.387
X94.242 Y36.261
X94.302 Y36.475
X94.572 Y37.46
X94.629 Y37.706
X94.798 Y38.445
X94.854 Y38.691
X95.018 Y39.429
X95.072 Y39.675
X95.247 Y40.66
X95.291 Y40.906
X95.417 Y41.644
X95.458 Y41.89
X95.614 Y43.121
X95.644 Y43.367
X95.733 Y44.106
X95.752 Y44.352
X95.845 Y45.582
X95.899 Y46.321
X95.908 Y46.567
X95.957 Y48.536
Y48.782
X95.908 Y50.751
X95.899 Y50.997
X95.863 Y51.49
X95.845 Y51.736
X95.752 Y52.966
X95.733 Y53.213
X95.644 Y53.951
X95.613 Y54.197
X95.458 Y55.428
X95.416 Y55.674
X95.333 Y56.166
X95.29 Y56.412
X95.072 Y57.643
X94.909 Y58.381
X94.854 Y58.628
X94.629 Y59.612
X94.571 Y59.858
X94.369 Y60.597
X94.302 Y60.843
X93.995 Y61.929
X93.95 Y62.073
X93.709 Y62.812
X93.628 Y63.058
X93.297 Y64.043
X93.256 Y64.154
X92.923 Y65.027
X92.827 Y65.273
X92.516 Y66.068
X92.436 Y66.258
X92.112 Y66.996
X92.023 Y67.198
X91.672 Y67.981
X91.558 Y68.227
X91.191 Y68.965
X91.068 Y69.211
X90.692 Y69.95
X90.563 Y70.196
X90.051 Y71.11
X90.011 Y71.18
X89.558 Y71.975
X89.443 Y72.165
X88.98 Y72.903
X88.819 Y73.159
X88.356 Y73.888
X88.326 Y73.932
X87.833 Y74.64
X87.671 Y74.872
X87.093 Y75.692
X86.967 Y75.857
X86.398 Y76.595
X86.354 Y76.652
X85.823 Y77.334
X85.621 Y77.58
X84.993 Y78.318
X84.875 Y78.456
X84.359 Y79.057
X84.132 Y79.303
X83.439 Y80.041
X82.903 Y80.609
X82.735 Y80.78
X81.917 Y81.57
X81.67 Y81.808
X81.424 Y82.045
X81.201 Y82.256
X80.078 Y83.241
X79.797 Y83.487
X79.698 Y83.574
X79.509 Y83.733
X77.958 Y84.964
X77.726 Y85.138
X77.48 Y85.315
X76.247 Y86.198
X76.001 Y86.369
X75.508 Y86.689
X75.261 Y86.848
X74.275 Y87.484
X74.029 Y87.63
X73.533 Y87.918
X73.289 Y88.059
X72.55 Y88.486
X72.303 Y88.626
X71.564 Y89.009
X71.293 Y89.148
X70.578 Y89.516
X70.331 Y89.639
X69.592 Y89.977
X69.345 Y90.089
X68.606 Y90.424
X68.359 Y90.534
X67.514 Y90.871
X67.373 Y90.927
X66.387 Y91.315
X66.254 Y91.363
X65.401 Y91.656
X65.155 Y91.739
X64.415 Y91.988
X64.169 Y92.068
X63.183 Y92.351
X62.936 Y92.421
X62.197 Y92.629
X61.95 Y92.691
X60.964 Y92.922
X59.978 Y93.146
X59.731 Y93.194
X58.745 Y93.372
X57.759 Y93.545
X57.512 Y93.579
X56.527 Y93.705
X56.28 Y93.736
X55.541 Y93.829
X55.294 Y93.85
X54.062 Y93.945
X53.322 Y93.999
X53.076 Y94.009
X51.104 Y94.06
X50.857
X48.885 Y94.009
X48.639 Y94.
X48.146 Y93.963
X47.899 Y93.945
X46.667 Y93.85
X46.42 Y93.829
X45.681 Y93.737
X45.434 Y93.705
X44.448 Y93.579
X44.202 Y93.545
X43.462 Y93.415
X43.216 Y93.372
X42.23 Y93.194
X41.983 Y93.146
X41.244 Y92.978
X40.997 Y92.922
X40.011 Y92.691
X39.765 Y92.628
X39.025 Y92.421
X38.768 Y92.348
X37.793 Y92.068
X37.546 Y91.987
X36.807 Y91.739
X36.56 Y91.656
X35.707 Y91.363
X35.574 Y91.314
X34.835 Y91.024
X34.588 Y90.927
X33.83 Y90.625
X33.602 Y90.534
X32.616 Y90.089
X32.37 Y89.977
X31.63 Y89.639
X31.384 Y89.514
X30.644 Y89.136
X30.398 Y89.009
X29.658 Y88.626
X29.412 Y88.485
X28.672 Y88.059
X28.426 Y87.916
X27.933 Y87.63
X27.686 Y87.483
X26.7 Y86.848
X25.961 Y86.369
X25.711 Y86.195
X24.975 Y85.668
X24.728 Y85.492
X24.235 Y85.138
X24.005 Y84.964
X23.003 Y84.17
X22.756 Y83.975
X22.452 Y83.733
X22.263 Y83.573
X20.758 Y82.256
X20.538 Y82.045
X20.246 Y81.764
X19.225 Y80.78
X19.059 Y80.609
X18.755 Y80.287
X18.566 Y80.087
X17.826 Y79.301
X17.602 Y79.057
X17.087 Y78.456
X16.969 Y78.318
X16.339 Y77.58
X16.138 Y77.334
X15.755 Y76.842
X15.608 Y76.652
X14.993 Y75.857
X14.868 Y75.692
X14.375 Y74.993
X14.29 Y74.872
X13.636 Y73.934
X13.606 Y73.888
X13.136 Y73.149
X12.981 Y72.903
X12.517 Y72.165
X12.403 Y71.975
X11.95 Y71.18
X11.91 Y71.109
X11.397 Y70.196
X11.269 Y69.95
X10.894 Y69.211
X10.771 Y68.965
X10.402 Y68.227
X10.289 Y67.981
X9.938 Y67.198
X9.849 Y66.996
X9.524 Y66.258
X9.445 Y66.068
X9.134 Y65.273
X9.039 Y65.027
X8.706 Y64.156
X8.664 Y64.043
X8.333 Y63.058
X8.253 Y62.812
X8.011 Y62.073
X7.966 Y61.929
X7.72 Y61.055
X7.66 Y60.843
X7.39 Y59.858
X7.333 Y59.612
X7.163 Y58.874
X7.107 Y58.628
X6.944 Y57.889
X6.889 Y57.643
X6.715 Y56.658
X6.671 Y56.412
X6.545 Y55.674
X6.503 Y55.428
X6.348 Y54.197
X6.318 Y53.951
X6.228 Y53.213
X6.209 Y52.966
X6.116 Y51.736
X6.063 Y50.997
X6.054 Y50.751
X6.004 Y48.782
Y48.536
X6.054 Y46.567
X6.063 Y46.321
X6.098 Y45.829
X6.116 Y45.582
X6.209 Y44.352
X6.228 Y44.106
X6.241 Y44.002
X6.317 Y43.367
X6.348 Y43.121
X6.503 Y41.89
X6.544 Y41.644
X6.628 Y41.152
X6.671 Y40.906
X6.889 Y39.675
X6.943 Y39.429
X7.052 Y38.937
X7.106 Y38.691
X7.332 Y37.706
X7.39 Y37.46
X7.592 Y36.722
X7.659 Y36.475
X7.966 Y35.387
X8.011 Y35.245
X8.252 Y34.506
X8.333 Y34.26
X8.664 Y33.276
X8.706 Y33.163
X9.038 Y32.291
X9.133 Y32.045
X9.445 Y31.249
X9.525 Y31.06
X9.848 Y30.322
X9.938 Y30.118
X10.288 Y29.338
X10.402 Y29.091
X10.77 Y28.353
X10.893 Y28.107
X11.268 Y27.368
X11.397 Y27.122
X11.91 Y26.207
X11.949 Y26.138
X12.403 Y25.342
X12.518 Y25.153
X12.98 Y24.415
X13.143 Y24.157
X13.605 Y23.43
X13.636 Y23.385
X14.129 Y22.677
X14.289 Y22.446
X14.868 Y21.625
X14.994 Y21.461
X15.563 Y20.723
X15.608 Y20.665
X16.137 Y19.984
X16.34 Y19.738
X16.968 Y19.
X17.087 Y18.861
X17.601 Y18.261
X17.828 Y18.015
X18.522 Y17.277
X19.059 Y16.708
X19.226 Y16.539
X20.045 Y15.747
X20.291 Y15.509
X20.538 Y15.272
X20.759 Y15.062
X21.882 Y14.077
X22.164 Y13.831
X22.263 Y13.744
X22.452 Y13.585
X24.002 Y12.354
X24.235 Y12.18
X24.482 Y12.003
X25.714 Y11.119
X25.961 Y10.948
X26.454 Y10.629
X26.7 Y10.47
X27.686 Y9.834
X27.933 Y9.688
X28.427 Y9.401
X28.672 Y9.259
X29.412 Y8.832
X29.658 Y8.692
X30.398 Y8.309
X30.667 Y8.17
X31.384 Y7.802
X31.63 Y7.679
X32.37 Y7.341
X32.616 Y7.229
X33.356 Y6.894
X33.602 Y6.784
X34.447 Y6.447
X34.588 Y6.391
X35.574 Y6.003
X35.706 Y5.955
X36.56 Y5.663
X36.807 Y5.579
X37.546 Y5.33
X37.793 Y5.25
X38.779 Y4.967
X39.025 Y4.897
X39.765 Y4.689
X40.011 Y4.627
X40.997 Y4.396
X41.983 Y4.172
X42.23 Y4.124
X42.662 Y4.046
X42.701 Y4.047
X42.737 Y4.063
X42.764 Y4.091
X42.778 Y4.128
G0 Z5.
X20.819 Y21.673
Z1.927
G1 Z-0.061 F50.
X20.81 Y21.711
X20.787 Y21.743
X20.754 Y21.764
X20.715 Y21.77
X20.677 Y21.761
X20.646 Y21.738
X20.617 Y21.707
X20.597 Y21.689
X20.577 Y21.672
X20.557 Y21.657
X20.538 Y21.644
X20.507 Y21.625
X20.476 Y21.61
X20.445 Y21.597
X20.414 Y21.586
X20.384 Y21.577
X20.353 Y21.571
X20.322 Y21.567
X20.291 Y21.564
X20.26 Y21.563
X20.23 Y21.565
X20.199 Y21.568
X20.168 Y21.573
X20.137 Y21.58
X20.106 Y21.589
X20.045 Y21.614
X19.552 Y21.816 Z-0.062
X19.305 Y21.919
X19.24 Y21.953
X18.672 Y22.256
X18.645 Y22.271 Z-0.063
X18.619 Y22.288
X18.566 Y22.326
X18.319 Y22.502
X18.073 Y22.678
X18.055 Y22.692
X17.826 Y22.914
X17.58 Y23.156 Z-0.064
X17.555 Y23.184
X17.378 Y23.43
X17.202 Y23.676
X17.166 Y23.73
X17.151 Y23.756
X17.138 Y23.783
X17.071 Y23.923
X16.953 Y24.169 Z-0.065 F13.
X16.725 Y23.43 F50.
X16.686 Y23.307
X16.667 Y23.246
X16.655 Y23.215
X16.641 Y23.184
X16.619 Y23.146
X16.607 Y23.128
X16.594 Y23.109
X16.567 Y23.076
X16.552 Y23.06
X16.535 Y23.044
X16.506 Y23.019
X16.477 Y22.997 Z-0.066
X16.447 Y22.979
X16.418 Y22.963
X16.389 Y22.949
X16.36 Y22.938
X16.347 Y22.934
X16.316 Y22.925
X16.285 Y22.918
X16.255 Y22.914
X16.224 Y22.911
X16.193 Y22.91
X16.162 Y22.911
X16.131 Y22.914
X16.101 Y22.919
X16.065 Y22.927
X16.029 Y22.938
X16.007 Y22.946
X15.985 Y22.956
X15.964 Y22.966
X15.942 Y22.979
X15.92 Y22.992
X15.898 Y23.007
X15.876 Y23.024
X15.854 Y23.044
X15.836 Y23.061
X15.82 Y23.079
X15.805 Y23.096
X15.792 Y23.114
X15.743 Y23.184
X15.572 Y23.43
X15.41 Y23.676 Z-0.067
X14.622 Y24.939 Z-0.068
X14.488 Y25.153
X14.472 Y25.184
X14.458 Y25.215
X14.435 Y25.276
X14.212 Y25.892 Z-0.069
X14.129 Y26.125
X14.124 Y26.138
X14.115 Y26.169
X14.107 Y26.199
X14.101 Y26.23
X14.097 Y26.261
X14.056 Y26.6
X14.033 Y26.799 F13.
X14.02 Y26.817
X14.006 Y26.805
X13.987 Y26.791
X13.967 Y26.778
X13.946 Y26.765
X13.925 Y26.753 F50.
X13.903 Y26.743
X13.882 Y26.734
X13.851 Y26.723
X13.82 Y26.714 Z-0.07
X13.79 Y26.707
X13.759 Y26.702
X13.728 Y26.699
X13.697 Y26.698
X13.666 Y26.699
X13.636 Y26.702
X13.605 Y26.707
X13.574 Y26.714
X13.543 Y26.722
X13.512 Y26.733
X13.482 Y26.747
X13.451 Y26.763
X13.42 Y26.782
X13.389 Y26.804
X13.37 Y26.819
X13.352 Y26.836
X13.332 Y26.856
X13.314 Y26.876
X13.29 Y26.907
X13.27 Y26.938
X13.235 Y26.999
X13.033 Y27.368
X12.908 Y27.615 Z-0.071
X12.289 Y28.845 Z-0.072
X12.258 Y28.907
X12.245 Y28.938
X12.234 Y28.968
X12.196 Y29.091
X11.99 Y29.768
X11.98 Y29.799
X11.973 Y29.83
X11.968 Y29.861
X11.964 Y29.891 Z-0.073
X11.895 Y30.544
X11.874 Y30.743 F13.
X11.854 Y30.76
X11.831 Y30.751
X11.805 Y30.742
X11.778 Y30.735
X11.75 Y30.729 F50.
X11.721 Y30.724
X11.692 Y30.721
X11.664 Y30.72
X11.633
X11.602 Y30.723
X11.571 Y30.727
X11.54 Y30.734
X11.51 Y30.742
X11.479 Y30.753 Z-0.074
X11.448 Y30.766
X11.417 Y30.781
X11.391 Y30.797
X11.364 Y30.814
X11.347 Y30.828
X11.329 Y30.842
X11.312 Y30.858
X11.294 Y30.876
X11.267 Y30.907
X11.244 Y30.937
X11.225 Y30.968
X11.208 Y30.999
X11.182 Y31.06
X11.078 Y31.307
X10.977 Y31.553
X10.497 Y32.783 Z-0.075
X10.458 Y32.887
X10.431 Y32.99
X10.301 Y33.522 Z-0.076
X10.271 Y33.645
X10.265 Y33.676
X10.261 Y33.706
X10.255 Y33.768
X10.212 Y34.26
X10.191 Y34.506 Z-0.077
Y34.537
X10.193 Y34.568
X10.209 Y34.745
X10.227 Y34.945 F13.
X10.205 Y34.96
X10.185 Y34.954
X10.154 Y34.946
X10.123 Y34.94 F50.
X10.092 Y34.936
X10.061 Y34.934
X10.03
X10. Y34.936
X9.969 Y34.939
X9.938 Y34.945
X9.903 Y34.954
X9.868 Y34.966
X9.833 Y34.981
X9.798 Y34.999
X9.771 Y35.015
X9.745 Y35.033
X9.718 Y35.055
X9.692 Y35.079
X9.672 Y35.1
X9.654 Y35.121
X9.639 Y35.141
X9.624 Y35.162 Z-0.078
X9.612 Y35.183
X9.6 Y35.203
X9.59 Y35.224
X9.581 Y35.245
X9.57 Y35.276
X9.56 Y35.306
X9.43 Y35.737
X9.359 Y35.983
X9.078 Y36.968 Z-0.079
X9.07 Y36.998
X9.064 Y37.029
X9.056 Y37.091
X8.918 Y38.198 Z-0.08
X8.903 Y38.321
X8.901 Y38.352
Y38.383
X8.906 Y38.445
X8.976 Y39.183 Z-0.081
X8.981 Y39.227
X8.989 Y39.271 F13.
X9.001 Y39.314
X9.012 Y39.353
X8.992 Y39.367
X8.977 Y39.363
X8.952 Y39.358
X8.921 Y39.354
X8.89 Y39.352 F50.
X8.86
X8.829 Y39.354
X8.798 Y39.357
X8.767 Y39.363
X8.736 Y39.37
X8.706 Y39.38
X8.68 Y39.39
X8.655 Y39.401
X8.63 Y39.414
X8.604 Y39.429
X8.586 Y39.441
X8.568 Y39.454
X8.55 Y39.469
X8.532 Y39.485
X8.51 Y39.506
X8.491 Y39.527
X8.474 Y39.548
X8.459 Y39.569
X8.442 Y39.596
X8.427 Y39.622
X8.415 Y39.649
X8.404 Y39.675
X8.393 Y39.706
X8.385 Y39.737
X8.373 Y39.798 Z-0.082
X8.301 Y40.167
X8.255 Y40.414
X8.118 Y41.152 Z-0.083
X8.097 Y41.275
X8.086 Y41.398
X8.015 Y42.26
X8.011 Y42.321 Z-0.084
X8.01 Y42.352
X8.012 Y42.383
X8.064 Y43.06
X8.066 Y43.09
X8.071 Y43.121
X8.13 Y43.367
X8.213 Y43.698 Z-0.085
X8.254 Y43.859
X8.262 Y43.89
X8.273 Y43.921
X8.299 Y43.983
X8.573 Y44.598
X8.6 Y44.657
X8.63 Y44.716
X8.706 Y44.834 Z-0.086
X8.918 Y45.153
X9.028 Y45.32 F13.
X9.032 Y45.336
X8.835 Y45.582 F50.
X8.706 Y45.746
X8.692 Y45.767
X8.68 Y45.787
X8.67 Y45.808
X8.66 Y45.829
X8.648 Y45.859 Z-0.087
X8.638 Y45.89
X8.623 Y45.952
X8.537 Y46.321
X8.481 Y46.567
X8.477 Y46.598
X8.475 Y46.628
X8.474 Y46.659
X8.476 Y46.69
X8.48 Y46.721
X8.485 Y46.752
X8.498 Y46.813
X8.597 Y47.305 Z-0.088
X8.604 Y47.334
X8.612 Y47.362
X8.623 Y47.39
X8.636 Y47.418
X8.65 Y47.446
X8.668 Y47.475
X8.794 Y47.662
X8.905 Y47.828 F13.
X8.894 Y47.844
X8.329 Y48.536 Z-0.089 F50.
X8.309 Y48.561
X8.292 Y48.586
X8.277 Y48.611
X8.264 Y48.636
X7.936 Y49.274
X7.812 Y49.521 Z-0.09
X7.799 Y49.551
X7.79 Y49.582
X7.773 Y49.644
X7.72 Y49.846
X7.577 Y50.382
X7.561 Y50.444
X7.554 Y50.474
X7.549 Y50.505
X7.529 Y50.751 Z-0.091
X7.483 Y51.367
X7.481 Y51.397
Y51.428
X7.484 Y51.49
X7.563 Y52.72 Z-0.092
X7.581 Y52.966
X7.612 Y53.336 Z-0.093
X7.615 Y53.366
X7.62 Y53.397
X7.627 Y53.428
X7.636 Y53.459
X7.65 Y53.498
X7.669 Y53.537
X7.679 Y53.557
X7.691 Y53.576
X7.705 Y53.596
X7.72 Y53.615
X7.741 Y53.641
X7.765 Y53.666
X7.788 Y53.687
X7.811 Y53.705
X7.831 Y53.719
X7.85 Y53.731
X7.869 Y53.742
X7.889 Y53.752
X7.927 Y53.77
X7.966 Y53.783
X7.997 Y53.791
X8.028 Y53.798
X8.058 Y53.802
X8.089 Y53.804
X8.12 Y53.805
X8.151 Y53.803
X8.182 Y53.8 F13.
X8.213 Y53.794
X8.233 Y53.79
X8.247 Y53.786
X8.265 Y53.799
X8.135 Y54.197 Z-0.094 F50.
X8.116 Y54.259
X8.109 Y54.289
X8.104 Y54.32
X8.091 Y54.443
X8.019 Y55.182 Z-0.095
X8.013 Y55.243
X8.012 Y55.274
X8.013 Y55.305
X8.023 Y55.428
X8.094 Y56.289
X8.1 Y56.351
X8.111 Y56.412
X8.248 Y57.151 Z-0.096
X8.294 Y57.397
X8.341 Y57.643
X8.389 Y57.889 Z-0.097
X8.401 Y57.928
X8.416 Y57.966
X8.435 Y58.005
X8.447 Y58.025
X8.459 Y58.044
X8.475 Y58.067
X8.494 Y58.09
X8.515 Y58.112
X8.539 Y58.135
X8.559 Y58.153
X8.58 Y58.169
X8.601 Y58.183
X8.622 Y58.196
X8.643 Y58.208
X8.664 Y58.218
X8.685 Y58.227
X8.706 Y58.235
X8.736 Y58.245
X8.767 Y58.252
X8.798 Y58.258
X8.829 Y58.262
X8.86 Y58.264
X8.89 F13.
X8.921 Y58.262
X8.952 Y58.258
X8.967 Y58.255
X8.983 Y58.273
X8.979 Y58.289
X8.973 Y58.319
X8.965 Y58.381 F50.
X8.895 Y59.12 Z-0.098
X8.891 Y59.181
Y59.212
X8.893 Y59.243
X8.908 Y59.366
X9.045 Y60.474 Z-0.099
X9.054 Y60.535
X9.061 Y60.566
X9.069 Y60.597
X9.35 Y61.581 Z-0.1
X9.421 Y61.827
X9.495 Y62.073
X9.532 Y62.196
X9.55 Y62.258
X9.56 Y62.289
X9.572 Y62.32
X9.582 Y62.341
X9.593 Y62.362
X9.605 Y62.384
X9.618 Y62.405 Z-0.101
X9.634 Y62.426
X9.651 Y62.448
X9.67 Y62.469
X9.692 Y62.49
X9.718 Y62.513
X9.744 Y62.533
X9.77 Y62.551
X9.797 Y62.566
X9.832 Y62.583
X9.867 Y62.597
X9.903 Y62.608
X9.938 Y62.616
X9.969 Y62.621
X10. Y62.624
X10.03 Y62.625
X10.061 Y62.624
X10.092 Y62.621
X10.123 Y62.616 F13.
X10.154 Y62.61
X10.185 Y62.601
X10.197 Y62.621
X10.163 Y62.996 F50.
X10.162 Y63.027
Y63.058
X10.183 Y63.304 Z-0.102
X10.226 Y63.796
X10.232 Y63.858
X10.237 Y63.889
X10.244 Y63.919
X10.274 Y64.043
X10.394 Y64.535 Z-0.103
X10.431 Y64.676
X10.472 Y64.781
X10.953 Y66.012 Z-0.104
X11.054 Y66.258
X11.156 Y66.504
X11.171 Y66.538
X11.183 Y66.565
X11.198 Y66.591
X11.215 Y66.618
X11.234 Y66.644
X11.26 Y66.675
X11.291 Y66.705
X11.319 Y66.729
X11.348 Y66.75
X11.382 Y66.771
X11.417 Y66.789
X11.448 Y66.802
X11.479 Y66.813 Z-0.105
X11.51 Y66.821
X11.54 Y66.828
X11.571 Y66.832
X11.602 Y66.835
X11.633 Y66.836
X11.664 Y66.834
X11.689 Y66.832
X11.714 Y66.828
X11.739 Y66.823
X11.764 Y66.817 F13.
X11.787 Y66.81
X11.809 Y66.801
X11.828 Y66.794
X11.845 Y66.811
X11.936 Y67.673 F50.
X11.94 Y67.704 Z-0.106
X11.945 Y67.735
X12.019 Y67.981
X12.169 Y68.473
X12.206 Y68.596
X12.218 Y68.627
X12.232 Y68.658
X12.896 Y69.979 Z-0.107
X13.007 Y70.196 Z-0.108
X13.21 Y70.565
X13.245 Y70.627
X13.266 Y70.657
X13.291 Y70.688
X13.316 Y70.714
X13.34 Y70.737
X13.365 Y70.757
X13.389 Y70.774
X13.42 Y70.794
X13.451 Y70.81
X13.482 Y70.823
X13.512 Y70.834
X13.543 Y70.843
X13.574 Y70.85
X13.605 Y70.855
X13.636 Y70.858
X13.666 Y70.859
X13.697 Y70.858
X13.728 Y70.855
X13.759 Y70.851
X13.79 Y70.844
X13.82 Y70.835 Z-0.109
X13.851 Y70.824
X13.882 Y70.811
X13.902 Y70.8
X13.923 Y70.789
X13.943 Y70.776
X13.963 Y70.762
X13.983 Y70.747
X14.003 Y70.729
X14.025 Y70.709
X14.044 Y70.688
X14.071 Y70.654
X14.094 Y70.62
X14.113 Y70.586
X14.129 Y70.553
X14.396 Y69.95
X14.502 Y69.704 Z-0.11 F13.
X14.52 Y69.657
X14.529 Y69.681
X14.623 Y69.95 F50.
X14.667 Y70.073
X14.678 Y70.104
X14.691 Y70.134
X14.723 Y70.196
X14.868 Y70.453
X15.001 Y70.688
X15.024 Y70.726 Z-0.111
X15.037 Y70.745
X15.052 Y70.764
X15.192 Y70.934
X15.396 Y71.18
X15.445 Y71.24
X15.471 Y71.269
X15.502 Y71.299
X15.927 Y71.673 Z-0.112
X16.014 Y71.748
X16.101 Y71.808
X16.632 Y72.165
X16.684 Y72.198
X16.84 Y72.282
X17.395 Y72.58 Z-0.113
X17.426 Y72.596
X17.456 Y72.609
X17.487 Y72.62
X17.518 Y72.628
X17.549 Y72.635
X17.58 Y72.639
X17.61 Y72.642
X17.641 Y72.643
X17.672 Y72.642
X17.703 Y72.638
X17.734 Y72.633
X17.764 Y72.626
X17.795 Y72.617
X17.826 Y72.606
X17.855 Y72.593
X17.884 Y72.578
X17.914 Y72.56
X17.943 Y72.539
X17.96 Y72.525
X17.977 Y72.51
X17.995 Y72.492
X18.011 Y72.475
X18.037 Y72.443
X18.059 Y72.411
X18.073 Y72.389
X18.087 Y72.361 Z-0.114
X18.1 Y72.333
X18.11 Y72.305
X18.119 Y72.277
X18.126 Y72.249
X18.131 Y72.221
X18.135 Y72.193
X18.137 Y72.165
Y72.134
X18.136 Y72.103
X18.005 Y70.565 Z-0.115
X18.001 Y70.534
X17.996 Y70.504
X17.982 Y70.442
X17.858 Y69.95
X17.826 Y69.825 Z-0.116
X17.809 Y69.764
X17.786 Y69.704
X17.58 Y69.205
X17.529 Y69.085
X17.513 Y69.055
X17.497 Y69.025
X17.46 Y68.965
X17.307 Y68.719
X17.153 Y68.473 Z-0.117
X17.122 Y68.425
X17.105 Y68.401
X17.087 Y68.378
X16.955 Y68.227
X16.825 Y68.078 F13.
X16.84 Y68.061
X17.087 Y68.136 F50.
X17.333 Y68.193
X18.196 Y68.381 Z-0.118
X18.227 Y68.386
X18.258 Y68.389
X18.288 Y68.391
X18.319
X18.35 Y68.389
X18.381 Y68.384
X18.412 Y68.378
X18.442 Y68.37
X18.473 Y68.36
X18.504 Y68.347
X18.535 Y68.332
X18.566 Y68.314
X18.592 Y68.296
X18.617 Y68.276 Z-0.119
X18.643 Y68.253
X18.669 Y68.227
X18.695 Y68.196
X18.717 Y68.165
X18.735 Y68.134
X18.751 Y68.104
X18.764 Y68.073
X18.775 Y68.042
X18.784 Y68.011
X18.791 Y67.981
X18.795 Y67.95
X18.798 Y67.919
X18.799 Y67.888
X18.798 Y67.858
X18.794 Y67.827
X18.789 Y67.796
X18.783 Y67.765
X18.773 Y67.735
X18.762 Y67.704
X18.749 Y67.673
X18.716 Y67.611
X18.035 Y66.329 Z-0.12
X18.014 Y66.293
X17.99 Y66.258
X17.826 Y66.033
X17.11 Y65.076 Z-0.121
X17.087 Y65.048
X17.069 Y65.027
X17.017 Y64.968 Z-0.122
X16.955 Y64.908
X16.812 Y64.781 F13.
Y64.756
X16.84 Y64.731
X16.864 Y64.706
X16.884 Y64.682 F50.
X16.902 Y64.657
X16.918 Y64.633
X16.932 Y64.608
X16.945 Y64.584
X16.955 Y64.559
X16.964 Y64.535
X16.974 Y64.504
X16.981 Y64.473
X16.986 Y64.442
X16.99 Y64.412
X16.991 Y64.381
Y64.35
X16.988 Y64.319
X16.984 Y64.289
X16.978 Y64.258
X16.97 Y64.227
X16.959 Y64.196
X16.947 Y64.166
X16.4 Y62.812 Z-0.123
X16.376 Y62.758
X16.347 Y62.703
X16.269 Y62.566 Z-0.124
X15.608 Y61.458 Z-0.125
X15.588 Y61.427
X15.567 Y61.397
X15.524 Y61.335
X15.361 Y61.151 F13.
X15.336 Y61.123
X15.34 Y61.11
X15.361 Y61.096
X15.371 Y61.089
X15.388 Y61.076
X15.406 Y61.061 F50.
X15.423 Y61.045
X15.441 Y61.027
X15.468 Y60.997
X15.491 Y60.966
X15.51 Y60.935
X15.526 Y60.904
X15.54 Y60.874
X15.552 Y60.843
X15.561 Y60.812
X15.568 Y60.781
X15.573 Y60.75
X15.576 Y60.72
X15.577 Y60.689
Y60.658
X15.574 Y60.627
X15.57 Y60.597
X15.563 Y60.566
X15.555 Y60.535
X15.148 Y59.12 Z-0.127
X15.133 Y59.072
X15.115 Y59.025
X15.049 Y58.874
X14.507 Y57.705 Z-0.128
X14.493 Y57.674
X14.477 Y57.643
X14.431 Y57.561
X14.375 Y57.478
X14.255 Y57.315 F13.
X14.285 Y57.298
X14.315 Y57.279
X14.345 Y57.258 F50.
X14.375 Y57.232
X14.396 Y57.212
X14.415 Y57.191
X14.431 Y57.171
X14.446 Y57.151
X14.466 Y57.12
X14.483 Y57.089
X14.497 Y57.058
X14.509 Y57.028
X14.518 Y56.997 Z-0.129
X14.526 Y56.966
X14.531 Y56.935
X14.535 Y56.905
X14.536 Y56.874
Y56.843
X14.534 Y56.812
X14.529 Y56.782
X14.267 Y55.305 Z-0.13
X14.261 Y55.274
X14.253 Y55.243
X14.235 Y55.182
X14.153 Y54.936
X13.774 Y53.828 Z-0.131
X13.763 Y53.797
X13.75 Y53.766
X13.725 Y53.705
X13.705 Y53.664
X13.683 Y53.623
X13.556 Y53.406 F13.
X13.576 Y53.392
X13.596 Y53.38
X13.616 Y53.368
X13.636 Y53.353
X13.655 Y53.338 Z-0.132 F50.
X13.673 Y53.322
X13.693 Y53.302
X13.711 Y53.283
X13.726 Y53.265
X13.74 Y53.248
X13.763 Y53.213
X13.78 Y53.182
X13.795 Y53.151
X13.807 Y53.12
X13.816 Y53.09
X13.824 Y53.059
X13.83 Y53.028
X13.833 Y52.997
X13.835 Y52.966
Y52.936
X13.833 Y52.905
X13.756 Y51.736 Z-0.133
X13.748 Y51.613
X13.744 Y51.582
X13.739 Y51.551
X13.544 Y50.505 Z-0.134
X13.497 Y50.259
X13.484 Y50.197
X13.475 Y50.167
X13.464 Y50.136
X13.412 Y50.013
X12.993 Y49.028 Z-0.135
X12.896 Y48.808
X12.882 Y48.782
X12.71 Y48.536
X12.535 Y48.29 Z-0.136
X12.471 Y48.2
X12.403 Y48.11
X12.341 Y48.044
X12.102 Y47.802
X11.962 Y47.659 F13.
X11.952 Y47.644
X12.194 Y47.137 Z-0.137 F50.
X12.213 Y47.098
X12.228 Y47.059
X12.238 Y47.028
X12.245 Y46.998
X12.251 Y46.967
X12.254 Y46.936
X12.28 Y46.69
X12.282 Y46.659
X12.281 Y46.628
X12.276 Y46.567
X12.257 Y46.382
X12.253 Y46.352
X12.247 Y46.321
X12.239 Y46.291
X12.229 Y46.26
X12.205 Y46.2 Z-0.138
X12.143 Y46.045
X12.068 Y45.859 F13.
X12.086 Y45.843
X12.529 Y45.485 F50.
X12.559 Y45.46
X12.589 Y45.432
X12.65 Y45.367
X12.677 Y45.336
X12.897 Y45.09 Z-0.139
X13.116 Y44.844
X13.143 Y44.81
X13.16 Y44.783
X13.176 Y44.757
X13.207 Y44.704
X13.267 Y44.598
X13.852 Y43.552 Z-0.14
X13.868 Y43.522
X13.882 Y43.491
X13.895 Y43.46
X13.905 Y43.429
X13.924 Y43.367
X13.997 Y43.121
X14.29 Y42.137 Z-0.141
X14.299 Y42.106
X14.305 Y42.075
X14.316 Y42.013
X14.526 Y40.783 Z-0.142
X14.531 Y40.752
X14.534 Y40.721
Y40.69
X14.533 Y40.66
X14.53 Y40.629
X14.525 Y40.598
X14.518 Y40.567
X14.509 Y40.537
X14.498 Y40.506 Z-0.143
X14.484 Y40.475
X14.468 Y40.444
X14.449 Y40.414
X14.433 Y40.392
X14.416 Y40.371
X14.397 Y40.349
X14.375 Y40.328
X14.346 Y40.303
X14.318 Y40.282 F13.
X14.289 Y40.263
X14.26 Y40.247
Y40.227
X14.375 Y40.071 F50.
X14.426 Y39.996
X14.467 Y39.921
X14.484 Y39.891
X14.498 Y39.86
X15.04 Y38.691 Z-0.144
X15.115 Y38.519
X15.129 Y38.482
X15.14 Y38.445
X15.548 Y37.029 Z-0.146
X15.557 Y36.998
X15.564 Y36.968
X15.568 Y36.937
X15.571 Y36.906
X15.572 Y36.875
Y36.845
X15.569 Y36.814
X15.564 Y36.783
X15.557 Y36.752
X15.549 Y36.722
X15.538 Y36.691
X15.524 Y36.66
X15.509 Y36.629
X15.49 Y36.598
X15.468 Y36.568
X15.442 Y36.537
X15.425 Y36.519
X15.408 Y36.503 F13.
X15.391 Y36.489
X15.375 Y36.475
X15.361 Y36.466
X15.346 Y36.449
X15.361 Y36.432
X15.541 Y36.229 F50.
X15.608 Y36.135
X15.62 Y36.116
X15.632 Y36.097
X16.287 Y34.999 Z-0.147
X16.347 Y34.896
X16.386 Y34.824 Z-0.148
X16.404 Y34.788
X16.419 Y34.752
X16.967 Y33.399 Z-0.149
X16.99 Y33.337
X16.999 Y33.306
X17.005 Y33.276
X17.01 Y33.245
X17.013 Y33.214
X17.014 Y33.183
X17.013 Y33.153
X17.01 Y33.122
X17.005 Y33.091
X16.998 Y33.06
X16.989 Y33.03
X16.979 Y33.002
X16.967 Y32.974
X16.953 Y32.946
X16.936 Y32.918
X16.917 Y32.89
X16.895 Y32.862
X16.87 Y32.834 F13.
X16.84 Y32.806
X16.823 Y32.783
X16.961 Y32.66 F50.
X17.026 Y32.599
X17.082 Y32.537 Z-0.15
X17.112 Y32.501
X17.136 Y32.471
X17.826 Y31.549
X18.003 Y31.307 Z-0.151
X18.041 Y31.249
X18.073 Y31.192
X18.731 Y29.953 Z-0.152
X18.763 Y29.891
X18.778 Y29.861
X18.789 Y29.83
X18.797 Y29.806
X18.803 Y29.782
X18.808 Y29.759
X18.812 Y29.735
X18.816 Y29.701
X18.817 Y29.666
X18.816 Y29.632
X18.812 Y29.598
X18.81 Y29.584
X18.804 Y29.553
X18.796 Y29.522
X18.785 Y29.491
X18.773 Y29.461
X18.757 Y29.43
X18.739 Y29.399 F13.
X18.718 Y29.368
X18.693 Y29.338
X18.688 Y29.322
X18.812 Y29.231 Z-0.153 F50.
X18.896 Y29.168
X18.98 Y29.091
X19.001 Y29.072
X19.021 Y29.05
X19.882 Y28.107 Z-0.154
X19.967 Y28.013
X20.045 Y27.92
X20.086 Y27.861
X20.908 Y26.63 Z-0.155
X20.926 Y26.599
X20.942 Y26.569
X20.955 Y26.538
X20.966 Y26.507
X20.975 Y26.476
X20.981 Y26.445
X20.986 Y26.415
X20.988 Y26.384
X20.989 Y26.353
X20.988 Y26.322
X20.985 Y26.292
X20.98 Y26.261
X20.973 Y26.23
X20.963 Y26.199
X20.952 Y26.169 Z-0.156
X20.938 Y26.138
X20.926 Y26.115
X20.913 Y26.092
X20.897 Y26.069
X20.88 Y26.046
X20.858 Y26.02
X20.832 Y25.993
X20.808 Y25.972
X20.784 Y25.954
X20.756 Y25.934
X20.728 Y25.918
X20.7 Y25.904
X20.672 Y25.892
X20.638 Y25.88
X20.605 Y25.871
X20.571 Y25.864
X20.538 Y25.86
X20.507 Y25.857
X20.476
X20.414 Y25.862
X19.552 Y25.957 Z-0.157
X19.305 Y25.987
X19.059 Y26.035 F13.
X19.036 Y26.013
X19.305 Y25.761 F50.
X19.365 Y25.703
X19.412 Y25.646 Z-0.158
X19.602 Y25.399
X19.798 Y25.145
X19.821 Y25.115
X19.841 Y25.085
X19.874 Y25.026
X19.938 Y24.907
X20.171 Y24.476 Z-0.159
X20.187 Y24.446
X20.201 Y24.415
X20.291 Y24.169
X20.448 Y23.738
X20.458 Y23.707
X20.466 Y23.676
X20.513 Y23.43
X20.749 Y22.2 Z-0.16
X20.76 Y22.138
X20.764 Y22.107 Z-0.161
X20.766 Y22.077
X20.765 Y22.046
X20.763 Y22.015
X20.759 Y21.984
X20.754 Y21.953
X20.746 Y21.923
X20.735 Y21.892
X20.723 Y21.861
X20.708 Y21.83
X20.691 Y21.8
X20.67 Y21.769
X20.646 Y21.738
X20.629 Y21.707
X20.624 Y21.672
X20.632 Y21.638
X20.65 Y21.608
X20.678 Y21.587
G0 Z5.
X20.8 Y21.731
Z1.93
G1 Z-0.161 F50.
X20.774 Y21.755
X20.742 Y21.769
X20.707 Y21.77
X20.673 Y21.76
X20.646 Y21.738
X20.627 Y21.718
X20.608 Y21.699
X20.588 Y21.681
X20.567 Y21.664
X20.544 Y21.648
X20.521 Y21.634
X20.498 Y21.62
X20.473 Y21.608
X20.448 Y21.598
X20.423 Y21.589
X20.397 Y21.581
X20.37 Y21.574
X20.344 Y21.569
X20.317 Y21.566
X20.29 Y21.564
X20.263 Y21.563
X20.235 Y21.564
X20.208 Y21.567
X20.181 Y21.571
X20.155 Y21.576
X20.128 Y21.583
X20.102 Y21.591
X20.052 Y21.611
X19.349 Y21.899 Z-0.162
X19.324 Y21.91
X19.3 Y21.922
X19.252 Y21.947
X18.677 Y22.254
X18.63 Y22.281 Z-0.163
X18.585 Y22.312
X18.497 Y22.375
X18.099 Y22.658
X18.056 Y22.691
X18.035 Y22.709
X18.016 Y22.728
X17.977 Y22.766
X17.589 Y23.146 Z-0.164
X17.571 Y23.166
X17.553 Y23.187
X17.52 Y23.23
X17.394 Y23.407
X17.205 Y23.672
X17.174 Y23.716
X17.16 Y23.74
X17.147 Y23.764
X17.053 Y23.959
X16.959 Y24.155 Z-0.165 F13.
X16.942 Y24.135
X16.828 Y23.765 F50.
X16.7 Y23.35
X16.667 Y23.246
X16.657 Y23.221
X16.647 Y23.196
X16.634 Y23.172
X16.621 Y23.149
X16.606 Y23.126
X16.59 Y23.104
X16.573 Y23.083
X16.554 Y23.063
X16.535 Y23.044
X16.514 Y23.026
X16.493 Y23.009 Z-0.166
X16.471 Y22.993
X16.448 Y22.979
X16.424 Y22.966
X16.399 Y22.954
X16.374 Y22.943
X16.349 Y22.934
X16.323 Y22.927
X16.296 Y22.92
X16.27 Y22.916
X16.243 Y22.912
X16.216 Y22.91
X16.189
X16.161 Y22.911
X16.134 Y22.914
X16.107 Y22.918
X16.081 Y22.923
X16.055 Y22.93
X16.029 Y22.938
X16.003 Y22.948
X15.978 Y22.959
X15.954 Y22.971
X15.931 Y22.985
X15.908 Y23.
X15.886 Y23.016
X15.865 Y23.034
X15.845 Y23.052
X15.826 Y23.072
X15.809 Y23.092
X15.792 Y23.113
X15.73 Y23.202
X15.483 Y23.559 Z-0.167
X15.023 Y24.296
X14.505 Y25.125 Z-0.168
X14.478 Y25.172
X14.466 Y25.197
X14.455 Y25.222
X14.381 Y25.426
X14.233 Y25.834 Z-0.169
X14.159 Y26.038
X14.123 Y26.14
X14.109 Y26.193
X14.103 Y26.219
X14.099 Y26.246
X14.053 Y26.624
X14.029 Y26.822 F13.
X14. Y26.801
X13.97 Y26.78
X13.939 Y26.761 F50.
X13.906 Y26.744
X13.87 Y26.729
X13.833 Y26.717
X13.795 Y26.708 Z-0.17
X13.756 Y26.702
X13.729 Y26.699
X13.702 Y26.698
X13.675 Y26.699
X13.648 Y26.701
X13.621 Y26.704
X13.594 Y26.709
X13.568 Y26.715
X13.541 Y26.723
X13.516 Y26.732
X13.491 Y26.743
X13.466 Y26.754
X13.443 Y26.767
X13.42 Y26.782
X13.397 Y26.798
X13.376 Y26.814
X13.356 Y26.832
X13.336 Y26.851
X13.318 Y26.872
X13.301 Y26.893
X13.285 Y26.915
X13.27 Y26.937
X13.256 Y26.961
X13.126 Y27.199
X12.924 Y27.583 Z-0.171
X12.265 Y28.892 Z-0.172
X12.253 Y28.917
X12.243 Y28.942
X12.21 Y29.046
X12.178 Y29.149
X11.988 Y29.772
X11.974 Y29.825
X11.969 Y29.852
X11.966 Y29.879 Z-0.173
X11.896 Y30.541
X11.875 Y30.74 F13.
X11.839 Y30.754
X11.808 Y30.743
X11.777 Y30.734
X11.75 Y30.729 F50.
X11.723 Y30.724
X11.696 Y30.721
X11.669 Y30.72
X11.642
X11.615 Y30.722
X11.588 Y30.725
X11.561 Y30.729
X11.535 Y30.735
X11.509 Y30.742
X11.483 Y30.751
X11.458 Y30.761 Z-0.174
X11.433 Y30.773
X11.409 Y30.785
X11.386 Y30.8
X11.364 Y30.815
X11.342 Y30.831
X11.321 Y30.849
X11.302 Y30.868
X11.283 Y30.888
X11.265 Y30.909
X11.249 Y30.931
X11.234 Y30.953
X11.22 Y30.977
X11.207 Y31.001
X11.196 Y31.025
X11.134 Y31.175
X10.968 Y31.576
X10.475 Y32.841 Z-0.175
X10.456 Y32.892
X10.442 Y32.945
X10.378 Y33.208 Z-0.176
X10.275 Y33.63
X10.264 Y33.683
X10.26 Y33.71
X10.258 Y33.737
X10.229 Y34.062
X10.192 Y34.495 Z-0.177
X10.191 Y34.522
X10.192 Y34.549
X10.197 Y34.603
X10.208 Y34.728
X10.226 Y34.927 F13.
X10.214 Y34.964
X10.178 Y34.952
X10.151 Y34.945
X10.125 Y34.94 F50.
X10.099 Y34.937
X10.074 Y34.935
X10.048 Y34.934
X10.023
X9.997 Y34.936
X9.972 Y34.939
X9.947 Y34.943
X9.922 Y34.949
X9.897 Y34.956
X9.873 Y34.964
X9.849 Y34.973
X9.826 Y34.984
X9.802 Y34.996
X9.778 Y35.01
X9.756 Y35.025
X9.734 Y35.041
X9.713 Y35.059
X9.693 Y35.077
X9.675 Y35.097
X9.657 Y35.117
X9.64 Y35.139
X9.625 Y35.161 Z-0.178
X9.611 Y35.184
X9.598 Y35.208
X9.586 Y35.233
X9.576 Y35.258
X9.559 Y35.31
X9.434 Y35.725
X9.314 Y36.143
X9.075 Y36.978 Z-0.179
X9.069 Y37.004
X9.063 Y37.031
X9.056 Y37.085
X8.962 Y37.839 Z-0.18
X8.909 Y38.27
X8.903 Y38.324
X8.901 Y38.351
Y38.379
X8.905 Y38.433
X8.976 Y39.186 Z-0.181
X8.983 Y39.237
X8.993 Y39.287 F13.
X9. Y39.312
X9.007 Y39.336
X8.992 Y39.367
X8.959 Y39.359
X8.933 Y39.356
X8.906 Y39.353 F50.
X8.881 Y39.352
X8.855
X8.829 Y39.354
X8.804 Y39.356
X8.777 Y39.361
X8.751 Y39.367
X8.725 Y39.374
X8.699 Y39.383
X8.674 Y39.393
X8.649 Y39.404
X8.625 Y39.417
X8.602 Y39.431
X8.579 Y39.446
X8.558 Y39.462
X8.537 Y39.48
X8.517 Y39.499
X8.499 Y39.519
X8.481 Y39.539
X8.465 Y39.561
X8.45 Y39.583
X8.436 Y39.607
X8.423 Y39.631
X8.412 Y39.656
X8.402 Y39.681
X8.393 Y39.707
X8.386 Y39.733
X8.375 Y39.786 Z-0.182
X8.334 Y39.999
X8.253 Y40.426
X8.115 Y41.173 Z-0.183
X8.096 Y41.28
X8.087 Y41.388
X8.011 Y42.308
X8.01 Y42.335 Z-0.184
X8.011 Y42.363
X8.027 Y42.579
X8.064 Y43.066
X8.067 Y43.093
X8.071 Y43.12
X8.095 Y43.226
X8.147 Y43.437
X8.253 Y43.858 Z-0.185
X8.26 Y43.884
X8.269 Y43.91
X8.288 Y43.961
X8.421 Y44.258
X8.599 Y44.654
X8.623 Y44.703
X8.65 Y44.75
X8.71 Y44.841 Z-0.186
X8.907 Y45.138
X9.017 Y45.305 F13.
X9.035 Y45.332
X8.723 Y45.722 F50.
X8.707 Y45.744
X8.692 Y45.767
X8.678 Y45.791
X8.666 Y45.815
X8.655 Y45.84 Z-0.187
X8.646 Y45.865
X8.637 Y45.891
X8.631 Y45.918
X8.581 Y46.128
X8.483 Y46.552
X8.479 Y46.578
X8.476 Y46.606
X8.475 Y46.633
Y46.66
X8.476 Y46.687
X8.479 Y46.714
X8.489 Y46.768
X8.531 Y46.98
X8.595 Y47.299 Z-0.188
X8.601 Y47.326
X8.609 Y47.352
X8.618 Y47.377
X8.628 Y47.403
X8.64 Y47.427
X8.653 Y47.451
X8.682 Y47.497
X8.787 Y47.652
X8.898 Y47.818 F13.
X8.89 Y47.849
X8.335 Y48.529 Z-0.189 F50.
X8.302 Y48.572
X8.287 Y48.595
X8.273 Y48.618
X8.174 Y48.811
X7.827 Y49.487 Z-0.19
X7.815 Y49.512
X7.805 Y49.537
X7.796 Y49.563
X7.788 Y49.589
X7.565 Y50.428
X7.553 Y50.481
X7.548 Y50.508 Z-0.191
X7.545 Y50.535
X7.488 Y51.293
X7.481 Y51.401
Y51.428
X7.482 Y51.456
X7.554 Y52.593 Z-0.192
X7.586 Y53.027
X7.613 Y53.351 Z-0.193
X7.617 Y53.378
X7.621 Y53.405
X7.628 Y53.431
X7.635 Y53.457
X7.644 Y53.483
X7.654 Y53.508
X7.666 Y53.533
X7.679 Y53.556
X7.693 Y53.579
X7.709 Y53.602
X7.726 Y53.623
X7.744 Y53.644
X7.762 Y53.663
X7.782 Y53.681
X7.803 Y53.699
X7.825 Y53.715
X7.848 Y53.73
X7.871 Y53.743
X7.895 Y53.756
X7.92 Y53.767
X7.96 Y53.781
X8.001 Y53.793
X8.043 Y53.8
X8.086 Y53.804
X8.133
X8.181 Y53.8 F13.
X8.223 Y53.792
X8.265 Y53.796
X8.138 Y54.186 Z-0.194 F50.
X8.121 Y54.237
X8.109 Y54.29
X8.104 Y54.317
X8.101 Y54.344
X8.016 Y55.209 Z-0.195
X8.012 Y55.263
Y55.29
X8.014 Y55.317
X8.036 Y55.588
X8.094 Y56.291
X8.099 Y56.345
X8.118 Y56.452
X8.277 Y57.306 Z-0.196
X8.379 Y57.839 Z-0.197
X8.39 Y57.892
X8.398 Y57.918
X8.407 Y57.943
X8.417 Y57.968
X8.429 Y57.993
X8.442 Y58.017
X8.456 Y58.04
X8.472 Y58.062
X8.489 Y58.084
X8.507 Y58.104
X8.526 Y58.124
X8.546 Y58.142
X8.567 Y58.159
X8.589 Y58.175
X8.612 Y58.19
X8.635 Y58.204
X8.659 Y58.216
X8.684 Y58.227
X8.71 Y58.236
X8.736 Y58.244
X8.762 Y58.251
X8.788 Y58.257
X8.815 Y58.26
X8.842 Y58.263
X8.87 Y58.264
X8.897 Y58.263 F13.
X8.924 Y58.261
X8.961 Y58.256
X8.979 Y58.289
X8.973 Y58.319
X8.968 Y58.35
X8.941 Y58.638 Z-0.198 F50.
X8.9 Y59.07
X8.891 Y59.178
Y59.205
X8.892 Y59.233
X8.899 Y59.287
X8.925 Y59.502
X9.045 Y60.472 Z-0.199
X9.052 Y60.526
X9.058 Y60.552
X9.064 Y60.579
X9.361 Y61.623 Z-0.2
X9.485 Y62.039
X9.547 Y62.247
X9.564 Y62.298
X9.574 Y62.324
X9.585 Y62.348
X9.598 Y62.372
X9.612 Y62.396
X9.628 Y62.418 Z-0.201
X9.644 Y62.44
X9.662 Y62.46
X9.681 Y62.48
X9.701 Y62.499
X9.721 Y62.516
X9.743 Y62.532
X9.766 Y62.548
X9.789 Y62.561
X9.813 Y62.574
X9.838 Y62.585
X9.863 Y62.595
X9.889 Y62.604
X9.915 Y62.611
X9.941 Y62.616
X9.968 Y62.621
X9.995 Y62.623
X10.022 Y62.625
X10.072 Y62.623
X10.121 Y62.617 F13.
X10.159 Y62.608
X10.198 Y62.61
X10.165 Y62.974 F50.
X10.162 Y63.028
Y63.056
X10.164 Y63.083
X10.182 Y63.299 Z-0.202
X10.23 Y63.84
X10.233 Y63.867
X10.238 Y63.894
X10.25 Y63.947
X10.302 Y64.157
X10.418 Y64.632 Z-0.203
X10.425 Y64.658
X10.434 Y64.684
X10.473 Y64.785
X10.869 Y65.796 Z-0.204
X11.03 Y66.2
X11.155 Y66.5
X11.176 Y66.55
X11.189 Y66.575
X11.202 Y66.598
X11.217 Y66.621
X11.233 Y66.643
X11.25 Y66.664
X11.269 Y66.684
X11.288 Y66.703
X11.309 Y66.721
X11.33 Y66.737
X11.352 Y66.753
X11.375 Y66.767
X11.399 Y66.78
X11.424 Y66.792
X11.449 Y66.802
X11.474 Y66.811 Z-0.205
X11.5 Y66.819
X11.527 Y66.825
X11.553 Y66.83
X11.597 Y66.835
X11.641
X11.684 Y66.832
X11.727 Y66.826
X11.757 Y66.819 F13.
X11.786 Y66.81
X11.82 Y66.797
X11.846 Y66.822
X11.927 Y67.588 F50.
X11.938 Y67.696 Z-0.206
X11.943 Y67.723
X11.949 Y67.749
X11.964 Y67.801
X12.202 Y68.58
X12.21 Y68.606
X12.22 Y68.632
X12.268 Y68.729
X12.804 Y69.796 Z-0.207
X13.001 Y70.184 Z-0.208
X13.21 Y70.564
X13.236 Y70.612
X13.25 Y70.635
X13.266 Y70.657
X13.283 Y70.678
X13.301 Y70.699
X13.32 Y70.718
X13.34 Y70.737
X13.36 Y70.754
X13.382 Y70.77
X13.405 Y70.785
X13.429 Y70.798
X13.453 Y70.811
X13.478 Y70.822
X13.503 Y70.831
X13.529 Y70.84
X13.555 Y70.846
X13.582 Y70.852
X13.609 Y70.856
X13.636 Y70.858
X13.663 Y70.859
X13.69
X13.717 Y70.857
X13.744 Y70.853
X13.771 Y70.848
X13.797 Y70.842
X13.823 Y70.834 Z-0.209
X13.849 Y70.825
X13.874 Y70.815
X13.898 Y70.803
X13.922 Y70.789
X13.945 Y70.775
X13.967 Y70.759
X13.988 Y70.742
X14.009 Y70.724
X14.028 Y70.705
X14.047 Y70.685
X14.064 Y70.664
X14.08 Y70.642
X14.095 Y70.619
X14.108 Y70.595
X14.12 Y70.571
X14.142 Y70.522
X14.396 Y69.95
X14.477 Y69.767 Z-0.21 F13.
X14.496 Y69.722
X14.532 Y69.689
X14.604 Y69.894 F50.
X14.676 Y70.099
X14.686 Y70.124
X14.697 Y70.149
X14.723 Y70.197
X14.883 Y70.48
X14.99 Y70.669
X15.017 Y70.716 Z-0.211
X15.033 Y70.739
X15.049 Y70.761
X15.118 Y70.844
X15.395 Y71.179
X15.465 Y71.262
X15.483 Y71.282
X15.503 Y71.3
X15.87 Y71.623
X15.993 Y71.73 Z-0.212
X16.014 Y71.748
X16.035 Y71.764
X16.396 Y72.007
X16.576 Y72.127
X16.666 Y72.188
X16.762 Y72.24
X17.335 Y72.548 Z-0.213
X17.431 Y72.598
X17.457 Y72.609
X17.482 Y72.618
X17.508 Y72.626
X17.535 Y72.632
X17.562 Y72.637
X17.588 Y72.64
X17.616 Y72.642
X17.643 Y72.643
X17.67 Y72.642
X17.697 Y72.639
X17.724 Y72.635
X17.75 Y72.63
X17.777 Y72.623
X17.802 Y72.615
X17.828 Y72.605
X17.853 Y72.594
X17.877 Y72.582
X17.9 Y72.568
X17.923 Y72.553
X17.945 Y72.537
X17.966 Y72.52
X17.986 Y72.502
X18.005 Y72.482
X18.023 Y72.462
X18.039 Y72.44
X18.055 Y72.418
X18.069 Y72.395
X18.082 Y72.371
X18.094 Y72.347 Z-0.214
X18.104 Y72.322
X18.113 Y72.296
X18.121 Y72.27
X18.127 Y72.244
X18.132 Y72.217
X18.135 Y72.19
X18.137 Y72.163
Y72.136
X18.136 Y72.108
X18.123 Y71.946
X18.012 Y70.648 Z-0.215
X18.002 Y70.54
X17.993 Y70.486
X17.98 Y70.434
X17.874 Y70.012
X17.82 Y69.802 Z-0.216
X17.804 Y69.75
X17.785 Y69.699
X17.743 Y69.599
X17.577 Y69.198
X17.534 Y69.098
X17.51 Y69.049
X17.483 Y69.002
X17.369 Y68.818
X17.138 Y68.45 Z-0.217
X17.108 Y68.405
X17.074 Y68.362
X16.97 Y68.243
X16.839 Y68.092 F13.
X16.835 Y68.06
X17.027 Y68.118 F50.
X17.188 Y68.161
X18.195 Y68.38 Z-0.218
X18.222 Y68.385
X18.249 Y68.389
X18.276 Y68.391
X18.303
X18.33 Y68.39
X18.357 Y68.388
X18.384 Y68.384
X18.411 Y68.378
X18.437 Y68.372
X18.463 Y68.363
X18.489 Y68.354
X18.514 Y68.343
X18.538 Y68.33
X18.561 Y68.317
X18.584 Y68.302
X18.606 Y68.286 Z-0.219
X18.627 Y68.268
X18.647 Y68.25
X18.666 Y68.231
X18.684 Y68.21
X18.7 Y68.189
X18.716 Y68.167
X18.73 Y68.144
X18.743 Y68.12
X18.755 Y68.095
X18.765 Y68.07
X18.775 Y68.045
X18.782 Y68.019
X18.788 Y67.992
X18.793 Y67.965
X18.796 Y67.938
X18.798 Y67.911
X18.799 Y67.884
X18.797 Y67.857
X18.795 Y67.83
X18.791 Y67.803
X18.785 Y67.777
X18.778 Y67.75
X18.77 Y67.725
X18.76 Y67.699
X18.749 Y67.674
X18.737 Y67.65
X18.075 Y66.404 Z-0.22
X18.023 Y66.308
X17.994 Y66.262
X17.901 Y66.128
X17.642 Y65.78 Z-0.221
X17.154 Y65.128
X17.12 Y65.086
X17.049 Y65.003
X16.974 Y64.924 Z-0.222
X16.893 Y64.851
X16.811 Y64.779 F13.
X16.818 Y64.751
X16.839 Y64.732
X16.858 Y64.713
X16.875 Y64.693 F50.
X16.892 Y64.672
X16.907 Y64.65
X16.922 Y64.627
X16.935 Y64.604
X16.946 Y64.58
X16.957 Y64.555
X16.966 Y64.529
X16.974 Y64.504
X16.98 Y64.477
X16.985 Y64.451
X16.989 Y64.424
X16.991 Y64.397
Y64.37
X16.99 Y64.343
X16.988 Y64.316
X16.984 Y64.289
X16.979 Y64.262
X16.972 Y64.236
X16.964 Y64.21
X16.954 Y64.184
X16.466 Y62.977 Z-0.223
X16.426 Y62.876
X16.384 Y62.776
X16.335 Y62.679 Z-0.224
X16.283 Y62.584
X16.173 Y62.396
X15.644 Y61.511 Z-0.225
X15.63 Y61.488
X15.615 Y61.465
X15.553 Y61.376
X15.487 Y61.29
X15.418 Y61.212
X15.348 Y61.134 F13.
Y61.104
X15.373 Y61.087
X15.394 Y61.071
X15.414 Y61.054 F50.
X15.433 Y61.036
X15.451 Y61.017
X15.468 Y60.997
X15.484 Y60.976
X15.499 Y60.953
X15.513 Y60.93
X15.526 Y60.906
X15.537 Y60.881
X15.547 Y60.856
X15.556 Y60.83
X15.563 Y60.804
X15.569 Y60.778
X15.573 Y60.751
X15.576 Y60.724
X15.577 Y60.697
Y60.67
X15.576 Y60.643
X15.573 Y60.616
X15.568 Y60.589
X15.562 Y60.562
X15.443 Y60.145 Z-0.226
X15.143 Y59.101 Z-0.227
X15.125 Y59.05
X15.105 Y58.999
X15.063 Y58.899
X14.883 Y58.504
X14.53 Y57.741 Z-0.228
X14.517 Y57.716
X14.465 Y57.621
X14.41 Y57.528
X14.348 Y57.439
X14.262 Y57.321 F13.
X14.289 Y57.296
X14.312 Y57.281
X14.335 Y57.265
X14.373 Y57.234 F50.
X14.409 Y57.198
X14.44 Y57.16
X14.467 Y57.118
X14.49 Y57.074
X14.509 Y57.028
X14.517 Y57.002 Z-0.229
X14.524 Y56.976
X14.529 Y56.949
X14.533 Y56.922
X14.535 Y56.895
X14.536 Y56.868
Y56.841
X14.534 Y56.813
X14.526 Y56.76
X14.269 Y55.317 Z-0.23
X14.258 Y55.264
X14.244 Y55.212
X14.213 Y55.108
X14.147 Y54.901
X13.865 Y54.079 Z-0.231
X13.795 Y53.874
X13.753 Y53.773
X13.71 Y53.674
X13.666 Y53.592
X13.556 Y53.403 F13.
X13.584 Y53.387
X13.611 Y53.371
X13.637 Y53.352
X13.662 Y53.332 Z-0.232 F50.
X13.682 Y53.314
X13.701 Y53.295
X13.719 Y53.274
X13.736 Y53.253
X13.751 Y53.231
X13.766 Y53.208
X13.779 Y53.184
X13.791 Y53.16
X13.801 Y53.135
X13.81 Y53.109
X13.818 Y53.083
X13.824 Y53.057
X13.829 Y53.03
X13.833 Y53.003
X13.835 Y52.976
Y52.949
X13.807 Y52.515
X13.751 Y51.649 Z-0.233
X13.746 Y51.594
X13.738 Y51.541
X13.598 Y50.794 Z-0.234
X13.518 Y50.367
X13.497 Y50.26
X13.487 Y50.207
X13.472 Y50.155
X13.463 Y50.129
X13.453 Y50.104
X13.049 Y49.155 Z-0.235
X12.918 Y48.856
X12.896 Y48.807
X12.882 Y48.783
X12.868 Y48.76
X12.618 Y48.405 Z-0.236
X12.491 Y48.228
X12.427 Y48.141
X12.393 Y48.098
X12.356 Y48.059
X12.114 Y47.813
X11.974 Y47.67 F13.
X11.951 Y47.644
X12.17 Y47.188 Z-0.237 F50.
X12.216 Y47.089
X12.226 Y47.064
X12.235 Y47.038
X12.242 Y47.012
X12.248 Y46.985
X12.255 Y46.931
X12.277 Y46.716
X12.282 Y46.661
Y46.634
X12.28 Y46.607
X12.275 Y46.553
X12.258 Y46.391
X12.255 Y46.364
X12.251 Y46.337
X12.245 Y46.311
X12.237 Y46.285
X12.218 Y46.234
X12.147 Y46.054 Z-0.238
X12.072 Y45.869 F13.
X12.089 Y45.841
X12.514 Y45.498 F50.
X12.556 Y45.463
X12.595 Y45.426
X12.669 Y45.346
X12.815 Y45.185 Z-0.239
X13.103 Y44.86
X13.137 Y44.818
X13.153 Y44.795
X13.167 Y44.772
X13.33 Y44.49
X13.542 Y44.111 Z-0.24
X13.833 Y43.59
X13.859 Y43.542
X13.881 Y43.493
X13.901 Y43.442
X13.932 Y43.338
X14.057 Y42.922 Z-0.241
X14.274 Y42.194
X14.302 Y42.089
X14.312 Y42.035
X14.523 Y40.804 Z-0.242
X14.531 Y40.751
X14.534 Y40.724
Y40.697
Y40.67
X14.532 Y40.643
X14.528 Y40.616
X14.523 Y40.589
X14.517 Y40.563
X14.509 Y40.537
X14.5 Y40.511 Z-0.243
X14.489 Y40.486
X14.477 Y40.462
X14.464 Y40.438
X14.45 Y40.415
X14.434 Y40.393
X14.418 Y40.373
X14.401 Y40.354
X14.383 Y40.335
X14.364 Y40.318
X14.345 Y40.302
X14.324 Y40.286 F13.
X14.303 Y40.272
X14.281 Y40.259
X14.259 Y40.232
X14.372 Y40.077 F50.
X14.402 Y40.032
X14.431 Y39.986
X14.51 Y39.843
X14.523 Y39.819
X14.535 Y39.795
X14.946 Y38.908 Z-0.244
X15.035 Y38.711
X15.077 Y38.611
X15.119 Y38.51
X15.151 Y38.407
X15.542 Y37.051 Z-0.245
X15.557 Y36.998 Z-0.246
X15.563 Y36.972
X15.567 Y36.945
X15.57 Y36.918
X15.572 Y36.891
Y36.863
X15.571 Y36.836
X15.568 Y36.809
X15.564 Y36.782
X15.558 Y36.756
X15.551 Y36.73
X15.543 Y36.704
X15.533 Y36.679
X15.521 Y36.654
X15.509 Y36.63
X15.495 Y36.607
X15.48 Y36.584
X15.464 Y36.562
X15.446 Y36.542
X15.427 Y36.522
X15.408 Y36.503 F13.
X15.387 Y36.485
X15.366 Y36.469
X15.357 Y36.439
X15.483 Y36.3 F50.
X15.548 Y36.22
X15.607 Y36.136
X15.669 Y36.047
X15.724 Y35.953
X16.058 Y35.394 Z-0.247
X16.28 Y35.021
X16.384 Y34.83
X16.407 Y34.781 Z-0.248
X16.428 Y34.731
X16.978 Y33.372 Z-0.249
X16.987 Y33.346
X16.995 Y33.32
X17.002 Y33.294
X17.007 Y33.267
X17.011 Y33.241
X17.013 Y33.214
X17.014 Y33.186
X17.013 Y33.159
X17.011 Y33.132
X17.007 Y33.105
X17.002 Y33.078
X16.996 Y33.052
X16.988 Y33.026
X16.978 Y33.001
X16.959 Y32.958
X16.936 Y32.917
X16.909 Y32.879
X16.879 Y32.844 F13.
X16.853 Y32.818
X16.826 Y32.795
X16.846 Y32.765
X16.95 Y32.672 F50.
X17.028 Y32.597
X17.1 Y32.515 Z-0.25
X17.171 Y32.433
X17.237 Y32.347
X17.758 Y31.651
X18.01 Y31.298 Z-0.251
X18.039 Y31.252
X18.066 Y31.205
X18.753 Y29.911 Z-0.252
X18.777 Y29.862
X18.787 Y29.836
X18.796 Y29.811
X18.803 Y29.784
X18.809 Y29.758
X18.813 Y29.731
X18.815 Y29.704
X18.817 Y29.677
Y29.65
X18.815 Y29.622
X18.812 Y29.595
X18.807 Y29.569
X18.801 Y29.542
X18.794 Y29.516
X18.785 Y29.49
X18.775 Y29.465
X18.763 Y29.441
X18.75 Y29.417
X18.736 Y29.394 F13.
X18.721 Y29.371
X18.704 Y29.35
X18.696 Y29.318
X18.85 Y29.206 Z-0.253 F50.
X18.929 Y29.14
X19.003 Y29.069
X19.081 Y28.994
X19.155 Y28.914
X19.594 Y28.433
X19.885 Y28.111 Z-0.254
X19.956 Y28.028
X20.025 Y27.945
X20.089 Y27.857
X20.903 Y26.638 Z-0.255
X20.917 Y26.615
X20.931 Y26.591
X20.943 Y26.567
X20.954 Y26.542
X20.963 Y26.516
X20.971 Y26.491
X20.977 Y26.464
X20.982 Y26.437
X20.986 Y26.411
X20.988 Y26.383
X20.989 Y26.356
X20.988 Y26.329
X20.986 Y26.302
X20.982 Y26.275
X20.977 Y26.248
X20.97 Y26.222
X20.962 Y26.196
X20.953 Y26.171
X20.942 Y26.146 Z-0.256
X20.93 Y26.122
X20.917 Y26.098
X20.902 Y26.075
X20.886 Y26.053
X20.869 Y26.032
X20.851 Y26.012
X20.831 Y25.993
X20.811 Y25.975
X20.79 Y25.958
X20.768 Y25.942
X20.745 Y25.928
X20.721 Y25.914
X20.697 Y25.902
X20.672 Y25.892
X20.646 Y25.882
X20.62 Y25.875
X20.593 Y25.868
X20.567 Y25.863
X20.54 Y25.86
X20.513 Y25.858
X20.485 Y25.857
X20.458 Y25.858
X20.431 Y25.86
X19.46 Y25.967 Z-0.257
X19.236 Y26.
X19.014 Y26.043 F13.
X19.03 Y26.019
X19.179 Y25.879 F50.
X19.349 Y25.719
X19.368 Y25.7
X19.386 Y25.679
X19.419 Y25.636 Z-0.258
X19.486 Y25.55
X19.751 Y25.207
X19.817 Y25.12
X19.832 Y25.098
X19.847 Y25.075
X19.873 Y25.028
X20.08 Y24.645
X20.183 Y24.454 Z-0.259
X20.194 Y24.43
X20.205 Y24.405
X20.224 Y24.354
X20.261 Y24.252
X20.447 Y23.742
X20.455 Y23.716
X20.463 Y23.69
X20.474 Y23.636
X20.678 Y22.57 Z-0.26
X20.759 Y22.143
X20.763 Y22.116
X20.765 Y22.089 Z-0.261
X20.766 Y22.062
X20.765 Y22.035
X20.763 Y22.008
X20.759 Y21.981
X20.754 Y21.955
X20.747 Y21.928
X20.739 Y21.902
X20.73 Y21.877
X20.719 Y21.852
X20.707 Y21.828
X20.693 Y21.804
X20.679 Y21.781
X20.663 Y21.759
X20.646 Y21.738
X20.611 Y21.702
X20.591 Y21.684
X20.57 Y21.667
X20.548 Y21.651
X20.525 Y21.636
X20.502 Y21.623
X20.478 Y21.61
X20.453 Y21.6
X20.427 Y21.59
X20.402 Y21.582
X20.375 Y21.576
X20.349 Y21.57
X20.322 Y21.567
X20.295 Y21.564
X20.268 Y21.563
X20.241 Y21.564
X20.214 Y21.566
X20.187 Y21.57
X20.16 Y21.575
X20.134 Y21.581
X20.108 Y21.589
X20.007 Y21.629
X19.406 Y21.876 Z-0.262
X19.307 Y21.918
X19.211 Y21.969
X18.829 Y22.172
X18.685 Y22.249
X18.638 Y22.275
X18.594 Y22.306 Z-0.263
X18.461 Y22.4
X18.108 Y22.651
X18.065 Y22.684
X18.044 Y22.701
X18.024 Y22.719
X17.947 Y22.795
X17.599 Y23.137 Z-0.264
X17.562 Y23.176
X17.545 Y23.197
X17.528 Y23.219
X17.497 Y23.263
X17.371 Y23.439
X17.183 Y23.703
X17.168 Y23.726
X17.154 Y23.75
X17.13 Y23.798
X17.003 Y24.063 F13.
X16.982 Y24.108
X16.946 Y24.143 Z-0.265
X16.818 Y23.729 F50.
X16.673 Y23.264
X16.664 Y23.238
X16.654 Y23.213
X16.643 Y23.189
X16.63 Y23.165
X16.616 Y23.142
X16.601 Y23.119
X16.585 Y23.097
X16.567 Y23.077
X16.549 Y23.057
X16.529 Y23.038
X16.508 Y23.021
X16.487 Y23.004
X16.464 Y22.989
X16.441 Y22.975 Z-0.266
X16.417 Y22.962
X16.393 Y22.951
X16.368 Y22.941
X16.342 Y22.932
X16.316 Y22.925
X16.29 Y22.919
X16.263 Y22.915
X16.236 Y22.912
X16.209 Y22.91
X16.182
X16.155 Y22.912
X16.128 Y22.914
X16.101 Y22.919
X16.075 Y22.924
X16.049 Y22.932
X16.023 Y22.94
X15.998 Y22.95
X15.973 Y22.962
X15.949 Y22.974
X15.926 Y22.988
X15.903 Y23.004
X15.882 Y23.02
X15.861 Y23.038
X15.841 Y23.056
X15.823 Y23.076
X15.805 Y23.096
X15.773 Y23.14
X15.712 Y23.229
X15.466 Y23.586 Z-0.267
X14.549 Y25.056 Z-0.268
