(1001)
(T1  D=0.8 CR=0. - ZMIN=-0.781 - FLAT END MILL)
G0 G90 G94 G17
G21
G53 G0 Z0.

(0.8MM  FLATEND  CONTOUR WORDS)
M5
M9
T1
S12000 M3
G4 P4.
G55
G0 X17.6 Y76.727
Z15.
Z1.011
G1 Z-0.081 F50.
X17.604 Y76.731 Z-0.111
X17.617 Y76.743 Z-0.137
X17.637 Y76.76 Z-0.155
X17.66 Y76.78 Z-0.161
X17.709 Y76.821
X17.728 Y76.846
X17.737 Y76.876
X17.733 Y76.907
X17.718 Y76.934
X17.702 Y76.955
X17.688 Y76.976
X17.676 Y76.996
X17.665 Y77.017
X17.656 Y77.038
X17.648 Y77.058
X17.642 Y77.079
X17.636 Y77.1
X17.631 Y77.127
X17.628 Y77.154
X17.627 Y77.182
Y77.209
X17.63 Y77.237
X17.634 Y77.264
X17.64 Y77.291
X17.649 Y77.319
X17.661 Y77.349
X17.676 Y77.38
X17.685 Y77.396
X17.695 Y77.411
X17.705 Y77.426
X17.718 Y77.442
X17.808 Y77.537
X19.712 Y79.506
X19.736 Y79.531
X19.76 Y79.551
X19.785 Y79.569
X19.809 Y79.584
X19.833 Y79.597
X19.857 Y79.608
X19.882 Y79.616
X19.906 Y79.624
X19.933 Y79.63
X19.961 Y79.634
X19.988 Y79.636
X20.015 Y79.637
X20.043 Y79.635
X20.07 Y79.632
X20.097 Y79.627
X20.125 Y79.619
X20.147 Y79.612
X20.17 Y79.603
X20.192 Y79.592
X20.214 Y79.579
X20.237 Y79.565
X20.259 Y79.548
X20.282 Y79.528
X20.344 Y79.468
X20.39 Y79.423
X20.412 Y79.4
X20.43 Y79.378
X20.447 Y79.355
X20.461 Y79.333
X20.473 Y79.31
X20.483 Y79.288
X20.493 Y79.26
X20.501 Y79.233
X20.507 Y79.205
X20.511 Y79.178
X20.513 Y79.151
X20.514 Y79.123
X20.512 Y79.096
X20.509 Y79.069
X20.503 Y79.041
X20.496 Y79.014
X20.486 Y78.987
X20.474 Y78.959
X20.46 Y78.932
X20.442 Y78.905
X20.4 Y78.85
X20.215 Y78.618 F13.
X20.206 Y78.604
X20.2 Y78.577
X20.206 Y78.563
X20.235 Y78.508
X20.245 Y78.494 F50.
X20.344 Y78.391
X20.535 Y78.194
X22.563 Y76.198
X22.577 Y76.186
X22.844 Y75.972
X22.865 Y75.962
X23.079 Y75.882 F13.
X23.093 Y75.883
X23.298 Y75.914
X23.312 Y75.916
X23.626 Y76.146 F50.
X23.642 Y76.166
X23.778 Y76.391
X23.881 Y76.562 F13.
X23.882 Y76.582
X23.89 Y76.923 F50.
X23.889 Y76.944
X23.733 Y77.319
X23.725 Y77.336
X23.711 Y77.354
X23.429 Y77.704
X23.407 Y77.728
X21.824 Y79.288
X21.657 Y79.45
X21.424 Y79.661
X21.41 Y79.669
X21.328 Y79.711 F13.
X21.315 Y79.715
X21.287 Y79.71
X21.274 Y79.705
X21.029 Y79.506 F50.
X21. Y79.484
X20.973 Y79.467
X20.945 Y79.452
X20.918 Y79.44
X20.891 Y79.431
X20.863 Y79.423
X20.836 Y79.418
X20.809 Y79.414
X20.781 Y79.412
X20.754 Y79.413
X20.727 Y79.415
X20.699 Y79.419
X20.672 Y79.425
X20.644 Y79.433
X20.617 Y79.443
X20.59 Y79.456
X20.562 Y79.471
X20.538 Y79.487
X20.514 Y79.506
X20.424 Y79.593
X20.38 Y79.636
X20.361 Y79.658
X20.344 Y79.68
X20.328 Y79.702
X20.315 Y79.725
X20.301 Y79.752
X20.29 Y79.78
X20.281 Y79.807
X20.275 Y79.834
X20.27 Y79.862
X20.267 Y79.889
X20.266 Y79.917
X20.267 Y79.944
X20.27 Y79.97
X20.274 Y79.996
X20.281 Y80.022
X20.289 Y80.048
X20.299 Y80.074
X20.311 Y80.1
X20.326 Y80.126
X20.344 Y80.152
X20.351 Y80.163
X20.362 Y80.176
X20.375 Y80.19
X21.684 Y81.544
X21.698 Y81.557
X21.711 Y81.569
X21.739 Y81.59
X21.766 Y81.608
X21.793 Y81.622
X21.821 Y81.634
X21.848 Y81.644
X21.875 Y81.652
X21.903 Y81.657
X21.93 Y81.661
X21.957 Y81.662
X21.985
X22.012 Y81.66
X22.04 Y81.656
X22.067 Y81.65
X22.094 Y81.642
X22.122 Y81.632
X22.149 Y81.619
X22.176 Y81.604
X22.204 Y81.586
X22.217 Y81.575
X22.231 Y81.564
X22.258 Y81.538
X22.352 Y81.448
X22.365 Y81.434
X22.377 Y81.421
X22.399 Y81.393
X22.417 Y81.366
X22.431 Y81.339
X22.444 Y81.311
X22.454 Y81.284
X22.461 Y81.257
X22.467 Y81.229
X22.471 Y81.202
X22.473 Y81.174
Y81.147
X22.471 Y81.12
X22.467 Y81.092
X22.461 Y81.065
X22.454 Y81.038
X22.444 Y81.01
X22.431 Y80.983
X22.416 Y80.956
X22.398 Y80.928
X22.313 Y80.815
X22.201 Y80.667 F13.
X22.193 Y80.654
X22.187 Y80.614
X22.19 Y80.6
X22.236 Y80.514 F50.
X22.252 Y80.492
X22.356 Y80.381
X22.532 Y80.197
X24.12 Y78.631
X24.208 Y78.542
X24.317 Y78.412
X24.638 Y78.029
X24.658 Y78.002
X24.675 Y77.975
X24.688 Y77.952
X24.7 Y77.929
X24.72 Y77.884
X24.775 Y77.756
X24.961 Y77.319
X24.985 Y77.264
X24.994 Y77.237
X25.002 Y77.209
X25.009 Y77.182
X25.014 Y77.154
X25.021 Y77.1
X25.043 Y76.772
X25.047 Y76.717
X25.046 Y76.69
X25.045 Y76.662
X25.038 Y76.608
X25.028 Y76.553
X24.962 Y76.225
X24.952 Y76.179
X24.939 Y76.133
X24.927 Y76.102
X24.914 Y76.07
X24.883 Y76.006
X24.72 Y75.675
X24.694 Y75.622
X24.662 Y75.568
X24.645 Y75.543
X24.624 Y75.518
X24.24 Y75.04
X24.218 Y75.014
X24.204 Y75.
X24.191 Y74.988
X24.099 Y74.912
X23.475 Y74.421
X23.458 Y74.408
X23.441 Y74.397
X23.407 Y74.378
X23.38 Y74.365
X23.353 Y74.354
X23.298 Y74.336
X23.188 Y74.304
X22.641 Y74.144
X22.614 Y74.138
X22.587 Y74.133
X22.559 Y74.13
X22.532 Y74.129
X22.505 Y74.13
X22.477 Y74.132
X22.45 Y74.135
X22.422 Y74.138
X22.313 Y74.161
X21.812 Y74.267
X21.786 Y74.273
X21.76 Y74.281
X21.708 Y74.299
X21.682 Y74.31
X21.657 Y74.324
X21.63 Y74.34
X21.603 Y74.359
X21.14 Y74.693
X21. Y74.795
X20.933 Y74.847
X20.865 Y74.912
X19.031 Y76.721
X18.859 Y76.881
X18.757 Y76.975
X18.743 Y76.983 F13.
X18.689 Y77.011
X18.675
X18.661 Y77.008
X18.648 Y76.999
X18.509 Y76.881 F50.
X18.374 Y76.767
X18.347 Y76.748
X18.319 Y76.732
X18.292 Y76.718
X18.265 Y76.707
X18.237 Y76.699
X18.21 Y76.692
X18.183 Y76.688
X18.155 Y76.685
X18.128 Y76.684
X18.1 Y76.685
X18.073 Y76.688
X18.046 Y76.693
X18.018 Y76.7
X17.991 Y76.709
X17.964 Y76.721
X17.936 Y76.734
X17.915 Y76.747
X17.894 Y76.761
X17.873 Y76.778
X17.852 Y76.797
X17.741 Y76.908
X17.729 Y76.921
X17.718 Y76.934
X17.689 Y76.955
X17.655 Y76.962
X17.621 Y76.953
X17.594 Y76.931
X17.584 Y76.918
X17.565 Y76.894 Z-0.155
X17.549 Y76.874 Z-0.137
X17.538 Y76.86 Z-0.111
X17.535 Y76.855 Z-0.081
G0 Z5.
X22.737 Y81.609
Z1.031
G1 Z-0.161 F50.
X22.755 Y81.635
X22.761 Y81.665
X22.755 Y81.696
X22.738 Y81.722
X22.726 Y81.735
X22.706 Y81.76
X22.669 Y81.811
X22.598 Y81.913
X22.583 Y81.94
X22.57 Y81.968
X22.56 Y81.995
X22.552 Y82.022
X22.547 Y82.05
X22.543 Y82.077
X22.541 Y82.104
Y82.132
X22.543 Y82.159
X22.546 Y82.186
X22.552 Y82.214
X22.56 Y82.241
X22.57 Y82.268
X22.582 Y82.296
X22.597 Y82.323
X22.614 Y82.35
X22.628 Y82.369
X22.644 Y82.387
X22.663 Y82.407
X22.683 Y82.424
X22.751 Y82.476
X24.228 Y83.579
X24.255 Y83.599
X24.283 Y83.616
X24.3 Y83.625
X24.318 Y83.633
X24.335 Y83.64
X24.353 Y83.647
X24.371 Y83.652
X24.388 Y83.657
X24.406 Y83.66
X24.423 Y83.663
X24.443 Y83.665
X24.462 Y83.666
X24.482 Y83.667
X24.501 Y83.666
X24.533 Y83.663
X24.556 Y83.659
X24.58 Y83.654
X27.386 Y82.9
X27.579 Y82.849 F13.
X27.594 Y82.865
X26.816 Y83.926 F50.
X26.799 Y83.948
X26.676 Y84.073 F13.
X26.662 Y84.079
X26.635 Y84.09
X26.621 Y84.094
X26.539 Y84.082
X26.526 Y84.076 F50.
X26.307 Y83.949
X26.279 Y83.934
X26.252 Y83.92
X26.225 Y83.91
X26.197 Y83.901
X26.17 Y83.895
X26.143 Y83.89
X26.115 Y83.887
X26.088
X26.061 Y83.888
X26.033 Y83.891
X26.006 Y83.896
X25.979 Y83.903
X25.951 Y83.912
X25.924 Y83.924
X25.897 Y83.937
X25.869 Y83.954
X25.842 Y83.974
X25.828 Y83.986
X25.814 Y83.998
X25.802 Y84.011
X25.79 Y84.024
X25.769 Y84.049
X25.692 Y84.155
X25.672 Y84.183
X25.655 Y84.21
X25.641 Y84.237
X25.629 Y84.265
X25.62 Y84.292
X25.613 Y84.319
X25.608 Y84.347
X25.604 Y84.374
X25.603 Y84.401
X25.604 Y84.429
X25.606 Y84.456
X25.61 Y84.483
X25.617 Y84.511
X25.625 Y84.538
X25.636 Y84.565
X25.649 Y84.593
X25.664 Y84.62
X25.683 Y84.648
X25.696 Y84.663
X25.71 Y84.679
X25.726 Y84.696
X25.743 Y84.711
X25.803 Y84.757
X27.127 Y85.745
X27.271 Y85.851
X27.29 Y85.862
X27.309 Y85.872
X27.327 Y85.88
X27.346 Y85.888
X27.374 Y85.896
X27.401 Y85.903
X27.428 Y85.908
X27.456 Y85.911
X27.483 Y85.912
X27.51 Y85.911
X27.538 Y85.908
X27.565 Y85.903
X27.598 Y85.895
X27.63 Y85.884
X27.646 Y85.877
X27.663 Y85.869
X27.679 Y85.86
X27.695 Y85.851
X27.717 Y85.836
X27.739 Y85.819
X27.762 Y85.798
X27.784 Y85.775
X27.799 Y85.757
X27.812 Y85.739
X27.89 Y85.632
X27.909 Y85.605
X27.925 Y85.577
X27.938 Y85.55
X27.948 Y85.523
X27.957 Y85.495
X27.963 Y85.468
X27.967 Y85.441
X27.969 Y85.413
X27.97 Y85.386
X27.969 Y85.359
X27.965 Y85.331
X27.96 Y85.304
X27.953 Y85.276
X27.943 Y85.249
X27.932 Y85.222
X27.918 Y85.194
X27.906 Y85.176
X27.893 Y85.157
X27.879 Y85.138
X27.862 Y85.119
X27.784 Y85.044
X27.654 Y84.921
X27.641 Y84.907
X27.601 Y84.825 F13.
Y84.812
X27.604 Y84.771
X27.607 Y84.757
X27.687 Y84.606 F50.
X27.696 Y84.593
X30.483 Y80.792
X30.501 Y80.764
X30.516 Y80.737
X30.529 Y80.71
X30.539 Y80.682
X30.546 Y80.655
X30.552 Y80.628
X30.556 Y80.6
X30.558 Y80.573
Y80.545
X30.556 Y80.518
X30.553 Y80.491
X30.547 Y80.463
X30.539 Y80.436
X30.529 Y80.409
X30.517 Y80.381
X30.508 Y80.365
X30.499 Y80.348
X30.488 Y80.331
X30.475 Y80.314
X30.462 Y80.298
X30.447 Y80.281
X30.428 Y80.263
X30.41 Y80.247
X30.299 Y80.163
X30.272 Y80.144
X30.245 Y80.127
X30.218 Y80.114
X30.191 Y80.103
X30.164 Y80.094
X30.136 Y80.087
X30.109 Y80.083
X30.082 Y80.08
X30.054 Y80.079
X30.027
X30. Y80.082
X29.972 Y80.087
X29.754 Y80.143
X25.634 Y81.211
X25.44 Y81.262 F13.
X25.421 Y81.257
X26.845 Y79.315 F50.
X26.855 Y79.301
X26.977 Y79.177 F13.
X26.991 Y79.169
X27.032 Y79.154
X27.045
X27.114 Y79.165
X27.127 Y79.169
X27.346 Y79.296 F50.
X27.374 Y79.311
X27.401 Y79.325
X27.428 Y79.336
X27.456 Y79.345
X27.483 Y79.352
X27.51 Y79.356
X27.538 Y79.359
X27.565 Y79.36
X27.593 Y79.359
X27.62 Y79.356
X27.647 Y79.352
X27.675 Y79.345
X27.702 Y79.336
X27.729 Y79.325
X27.757 Y79.311
X27.784 Y79.295
X27.795 Y79.288
X27.81 Y79.276
X27.826 Y79.263
X27.842 Y79.249
X27.858 Y79.233
X27.87 Y79.219
X27.881 Y79.205
X27.901 Y79.178
X27.982 Y79.069
X27.993 Y79.052
X28.003 Y79.036
X28.015 Y79.012
X28.025 Y78.989
X28.033 Y78.966
X28.04 Y78.943
X28.046 Y78.92
X28.049 Y78.896
X28.052 Y78.873
X28.053 Y78.85
Y78.825
X28.051 Y78.799
X28.048 Y78.774
X28.042 Y78.748
X28.035 Y78.723
X28.027 Y78.697
X28.016 Y78.672
X28.003 Y78.646
X27.994 Y78.631
X27.975 Y78.603
X27.964 Y78.589
X27.952 Y78.574
X27.937 Y78.559
X27.92 Y78.543
X27.905 Y78.53
X27.889 Y78.518
X26.416 Y77.417
X26.389 Y77.398
X26.362 Y77.382
X26.334 Y77.369
X26.307 Y77.358
X26.279 Y77.35
X26.252 Y77.343
X26.225 Y77.339
X26.197 Y77.336
X26.17 Y77.335
X26.143 Y77.336
X26.115 Y77.339
X26.088 Y77.344
X26.061 Y77.351
X26.033 Y77.361
X26.007 Y77.371
X25.981 Y77.385
X25.954 Y77.401
X25.928 Y77.419
X25.913 Y77.432
X25.897 Y77.446
X25.881 Y77.462
X25.867 Y77.478
X25.823 Y77.537
X25.776 Y77.6
X25.758 Y77.626
X25.741 Y77.652
X25.727 Y77.678
X25.716 Y77.704
X25.706 Y77.73
X25.699 Y77.756
X25.693 Y77.783
X25.689 Y77.811
X25.687 Y77.838
X25.686 Y77.866
X25.688 Y77.893
X25.692 Y77.92
X25.697 Y77.948
X25.705 Y77.975
X25.712 Y77.997
X25.721 Y78.018
X25.732 Y78.04
X25.744 Y78.061
X25.758 Y78.083
X25.774 Y78.105
X25.793 Y78.126
X25.814 Y78.148
X26.007 Y78.33
X26.022 Y78.353 F13.
X26.051 Y78.412
X26.056 Y78.426
X26.052 Y78.48
X26.048 Y78.493
X25.967 Y78.645 F50.
X25.957 Y78.659
X23.85 Y81.533
X23.731 Y81.694 F13.
X23.718 Y81.704
X23.503 Y81.746
X23.489 Y81.747
X23.188 Y81.632 F50.
X23.161 Y81.621
X23.134 Y81.613
X23.106 Y81.606
X23.079 Y81.602
X23.052 Y81.599
X23.024 Y81.598
X22.997 Y81.599
X22.97 Y81.603
X22.944 Y81.607
X22.919 Y81.613
X22.894 Y81.621
X22.869 Y81.631
X22.844 Y81.643
X22.818 Y81.657
X22.793 Y81.674
X22.768 Y81.694
X22.751 Y81.71
X22.738 Y81.722
X22.713 Y81.739
X22.684 Y81.746
X22.655 Y81.741
X22.629 Y81.726
X22.61 Y81.702
X22.602 Y81.674
X22.492 Y80.56
G3 X23.012 Y80.509 I0.26 J-0.026
X22.541 Y80.688 I-0.26 J0.026
G1 X22.54 Y80.686 F17.
G3 X22.965 Y80.383 Z-0.19 I0.213 J-0.151
X22.54 Y80.686 Z-0.218 I-0.213 J0.151
X22.965 Y80.383 Z-0.247 I0.213 J-0.151
X22.912 Y80.741 Z-0.261 I-0.213 J0.151
G1 X22.91 Y80.743
X22.838 Y80.797 F50.
G3 X22.236 Y80.714 I-0.26 J-0.343
G1 X22.201 Y80.667 F13.
X22.193 Y80.654
X22.187 Y80.614
X22.19 Y80.6
X22.236 Y80.514 F50.
X22.252 Y80.492
X22.356 Y80.381
X22.532 Y80.197
X24.12 Y78.631
X24.208 Y78.542
X24.317 Y78.412
X24.638 Y78.029
X24.658 Y78.002
X24.675 Y77.975
X24.7 Y77.932
X24.72 Y77.89
X24.779 Y77.756
X24.966 Y77.319
X24.977 Y77.291
X24.987 Y77.264
X25.002 Y77.209
X25.009 Y77.182
X25.014 Y77.154
X25.021 Y77.1
X25.038 Y76.881
X25.045 Y76.772
X25.047 Y76.717
X25.045 Y76.662
X25.03 Y76.553
X25.008 Y76.443
X24.964 Y76.225
X24.959 Y76.202
X24.953 Y76.179
X24.939 Y76.133
X24.927 Y76.102
X24.914 Y76.07
X24.886 Y76.006
X24.72 Y75.67
X24.692 Y75.619
X24.662 Y75.568
X24.645 Y75.543
X24.624 Y75.518
X24.24 Y75.04
X24.218 Y75.014
X24.204 Y75.
X24.191 Y74.988
X24.099 Y74.912
X24.064 Y74.883
X23.845 Y74.709
X23.547 Y74.474
X23.477 Y74.42
X23.46 Y74.408
X23.442 Y74.398
X23.407 Y74.378
X23.38 Y74.365
X23.353 Y74.354
X23.298 Y74.336
X23.188 Y74.303
X23.03 Y74.256
X22.751 Y74.174
X22.641 Y74.142
X22.614 Y74.137
X22.587 Y74.133
X22.559 Y74.13
X22.532 Y74.129
X22.505 Y74.13
X22.477 Y74.132
X22.422 Y74.137
X22.395 Y74.139
X22.368 Y74.143
X22.313 Y74.154
X21.875 Y74.247
X21.837 Y74.256
X21.747 Y74.286
X21.702 Y74.302
X21.679 Y74.312
X21.657 Y74.323
X21.63 Y74.339
X21.603 Y74.358
X21.139 Y74.693
X21. Y74.795
X20.933 Y74.847
X20.865 Y74.912
X19.031 Y76.721
X18.859 Y76.881
X18.812 Y76.925
X18.757 Y76.975
X18.743 Y76.983 F13.
X18.689 Y77.011
X18.675
X18.661 Y77.008
X18.648 Y76.999
X18.509 Y76.881 F50.
X18.374 Y76.767
X18.347 Y76.748
X18.319 Y76.732
X18.292 Y76.718
X18.265 Y76.707
X18.237 Y76.699
X18.21 Y76.692
X18.183 Y76.688
X18.155 Y76.685
X18.128 Y76.684
X18.1 Y76.685
X18.073 Y76.688
X18.046 Y76.693
X18.018 Y76.7
X17.991 Y76.709
X17.964 Y76.721
X17.936 Y76.734
X17.915 Y76.747
X17.894 Y76.761
X17.873 Y76.778
X17.852 Y76.797
X17.741 Y76.908
X17.729 Y76.921
X17.718 Y76.934
X17.702 Y76.955
X17.688 Y76.976
X17.676 Y76.996
X17.665 Y77.017
X17.656 Y77.038
X17.648 Y77.058
X17.642 Y77.079
X17.636 Y77.1
X17.631 Y77.127
X17.628 Y77.154
X17.627 Y77.182
Y77.209
X17.63 Y77.237
X17.634 Y77.264
X17.64 Y77.291
X17.649 Y77.319
X17.661 Y77.349
X17.676 Y77.38
X17.685 Y77.396
X17.695 Y77.411
X17.705 Y77.426
X17.718 Y77.442
X17.808 Y77.537
X19.712 Y79.506
X19.736 Y79.531
X19.76 Y79.551
X19.785 Y79.569
X19.809 Y79.584
X19.833 Y79.597
X19.857 Y79.608
X19.882 Y79.616
X19.906 Y79.624
X19.933 Y79.63
X19.961 Y79.634
X19.988 Y79.636
X20.015 Y79.637
X20.043 Y79.635
X20.07 Y79.632
X20.097 Y79.627
X20.125 Y79.619
X20.147 Y79.612
X20.17 Y79.603
X20.192 Y79.592
X20.214 Y79.579
X20.237 Y79.565
X20.259 Y79.548
X20.282 Y79.528
X20.344 Y79.468
X20.39 Y79.423
X20.412 Y79.4
X20.43 Y79.378
X20.447 Y79.355
X20.461 Y79.333
X20.473 Y79.31
X20.483 Y79.288
X20.493 Y79.26
X20.501 Y79.233
X20.507 Y79.205
X20.511 Y79.178
X20.513 Y79.151
X20.514 Y79.123
X20.512 Y79.096
X20.509 Y79.069
X20.503 Y79.041
X20.496 Y79.014
X20.486 Y78.987
X20.474 Y78.959
X20.46 Y78.932
X20.442 Y78.905
X20.4 Y78.85
X20.215 Y78.618 F13.
X20.206 Y78.604
X20.2 Y78.577
X20.206 Y78.563
X20.235 Y78.508
X20.245 Y78.494 F50.
X20.344 Y78.391
X20.535 Y78.194
X22.563 Y76.198
X22.577 Y76.186
X22.802 Y76.006
X22.844 Y75.973
X22.865 Y75.962
X23.079 Y75.882 F13.
X23.093 Y75.883
X23.298 Y75.914
X23.312 Y75.916
X23.626 Y76.146 F50.
X23.642 Y76.166
X23.778 Y76.391
X23.881 Y76.562 F13.
X23.882 Y76.582
X23.89 Y76.923 F50.
X23.888 Y76.944
X23.88 Y76.965
X23.733 Y77.319
X23.724 Y77.336
X23.682 Y77.389
X23.626 Y77.459
X23.429 Y77.704
X23.407 Y77.728
X21.824 Y79.288
X21.657 Y79.45
X21.424 Y79.661
X21.41 Y79.669
X21.328 Y79.711 F13.
X21.315 Y79.715
X21.287 Y79.71
X21.274 Y79.705
X21.029 Y79.506 F50.
X21. Y79.484
X20.973 Y79.467
X20.945 Y79.452
X20.918 Y79.44
X20.891 Y79.431
X20.863 Y79.423
X20.836 Y79.418
X20.809 Y79.414
X20.781 Y79.412
X20.754 Y79.413
X20.727 Y79.415
X20.699 Y79.419
X20.672 Y79.425
X20.644 Y79.433
X20.617 Y79.443
X20.59 Y79.456
X20.562 Y79.471
X20.538 Y79.487
X20.514 Y79.506
X20.424 Y79.593
X20.38 Y79.636
X20.361 Y79.658
X20.344 Y79.68
X20.328 Y79.702
X20.315 Y79.725
X20.301 Y79.752
X20.29 Y79.78
X20.281 Y79.807
X20.275 Y79.834
X20.27 Y79.862
X20.267 Y79.889
X20.266 Y79.917
X20.267 Y79.944
X20.27 Y79.97
X20.274 Y79.996
X20.281 Y80.022
X20.289 Y80.048
X20.299 Y80.074
X20.311 Y80.1
X20.326 Y80.126
X20.344 Y80.152
X20.351 Y80.163
X20.362 Y80.176
X20.375 Y80.19
X21.684 Y81.544
X21.698 Y81.557
X21.711 Y81.569
X21.739 Y81.59
X21.766 Y81.608
X21.793 Y81.622
X21.821 Y81.634
X21.848 Y81.644
X21.875 Y81.652
X21.903 Y81.657
X21.93 Y81.661
X21.957 Y81.662
X21.985
X22.012 Y81.66
X22.04 Y81.656
X22.067 Y81.65
X22.094 Y81.642
X22.122 Y81.632
X22.149 Y81.619
X22.176 Y81.604
X22.204 Y81.586
X22.217 Y81.575
X22.231 Y81.564
X22.258 Y81.538
X22.352 Y81.448
X22.365 Y81.434
X22.377 Y81.421
X22.399 Y81.393
X22.417 Y81.366
X22.431 Y81.339
X22.444 Y81.311
X22.454 Y81.284
X22.461 Y81.257
X22.467 Y81.229
X22.471 Y81.202
X22.473 Y81.174
Y81.147
X22.471 Y81.12
X22.467 Y81.092
X22.461 Y81.065
X22.454 Y81.038
X22.444 Y81.01
X22.431 Y80.983
X22.416 Y80.956
X22.398 Y80.928
X22.313 Y80.815
X22.236 Y80.714
X22.222 Y80.685
X22.221 Y80.654
X22.231 Y80.624
X22.252 Y80.601
X24.469 Y78.969
X24.494 Y78.951 Z-0.255
X24.515 Y78.936 Z-0.237
X24.529 Y78.925 Z-0.211
X24.534 Y78.922 Z-0.181
G0 Z5.
X28.306 Y85.595
Z1.031
G1 Z-0.161 F50.
X28.325 Y85.62
X28.333 Y85.651
X28.328 Y85.682
X28.312 Y85.709
X28.299 Y85.725
X28.288 Y85.739
X28.287 Y85.741
X28.269 Y85.769
X28.222 Y85.855
X28.192 Y85.909
X28.179 Y85.935
X28.168 Y85.962
X28.159 Y85.989
X28.153 Y86.016
X28.148 Y86.043
X28.145 Y86.07
X28.144 Y86.097
X28.145 Y86.124
X28.147 Y86.152
X28.152 Y86.179
X28.159 Y86.206
X28.167 Y86.234
X28.178 Y86.261
X28.192 Y86.288
X28.206 Y86.312
X28.222 Y86.335
X28.233 Y86.351
X28.246 Y86.366
X28.26 Y86.381
X28.276 Y86.396
X28.29 Y86.408
X28.304 Y86.418
X28.331 Y86.437
X28.454 Y86.507
X30.773 Y87.82
X30.848 Y87.861
X30.875 Y87.873
X30.902 Y87.882
X30.93 Y87.889
X30.957 Y87.894
X30.984 Y87.898
X31.012 Y87.899
X31.039 Y87.898
X31.067 Y87.896
X31.09 Y87.892
X31.114 Y87.887
X31.138 Y87.881
X31.162 Y87.872
X31.186 Y87.862
X31.21 Y87.85
X31.233 Y87.836
X31.257 Y87.82
X31.271 Y87.809
X31.285 Y87.797
X31.31 Y87.772
X31.331 Y87.748
X31.349 Y87.723
X31.365 Y87.699
X31.42 Y87.601
X31.45 Y87.546
X31.462 Y87.519
X31.472 Y87.492
X31.48 Y87.464
X31.485 Y87.437
X31.489 Y87.41
X31.491 Y87.382
Y87.355
X31.489 Y87.328
X31.485 Y87.3
X31.479 Y87.273
X31.471 Y87.245
X31.461 Y87.218
X31.449 Y87.191
X31.434 Y87.163
X31.419 Y87.141
X31.402 Y87.118
X31.383 Y87.096
X31.36 Y87.073
X31.341 Y87.057
X31.323 Y87.043
X31.211 Y86.965
X31.047 Y86.849 F13.
X31.028 Y86.829
X31.018 Y86.812
X31.033 Y86.743
X31.037 Y86.726 F50.
X31.151 Y86.507
X31.269 Y86.288
X32.817 Y83.497
X32.847 Y83.444
X33.018 Y83.157
X33.036 Y83.134 F13.
X33.077 Y83.094
X33.091 Y83.086
X33.104 Y83.085
X33.118 Y83.087
X33.431 Y83.225 F50.
X33.452 Y83.234
X33.474 Y83.242
X33.501 Y83.249
X33.528 Y83.255
X33.556 Y83.259
X33.583 Y83.26
X33.611
X33.638 Y83.258
X33.665 Y83.254
X33.693 Y83.248
X33.726 Y83.239
X33.742 Y83.232
X33.759 Y83.225
X33.778 Y83.216
X33.797 Y83.206
X33.816 Y83.194
X33.835 Y83.18
X33.854 Y83.165
X33.873 Y83.148
X33.894 Y83.127
X33.911 Y83.105
X33.929 Y83.081
X33.944 Y83.056
X33.971 Y83.007
X34.031 Y82.897
X34.042 Y82.87
X34.051 Y82.843
X34.058 Y82.815
X34.063 Y82.788
X34.066 Y82.761
X34.067 Y82.733
X34.066 Y82.706
X34.063 Y82.679
X34.059 Y82.651
X34.052 Y82.624
X34.043 Y82.597
X34.032 Y82.569
X34.023 Y82.55
X34.013 Y82.531
X34.001 Y82.511
X33.987 Y82.492
X33.972 Y82.473
X33.954 Y82.453
X33.933 Y82.433
X33.911 Y82.415
X33.885 Y82.396
X33.859 Y82.38
X31.386 Y80.981
X31.361 Y80.968
X31.335 Y80.958
X31.31 Y80.949
X31.285 Y80.942
X31.258 Y80.936
X31.231 Y80.933
X31.203 Y80.931
X31.176
X31.149 Y80.933
X31.121 Y80.937
X31.094 Y80.943
X31.067 Y80.951
X31.048 Y80.957
X31.03 Y80.965
X31.011 Y80.973
X30.993 Y80.983
X30.974 Y80.995
X30.956 Y81.007
X30.937 Y81.022
X30.919 Y81.038
X30.897 Y81.06
X30.878 Y81.082
X30.862 Y81.104
X30.848 Y81.126
X30.774 Y81.257
X30.76 Y81.284
X30.747 Y81.311
X30.737 Y81.339
X30.73 Y81.366
X30.724 Y81.393
X30.72 Y81.421
X30.718 Y81.448
Y81.475
X30.72 Y81.503
X30.724 Y81.53
X30.73 Y81.557
X30.738 Y81.585
X30.748 Y81.612
X30.76 Y81.639
X30.775 Y81.667
X30.793 Y81.694
X30.804 Y81.71
X30.817 Y81.725
X30.832 Y81.741
X30.848 Y81.756
X30.861 Y81.768
X30.875 Y81.779
X30.902 Y81.798
X31.012 Y81.875
X31.175 Y81.99 F13.
X31.185 Y82.007
X31.191 Y82.023
X31.177 Y82.091
X31.174 Y82.104
X31.047 Y82.35 F50.
X30.928 Y82.569
X29.469 Y85.194
X29.347 Y85.413
X29.193 Y85.673
X29.178 Y85.693 F13.
X29.127 Y85.742
X29.112 Y85.744
X29.097 Y85.745
X28.842 Y85.632 F50.
X28.751 Y85.593
X28.728 Y85.585
X28.705 Y85.579
X28.682 Y85.575
X28.659 Y85.571
X28.632 Y85.569
X28.605
X28.577 Y85.571
X28.55 Y85.575
X28.523 Y85.58
X28.495 Y85.588
X28.468 Y85.597
X28.44 Y85.61
X28.42 Y85.62
X28.4 Y85.632
X28.372 Y85.652
X28.358 Y85.663
X28.344 Y85.676
X28.327 Y85.692
X28.312 Y85.709
X28.287 Y85.727
X28.257 Y85.735
X28.226 Y85.73
X28.199 Y85.714
X28.173 Y85.698
X28.142 Y85.693
X28.112 Y85.701
X28.087 Y85.719
X27.298 Y86.567
G3 X26.751 Y86.577 I-0.278 J-0.259
G1 X26.749 Y86.575 F17.
G3 X27.291 Y86.041 Z-0.203 I0.271 J-0.267
X26.749 Y86.575 Z-0.244 I-0.271 J0.267
X26.681 Y86.136 Z-0.261 I0.271 J-0.267
G1 X26.683 Y86.133
X26.724 Y86.053 F50.
G3 X27.304 Y85.869 I0.382 J0.198
G1 X27.309 Y85.872
X27.327 Y85.88
X27.346 Y85.888
X27.374 Y85.896
X27.401 Y85.903
X27.428 Y85.908
X27.456 Y85.911
X27.483 Y85.912
X27.51 Y85.911
X27.538 Y85.908
X27.565 Y85.903
X27.598 Y85.895
X27.63 Y85.884
X27.646 Y85.877
X27.663 Y85.869
X27.679 Y85.86
X27.695 Y85.851
X27.717 Y85.836
X27.739 Y85.819
X27.762 Y85.798
X27.784 Y85.775
X27.799 Y85.757
X27.812 Y85.739
X27.89 Y85.632
X27.909 Y85.605
X27.925 Y85.577
X27.938 Y85.55
X27.948 Y85.523
X27.957 Y85.495
X27.963 Y85.468
X27.967 Y85.441
X27.969 Y85.413
X27.97 Y85.386
X27.969 Y85.359
X27.965 Y85.331
X27.96 Y85.304
X27.953 Y85.276
X27.943 Y85.249
X27.932 Y85.222
X27.918 Y85.194
X27.906 Y85.176
X27.893 Y85.157
X27.879 Y85.138
X27.862 Y85.119
X27.784 Y85.044
X27.654 Y84.921
X27.641 Y84.907
X27.601 Y84.825 F13.
X27.602 Y84.812
X27.604 Y84.771
X27.607 Y84.757
X27.687 Y84.606 F50.
X27.696 Y84.593
X30.483 Y80.792
X30.501 Y80.764
X30.516 Y80.737
X30.529 Y80.71
X30.539 Y80.682
X30.546 Y80.655
X30.552 Y80.628
X30.556 Y80.6
X30.558 Y80.573
Y80.545
X30.556 Y80.518
X30.553 Y80.491
X30.547 Y80.463
X30.539 Y80.436
X30.529 Y80.409
X30.517 Y80.381
X30.508 Y80.365
X30.499 Y80.348
X30.488 Y80.331
X30.475 Y80.314
X30.462 Y80.298
X30.447 Y80.281
X30.428 Y80.263
X30.41 Y80.247
X30.299 Y80.163
X30.272 Y80.144
X30.245 Y80.127
X30.218 Y80.114
X30.191 Y80.103
X30.164 Y80.094
X30.136 Y80.087
X30.109 Y80.083
X30.082 Y80.08
X30.054 Y80.079
X30.027
X30. Y80.082
X29.972 Y80.087
X29.754 Y80.143
X25.634 Y81.211
X25.44 Y81.262 F13.
X25.421 Y81.257
X26.845 Y79.315 F50.
X26.855 Y79.301
X26.977 Y79.177 F13.
X26.991 Y79.169
X27.032 Y79.154
X27.045
X27.086 Y79.161
X27.1 Y79.164
X27.153 Y79.186 F50.
X27.166 Y79.191
X27.346 Y79.296
X27.374 Y79.311
X27.401 Y79.325
X27.428 Y79.336
X27.456 Y79.345
X27.483 Y79.352
X27.51 Y79.356
X27.538 Y79.359
X27.565 Y79.36
X27.593 Y79.359
X27.62 Y79.356
X27.647 Y79.352
X27.675 Y79.345
X27.702 Y79.336
X27.729 Y79.325
X27.757 Y79.311
X27.784 Y79.295
X27.795 Y79.288
X27.81 Y79.276
X27.826 Y79.263
X27.842 Y79.249
X27.858 Y79.233
X27.87 Y79.219
X27.881 Y79.205
X27.901 Y79.178
X27.982 Y79.069
X27.993 Y79.052
X28.003 Y79.036
X28.015 Y79.012
X28.025 Y78.989
X28.033 Y78.966
X28.04 Y78.943
X28.046 Y78.92
X28.049 Y78.896
X28.052 Y78.873
X28.053 Y78.85
Y78.825
X28.051 Y78.799
X28.048 Y78.774
X28.042 Y78.748
X28.035 Y78.723
X28.027 Y78.697
X28.016 Y78.672
X28.003 Y78.646
X27.994 Y78.631
X27.975 Y78.603
X27.964 Y78.589
X27.952 Y78.574
X27.937 Y78.559
X27.92 Y78.543
X27.905 Y78.53
X27.889 Y78.518
X26.416 Y77.417
X26.389 Y77.398
X26.362 Y77.382
X26.334 Y77.369
X26.307 Y77.358
X26.279 Y77.35
X26.252 Y77.343
X26.225 Y77.339
X26.197 Y77.336
X26.17 Y77.335
X26.143 Y77.336
X26.115 Y77.339
X26.088 Y77.344
X26.061 Y77.351
X26.033 Y77.361
X26.007 Y77.371
X25.981 Y77.385
X25.954 Y77.401
X25.928 Y77.419
X25.913 Y77.432
X25.897 Y77.446
X25.881 Y77.462
X25.867 Y77.478
X25.823 Y77.537
X25.776 Y77.6
X25.758 Y77.626
X25.741 Y77.652
X25.727 Y77.678
X25.716 Y77.704
X25.706 Y77.73
X25.699 Y77.756
X25.693 Y77.783
X25.689 Y77.811
X25.687 Y77.838
X25.686 Y77.866
X25.688 Y77.893
X25.692 Y77.92
X25.697 Y77.948
X25.705 Y77.975
X25.712 Y77.997
X25.721 Y78.018
X25.732 Y78.04
X25.744 Y78.061
X25.758 Y78.083
X25.774 Y78.105
X25.793 Y78.126
X25.814 Y78.148
X26.007 Y78.33
X26.022 Y78.353 F13.
X26.051 Y78.412
X26.055 Y78.426
X26.052 Y78.48
X26.048 Y78.493
X25.967 Y78.645 F50.
X25.957 Y78.659
X23.85 Y81.533
X23.731 Y81.694 F13.
X23.718 Y81.704
X23.503 Y81.746
X23.489 Y81.747
X23.188 Y81.632 F50.
X23.161 Y81.621
X23.134 Y81.613
X23.106 Y81.606
X23.079 Y81.602
X23.052 Y81.599
X23.024 Y81.598
X22.997 Y81.599
X22.97 Y81.603
X22.944 Y81.607
X22.919 Y81.613
X22.894 Y81.621
X22.869 Y81.631
X22.844 Y81.643
X22.818 Y81.657
X22.793 Y81.674
X22.768 Y81.694
X22.751 Y81.71
X22.738 Y81.722
X22.726 Y81.735
X22.706 Y81.76
X22.669 Y81.811
X22.598 Y81.913
X22.583 Y81.94
X22.57 Y81.968
X22.56 Y81.995
X22.552 Y82.022
X22.547 Y82.05
X22.543 Y82.077
X22.541 Y82.104
Y82.132
X22.543 Y82.159
X22.546 Y82.186
X22.552 Y82.214
X22.56 Y82.241
X22.57 Y82.268
X22.582 Y82.296
X22.597 Y82.323
X22.614 Y82.35
X22.628 Y82.369
X22.644 Y82.387
X22.663 Y82.407
X22.683 Y82.424
X22.751 Y82.476
X24.228 Y83.579
X24.255 Y83.599
X24.283 Y83.616
X24.3 Y83.625
X24.318 Y83.633
X24.335 Y83.64
X24.353 Y83.647
X24.371 Y83.652
X24.388 Y83.657
X24.406 Y83.66
X24.423 Y83.663
X24.443 Y83.665
X24.462 Y83.666
X24.482 Y83.667
X24.501 Y83.666
X24.533 Y83.663
X24.556 Y83.659
X24.58 Y83.654
X27.386 Y82.9
X27.579 Y82.849 F13.
X27.594 Y82.865
X26.816 Y83.926 F50.
X26.799 Y83.948
X26.676 Y84.073 F13.
X26.662 Y84.079
X26.635 Y84.09
X26.621 Y84.094
X26.567 Y84.086
X26.553 Y84.082
X26.498 Y84.059 F50.
X26.485 Y84.052
X26.307 Y83.949
X26.279 Y83.934
X26.252 Y83.92
X26.225 Y83.91
X26.197 Y83.901
X26.17 Y83.895
X26.143 Y83.89
X26.115 Y83.887
X26.088
X26.061 Y83.888
X26.033 Y83.891
X26.006 Y83.896
X25.979 Y83.903
X25.951 Y83.912
X25.924 Y83.924
X25.897 Y83.937
X25.869 Y83.954
X25.842 Y83.974
X25.828 Y83.986
X25.814 Y83.998
X25.802 Y84.011
X25.79 Y84.024
X25.769 Y84.049
X25.692 Y84.155
X25.672 Y84.183
X25.655 Y84.21
X25.641 Y84.237
X25.629 Y84.265
X25.62 Y84.292
X25.613 Y84.319
X25.608 Y84.347
X25.604 Y84.374
X25.603 Y84.401
X25.604 Y84.429
X25.606 Y84.456
X25.61 Y84.483
X25.617 Y84.511
X25.625 Y84.538
X25.636 Y84.565
X25.649 Y84.593
X25.664 Y84.62
X25.683 Y84.648
X25.696 Y84.663
X25.71 Y84.679
X25.726 Y84.696
X25.743 Y84.711
X25.803 Y84.757
X27.127 Y85.745
X27.271 Y85.851
X27.29 Y85.862
X27.304 Y85.869
X27.328 Y85.889
X27.343 Y85.917
X27.346 Y85.949
X27.336 Y85.98
X27.315 Y86.004
X27.287 Y86.018
X27.255 Y86.019
X27.225 Y86.008
X21.067 Y82.185
G3 X21.468 Y81.539 I0.2 J-0.323
X21.457 Y82.192 I-0.2 J0.323
G1 X21.454 Y82.193 F17.
G3 X21.002 Y81.591 Z-0.299 I-0.187 J-0.331
G1 X21.004 Y81.589
X21.068 Y81.526 F50.
G3 X21.676 Y81.536 I0.299 J0.309
G1 X21.684 Y81.544
X21.698 Y81.557
X21.711 Y81.569
X21.739 Y81.59
X21.766 Y81.608
X21.793 Y81.622
X21.821 Y81.634
X21.848 Y81.644
X21.875 Y81.652
X21.903 Y81.657
X21.93 Y81.661
X21.957 Y81.662
X21.985
X22.012 Y81.66
X22.04 Y81.656
X22.067 Y81.65
X22.094 Y81.642
X22.122 Y81.632
X22.149 Y81.619
X22.176 Y81.604
X22.204 Y81.586
X22.217 Y81.575
X22.231 Y81.564
X22.258 Y81.538
X22.352 Y81.448
X22.365 Y81.434
X22.377 Y81.421
X22.399 Y81.393
X22.417 Y81.366
X22.431 Y81.339
X22.444 Y81.311
X22.454 Y81.284
X22.461 Y81.257
X22.467 Y81.229
X22.471 Y81.202
X22.473 Y81.174
Y81.147
X22.471 Y81.12
X22.467 Y81.092
X22.461 Y81.065
X22.454 Y81.038
X22.444 Y81.01
X22.431 Y80.983
X22.416 Y80.956
X22.398 Y80.928
X22.313 Y80.815
X22.211 Y80.681 F13.
X22.201 Y80.667
X22.193 Y80.654
X22.187 Y80.614
X22.19 Y80.6
X22.236 Y80.514 F50.
X22.252 Y80.492
X22.356 Y80.381
X22.532 Y80.197
X24.12 Y78.631
X24.208 Y78.542
X24.317 Y78.412
X24.638 Y78.029
X24.658 Y78.002
X24.675 Y77.975
X24.7 Y77.933
X24.72 Y77.892
X24.781 Y77.756
X24.967 Y77.319
X24.978 Y77.291
X24.988 Y77.264
X25.002 Y77.209
X25.009 Y77.182
X25.014 Y77.154
X25.021 Y77.1
X25.038 Y76.881
X25.046 Y76.772
X25.047 Y76.717
X25.045 Y76.662
X25.03 Y76.553
X25.009 Y76.443
X24.964 Y76.225
X24.959 Y76.202
X24.953 Y76.179
X24.939 Y76.133
X24.927 Y76.102
X24.914 Y76.07
X24.886 Y76.006
X24.779 Y75.787
X24.72 Y75.669
X24.692 Y75.618
X24.662 Y75.568
X24.645 Y75.543
X24.624 Y75.518
X24.24 Y75.04
X24.218 Y75.014
X24.204 Y75.
X24.191 Y74.988
X24.099 Y74.912
X24.064 Y74.883
X23.845 Y74.708
X23.548 Y74.474
X23.478 Y74.42
X23.46 Y74.408
X23.443 Y74.398
X23.407 Y74.378
X23.38 Y74.365
X23.353 Y74.354
X23.298 Y74.336
X23.188 Y74.303
X23.032 Y74.256
X22.751 Y74.174
X22.641 Y74.142
X22.614 Y74.136
X22.587 Y74.132
X22.559 Y74.13
X22.532 Y74.129
X22.505 Y74.13
X22.477 Y74.132
X22.422 Y74.137
X22.368 Y74.142
X22.313 Y74.153
X21.875 Y74.245
X21.856 Y74.25
X21.836 Y74.256
X21.746 Y74.286
X21.701 Y74.302
X21.679 Y74.312
X21.657 Y74.323
X21.63 Y74.339
X21.603 Y74.358
X21.219 Y74.635
X21.139 Y74.693
X21. Y74.795
X20.933 Y74.847
X20.865 Y74.912
X19.031 Y76.721
X18.859 Y76.881
X18.812 Y76.925
X18.757 Y76.975
X18.743 Y76.983 F13.
X18.689 Y77.011
X18.675
X18.661 Y77.008
X18.648 Y76.999
X18.509 Y76.881 F50.
X18.374 Y76.767
X18.347 Y76.748
X18.319 Y76.732
X18.292 Y76.718
X18.265 Y76.707
X18.237 Y76.699
X18.21 Y76.692
X18.183 Y76.688
X18.155 Y76.685
X18.128 Y76.684
X18.1 Y76.685
X18.073 Y76.688
X18.046 Y76.693
X18.018 Y76.7
X17.991 Y76.709
X17.964 Y76.721
X17.936 Y76.734
X17.915 Y76.747
X17.894 Y76.761
X17.873 Y76.778
X17.852 Y76.797
X17.741 Y76.908
X17.729 Y76.921
X17.718 Y76.934
X17.702 Y76.955
X17.688 Y76.976
X17.676 Y76.996
X17.665 Y77.017
X17.656 Y77.038
X17.648 Y77.058
X17.642 Y77.079
X17.636 Y77.1
X17.631 Y77.127
X17.628 Y77.154
X17.627 Y77.182
Y77.209
X17.63 Y77.237
X17.634 Y77.264
X17.64 Y77.291
X17.649 Y77.319
X17.661 Y77.349
X17.676 Y77.38
X17.685 Y77.396
X17.695 Y77.411
X17.705 Y77.426
X17.718 Y77.442
X17.808 Y77.537
X19.712 Y79.506
X19.736 Y79.531
X19.76 Y79.551
X19.785 Y79.569
X19.809 Y79.584
X19.833 Y79.597
X19.857 Y79.608
X19.882 Y79.616
X19.906 Y79.624
X19.933 Y79.63
X19.961 Y79.634
X19.988 Y79.636
X20.015 Y79.637
X20.043 Y79.635
X20.07 Y79.632
X20.097 Y79.627
X20.125 Y79.619
X20.147 Y79.612
X20.17 Y79.603
X20.192 Y79.592
X20.214 Y79.579
X20.237 Y79.565
X20.259 Y79.548
X20.282 Y79.528
X20.344 Y79.468
X20.39 Y79.423
X20.412 Y79.4
X20.43 Y79.378
X20.447 Y79.355
X20.461 Y79.333
X20.473 Y79.31
X20.483 Y79.288
X20.493 Y79.26
X20.501 Y79.233
X20.507 Y79.205
X20.511 Y79.178
X20.513 Y79.151
X20.514 Y79.123
X20.512 Y79.096
X20.509 Y79.069
X20.503 Y79.041
X20.496 Y79.014
X20.486 Y78.987
X20.474 Y78.959
X20.46 Y78.932
X20.442 Y78.905
X20.4 Y78.85
X20.215 Y78.618 F13.
X20.206 Y78.604
X20.2 Y78.577
X20.206 Y78.563
X20.235 Y78.508
X20.245 Y78.494 F50.
X20.344 Y78.391
X20.535 Y78.194
X22.563 Y76.198
X22.577 Y76.186
X22.751 Y76.047
X22.802 Y76.006
X22.844 Y75.973
X22.865 Y75.962
X23.079 Y75.882 F13.
X23.093 Y75.883
X23.298 Y75.914
X23.312 Y75.916
X23.626 Y76.146 F50.
X23.642 Y76.166
X23.778 Y76.391
X23.881 Y76.562 F13.
X23.882 Y76.582
X23.89 Y76.923 F50.
X23.888 Y76.944
X23.88 Y76.965
X23.845 Y77.049
X23.733 Y77.319
X23.724 Y77.336
X23.682 Y77.389
X23.626 Y77.459
X23.429 Y77.704
X23.407 Y77.728
X21.824 Y79.288
X21.657 Y79.45
X21.424 Y79.661
X21.41 Y79.669
X21.328 Y79.711 F13.
X21.315 Y79.715
X21.287 Y79.71
X21.274 Y79.705
X21.029 Y79.506 F50.
X21. Y79.484
X20.973 Y79.467
X20.945 Y79.452
X20.918 Y79.44
X20.891 Y79.431
X20.863 Y79.423
X20.836 Y79.418
X20.809 Y79.414
X20.781 Y79.412
X20.754 Y79.413
X20.727 Y79.415
X20.699 Y79.419
X20.672 Y79.425
X20.644 Y79.433
X20.617 Y79.443
X20.59 Y79.456
X20.562 Y79.471
X20.538 Y79.487
X20.514 Y79.506
X20.424 Y79.593
X20.38 Y79.636
X20.361 Y79.658
X20.344 Y79.68
X20.328 Y79.702
X20.315 Y79.725
X20.301 Y79.752
X20.29 Y79.78
X20.281 Y79.807
X20.275 Y79.834
X20.27 Y79.862
X20.267 Y79.889
X20.266 Y79.917
X20.267 Y79.944
X20.27 Y79.97
X20.274 Y79.996
X20.281 Y80.022
X20.289 Y80.048
X20.299 Y80.074
X20.311 Y80.1
X20.326 Y80.126
X20.344 Y80.152
X20.351 Y80.163
X20.362 Y80.176
X20.375 Y80.19
X21.676 Y81.536
X21.693 Y81.563
X21.699 Y81.594
X21.692 Y81.625
X21.674 Y81.65
G0 Z5.
X31.728 Y87.625
Z1.031
G1 Z-0.161 F50.
X31.75 Y87.647
X31.761 Y87.677
Y87.708
X31.748 Y87.736
X31.735 Y87.759
X31.723 Y87.782
X31.707 Y87.82
X31.663 Y87.929
X31.653 Y87.956
X31.644 Y87.984
X31.637 Y88.011
X31.633 Y88.039
X31.63 Y88.066
X31.629 Y88.093
X31.63 Y88.121
X31.633 Y88.148
X31.638 Y88.175
X31.644 Y88.203
X31.653 Y88.23
X31.664 Y88.257
X31.676 Y88.281
X31.689 Y88.304
X31.705 Y88.327
X31.723 Y88.35
X31.745 Y88.374
X31.77 Y88.397
X31.793 Y88.416
X31.817 Y88.432
X31.84 Y88.445
X31.864 Y88.457
X31.91 Y88.476
X34.294 Y89.448
X34.322 Y89.457
X34.349 Y89.465
X34.376 Y89.47
X34.404 Y89.473
X34.431 Y89.475
X34.458
X34.486 Y89.473
X34.513 Y89.468
X34.541 Y89.462
X34.568 Y89.454
X34.588 Y89.447
X34.608 Y89.438
X34.629 Y89.428
X34.649 Y89.417
X34.669 Y89.403
X34.689 Y89.388
X34.71 Y89.371
X34.73 Y89.351
X34.747 Y89.332
X34.762 Y89.313
X34.775 Y89.294
X34.787 Y89.275
X34.796 Y89.257
X34.805 Y89.24
X34.82 Y89.204
X34.87 Y89.078
X34.879 Y89.05
X34.886 Y89.023
X34.891 Y88.996
X34.894 Y88.968
X34.895 Y88.941
Y88.914
X34.892 Y88.886
X34.888 Y88.859
X34.881 Y88.832
X34.873 Y88.804
X34.862 Y88.777
X34.849 Y88.75
X34.833 Y88.722
X34.814 Y88.695
X34.801 Y88.679
X34.787 Y88.663
X34.773 Y88.649
X34.759 Y88.636
X34.746 Y88.625
X34.732 Y88.614
X34.705 Y88.596
X34.677 Y88.581
X34.468 Y88.476 F13.
X34.48 Y88.461
X34.568 Y88.356 F50.
X34.658 Y88.257
X36.026 Y86.891
X36.167 Y86.75 F13.
X36.188 Y86.774
X36.247 Y88.476 F50.
X36.254 Y88.695
X36.25 Y89.009
X36.249 Y89.023
X36.226 Y89.132 F13.
X36.213 Y89.154
X35.881 Y89.074 F50.
X35.854 Y89.067
X35.826 Y89.063
X35.799 Y89.06
X35.772
X35.744 Y89.061
X35.717 Y89.064
X35.689 Y89.069
X35.662 Y89.076
X35.633 Y89.086
X35.604 Y89.098
X35.575 Y89.114
X35.545 Y89.132
X35.53 Y89.144
X35.515 Y89.156
X35.5 Y89.17
X35.485 Y89.185
X35.462 Y89.211
X35.443 Y89.237
X35.426 Y89.265
X35.411 Y89.294
X35.389 Y89.351
X35.346 Y89.461
X35.337 Y89.488
X35.33 Y89.515
X35.326 Y89.543
X35.323 Y89.57
X35.322 Y89.597
X35.323 Y89.625
X35.325 Y89.652
X35.33 Y89.679
X35.337 Y89.707
X35.346 Y89.734
X35.357 Y89.761
X35.37 Y89.789
X35.384 Y89.813
X35.401 Y89.837
X35.42 Y89.861
X35.443 Y89.885
X35.457 Y89.898
X35.471 Y89.909
X35.498 Y89.93
X35.525 Y89.946
X35.553 Y89.961
X35.667 Y90.007
X37.194 Y90.629
X37.247 Y90.65
X37.274 Y90.658
X37.301 Y90.664
X37.329 Y90.668
X37.357 Y90.67
X37.385 Y90.671
X37.413 Y90.669
X37.431 Y90.667
X37.448 Y90.664
X37.471 Y90.659
X37.494 Y90.652
X37.517 Y90.644
X37.54 Y90.635
X37.563 Y90.624
X37.586 Y90.61
X37.609 Y90.595
X37.632 Y90.577
X37.649 Y90.562
X37.667 Y90.544
X37.681 Y90.528
X37.694 Y90.511
X37.706 Y90.495
X37.717 Y90.478
X37.726 Y90.462
X37.735 Y90.445
X37.78 Y90.336
X37.803 Y90.281
X37.813 Y90.254
X37.82 Y90.226
X37.826 Y90.199
X37.829 Y90.172
X37.831 Y90.144
Y90.117
X37.829 Y90.09
X37.825 Y90.062
X37.819 Y90.035
X37.811 Y90.007
X37.8 Y89.98
X37.788 Y89.953
X37.773 Y89.925
X37.754 Y89.898
X37.743 Y89.883
X37.73 Y89.867
X37.715 Y89.852
X37.699 Y89.837
X37.632 Y89.778
X37.528 Y89.689
X37.516 Y89.674
X37.447 Y89.529
X37.441 Y89.516
X37.384 Y89.187
X37.383 Y89.173
X37.353 Y88.695
X37.343 Y88.476
X37.164 Y83.991
X37.162 Y83.964
X37.159 Y83.937
X37.154 Y83.909
X37.147 Y83.882
X37.138 Y83.854
X37.127 Y83.827
X37.113 Y83.8
X37.096 Y83.772
X37.076 Y83.745
X37.065 Y83.731
X37.052 Y83.718
X37.036 Y83.702
X37.02 Y83.687
X37.003 Y83.675
X36.987 Y83.663
X36.975 Y83.655
X36.948 Y83.64
X36.92 Y83.627
X36.811 Y83.582
X36.784 Y83.571
X36.756 Y83.561
X36.729 Y83.554
X36.702 Y83.549
X36.674 Y83.546
X36.647 Y83.545
X36.62
X36.592 Y83.548
X36.565 Y83.552
X36.537 Y83.559
X36.515 Y83.565
X36.493 Y83.574
X36.47 Y83.583
X36.448 Y83.595
X36.425 Y83.608
X36.403 Y83.624
X36.38 Y83.642
X36.358 Y83.663
X32.544 Y87.461
X32.53 Y87.471
X32.38 Y87.579 F13.
X32.366 Y87.585
X32.339 Y87.59
X32.325
X32.161 Y87.561 F50.
X32.133 Y87.557
X32.106 Y87.555
X32.079 Y87.554
X32.051 Y87.555
X32.024 Y87.559
X31.997 Y87.564
X31.969 Y87.571
X31.942 Y87.58
X31.919 Y87.59
X31.896 Y87.601
X31.868 Y87.618
X31.839 Y87.638
X31.825 Y87.649
X31.811 Y87.662
X31.796 Y87.677
X31.782 Y87.691
X31.764 Y87.714
X31.748 Y87.736
X31.727 Y87.758
X31.699 Y87.769
X31.669
X31.64 Y87.759
X31.618 Y87.738
X31.605 Y87.711
X31.333 Y86.658
G3 X31.839 Y86.527 I0.253 J-0.065
X31.431 Y86.803 I-0.253 J0.065
G1 X31.429 Y86.802 F17.
G3 X31.743 Y86.384 Z-0.19 I0.157 J-0.209
X31.429 Y86.802 Z-0.218 I-0.157 J0.209
X31.743 Y86.384 Z-0.247 I0.157 J-0.209
X31.801 Y86.741 Z-0.261 I-0.157 J0.209
G1 X31.799 Y86.743
X31.748 Y86.817 F50.
G3 X31.148 Y86.921 I-0.352 J-0.248
G1 X31.047 Y86.849 F13.
X31.028 Y86.829
X31.018 Y86.812
X31.033 Y86.743
X31.037 Y86.726 F50.
X31.151 Y86.507
X31.269 Y86.288
X32.817 Y83.497
X32.847 Y83.444
X33.004 Y83.18
X33.018 Y83.157
X33.036 Y83.134 F13.
X33.077 Y83.094
X33.091 Y83.086
X33.104 Y83.085
X33.118 Y83.087
X33.431 Y83.225 F50.
X33.452 Y83.234
X33.474 Y83.242
X33.501 Y83.249
X33.528 Y83.255
X33.556 Y83.259
X33.583 Y83.26
X33.611
X33.638 Y83.258
X33.665 Y83.254
X33.693 Y83.248
X33.726 Y83.239
X33.742 Y83.232
X33.759 Y83.225
X33.778 Y83.216
X33.797 Y83.206
X33.816 Y83.194
X33.835 Y83.18
X33.854 Y83.165
X33.873 Y83.148
X33.894 Y83.127
X33.911 Y83.105
X33.929 Y83.081
X33.944 Y83.056
X33.971 Y83.007
X34.031 Y82.897
X34.042 Y82.87
X34.051 Y82.843
X34.058 Y82.815
X34.063 Y82.788
X34.066 Y82.761
X34.067 Y82.733
X34.066 Y82.706
X34.063 Y82.679
X34.059 Y82.651
X34.052 Y82.624
X34.043 Y82.597
X34.032 Y82.569
X34.023 Y82.55
X34.013 Y82.531
X34.001 Y82.511
X33.987 Y82.492
X33.972 Y82.473
X33.954 Y82.453
X33.933 Y82.433
X33.911 Y82.415
X33.885 Y82.396
X33.859 Y82.38
X31.386 Y80.981
X31.361 Y80.968
X31.335 Y80.958
X31.31 Y80.949
X31.285 Y80.942
X31.258 Y80.936
X31.231 Y80.933
X31.203 Y80.931
X31.176
X31.149 Y80.933
X31.121 Y80.937
X31.094 Y80.943
X31.067 Y80.951
X31.048 Y80.957
X31.03 Y80.965
X31.011 Y80.973
X30.993 Y80.983
X30.974 Y80.995
X30.956 Y81.007
X30.937 Y81.022
X30.919 Y81.038
X30.897 Y81.06
X30.878 Y81.082
X30.862 Y81.104
X30.848 Y81.126
X30.774 Y81.257
X30.76 Y81.284
X30.747 Y81.311
X30.737 Y81.339
X30.73 Y81.366
X30.724 Y81.393
X30.72 Y81.421
X30.718 Y81.448
Y81.475
X30.72 Y81.503
X30.724 Y81.53
X30.73 Y81.557
X30.738 Y81.585
X30.748 Y81.612
X30.76 Y81.639
X30.775 Y81.667
X30.793 Y81.694
X30.804 Y81.71
X30.817 Y81.725
X30.832 Y81.741
X30.848 Y81.756
X30.861 Y81.768
X30.875 Y81.779
X30.902 Y81.798
X31.012 Y81.875
X31.175 Y81.99 F13.
X31.185 Y82.007
X31.191 Y82.023
X31.177 Y82.091
X31.174 Y82.104
X31.047 Y82.35 F50.
X30.928 Y82.569
X29.469 Y85.194
X29.347 Y85.413
X29.217 Y85.632
X29.193 Y85.673
X29.178 Y85.693 F13.
X29.127 Y85.742
X29.112 Y85.744
X29.097 Y85.745
X28.842 Y85.632 F50.
X28.751 Y85.593
X28.728 Y85.585
X28.705 Y85.579
X28.682 Y85.575
X28.659 Y85.571
X28.632 Y85.569
X28.605
X28.577 Y85.571
X28.55 Y85.575
X28.523 Y85.58
X28.495 Y85.588
X28.468 Y85.597
X28.44 Y85.61
X28.42 Y85.62
X28.4 Y85.632
X28.372 Y85.652
X28.358 Y85.663
X28.344 Y85.676
X28.327 Y85.692
X28.312 Y85.709
X28.299 Y85.725
X28.287 Y85.741
X28.269 Y85.769
X28.222 Y85.855
X28.192 Y85.909
X28.179 Y85.935
X28.168 Y85.962
X28.159 Y85.989
X28.153 Y86.016
X28.148 Y86.043
X28.145 Y86.07
X28.144 Y86.097
X28.145 Y86.124
X28.147 Y86.152
X28.152 Y86.179
X28.159 Y86.206
X28.167 Y86.234
X28.178 Y86.261
X28.192 Y86.288
X28.206 Y86.312
X28.222 Y86.335
X28.233 Y86.351
X28.246 Y86.366
X28.26 Y86.381
X28.276 Y86.396
X28.29 Y86.408
X28.304 Y86.418
X28.331 Y86.437
X28.454 Y86.507
X30.773 Y87.82
X30.848 Y87.861
X30.875 Y87.873
X30.902 Y87.882
X30.93 Y87.889
X30.957 Y87.894
X30.984 Y87.898
X31.012 Y87.899
X31.039 Y87.898
X31.067 Y87.896
X31.09 Y87.892
X31.114 Y87.887
X31.138 Y87.881
X31.162 Y87.872
X31.186 Y87.862
X31.21 Y87.85
X31.233 Y87.836
X31.257 Y87.82
X31.271 Y87.809
X31.285 Y87.797
X31.31 Y87.772
X31.331 Y87.748
X31.349 Y87.723
X31.365 Y87.699
X31.42 Y87.601
X31.439 Y87.566
X31.45 Y87.546
X31.462 Y87.519
X31.472 Y87.492
X31.48 Y87.464
X31.485 Y87.437
X31.489 Y87.41
X31.491 Y87.382
Y87.355
X31.489 Y87.328
X31.485 Y87.3
X31.479 Y87.273
X31.471 Y87.245
X31.461 Y87.218
X31.449 Y87.191
X31.434 Y87.163
X31.419 Y87.141
X31.402 Y87.118
X31.383 Y87.096
X31.36 Y87.073
X31.341 Y87.057
X31.323 Y87.043
X31.148 Y86.921
X31.127 Y86.898
X31.116 Y86.868
X31.117 Y86.837
X31.13 Y86.808
X32.858 Y84.425
X32.876 Y84.4 Z-0.255
X32.891 Y84.379 Z-0.237
X32.902 Y84.365 Z-0.211
X32.905 Y84.36 Z-0.181
G0 Z5.
X27.976 Y85.657
Z1.031
G1 Z-0.299 F50.
X27.951 Y85.638
X27.935 Y85.611
X27.93 Y85.58
X27.938 Y85.55
X27.948 Y85.523
X27.957 Y85.495
X27.963 Y85.468
X27.967 Y85.441
X27.969 Y85.413
X27.97 Y85.386
X27.969 Y85.359
X27.965 Y85.331
X27.96 Y85.304
X27.953 Y85.276
X27.943 Y85.249
X27.932 Y85.222
X27.918 Y85.194
X27.906 Y85.176
X27.893 Y85.157
X27.879 Y85.138
X27.862 Y85.119
X27.784 Y85.044
X27.654 Y84.921
X27.641 Y84.907
X27.601 Y84.825 F13.
X27.602 Y84.812
X27.604 Y84.771
X27.607 Y84.757
X27.687 Y84.606 F50.
X27.696 Y84.593
X30.483 Y80.792
X30.501 Y80.764
X30.516 Y80.737
X30.529 Y80.71
X30.539 Y80.682
X30.546 Y80.655
X30.552 Y80.628
X30.556 Y80.6
X30.558 Y80.573
Y80.545
X30.556 Y80.518
X30.553 Y80.491
X30.547 Y80.463
X30.539 Y80.436
X30.529 Y80.409
X30.517 Y80.381
X30.508 Y80.365
X30.499 Y80.348
X30.488 Y80.331
X30.475 Y80.314
X30.462 Y80.298
X30.447 Y80.281
X30.428 Y80.263
X30.41 Y80.247
X30.299 Y80.163
X30.272 Y80.144
X30.245 Y80.127
X30.218 Y80.114
X30.191 Y80.103
X30.164 Y80.094
X30.136 Y80.087
X30.109 Y80.083
X30.082 Y80.08
X30.054 Y80.079
X30.027
X30. Y80.082
X29.972 Y80.087
X29.754 Y80.143
X25.634 Y81.211
X25.44 Y81.262 F13.
X25.421 Y81.257
X26.845 Y79.315 F50.
X26.855 Y79.301
X26.977 Y79.177 F13.
X26.991 Y79.169
X27.032 Y79.154
X27.045
X27.086 Y79.161
X27.1 Y79.166
X27.166 Y79.193 F50.
X27.179 Y79.199
X27.346 Y79.296
X27.374 Y79.311
X27.401 Y79.325
X27.428 Y79.336
X27.456 Y79.345
X27.483 Y79.352
X27.51 Y79.356
X27.538 Y79.359
X27.565 Y79.36
X27.593 Y79.359
X27.62 Y79.356
X27.647 Y79.352
X27.675 Y79.345
X27.702 Y79.336
X27.729 Y79.325
X27.757 Y79.311
X27.784 Y79.295
X27.795 Y79.288
X27.81 Y79.276
X27.826 Y79.263
X27.842 Y79.249
X27.858 Y79.233
X27.87 Y79.219
X27.881 Y79.205
X27.901 Y79.178
X27.982 Y79.069
X27.993 Y79.052
X28.003 Y79.036
X28.015 Y79.012
X28.025 Y78.989
X28.033 Y78.966
X28.04 Y78.943
X28.046 Y78.92
X28.049 Y78.896
X28.052 Y78.873
X28.053 Y78.85
Y78.825
X28.051 Y78.799
X28.048 Y78.774
X28.042 Y78.748
X28.035 Y78.723
X28.027 Y78.697
X28.016 Y78.672
X28.003 Y78.646
X27.994 Y78.631
X27.975 Y78.603
X27.964 Y78.589
X27.952 Y78.574
X27.937 Y78.559
X27.92 Y78.543
X27.905 Y78.53
X27.889 Y78.518
X26.416 Y77.417
X26.389 Y77.398
X26.362 Y77.382
X26.334 Y77.369
X26.307 Y77.358
X26.279 Y77.35
X26.252 Y77.343
X26.225 Y77.339
X26.197 Y77.336
X26.17 Y77.335
X26.143 Y77.336
X26.115 Y77.339
X26.088 Y77.344
X26.061 Y77.351
X26.033 Y77.361
X26.007 Y77.371
X25.981 Y77.385
X25.954 Y77.401
X25.928 Y77.419
X25.913 Y77.432
X25.897 Y77.446
X25.881 Y77.462
X25.867 Y77.478
X25.823 Y77.537
X25.776 Y77.6
X25.758 Y77.626
X25.741 Y77.652
X25.727 Y77.678
X25.716 Y77.704
X25.706 Y77.73
X25.699 Y77.756
X25.693 Y77.783
X25.689 Y77.811
X25.687 Y77.838
X25.686 Y77.866
X25.688 Y77.893
X25.692 Y77.92
X25.697 Y77.948
X25.705 Y77.975
X25.712 Y77.997
X25.721 Y78.018
X25.732 Y78.04
X25.744 Y78.061
X25.758 Y78.083
X25.774 Y78.105
X25.793 Y78.126
X25.814 Y78.148
X26.007 Y78.33
X26.022 Y78.353 F13.
X26.051 Y78.412
X26.055 Y78.426
X26.052 Y78.48
X26.048 Y78.493
X25.967 Y78.645 F50.
X25.957 Y78.659
X23.85 Y81.533
X23.731 Y81.694 F13.
X23.718 Y81.704
X23.517 Y81.744
X23.503 Y81.746
X23.489 Y81.747
X23.188 Y81.632 F50.
X23.161 Y81.621
X23.134 Y81.613
X23.106 Y81.606
X23.079 Y81.602
X23.052 Y81.599
X23.024 Y81.598
X22.997 Y81.599
X22.97 Y81.603
X22.944 Y81.607
X22.919 Y81.613
X22.894 Y81.621
X22.869 Y81.631
X22.844 Y81.643
X22.818 Y81.657
X22.793 Y81.674
X22.768 Y81.694
X22.751 Y81.71
X22.738 Y81.722
X22.726 Y81.735
X22.706 Y81.76
X22.669 Y81.811
X22.598 Y81.913
X22.583 Y81.94
X22.57 Y81.968
X22.56 Y81.995
X22.552 Y82.022
X22.547 Y82.05
X22.543 Y82.077
X22.541 Y82.104
Y82.132
X22.543 Y82.159
X22.546 Y82.186
X22.552 Y82.214
X22.56 Y82.241
X22.57 Y82.268
X22.582 Y82.296
X22.597 Y82.323
X22.614 Y82.35
X22.628 Y82.369
X22.644 Y82.387
X22.663 Y82.407
X22.683 Y82.424
X22.751 Y82.476
X24.228 Y83.579
X24.255 Y83.599
X24.283 Y83.616
X24.3 Y83.625
X24.318 Y83.633
X24.335 Y83.64
X24.353 Y83.647
X24.371 Y83.652
X24.388 Y83.657
X24.406 Y83.66
X24.423 Y83.663
X24.443 Y83.665
X24.462 Y83.666
X24.482 Y83.667
X24.501 Y83.666
X24.533 Y83.663
X24.556 Y83.659
X24.58 Y83.654
X27.386 Y82.9
X27.579 Y82.849 F13.
X27.594 Y82.865
X26.816 Y83.926 F50.
X26.799 Y83.948
X26.676 Y84.073 F13.
X26.662 Y84.079
X26.635 Y84.09
X26.621 Y84.094
X26.567 Y84.086
X26.485 Y84.051 F50.
X26.471 Y84.044
X26.307 Y83.949
X26.279 Y83.934
X26.252 Y83.92
X26.225 Y83.91
X26.197 Y83.901
X26.17 Y83.895
X26.143 Y83.89
X26.115 Y83.887
X26.088
X26.061 Y83.888
X26.033 Y83.891
X26.006 Y83.896
X25.979 Y83.903
X25.951 Y83.912
X25.924 Y83.924
X25.897 Y83.937
X25.869 Y83.954
X25.842 Y83.974
X25.828 Y83.986
X25.814 Y83.998
X25.802 Y84.011
X25.79 Y84.024
X25.769 Y84.049
X25.692 Y84.155
X25.672 Y84.183
X25.655 Y84.21
X25.641 Y84.237
X25.629 Y84.265
X25.62 Y84.292
X25.613 Y84.319
X25.608 Y84.347
X25.604 Y84.374
X25.603 Y84.401
X25.604 Y84.429
X25.606 Y84.456
X25.61 Y84.483
X25.617 Y84.511
X25.625 Y84.538
X25.636 Y84.565
X25.649 Y84.593
X25.664 Y84.62
X25.683 Y84.648
X25.696 Y84.663
X25.71 Y84.679
X25.726 Y84.696
X25.743 Y84.711
X25.803 Y84.757
X27.127 Y85.745
X27.271 Y85.851
X27.29 Y85.862
X27.309 Y85.872
X27.327 Y85.88
X27.346 Y85.888
X27.374 Y85.896
X27.401 Y85.903
X27.428 Y85.908
X27.456 Y85.911
X27.483 Y85.912
X27.51 Y85.911
X27.538 Y85.908
X27.565 Y85.903
X27.598 Y85.895
X27.63 Y85.884
X27.646 Y85.877
X27.663 Y85.869
X27.679 Y85.86
X27.695 Y85.851
X27.717 Y85.836
X27.739 Y85.819
X27.762 Y85.798
X27.784 Y85.775
X27.799 Y85.757
X27.812 Y85.739
X27.89 Y85.632
X27.909 Y85.605
X27.925 Y85.577
X27.938 Y85.55
X27.956 Y85.525
X27.983 Y85.509
X28.014 Y85.504
X28.044 Y85.512
G0 Z5.
X22.413 Y81.506
Z1.031
G1 Z-0.399 F50.
X22.392 Y81.482
X22.382 Y81.452
X22.385 Y81.421
X22.399 Y81.393
X22.417 Y81.366
X22.431 Y81.339
X22.444 Y81.311
X22.454 Y81.284
X22.461 Y81.257
X22.467 Y81.229
X22.471 Y81.202
X22.473 Y81.174
Y81.147
X22.471 Y81.12
X22.467 Y81.092
X22.461 Y81.065
X22.454 Y81.038
X22.444 Y81.01
X22.431 Y80.983
X22.416 Y80.956
X22.398 Y80.928
X22.232 Y80.708
X22.202 Y80.667 F13.
X22.193 Y80.654
X22.187 Y80.614
X22.19 Y80.6
X22.236 Y80.514 F50.
X22.252 Y80.492
X22.356 Y80.381
X22.532 Y80.197
X24.12 Y78.631
X24.208 Y78.542
X24.317 Y78.412
X24.638 Y78.029
X24.658 Y78.002
X24.675 Y77.975
X24.699 Y77.936
X24.71 Y77.917
X24.72 Y77.898
X24.784 Y77.756
X24.878 Y77.537
X24.939 Y77.395
X24.971 Y77.319
X24.981 Y77.291
X24.988 Y77.264
X25.002 Y77.209
X25.009 Y77.182
X25.014 Y77.154
X25.021 Y77.1
X25.04 Y76.881
X25.047 Y76.772
Y76.717
X25.045 Y76.662
X25.03 Y76.553
X25.011 Y76.443
X24.966 Y76.225
X24.939 Y76.133
X24.927 Y76.102
X24.887 Y76.006
X24.781 Y75.787
X24.72 Y75.668
X24.662 Y75.568
X24.645 Y75.543
X24.624 Y75.518
X24.24 Y75.04
X24.218 Y75.014
X24.204 Y75.
X24.191 Y74.988
X24.099 Y74.912
X24.064 Y74.883
X23.845 Y74.705
X23.516 Y74.446
X23.498 Y74.432
X23.48 Y74.42
X23.407 Y74.378
X23.38 Y74.365
X23.353 Y74.354
X23.298 Y74.336
X23.038 Y74.256
X22.751 Y74.172
X22.641 Y74.141
X22.614 Y74.135
X22.587 Y74.132
X22.532 Y74.129
X22.505 Y74.13
X22.477 Y74.132
X22.422 Y74.137
X22.313 Y74.147
X22.094 Y74.192
X21.93 Y74.227
X21.903 Y74.234
X21.875 Y74.242
X21.746 Y74.286
X21.701 Y74.302
X21.679 Y74.312
X21.657 Y74.323
X21.629 Y74.338
X21.602 Y74.357
X21.438 Y74.476
X21.219 Y74.635
X21. Y74.795
X20.933 Y74.847
X20.865 Y74.912
X19.031 Y76.721
X18.859 Y76.881
X18.757 Y76.975
X18.743 Y76.983 F13.
X18.689 Y77.011
X18.675
X18.661 Y77.008
X18.648 Y76.999
X18.509 Y76.881 F50.
X18.374 Y76.767
X18.347 Y76.748
X18.319 Y76.732
X18.292 Y76.718
X18.265 Y76.707
X18.237 Y76.699
X18.21 Y76.692
X18.183 Y76.688
X18.155 Y76.685
X18.128 Y76.684
X18.1 Y76.685
X18.073 Y76.688
X18.046 Y76.693
X18.018 Y76.7
X17.991 Y76.709
X17.964 Y76.721
X17.936 Y76.734
X17.915 Y76.747
X17.894 Y76.761
X17.873 Y76.778
X17.852 Y76.797
X17.741 Y76.908
X17.729 Y76.921
X17.718 Y76.934
X17.702 Y76.955
X17.688 Y76.976
X17.676 Y76.996
X17.665 Y77.017
X17.656 Y77.038
X17.648 Y77.058
X17.642 Y77.079
X17.636 Y77.1
X17.631 Y77.127
X17.628 Y77.154
X17.627 Y77.182
Y77.209
X17.63 Y77.237
X17.634 Y77.264
X17.64 Y77.291
X17.649 Y77.319
X17.661 Y77.349
X17.676 Y77.38
X17.685 Y77.396
X17.695 Y77.411
X17.705 Y77.426
X17.718 Y77.442
X17.808 Y77.537
X19.712 Y79.506
X19.736 Y79.531
X19.76 Y79.551
X19.785 Y79.569
X19.809 Y79.584
X19.833 Y79.597
X19.857 Y79.608
X19.882 Y79.616
X19.906 Y79.624
X19.933 Y79.63
X19.961 Y79.634
X19.988 Y79.636
X20.015 Y79.637
X20.043 Y79.635
X20.07 Y79.632
X20.097 Y79.627
X20.125 Y79.619
X20.147 Y79.612
X20.17 Y79.603
X20.192 Y79.592
X20.214 Y79.579
X20.237 Y79.565
X20.259 Y79.548
X20.282 Y79.528
X20.344 Y79.468
X20.39 Y79.423
X20.412 Y79.4
X20.43 Y79.378
X20.447 Y79.355
X20.461 Y79.333
X20.473 Y79.31
X20.483 Y79.288
X20.493 Y79.26
X20.501 Y79.233
X20.507 Y79.205
X20.511 Y79.178
X20.513 Y79.151
X20.514 Y79.123
X20.512 Y79.096
X20.509 Y79.069
X20.503 Y79.041
X20.496 Y79.014
X20.486 Y78.987
X20.474 Y78.959
X20.46 Y78.932
X20.442 Y78.905
X20.4 Y78.85
X20.215 Y78.618 F13.
X20.206 Y78.604
X20.2 Y78.577
X20.206 Y78.563
X20.235 Y78.508
X20.245 Y78.494 F50.
X20.344 Y78.391
X20.535 Y78.194
X22.563 Y76.198
X22.577 Y76.186
X22.644 Y76.133
X22.751 Y76.047
X22.845 Y75.973
X22.865 Y75.961
X22.97 Y75.923
X23.079 Y75.885 F13.
X23.093 Y75.883
X23.298 Y75.914
X23.312 Y75.917
X23.325 Y75.926
X23.626 Y76.146 F50.
X23.642 Y76.166
X23.869 Y76.542
X23.879 Y76.562 F13.
X23.88 Y76.582
X23.884 Y76.662 F50.
X23.89 Y76.923
X23.886 Y76.944
X23.878 Y76.965
X23.845 Y77.049
X23.733 Y77.319
X23.723 Y77.336
X23.626 Y77.458
X23.563 Y77.537
X23.429 Y77.704
X23.407 Y77.728
X21.824 Y79.288
X21.657 Y79.45
X21.594 Y79.506
X21.424 Y79.661
X21.41 Y79.669
X21.328 Y79.711 F13.
X21.315 Y79.715
X21.287 Y79.71
X21.274 Y79.705
X21.029 Y79.506 F50.
X21. Y79.484
X20.973 Y79.467
X20.945 Y79.452
X20.918 Y79.44
X20.891 Y79.431
X20.863 Y79.423
X20.836 Y79.418
X20.809 Y79.414
X20.781 Y79.412
X20.754 Y79.413
X20.727 Y79.415
X20.699 Y79.419
X20.672 Y79.425
X20.644 Y79.433
X20.617 Y79.443
X20.59 Y79.456
X20.562 Y79.471
X20.538 Y79.487
X20.514 Y79.506
X20.424 Y79.593
X20.38 Y79.636
X20.361 Y79.658
X20.344 Y79.68
X20.328 Y79.702
X20.315 Y79.725
X20.301 Y79.752
X20.29 Y79.78
X20.281 Y79.807
X20.275 Y79.834
X20.27 Y79.862
X20.267 Y79.889
X20.266 Y79.917
X20.267 Y79.944
X20.27 Y79.97
X20.274 Y79.996
X20.281 Y80.022
X20.289 Y80.048
X20.299 Y80.074
X20.311 Y80.1
X20.326 Y80.126
X20.344 Y80.152
X20.351 Y80.163
X20.362 Y80.176
X20.375 Y80.19
X21.684 Y81.544
X21.698 Y81.557
X21.711 Y81.569
X21.739 Y81.59
X21.766 Y81.608
X21.793 Y81.622
X21.821 Y81.634
X21.848 Y81.644
X21.875 Y81.652
X21.903 Y81.657
X21.93 Y81.661
X21.957 Y81.662
X21.985
X22.012 Y81.66
X22.04 Y81.656
X22.067 Y81.65
X22.094 Y81.642
X22.122 Y81.632
X22.149 Y81.619
X22.176 Y81.604
X22.204 Y81.586
X22.217 Y81.575
X22.231 Y81.564
X22.258 Y81.538
X22.352 Y81.448
X22.365 Y81.434
X22.377 Y81.421
X22.399 Y81.393
X22.422 Y81.373
X22.452 Y81.363
X22.483 Y81.365
X22.511 Y81.38
G0 Z5.
X38.954 Y85.152
Z1.012
G1 Z-0.081 F50.
X38.96 Y85.154 Z-0.111
X38.977 Y85.158 Z-0.137
X39.002 Y85.164 Z-0.155
X39.032 Y85.171 Z-0.161
X39.094 Y85.186
X39.122 Y85.199
X39.143 Y85.222
X39.154 Y85.251
X39.153 Y85.282
X39.148 Y85.304
X39.145 Y85.326
X39.142 Y85.348
X39.141 Y85.37
Y85.391
X39.143 Y85.413
X39.146 Y85.437
X39.15 Y85.462
X39.156 Y85.486
X39.163 Y85.51
X39.176 Y85.54
X39.191 Y85.571
X39.199 Y85.586
X39.209 Y85.602
X39.22 Y85.617
X39.232 Y85.632
X39.249 Y85.652
X39.269 Y85.672
X39.288 Y85.688
X39.307 Y85.703
X39.326 Y85.716
X39.345 Y85.727
X39.364 Y85.737
X39.382 Y85.746
X39.601 Y85.823
X39.723 Y85.865 F13.
X39.743 Y85.873
X39.759 Y85.889
X39.764 Y85.905
X39.769 Y85.974
X39.767 Y85.988 F50.
X39.705 Y86.288
X39.655 Y86.507
X38.931 Y89.57
X38.875 Y89.789
X38.828 Y89.966
X38.824 Y89.98 F13.
X38.794 Y90.031
X38.78 Y90.05
X38.767 Y90.055
X38.746 Y90.056
X38.507 Y90.023 F50.
X38.385 Y90.007
X38.357
X38.329
X38.309 Y90.009
X38.288 Y90.013
X38.261 Y90.018
X38.233 Y90.026
X38.206 Y90.036
X38.179 Y90.049
X38.151 Y90.064
X38.124 Y90.082
X38.097 Y90.103
X38.083 Y90.115
X38.069 Y90.129
X38.048 Y90.153
X38.029 Y90.178
X38.014 Y90.202
X38. Y90.226
X37.988 Y90.254
X37.978 Y90.281
X37.963 Y90.336
X37.937 Y90.445
X37.931 Y90.472
X37.926 Y90.5
X37.923 Y90.527
Y90.554
X37.924 Y90.582
X37.927 Y90.609
X37.932 Y90.636
X37.939 Y90.664
X37.947 Y90.688
X37.957 Y90.713
X37.969 Y90.738
X37.983 Y90.762
X37.999 Y90.787
X38.019 Y90.812
X38.031 Y90.825
X38.044 Y90.838
X38.069 Y90.861
X38.084 Y90.872
X38.099 Y90.883
X38.122 Y90.897
X38.146 Y90.91
X38.17 Y90.921
X38.193 Y90.93
X38.217 Y90.937
X38.241 Y90.943
X42.545 Y91.976
X42.665 Y92.004
X42.692 Y92.008
X42.72 Y92.01
X42.747 Y92.009
X42.774 Y92.007
X42.802 Y92.003
X42.829 Y91.997
X42.856 Y91.989
X42.884 Y91.979
X42.89 Y91.976
X42.909 Y91.968
X42.927 Y91.958
X42.945 Y91.948
X42.964 Y91.935
X42.982 Y91.921
X43. Y91.906
X43.02 Y91.887
X43.037 Y91.868
X43.058 Y91.841
X43.076 Y91.814
X43.09 Y91.787
X43.103 Y91.76
Y91.758
X43.113 Y91.73
X43.121 Y91.703
X43.469 Y90.226
X43.495 Y90.117
X43.5 Y90.09
X43.503 Y90.062
X43.504 Y90.035
X43.503 Y90.007
X43.5 Y89.98
X43.495 Y89.953
X43.488 Y89.925
X43.48 Y89.898
X43.469 Y89.871
X43.455 Y89.843
X43.439 Y89.816
X43.419 Y89.789
X43.397 Y89.763
X43.384 Y89.749
X43.37 Y89.736
X43.346 Y89.716
X43.321 Y89.699
X43.294 Y89.683
X43.267 Y89.669
X43.239 Y89.658
X43.212 Y89.649
X43.103 Y89.623
X43.048 Y89.61
X43.02 Y89.605
X42.993 Y89.601
X42.966 Y89.6
X42.938
X42.911 Y89.603
X42.884 Y89.607
X42.856 Y89.613
X42.829 Y89.621
X42.802 Y89.632
X42.774 Y89.645
X42.747 Y89.661
X42.72 Y89.679
X42.706 Y89.69
X42.692 Y89.702
X42.679 Y89.714
X42.665 Y89.728
X42.652 Y89.744
X42.64 Y89.759
X42.629 Y89.774
X42.619 Y89.789
X42.378 Y90.178
X42.273 Y90.348 F13.
X42.25 Y90.367
X42.227 Y90.381
X42.212 Y90.358
X42.227 Y90.335
X42.237 Y90.317
X42.246 Y90.3
X42.255 Y90.281 F50.
X42.262 Y90.263
X42.268 Y90.245
X42.273 Y90.226
X42.377 Y89.789
X42.893 Y87.601
X42.944 Y87.382
X42.948 Y87.355
X42.95 Y87.328
Y87.3
X42.948 Y87.273
X42.944 Y87.245
X42.938 Y87.218
X42.93 Y87.191
X42.92 Y87.163
X42.911 Y87.143
X42.9 Y87.122
X42.884 Y87.094
X42.866 Y87.07
X42.846 Y87.046
X42.833 Y87.032
X42.819 Y87.019
X42.793 Y86.997
X42.77 Y86.981
X42.747 Y86.967
X42.725 Y86.955
X42.702 Y86.945
X42.683 Y86.938
X42.665 Y86.931
X42.533 Y86.899
X42.489 Y86.889
X42.468 Y86.885
X42.446 Y86.882
X42.419 Y86.88
X42.391
X42.364 Y86.882
X42.337 Y86.886
X42.309 Y86.892
X42.282 Y86.899
X42.255 Y86.909
X42.227 Y86.922
X42.207 Y86.932
X42.187 Y86.945
X42.159 Y86.965
X42.145 Y86.976
X42.131 Y86.989
X42.115 Y87.005
X42.1 Y87.021
X42.087 Y87.038
X42.075 Y87.054
X42.058 Y87.081
X42.044 Y87.109
X41.844 Y87.546
X41.838 Y87.56
X41.79 Y87.627
X41.66 Y87.807 F13.
X41.648 Y87.813
X41.518 Y87.878
X41.494 Y87.861
X41.71 Y86.945 F50.
X41.79 Y86.637
X41.804 Y86.582 F13.
X41.808 Y86.569
X41.83 Y86.526
X41.844 Y86.528
X41.981 Y86.546 F50.
X41.995 Y86.549
X42.446 Y86.676
X42.476 Y86.684
X42.491 Y86.688
X42.505 Y86.694
X42.936 Y86.923
X42.954 Y86.945
X43.258 Y87.328
X43.268 Y87.341
X43.362 Y87.615
X43.366 Y87.628
X43.37 Y87.656
X43.378 Y87.71
X43.429 Y88.093
X43.434 Y88.121
X43.44 Y88.148
X43.449 Y88.175
X43.461 Y88.203
X43.474 Y88.23
X43.491 Y88.257
X43.501 Y88.273
X43.513 Y88.288
X43.526 Y88.303
X43.54 Y88.318
X43.554 Y88.332
X43.568 Y88.344
X43.595 Y88.365
X43.622 Y88.382
X43.65 Y88.397
X43.677 Y88.409
X43.704 Y88.419
X43.759 Y88.433
X43.868 Y88.458
X43.896 Y88.464
X43.923 Y88.468
X43.951 Y88.47
X43.978
X44.005 Y88.469
X44.033 Y88.465
X44.06 Y88.46
X44.087 Y88.452
X44.115 Y88.443
X44.142 Y88.431
X44.169 Y88.416
X44.197 Y88.399
X44.216 Y88.385
X44.236 Y88.368
X44.256 Y88.348
X44.274 Y88.328
X44.288 Y88.31
X44.301 Y88.293
X44.312 Y88.275
X44.322 Y88.257
X44.335 Y88.23
X44.346 Y88.203
X44.354 Y88.175
X44.361 Y88.148
X44.365 Y88.121
X44.368 Y88.093
X44.473 Y86.925
X44.492 Y86.726 F13.
X44.506
X44.513 Y86.753
X44.521 Y86.781
X44.531 Y86.808
X44.544 Y86.835 F50.
X44.559 Y86.863
X44.578 Y86.89
X44.588 Y86.904
X44.6 Y86.917
X44.613 Y86.931
X44.627 Y86.945
X44.634 Y86.952
X44.648 Y86.963
X44.662 Y86.974
X44.689 Y86.992
X44.716 Y87.008
X44.744 Y87.021
X44.771 Y87.031
X44.799 Y87.039
X44.853 Y87.05
X44.973 Y87.073
X45.17 Y87.109 F13.
X45.189 Y87.122
X45.197 Y87.136
X45.212 Y87.204
X45.213 Y87.218 F50.
X45.204 Y87.382
X45.191 Y87.601
X44.924 Y90.883
X44.902 Y91.101
X44.881 Y91.293
X44.879 Y91.306
X44.853 Y91.371 F13.
X44.84 Y91.389
X44.826 Y91.396
X44.812 Y91.398
X44.47 Y91.403 F50.
X44.443 Y91.405
X44.416 Y91.408
X44.388 Y91.414
X44.361 Y91.421
X44.333 Y91.431
X44.306 Y91.443
X44.279 Y91.457
X44.251 Y91.475
X44.224 Y91.495
X44.21 Y91.507
X44.197 Y91.52
X44.179 Y91.539
X44.168 Y91.553
X44.157 Y91.566
X44.139 Y91.594
X44.123 Y91.621
X44.111 Y91.648
X44.1 Y91.676
X44.092 Y91.703
X44.086 Y91.73
X44.082 Y91.758
X44.072 Y91.867
X44.068 Y91.922
X44.067 Y91.949
Y91.976
X44.07 Y92.004
X44.075 Y92.031
X44.081 Y92.059
X44.09 Y92.086
X44.101 Y92.113
X44.114 Y92.141
X44.131 Y92.168
X44.15 Y92.195
X44.171 Y92.221
X44.184 Y92.234
X44.197 Y92.246
X44.21 Y92.258
X44.224 Y92.269
X44.251 Y92.288
X44.279 Y92.304
X44.306 Y92.317
X44.333 Y92.328
X44.361 Y92.336
X44.388 Y92.343
X44.416 Y92.347
X44.634 Y92.366
X47.26 Y92.585
X47.479 Y92.6
X47.862 Y92.611
X47.89 Y92.612
X47.917 Y92.611
X48.136 Y92.581
X48.573 Y92.519
X48.628 Y92.51
X48.656 Y92.504
X48.683 Y92.496
X48.71 Y92.486
X48.738 Y92.474
X48.792 Y92.448
X49.23 Y92.235
X49.266 Y92.217
X49.284 Y92.207
X49.302 Y92.195
X49.323 Y92.18
X49.345 Y92.163
X49.366 Y92.144
X49.387 Y92.121
X49.735 Y91.703
X49.757 Y91.676
X49.776 Y91.648
X49.792 Y91.621
X49.805 Y91.594
X49.815 Y91.566
X49.824 Y91.539
X49.94 Y91.101
X49.969 Y90.992
X49.983 Y90.937
X49.989 Y90.91
X49.994 Y90.883
X49.996 Y90.855
Y90.828
X49.995 Y90.801
X49.992 Y90.773
X49.979 Y90.664
X49.942 Y90.336
X49.935 Y90.281
X49.93 Y90.254
X49.923 Y90.226
X49.916 Y90.205
X49.908 Y90.183
X49.898 Y90.162
X49.886 Y90.14
X49.668 Y89.743
X49.642 Y89.7
X49.627 Y89.678
X49.609 Y89.657
X49.586 Y89.632
X49.563 Y89.611
X49.23 Y89.318
X49.202 Y89.294 F13.
X49.188 Y89.282
X49.174 Y89.272
X49.155 Y89.26
X49.137 Y89.249
X49.148 Y89.225
X50.334 Y87.82 F50.
X50.405 Y87.745
X50.543 Y87.6 F13.
X50.557 Y87.587
X50.817 Y87.523 F50.
X50.844 Y87.515
X50.871 Y87.505
X50.899 Y87.492
X50.926 Y87.477
X50.953 Y87.459
X50.967 Y87.449
X50.981 Y87.437
X50.995 Y87.424 F13.
X51.009 Y87.41
X51.022 Y87.396
X51.033 Y87.382
X51.044 Y87.368
X51.054 Y87.353
X51.073 Y87.368
X51.168 Y88.859 F50.
X51.17 Y88.886
X51.175 Y88.914
X51.179 Y88.934
X51.185 Y88.955
X51.191 Y88.975
X51.199 Y88.996
X51.207 Y89.013
X51.216 Y89.03
X51.226 Y89.047
X51.237 Y89.064
X51.249 Y89.081
X51.263 Y89.098
X51.278 Y89.115
X51.295 Y89.132
X51.311 Y89.146
X51.326 Y89.158
X51.341 Y89.169
X51.357 Y89.179
X51.372 Y89.188
X51.388 Y89.197
X51.418 Y89.211
X51.446 Y89.22
X51.473 Y89.228
X51.5 Y89.234
X51.528 Y89.238
X51.555 Y89.239
X51.582
X51.637 Y89.236
X51.747 Y89.229
X51.774 Y89.226
X51.801 Y89.221
X51.829 Y89.214
X51.856 Y89.204
X51.886 Y89.192
X51.916 Y89.176
X51.931 Y89.166
X51.946 Y89.156
X51.961 Y89.145
X51.976 Y89.132
X51.993 Y89.117
X52.009 Y89.1
X52.023 Y89.084
X52.036 Y89.068
X52.047 Y89.051
X52.058 Y89.035
X52.067 Y89.019
X52.075 Y89.003
X52.085 Y88.98
X52.093 Y88.958
X52.1 Y88.936
X52.105 Y88.914
X52.239 Y88.326
X52.243 Y88.312
X52.513 Y87.84
X52.53 Y87.82
X52.886 Y87.508
X52.908 Y87.491
X53.388 Y87.344
X53.402
X53.593 Y87.36
X53.607 Y87.361
X53.784 Y87.433
X53.805 Y87.443
X53.915 Y87.549 F13.
X53.923 Y87.567
X53.961 Y87.683
X53.963 Y87.697
X53.918 Y87.893
X53.91 Y87.917
X53.72 Y88.137 F50.
X53.706 Y88.151
X52.873 Y88.695
X52.731 Y88.788
X52.711 Y88.803
X52.001 Y89.351
X51.856 Y89.464
X51.799 Y89.517
X51.785 Y89.53
X51.773 Y89.544
X51.751 Y89.57
X51.735 Y89.593
X51.721 Y89.616
X51.484 Y90.007
X51.418 Y90.12
X51.406 Y90.146
X51.396 Y90.173
X51.388 Y90.2
X51.382 Y90.226
X51.351 Y90.445
X51.32 Y90.664
X51.292 Y90.883
X51.291 Y90.91
Y90.937
X51.294 Y90.965
X51.298 Y90.992
X51.327 Y91.101
X51.481 Y91.648
X51.49 Y91.676
X51.501 Y91.703
X51.515 Y91.73
X51.531 Y91.758
X51.542 Y91.774
X51.554 Y91.791
X51.582 Y91.824
X51.637 Y91.889
X51.96 Y92.273
X51.972 Y92.286
X51.985 Y92.299
X52.007 Y92.32
X52.03 Y92.337
X52.052 Y92.352
X52.075 Y92.365
X52.585 Y92.633
X52.658 Y92.669
X52.677 Y92.677
X52.695 Y92.683
X52.713 Y92.688
X52.731 Y92.692
X52.759 Y92.697
X52.786 Y92.7
X53.169 Y92.745
X53.388 Y92.771
X53.415 Y92.774
X53.443 Y92.775
X53.47
X53.497 Y92.772
X53.607 Y92.753
X53.826 Y92.713
X54.044 Y92.673
X54.071 Y92.666
X54.098 Y92.657
X54.152 Y92.633
X54.482 Y92.477
X54.62 Y92.414 F13.
X54.681 Y92.389
X54.701 Y92.4
X54.706 Y92.414
X54.718 Y92.441
X54.732 Y92.469
X54.749 Y92.496 F50.
X54.77 Y92.523
X54.786 Y92.542
X54.805 Y92.561
X54.823 Y92.577
X54.84 Y92.591
X54.858 Y92.603
X54.875 Y92.614
X54.893 Y92.624
X54.911 Y92.633
X54.92 Y92.637
X54.947 Y92.648
X54.974 Y92.656
X55.002 Y92.663
X55.029 Y92.667
X55.056 Y92.669
X55.084 Y92.67
X55.139 Y92.667
X55.248 Y92.659
X55.275 Y92.657
X55.303 Y92.652
X55.33 Y92.646
X55.357 Y92.638
X55.37 Y92.633
X55.396 Y92.622
X55.422 Y92.608
X55.448 Y92.593
X55.473 Y92.574
X55.489 Y92.561
X55.504 Y92.547
X55.521 Y92.53
X55.535 Y92.513
X55.547 Y92.498
X55.558 Y92.483
X55.567 Y92.468
X55.576 Y92.452
X55.586 Y92.433
X55.595 Y92.414
X55.605 Y92.387
X55.613 Y92.359
X55.619 Y92.332
X55.623 Y92.305
X55.625 Y92.277
Y92.25
X55.622 Y92.195
X55.512 Y90.445
X55.507 Y90.39
X55.502 Y90.363
X55.495 Y90.336
X55.486 Y90.308
X55.475 Y90.281
X55.461 Y90.254
X55.444 Y90.226
X55.427 Y90.203
X55.408 Y90.179
X55.396 Y90.167
X55.383 Y90.154
X55.357 Y90.133
X55.33 Y90.113
X55.303 Y90.097
X55.275 Y90.083
X55.248 Y90.072
X55.221 Y90.063
X55.193 Y90.057
X55.166 Y90.052
X55.139 Y90.049
X55.111 Y90.048
X55.084 Y90.049
X55.029 Y90.052
X54.92 Y90.059
X54.892 Y90.063
X54.865 Y90.069
X54.838 Y90.077
X54.81 Y90.088
X54.783 Y90.1
X54.756 Y90.115
X54.728 Y90.134
X54.701 Y90.156
X54.679 Y90.176
X54.66 Y90.197
X54.648 Y90.212
X54.637 Y90.226
X54.62 Y90.254
X54.605 Y90.281
X54.593 Y90.308
X54.583 Y90.336
X54.556 Y90.445
X54.46 Y90.851
X54.452 Y90.867
X54.22 Y91.249
X54.199 Y91.267
X53.904 Y91.517
X53.88 Y91.532
X53.716 Y91.582
X53.525 Y91.641 F13.
X53.511 Y91.639
X53.305 Y91.595 F50.
X53.11 Y91.554 F13.
X53.09 Y91.539
X53.048 Y91.498
X53.039 Y91.484
X53.009 Y91.389
X53.007 Y91.375
X53.051 Y91.211
X53.062 Y91.197
X53.251 Y90.999 F50.
X53.265 Y90.987
X54.124 Y90.445
X54.263 Y90.355
X54.284 Y90.34
X54.996 Y89.789
X55.139 Y89.678
X55.194 Y89.628
X55.224 Y89.599
X55.249 Y89.57
X55.265 Y89.549
X55.279 Y89.527
X55.519 Y89.132
X55.576 Y89.037
X55.593 Y89.006
X55.607 Y88.975
X55.618 Y88.945
X55.626 Y88.914
X55.658 Y88.695
X55.689 Y88.476
X55.719 Y88.257
X55.721 Y88.23
Y88.203
X55.719 Y88.175
X55.715 Y88.148
X55.709 Y88.121
X55.702 Y88.093
X55.686 Y88.039
X55.561 Y87.601
X55.513 Y87.437
X55.505 Y87.41
X55.495 Y87.382
X55.485 Y87.358
X55.472 Y87.334
X55.458 Y87.31
X55.441 Y87.286
X55.357 Y87.19
X54.995 Y86.78
X54.971 Y86.753
X54.957 Y86.739
X54.943 Y86.726
X54.92 Y86.707
X54.892 Y86.688
X54.865 Y86.672
X54.81 Y86.646
X54.236 Y86.366
X54.208 Y86.354
X54.181 Y86.345
X54.154 Y86.338
X54.126 Y86.332
X54.099 Y86.329
X53.607 Y86.278
X53.388 Y86.256
X53.361 Y86.255
X53.333 Y86.256
X53.306 Y86.259
X53.278 Y86.264
X52.95 Y86.322
X52.731 Y86.361
X52.704 Y86.368
X52.677 Y86.377
X52.622 Y86.4
X52.171 Y86.595
X52.157 Y86.6
X52.003 Y86.648 F13.
X51.98 Y86.626
X51.884 Y86.507 F50.
X51.871 Y86.492
X51.856 Y86.478
X51.842 Y86.465
X51.829 Y86.454
X51.801 Y86.435
X51.774 Y86.419
X51.747 Y86.405
X51.719 Y86.394
X51.692 Y86.385
X51.665 Y86.379
X51.637 Y86.374
X51.61 Y86.371
X51.582 Y86.37
X51.528 Y86.373
X51.418 Y86.381
X51.391 Y86.383
X51.364 Y86.387
X51.336 Y86.393
X51.309 Y86.401
X51.282 Y86.412
X51.254 Y86.425
X51.227 Y86.44
X51.199 Y86.459
X51.186 Y86.469
X51.172 Y86.481
X51.159 Y86.493
X51.145 Y86.507
X51.133 Y86.521
X51.122 Y86.534
X51.102 Y86.562
X51.086 Y86.589
X51.072 Y86.616
X51.063 Y86.638 F13.
X51.056 Y86.66
X51.048 Y86.688
X51.044 Y86.708
X51.041 Y86.726
X51.032
X51.015 Y86.708
X51.006 Y86.699
X50.981 Y86.676
X50.953 Y86.656 F50.
X50.926 Y86.639
X50.899 Y86.625
X50.871 Y86.614
X50.844 Y86.605
X50.817 Y86.597
X50.789 Y86.592
X50.762 Y86.589
X49.066 Y86.448
X49.038 Y86.447
X49.011 Y86.448
X48.988 Y86.45
X48.964 Y86.453
X48.941 Y86.458
X48.917 Y86.465
X48.894 Y86.473
X48.871 Y86.482
X48.847 Y86.494
X48.824 Y86.507
X48.808 Y86.517
X48.792 Y86.529
X48.779 Y86.539
X48.765 Y86.551
X48.751 Y86.565
X48.738 Y86.578
X48.697 Y86.627
X47.339 Y88.268
X47.212 Y88.422 F13.
X47.192 Y88.4
X47.239 Y87.82 F50.
X47.261 Y87.601
X47.285 Y87.382
X47.294 Y87.36 F13.
X47.312 Y87.315
X47.334 Y87.293
X47.358 Y87.288
X47.698 Y87.283 F50.
X47.725 Y87.281
X47.753 Y87.277
X47.78 Y87.271
X47.808 Y87.264
X47.835 Y87.254
X47.862 Y87.242
X47.89 Y87.227
X47.917 Y87.209
X47.944 Y87.188
X47.957 Y87.176
X47.97 Y87.163
X47.983 Y87.15
X47.995 Y87.136
X48.015 Y87.109
X48.033 Y87.081
X48.047 Y87.054
X48.058 Y87.027
X48.068 Y86.999
X48.075 Y86.972
X48.08 Y86.945
X48.09 Y86.835
X48.094 Y86.781
X48.096 Y86.753
X48.097 Y86.726
X48.095 Y86.699
X48.092 Y86.671
X48.086 Y86.644
X48.079 Y86.616
X48.069 Y86.589
X48.057 Y86.562
X48.043 Y86.534
X48.025 Y86.507
X48.014 Y86.491
X48.001 Y86.476
X47.987 Y86.46
X47.971 Y86.444
X47.958 Y86.432
X47.944 Y86.421
X47.917 Y86.402
X47.89 Y86.385
X47.862 Y86.371
X47.835 Y86.36
X47.808 Y86.351
X47.78 Y86.344
X47.753 Y86.34
X47.698 Y86.334
X44.963 Y86.107
X44.935 Y86.104
X44.908
X44.881 Y86.105
X44.853 Y86.108
X44.826 Y86.113
X44.799 Y86.12
X44.771 Y86.129
X44.744 Y86.14
X44.716 Y86.154
X44.689 Y86.171
X44.662 Y86.191
X44.648 Y86.202
X44.634 Y86.215
X44.628 Y86.221
X44.613 Y86.237
X44.592 Y86.263 F13.
X44.574 Y86.288
X44.561 Y86.311
X44.549 Y86.334
X44.526 Y86.311
X44.524 Y86.288
X44.52 Y86.263
X44.515 Y86.237 F50.
X44.511 Y86.221
X44.505 Y86.201
X44.493 Y86.17
X44.481 Y86.145
X44.467 Y86.12
X44.451 Y86.095
X44.431 Y86.07
X44.416 Y86.052
X44.402 Y86.038
X44.388 Y86.026
X44.375 Y86.015
X44.361 Y86.004
X44.333 Y85.986
X44.306 Y85.971
X44.279 Y85.958
X44.251 Y85.948
X44.197 Y85.934
X39.711 Y84.856
X39.656 Y84.843
X39.629 Y84.839
X39.601 Y84.836
X39.574 Y84.835
X39.546 Y84.836
X39.519 Y84.839
X39.492 Y84.844
X39.464 Y84.851
X39.437 Y84.86
X39.41 Y84.871
X39.382 Y84.885
X39.355 Y84.902
X39.327 Y84.922
X39.313 Y84.934
X39.299 Y84.946
X39.285 Y84.961
X39.271 Y84.976
X39.25 Y85.003
X39.232 Y85.03
X39.217 Y85.058
X39.205 Y85.085
X39.195 Y85.112
X39.187 Y85.14
X39.153 Y85.282
X39.14 Y85.311
X39.117 Y85.332
X39.088 Y85.343
X39.056 Y85.341
X39.034 Y85.339
X39.011 Y85.344
X37.866 Y85.747
G3 X37.614 Y85.031 I-0.126 J-0.358
X38.107 Y85.49 I0.126 J0.358
G1 X38.106 Y85.492 F17.
G3 X37.374 Y85.286 Z-0.203 I-0.366 J-0.103
X38.106 Y85.492 Z-0.244 I0.366 J0.103
X37.758 Y85.769 Z-0.261 I-0.366 J-0.103
G1 X37.755
X37.665 Y85.772 F50.
G3 X37.218 Y85.36 I-0.017 J-0.43
G1 X37.164 Y83.991
X37.162 Y83.964
X37.159 Y83.937
X37.154 Y83.909
X37.147 Y83.882
X37.138 Y83.854
X37.127 Y83.827
X37.113 Y83.8
X37.096 Y83.772
X37.076 Y83.745
X37.065 Y83.731
X37.052 Y83.718
X37.036 Y83.702
X37.02 Y83.687
X37.003 Y83.675
X36.987 Y83.663
X36.975 Y83.655
X36.948 Y83.64
X36.92 Y83.627
X36.811 Y83.582
X36.784 Y83.571
X36.756 Y83.561
X36.729 Y83.554
X36.702 Y83.549
X36.674 Y83.546
X36.647 Y83.545
X36.62
X36.592 Y83.548
X36.565 Y83.552
X36.537 Y83.559
X36.515 Y83.565
X36.493 Y83.574
X36.47 Y83.583
X36.448 Y83.595
X36.425 Y83.608
X36.403 Y83.624
X36.38 Y83.642
X36.358 Y83.663
X32.544 Y87.461
X32.53 Y87.471
X32.38 Y87.579 F13.
X32.366 Y87.585
X32.352 Y87.588
X32.339 Y87.589
X32.325 Y87.588
X32.311 Y87.587
X32.161 Y87.561 F50.
X32.133 Y87.557
X32.106 Y87.555
X32.079 Y87.554
X32.051 Y87.555
X32.024 Y87.559
X31.997 Y87.564
X31.969 Y87.571
X31.942 Y87.58
X31.919 Y87.59
X31.896 Y87.601
X31.868 Y87.618
X31.839 Y87.638
X31.825 Y87.649
X31.811 Y87.662
X31.796 Y87.677
X31.782 Y87.691
X31.764 Y87.714
X31.748 Y87.736
X31.735 Y87.759
X31.723 Y87.782
X31.707 Y87.82
X31.663 Y87.929
X31.653 Y87.956
X31.644 Y87.984
X31.637 Y88.011
X31.633 Y88.039
X31.63 Y88.066
X31.629 Y88.093
X31.63 Y88.121
X31.633 Y88.148
X31.638 Y88.175
X31.644 Y88.203
X31.653 Y88.23
X31.664 Y88.257
X31.676 Y88.281
X31.689 Y88.304
X31.705 Y88.327
X31.723 Y88.35
X31.745 Y88.374
X31.77 Y88.397
X31.793 Y88.416
X31.817 Y88.432
X31.84 Y88.445
X31.864 Y88.457
X31.91 Y88.476
X34.294 Y89.448
X34.322 Y89.457
X34.349 Y89.465
X34.376 Y89.47
X34.404 Y89.473
X34.431 Y89.475
X34.458
X34.486 Y89.473
X34.513 Y89.468
X34.541 Y89.462
X34.568 Y89.454
X34.588 Y89.447
X34.608 Y89.438
X34.629 Y89.428
X34.649 Y89.417
X34.669 Y89.403
X34.689 Y89.388
X34.71 Y89.371
X34.73 Y89.351
X34.747 Y89.332
X34.762 Y89.313
X34.775 Y89.294
X34.787 Y89.275
X34.796 Y89.257
X34.805 Y89.24
X34.82 Y89.204
X34.87 Y89.078
X34.879 Y89.05
X34.886 Y89.023
X34.891 Y88.996
X34.894 Y88.968
X34.895 Y88.941
Y88.914
X34.892 Y88.886
X34.888 Y88.859
X34.881 Y88.832
X34.873 Y88.804
X34.862 Y88.777
X34.849 Y88.75
X34.833 Y88.722
X34.814 Y88.695
X34.801 Y88.679
X34.787 Y88.663
X34.773 Y88.649
X34.759 Y88.636
X34.746 Y88.625
X34.732 Y88.614
X34.705 Y88.596
X34.677 Y88.581
X34.468 Y88.476 F13.
X34.48 Y88.461
X34.568 Y88.356 F50.
X34.658 Y88.257
X36.026 Y86.891
X36.167 Y86.75 F13.
X36.188 Y86.774
X36.247 Y88.476 F50.
X36.254 Y88.695
X36.25 Y89.009
X36.249 Y89.023
X36.226 Y89.132 F13.
X36.213 Y89.154
X35.881 Y89.074 F50.
X35.854 Y89.067
X35.826 Y89.063
X35.799 Y89.06
X35.772
X35.744 Y89.061
X35.717 Y89.064
X35.689 Y89.069
X35.662 Y89.076
X35.633 Y89.086
X35.604 Y89.098
X35.575 Y89.114
X35.545 Y89.132
X35.53 Y89.144
X35.515 Y89.156
X35.5 Y89.17
X35.485 Y89.185
X35.462 Y89.211
X35.443 Y89.237
X35.426 Y89.265
X35.411 Y89.294
X35.389 Y89.351
X35.346 Y89.461
X35.337 Y89.488
X35.33 Y89.515
X35.326 Y89.543
X35.323 Y89.57
X35.322 Y89.597
X35.323 Y89.625
X35.325 Y89.652
X35.33 Y89.679
X35.337 Y89.707
X35.346 Y89.734
X35.357 Y89.761
X35.37 Y89.789
X35.384 Y89.813
X35.401 Y89.837
X35.42 Y89.861
X35.443 Y89.885
X35.457 Y89.898
X35.471 Y89.909
X35.498 Y89.93
X35.525 Y89.946
X35.553 Y89.961
X35.667 Y90.007
X37.194 Y90.629
X37.247 Y90.65
X37.274 Y90.658
X37.301 Y90.664
X37.329 Y90.668
X37.357 Y90.67
X37.385 Y90.671
X37.413 Y90.669
X37.431 Y90.667
X37.448 Y90.664
X37.471 Y90.659
X37.494 Y90.652
X37.517 Y90.644
X37.54 Y90.635
X37.563 Y90.624
X37.586 Y90.61
X37.609 Y90.595
X37.632 Y90.577
X37.649 Y90.562
X37.667 Y90.544
X37.681 Y90.528
X37.694 Y90.511
X37.706 Y90.495
X37.717 Y90.478
X37.726 Y90.462
X37.735 Y90.445
X37.78 Y90.336
X37.803 Y90.281
X37.813 Y90.254
X37.82 Y90.226
X37.826 Y90.199
X37.829 Y90.172
X37.831 Y90.144
Y90.117
X37.829 Y90.09
X37.825 Y90.062
X37.819 Y90.035
X37.811 Y90.007
X37.8 Y89.98
X37.788 Y89.953
X37.773 Y89.925
X37.754 Y89.898
X37.743 Y89.883
X37.73 Y89.867
X37.715 Y89.852
X37.699 Y89.837
X37.632 Y89.778
X37.528 Y89.689
X37.516 Y89.674
X37.447 Y89.529
X37.441 Y89.516
X37.384 Y89.187
X37.383 Y89.173
X37.353 Y88.695
X37.343 Y88.476
X37.218 Y85.36
X37.224 Y85.327
X37.243 Y85.299
X37.272 Y85.281
X37.306 Y85.277
X37.656 Y85.311
X37.687 Y85.313 Z-0.255
X37.713 Y85.316 Z-0.237
X37.73 Y85.318 Z-0.211
X37.736 Z-0.181
G0 Z5.
X34.338 Y83.471
Z0.88
G1 Z-0.219 F50.
X34.333 Y83.468 Z-0.25
X34.319 Y83.458 Z-0.276
X34.298 Y83.443 Z-0.293
X34.273 Y83.425 Z-0.299
X33.948 Y83.192
X33.926 Y83.169
X33.915 Y83.14
X33.916 Y83.109
X33.929 Y83.081
X33.944 Y83.056
X33.971 Y83.007
X34.031 Y82.897
X34.042 Y82.87
X34.051 Y82.843
X34.058 Y82.815
X34.063 Y82.788
X34.066 Y82.761
X34.067 Y82.733
X34.066 Y82.706
X34.063 Y82.679
X34.059 Y82.651
X34.052 Y82.624
X34.043 Y82.597
X34.032 Y82.569
X34.023 Y82.55
X34.013 Y82.531
X34.001 Y82.511
X33.987 Y82.492
X33.972 Y82.473
X33.954 Y82.453
X33.933 Y82.433
X33.911 Y82.415
X33.885 Y82.396
X33.859 Y82.38
X31.386 Y80.981
X31.361 Y80.968
X31.335 Y80.958
X31.31 Y80.949
X31.285 Y80.942
X31.258 Y80.936
X31.231 Y80.933
X31.203 Y80.931
X31.176
X31.149 Y80.933
X31.121 Y80.937
X31.094 Y80.943
X31.067 Y80.951
X31.048 Y80.957
X31.03 Y80.965
X31.011 Y80.973
X30.993 Y80.983
X30.974 Y80.995
X30.956 Y81.007
X30.937 Y81.022
X30.919 Y81.038
X30.897 Y81.06
X30.878 Y81.082
X30.862 Y81.104
X30.848 Y81.126
X30.774 Y81.257
X30.76 Y81.284
X30.747 Y81.311
X30.737 Y81.339
X30.73 Y81.366
X30.724 Y81.393
X30.72 Y81.421
X30.718 Y81.448
Y81.475
X30.72 Y81.503
X30.724 Y81.53
X30.73 Y81.557
X30.738 Y81.585
X30.748 Y81.612
X30.76 Y81.639
X30.775 Y81.667
X30.793 Y81.694
X30.804 Y81.71
X30.817 Y81.725
X30.832 Y81.741
X30.848 Y81.756
X30.861 Y81.768
X30.875 Y81.779
X30.902 Y81.798
X31.011 Y81.875
X31.175 Y81.99 F13.
X31.185 Y82.007
X31.191 Y82.023
X31.177 Y82.091
X31.174 Y82.104
X31.047 Y82.35 F50.
X30.928 Y82.569
X29.469 Y85.194
X29.347 Y85.413
X29.217 Y85.632
X29.193 Y85.673
X29.178 Y85.693 F13.
X29.127 Y85.742
X29.112 Y85.744
X29.097 Y85.745
X28.842 Y85.632 F50.
X28.751 Y85.593
X28.728 Y85.585
X28.705 Y85.579
X28.682 Y85.575
X28.659 Y85.571
X28.632 Y85.569
X28.605
X28.577 Y85.571
X28.55 Y85.575
X28.523 Y85.58
X28.495 Y85.588
X28.468 Y85.597
X28.44 Y85.61
X28.42 Y85.62
X28.4 Y85.632
X28.372 Y85.652
X28.358 Y85.663
X28.344 Y85.676
X28.327 Y85.692
X28.312 Y85.709
X28.299 Y85.725
X28.287 Y85.741
X28.269 Y85.769
X28.222 Y85.855
X28.192 Y85.909
X28.179 Y85.935
X28.168 Y85.962
X28.159 Y85.989
X28.153 Y86.016
X28.148 Y86.043
X28.145 Y86.07
X28.144 Y86.097
X28.145 Y86.124
X28.147 Y86.152
X28.152 Y86.179
X28.159 Y86.206
X28.167 Y86.234
X28.178 Y86.261
X28.192 Y86.288
X28.206 Y86.312
X28.222 Y86.335
X28.233 Y86.351
X28.246 Y86.366
X28.26 Y86.381
X28.276 Y86.396
X28.29 Y86.408
X28.304 Y86.418
X28.331 Y86.437
X28.454 Y86.507
X30.773 Y87.82
X30.848 Y87.861
X30.875 Y87.873
X30.902 Y87.882
X30.93 Y87.889
X30.957 Y87.894
X30.984 Y87.898
X31.012 Y87.899
X31.039 Y87.898
X31.067 Y87.896
X31.09 Y87.892
X31.114 Y87.887
X31.138 Y87.881
X31.162 Y87.872
X31.186 Y87.862
X31.21 Y87.85
X31.233 Y87.836
X31.257 Y87.82
X31.271 Y87.809
X31.285 Y87.797
X31.31 Y87.772
X31.331 Y87.748
X31.349 Y87.723
X31.365 Y87.699
X31.42 Y87.601
X31.45 Y87.546
X31.462 Y87.519
X31.472 Y87.492
X31.48 Y87.464
X31.485 Y87.437
X31.489 Y87.41
X31.491 Y87.382
Y87.355
X31.489 Y87.328
X31.485 Y87.3
X31.479 Y87.273
X31.471 Y87.245
X31.461 Y87.218
X31.449 Y87.191
X31.434 Y87.163
X31.419 Y87.141
X31.402 Y87.118
X31.383 Y87.096
X31.36 Y87.073
X31.341 Y87.057
X31.323 Y87.043
X31.211 Y86.964
X31.047 Y86.849 F13.
X31.028 Y86.829
X31.018 Y86.812
X31.033 Y86.743
X31.037 Y86.726 F50.
X31.151 Y86.507
X31.269 Y86.288
X32.817 Y83.497
X32.847 Y83.444
X32.977 Y83.225
X33.018 Y83.157
X33.036 Y83.134 F13.
X33.077 Y83.094
X33.091 Y83.086
X33.104 Y83.085
X33.118 Y83.087
X33.431 Y83.225 F50.
X33.452 Y83.234
X33.474 Y83.242
X33.501 Y83.249
X33.528 Y83.255
X33.556 Y83.259
X33.583 Y83.26
X33.611
X33.638 Y83.258
X33.665 Y83.254
X33.693 Y83.248
X33.726 Y83.239
X33.742 Y83.232
X33.759 Y83.225
X33.778 Y83.216
X33.797 Y83.206
X33.816 Y83.194
X33.835 Y83.18
X33.854 Y83.165
X33.873 Y83.148
X33.894 Y83.127
X33.911 Y83.105
X33.929 Y83.081
X33.954 Y83.058
X33.986 Y83.048
X34.019 Y83.051
X34.048 Y83.068
X34.342 Y83.34
X34.365 Y83.36 Z-0.293
X34.384 Y83.378 Z-0.276
X34.397 Y83.39 Z-0.25
X34.401 Y83.394 Z-0.219
G0 Z5.
X30.501 Y80.904
Z1.032
G1 Z-0.399 F50.
X30.479 Y80.881
X30.469 Y80.851
X30.47 Y80.82
X30.483 Y80.792
X30.501 Y80.764
X30.516 Y80.737
X30.529 Y80.71
X30.539 Y80.682
X30.546 Y80.655
X30.552 Y80.628
X30.556 Y80.6
X30.558 Y80.573
Y80.545
X30.556 Y80.518
X30.553 Y80.491
X30.547 Y80.463
X30.539 Y80.436
X30.529 Y80.409
X30.517 Y80.381
X30.508 Y80.365
X30.499 Y80.348
X30.488 Y80.331
X30.475 Y80.314
X30.462 Y80.298
X30.447 Y80.281
X30.428 Y80.263
X30.41 Y80.247
X30.299 Y80.163
X30.272 Y80.144
X30.245 Y80.127
X30.218 Y80.114
X30.191 Y80.103
X30.164 Y80.094
X30.136 Y80.087
X30.109 Y80.083
X30.082 Y80.08
X30.054 Y80.079
X30.027
X30. Y80.082
X29.972 Y80.087
X29.754 Y80.143
X25.634 Y81.211
X25.44 Y81.262 F13.
X25.421 Y81.257
X26.845 Y79.315 F50.
X26.855 Y79.301
X26.909 Y79.247
X26.963 Y79.192 F13.
X26.977 Y79.178
X26.991 Y79.169
X27.032 Y79.154
X27.045
X27.059 Y79.156
X27.073 Y79.162
X27.217 Y79.222 F50.
X27.23 Y79.228
X27.346 Y79.296
X27.374 Y79.311
X27.401 Y79.325
X27.428 Y79.336
X27.456 Y79.345
X27.483 Y79.352
X27.51 Y79.356
X27.538 Y79.359
X27.565 Y79.36
X27.593 Y79.359
X27.62 Y79.356
X27.647 Y79.352
X27.675 Y79.345
X27.702 Y79.336
X27.729 Y79.325
X27.757 Y79.311
X27.784 Y79.295
X27.795 Y79.288
X27.81 Y79.276
X27.826 Y79.263
X27.842 Y79.249
X27.858 Y79.233
X27.87 Y79.219
X27.881 Y79.205
X27.901 Y79.178
X27.982 Y79.069
X27.993 Y79.052
X28.003 Y79.036
X28.015 Y79.012
X28.025 Y78.989
X28.033 Y78.966
X28.04 Y78.943
X28.046 Y78.92
X28.049 Y78.896
X28.052 Y78.873
X28.053 Y78.85
Y78.825
X28.051 Y78.799
X28.048 Y78.774
X28.042 Y78.748
X28.035 Y78.723
X28.027 Y78.697
X28.016 Y78.672
X28.003 Y78.646
X27.994 Y78.631
X27.975 Y78.603
X27.964 Y78.589
X27.952 Y78.574
X27.937 Y78.559
X27.92 Y78.543
X27.905 Y78.53
X27.889 Y78.518
X26.416 Y77.417
X26.389 Y77.398
X26.362 Y77.382
X26.334 Y77.369
X26.307 Y77.358
X26.279 Y77.35
X26.252 Y77.343
X26.225 Y77.339
X26.197 Y77.336
X26.17 Y77.335
X26.143 Y77.336
X26.115 Y77.339
X26.088 Y77.344
X26.061 Y77.351
X26.033 Y77.361
X26.007 Y77.371
X25.981 Y77.385
X25.954 Y77.401
X25.928 Y77.419
X25.913 Y77.432
X25.897 Y77.446
X25.881 Y77.462
X25.867 Y77.478
X25.823 Y77.537
X25.776 Y77.6
X25.758 Y77.626
X25.741 Y77.652
X25.727 Y77.678
X25.716 Y77.704
X25.706 Y77.73
X25.699 Y77.756
X25.693 Y77.783
X25.689 Y77.811
X25.687 Y77.838
X25.686 Y77.866
X25.688 Y77.893
X25.692 Y77.92
X25.697 Y77.948
X25.705 Y77.975
X25.712 Y77.997
X25.721 Y78.018
X25.732 Y78.04
X25.744 Y78.061
X25.758 Y78.083
X25.774 Y78.105
X25.793 Y78.126
X25.814 Y78.148
X26.007 Y78.33
X26.022 Y78.353 F13.
X26.051 Y78.412
X26.055 Y78.426
X26.051 Y78.48
X26.048 Y78.493
X25.967 Y78.645 F50.
X25.957 Y78.659
X23.85 Y81.533
X23.731 Y81.694 F13.
X23.718 Y81.704
X23.626 Y81.722 F50.
X23.503 Y81.746 F13.
X23.489 Y81.747
X23.188 Y81.632 F50.
X23.161 Y81.621
X23.134 Y81.613
X23.106 Y81.606
X23.079 Y81.602
X23.052 Y81.599
X23.024 Y81.598
X22.997 Y81.599
X22.97 Y81.603
X22.944 Y81.607
X22.919 Y81.613
X22.894 Y81.621
X22.869 Y81.631
X22.844 Y81.643
X22.818 Y81.657
X22.793 Y81.674
X22.768 Y81.694
X22.751 Y81.71
X22.738 Y81.722
X22.726 Y81.735
X22.706 Y81.76
X22.669 Y81.811
X22.598 Y81.913
X22.583 Y81.94
X22.57 Y81.968
X22.56 Y81.995
X22.552 Y82.022
X22.547 Y82.05
X22.543 Y82.077
X22.541 Y82.104
Y82.132
X22.543 Y82.159
X22.546 Y82.186
X22.552 Y82.214
X22.56 Y82.241
X22.57 Y82.268
X22.582 Y82.296
X22.597 Y82.323
X22.614 Y82.35
X22.628 Y82.369
X22.644 Y82.387
X22.663 Y82.407
X22.683 Y82.424
X22.751 Y82.476
X24.228 Y83.579
X24.255 Y83.599
X24.283 Y83.616
X24.3 Y83.625
X24.318 Y83.633
X24.335 Y83.64
X24.353 Y83.647
X24.371 Y83.652
X24.388 Y83.657
X24.406 Y83.66
X24.423 Y83.663
X24.443 Y83.665
X24.462 Y83.666
X24.482 Y83.667
X24.501 Y83.666
X24.533 Y83.663
X24.556 Y83.659
X24.58 Y83.654
X27.386 Y82.9
X27.579 Y82.849 F13.
X27.594 Y82.865
X26.816 Y83.926 F50.
X26.799 Y83.948
X26.69 Y84.059 F13.
X26.676 Y84.073
X26.662 Y84.079
X26.635 Y84.09
X26.621 Y84.094
X26.608 Y84.092
X26.594 Y84.09
X26.471 Y84.038 F50.
X26.252 Y83.92
X26.225 Y83.91
X26.197 Y83.901
X26.17 Y83.895
X26.143 Y83.89
X26.115 Y83.887
X26.088
X26.061 Y83.888
X26.033 Y83.891
X26.006 Y83.896
X25.979 Y83.903
X25.951 Y83.912
X25.924 Y83.924
X25.897 Y83.937
X25.869 Y83.954
X25.842 Y83.974
X25.828 Y83.986
X25.814 Y83.998
X25.802 Y84.011
X25.79 Y84.024
X25.769 Y84.049
X25.692 Y84.155
X25.672 Y84.183
X25.655 Y84.21
X25.641 Y84.237
X25.629 Y84.265
X25.62 Y84.292
X25.613 Y84.319
X25.608 Y84.347
X25.604 Y84.374
X25.603 Y84.401
X25.604 Y84.429
X25.606 Y84.456
X25.61 Y84.483
X25.617 Y84.511
X25.625 Y84.538
X25.636 Y84.565
X25.649 Y84.593
X25.664 Y84.62
X25.683 Y84.648
X25.696 Y84.663
X25.71 Y84.679
X25.726 Y84.696
X25.743 Y84.711
X25.803 Y84.757
X27.127 Y85.745
X27.271 Y85.851
X27.29 Y85.862
X27.309 Y85.872
X27.327 Y85.88
X27.346 Y85.888
X27.374 Y85.896
X27.401 Y85.903
X27.428 Y85.908
X27.456 Y85.911
X27.483 Y85.912
X27.51 Y85.911
X27.538 Y85.908
X27.565 Y85.903
X27.598 Y85.895
X27.63 Y85.884
X27.646 Y85.877
X27.663 Y85.869
X27.679 Y85.86
X27.695 Y85.851
X27.717 Y85.836
X27.739 Y85.819
X27.762 Y85.798
X27.784 Y85.775
X27.799 Y85.757
X27.812 Y85.739
X27.89 Y85.632
X27.909 Y85.605
X27.925 Y85.577
X27.938 Y85.55
X27.948 Y85.523
X27.957 Y85.495
X27.963 Y85.468
X27.967 Y85.441
X27.969 Y85.413
X27.97 Y85.386
X27.969 Y85.359
X27.965 Y85.331
X27.96 Y85.304
X27.953 Y85.276
X27.943 Y85.249
X27.932 Y85.222
X27.918 Y85.194
X27.906 Y85.176
X27.893 Y85.157
X27.879 Y85.138
X27.862 Y85.119
X27.784 Y85.044
X27.654 Y84.921
X27.641 Y84.907 F13.
X27.634 Y84.894
X27.608 Y84.839
X27.601 Y84.825
X27.605 Y84.771
X27.607 Y84.757
X27.687 Y84.606 F50.
X27.696 Y84.593
X30.483 Y80.792
X30.506 Y80.77
X30.536 Y80.76
X30.567 Y80.761
X30.595 Y80.775
G0 Z5.
X24.747 Y78.011
Z1.032
G1 Z-0.499 F50.
X24.724 Y77.99
X24.711 Y77.962
X24.71 Y77.93
X24.72 Y77.901
X24.786 Y77.756
X24.882 Y77.537
X24.957 Y77.362
X24.966 Y77.34
X24.974 Y77.319
X25.002 Y77.209
X25.009 Y77.182
X25.014 Y77.154
X25.021 Y77.1
X25.042 Y76.881
X25.048 Y76.772
X25.045 Y76.662
X25.03 Y76.553
X25.013 Y76.443
X24.98 Y76.279
X24.974 Y76.252
X24.966 Y76.225
X24.939 Y76.133
X24.927 Y76.102
X24.887 Y76.006
X24.784 Y75.787
X24.72 Y75.668
X24.662 Y75.568
X24.645 Y75.543
X24.624 Y75.518
X24.24 Y75.04
X24.218 Y75.014
X24.204 Y75.
X24.191 Y74.988
X24.099 Y74.912
X23.832 Y74.693
X23.626 Y74.53
X23.518 Y74.445
X23.5 Y74.432
X23.481 Y74.42
X23.407 Y74.378
X23.38 Y74.365
X23.353 Y74.354
X23.298 Y74.336
X22.97 Y74.235
X22.751 Y74.17
X22.641 Y74.14
X22.614 Y74.135
X22.587 Y74.132
X22.532 Y74.129
X22.505 Y74.13
X22.477 Y74.132
X22.313 Y74.146
X22.286 Y74.148
X22.258 Y74.152
X22.204 Y74.163
X21.985 Y74.209
X21.957 Y74.216
X21.93 Y74.224
X21.746 Y74.286
X21.701 Y74.302
X21.657 Y74.323
X21.629 Y74.338
X21.602 Y74.356
X21.438 Y74.475
X21.219 Y74.635
X21. Y74.795
X20.933 Y74.847
X20.865 Y74.912
X19.031 Y76.721
X18.858 Y76.881
X18.757 Y76.975
X18.743 Y76.983 F13.
X18.689 Y77.011
X18.675
X18.661 Y77.008
X18.648 Y76.999
X18.509 Y76.881 F50.
X18.374 Y76.767
X18.347 Y76.748
X18.319 Y76.732
X18.292 Y76.718
X18.265 Y76.707
X18.237 Y76.699
X18.21 Y76.692
X18.183 Y76.688
X18.155 Y76.685
X18.128 Y76.684
X18.1 Y76.685
X18.073 Y76.688
X18.046 Y76.693
X18.018 Y76.7
X17.991 Y76.709
X17.964 Y76.721
X17.936 Y76.734
X17.915 Y76.747
X17.894 Y76.761
X17.873 Y76.778
X17.852 Y76.797
X17.741 Y76.908
X17.729 Y76.921
X17.718 Y76.934
X17.702 Y76.955
X17.688 Y76.976
X17.676 Y76.996
X17.665 Y77.017
X17.656 Y77.038
X17.648 Y77.058
X17.642 Y77.079
X17.636 Y77.1
X17.631 Y77.127
X17.628 Y77.154
X17.627 Y77.182
Y77.209
X17.63 Y77.237
X17.634 Y77.264
X17.64 Y77.291
X17.649 Y77.319
X17.661 Y77.349
X17.676 Y77.38
X17.685 Y77.396
X17.695 Y77.411
X17.705 Y77.426
X17.718 Y77.442
X17.808 Y77.537
X19.712 Y79.506
X19.736 Y79.531
X19.76 Y79.551
X19.785 Y79.569
X19.809 Y79.584
X19.833 Y79.597
X19.857 Y79.608
X19.882 Y79.616
X19.906 Y79.624
X19.933 Y79.63
X19.961 Y79.634
X19.988 Y79.636
X20.015 Y79.637
X20.043 Y79.635
X20.07 Y79.632
X20.097 Y79.627
X20.125 Y79.619
X20.147 Y79.612
X20.17 Y79.603
X20.192 Y79.592
X20.214 Y79.579
X20.237 Y79.565
X20.259 Y79.548
X20.282 Y79.528
X20.344 Y79.468
X20.39 Y79.423
X20.412 Y79.4
X20.43 Y79.378
X20.447 Y79.355
X20.461 Y79.333
X20.473 Y79.31
X20.483 Y79.288
X20.493 Y79.26
X20.501 Y79.233
X20.507 Y79.205
X20.511 Y79.178
X20.513 Y79.151
X20.514 Y79.123
X20.512 Y79.096
X20.509 Y79.069
X20.503 Y79.041
X20.496 Y79.014
X20.486 Y78.987
X20.474 Y78.959
X20.46 Y78.932
X20.442 Y78.905
X20.4 Y78.85
X20.215 Y78.618 F13.
X20.206 Y78.604
X20.2 Y78.577
X20.206 Y78.563
X20.235 Y78.508
X20.245 Y78.494 F50.
X20.344 Y78.391
X20.535 Y78.194
X22.563 Y76.198
X22.577 Y76.186
X22.644 Y76.133
X22.751 Y76.048
X22.845 Y75.973
X22.866 Y75.961
X22.97 Y75.923
X23.079 Y75.888
X23.093 Y75.884 F13.
X23.106 Y75.885 F50.
X23.27 Y75.91 F13.
X23.298 Y75.917
X23.312 Y75.921
X23.325 Y75.926
X23.626 Y76.146 F50.
X23.642 Y76.166
X23.869 Y76.542
X23.876 Y76.562 F13.
X23.878 Y76.582
X23.884 Y76.662 F50.
X23.89 Y76.923
X23.885 Y76.943
X23.845 Y77.047
X23.824 Y77.1
X23.733 Y77.319
X23.723 Y77.336
X23.563 Y77.537
X23.486 Y77.633
X23.429 Y77.704
X23.407 Y77.728
X21.824 Y79.288
X21.657 Y79.45
X21.594 Y79.506
X21.424 Y79.661
X21.41 Y79.669
X21.328 Y79.711 F13.
X21.315 Y79.715
X21.287 Y79.71
X21.274 Y79.705
X21.029 Y79.506 F50.
X21. Y79.484
X20.973 Y79.467
X20.945 Y79.452
X20.918 Y79.44
X20.891 Y79.431
X20.863 Y79.423
X20.836 Y79.418
X20.809 Y79.414
X20.781 Y79.412
X20.754 Y79.413
X20.727 Y79.415
X20.699 Y79.419
X20.672 Y79.425
X20.644 Y79.433
X20.617 Y79.443
X20.59 Y79.456
X20.562 Y79.471
X20.538 Y79.487
X20.514 Y79.506
X20.424 Y79.593
X20.38 Y79.636
X20.361 Y79.658
X20.344 Y79.68
X20.328 Y79.702
X20.315 Y79.725
X20.301 Y79.752
X20.29 Y79.78
X20.281 Y79.807
X20.275 Y79.834
X20.27 Y79.862
X20.267 Y79.889
X20.266 Y79.917
X20.267 Y79.944
X20.27 Y79.97
X20.274 Y79.996
X20.281 Y80.022
X20.289 Y80.048
X20.299 Y80.074
X20.311 Y80.1
X20.326 Y80.126
X20.344 Y80.152
X20.351 Y80.163
X20.362 Y80.176
X20.375 Y80.19
X21.684 Y81.544
X21.698 Y81.557
X21.711 Y81.569
X21.739 Y81.59
X21.766 Y81.608
X21.793 Y81.622
X21.821 Y81.634
X21.848 Y81.644
X21.875 Y81.652
X21.903 Y81.657
X21.93 Y81.661
X21.957 Y81.662
X21.985
X22.012 Y81.66
X22.04 Y81.656
X22.067 Y81.65
X22.094 Y81.642
X22.122 Y81.632
X22.149 Y81.619
X22.176 Y81.604
X22.204 Y81.586
X22.217 Y81.575
X22.231 Y81.564
X22.258 Y81.538
X22.352 Y81.448
X22.365 Y81.434
X22.377 Y81.421
X22.399 Y81.393
X22.417 Y81.366
X22.431 Y81.339
X22.444 Y81.311
X22.454 Y81.284
X22.461 Y81.257
X22.467 Y81.229
X22.471 Y81.202
X22.473 Y81.174
Y81.147
X22.471 Y81.12
X22.467 Y81.092
X22.461 Y81.065
X22.454 Y81.038
X22.444 Y81.01
X22.431 Y80.983
X22.416 Y80.956
X22.398 Y80.928
X22.313 Y80.815
X22.202 Y80.667 F13.
X22.193 Y80.654
X22.187 Y80.614
X22.19 Y80.6
X22.236 Y80.514 F50.
X22.252 Y80.492
X22.356 Y80.381
X22.532 Y80.197
X24.12 Y78.631
X24.208 Y78.542
X24.317 Y78.412
X24.638 Y78.029
X24.658 Y78.002
X24.675 Y77.975
X24.72 Y77.901
X24.742 Y77.878
X24.77 Y77.865
X24.801 Y77.864
X24.831 Y77.875
G0 Z5.
X41.22 Y89.217
Z1.034
G1 Z-0.035 F50.
X41.236 Y89.216 Z-0.098
X41.259 Y89.22 Z-0.121
X41.279 Y89.231 Z-0.144
X41.3 Y89.254 Z-0.152
X41.311 Y89.283 Z-0.161
X41.36 Y89.584
Y89.597
X41.345 Y90.007
X41.343 Y90.092
Y90.113
X41.345 Y90.135
X41.348 Y90.156
X41.352 Y90.177
X41.358 Y90.202
X41.366 Y90.226
X41.377 Y90.254
X41.39 Y90.281
X41.407 Y90.308
X41.426 Y90.336
X41.439 Y90.352
X41.455 Y90.369
X41.473 Y90.387
X41.491 Y90.402
X41.507 Y90.415
X41.523 Y90.426
X41.54 Y90.436
X41.556 Y90.445
X41.571 Y90.452
X41.598 Y90.464
X41.625 Y90.474
X41.68 Y90.488
X41.79 Y90.514
X41.814 Y90.519
X41.839 Y90.523
X41.864 Y90.525
X41.889 Y90.526
X41.919 Y90.525 F13.
X41.949 Y90.521
X41.976 Y90.516
X42.008 Y90.507 F50.
Y90.521 F13.
X41.988 Y90.534
X41.963 Y90.543
X41.571 Y90.566 F50.
X41.138 Y90.483
X40.941 Y90.445 F13.
X40.914 Y90.439
X40.891 Y90.425
X41.149 Y89.327 F50.
X41.195 Y89.132 F13.
X41.2
X41.311 Y89.283 F50.
X41.326 Y89.377
X41.349 Y89.518 Z-0.162
X41.357 Y89.565
X41.359 Y89.612 Z-0.163
X41.358 Y89.66 Z-0.164
X41.344 Y90.041 Z-0.171
X41.343 Y90.088 Z-0.172
X41.345 Y90.136 Z-0.174
X41.353 Y90.183 Z-0.175
X41.367 Y90.229 Z-0.176
X41.386 Y90.272 Z-0.178
X41.41 Y90.313 Z-0.179
X41.439 Y90.351 Z-0.181
X41.472 Y90.386 Z-0.182
X41.509 Y90.416 Z-0.184
X41.549 Y90.441 Z-0.186
X41.592 Y90.462 Z-0.187
X41.638 Y90.477 Z-0.189
X41.776 Y90.511 Z-0.194
X41.822 Y90.521 Z-0.196
X41.835 Y90.551 Z-0.197
X41.598 Y90.565 Z-0.205
X41.55 Y90.562 Z-0.207
X41.082 Y90.472 Z-0.223
X40.941 Y90.445 Z-0.227
X40.895 Y90.434 Z-0.228
X40.9 Y90.387 Z-0.229
X40.933 Y90.247 Z-0.232
X41.02 Y89.876 Z-0.245
X41.107 Y89.505 Z-0.255
X41.151 Y89.319 Z-0.258
X41.184 Y89.18 Z-0.26
X41.195 Y89.134
X41.227 Y89.169
X41.283 Y89.245 Z-0.261
X41.311 Y89.284
X41.36 Y89.584
Y89.597
X41.357 Y89.679
X41.345 Y90.007
X41.343 Y90.092
Y90.113
X41.345 Y90.135
X41.348 Y90.156
X41.352 Y90.177
X41.358 Y90.202
X41.366 Y90.226
X41.377 Y90.254
X41.39 Y90.281
X41.407 Y90.308
X41.426 Y90.336
X41.439 Y90.352
X41.455 Y90.369
X41.473 Y90.387
X41.491 Y90.402
X41.507 Y90.415
X41.523 Y90.426
X41.54 Y90.436
X41.556 Y90.445
X41.571 Y90.452
X41.598 Y90.464
X41.625 Y90.474
X41.68 Y90.488
X41.79 Y90.514
X41.814 Y90.519
X41.839 Y90.523
X41.864 Y90.525
X41.889 Y90.526
X41.919 Y90.525 F13.
X41.949 Y90.521
X41.976 Y90.516
X42.008 Y90.507 F50.
Y90.521 F13.
X41.988 Y90.534
X41.963 Y90.543
X41.571 Y90.566 F50.
X41.138 Y90.483
X40.941 Y90.445 F13.
X40.914 Y90.439
X40.891 Y90.425
X41.149 Y89.327 F50.
X41.195 Y89.132 F13.
X41.2
X41.311 Y89.283
Y89.284 F50.
X41.303 Y89.295
G0 Z5.
X42.493 Y89.645
Z1.032
G1 Z-0.261 F50.
X42.465 Y89.632
X42.443 Y89.609
X42.432 Y89.58
X42.433 Y89.549
X42.893 Y87.601
X42.944 Y87.382
X42.948 Y87.355
X42.95 Y87.328
Y87.3
X42.948 Y87.273
X42.944 Y87.245
X42.938 Y87.218
X42.93 Y87.191
X42.92 Y87.163
X42.911 Y87.143
X42.9 Y87.122
X42.884 Y87.094
X42.866 Y87.07
X42.846 Y87.046
X42.833 Y87.032
X42.819 Y87.019
X42.793 Y86.997
X42.77 Y86.981
X42.747 Y86.967
X42.725 Y86.955
X42.702 Y86.945
X42.683 Y86.938
X42.665 Y86.931
X42.533 Y86.899
X42.489 Y86.889
X42.468 Y86.885
X42.446 Y86.882
X42.419 Y86.88
X42.391
X42.364 Y86.882
X42.337 Y86.886
X42.309 Y86.892
X42.282 Y86.899
X42.255 Y86.909
X42.227 Y86.922
X42.207 Y86.932
X42.187 Y86.945
X42.159 Y86.965
X42.145 Y86.976
X42.131 Y86.989
X42.115 Y87.005
X42.1 Y87.021
X42.087 Y87.038
X42.075 Y87.054
X42.058 Y87.081
X42.044 Y87.109
X41.919 Y87.382
X41.869 Y87.492
X41.838 Y87.56
X41.828 Y87.574
X41.66 Y87.807 F13.
X41.648 Y87.813
X41.518 Y87.878
X41.494 Y87.861
X41.71 Y86.945 F50.
X41.79 Y86.637
X41.804 Y86.582 F13.
X41.808 Y86.569
X41.83 Y86.526
X41.844 Y86.528
X41.981 Y86.546 F50.
X41.995 Y86.549
X42.227 Y86.614
X42.446 Y86.676
X42.491 Y86.689
X42.505 Y86.694
X42.884 Y86.895
X42.919 Y86.915
X42.936 Y86.926
X42.954 Y86.945
X43.247 Y87.314
X43.257 Y87.328
X43.265 Y87.341
X43.273 Y87.355
X43.357 Y87.601
X43.36 Y87.615
X43.377 Y87.71
X43.392 Y87.82
X43.429 Y88.093
X43.434 Y88.121
X43.44 Y88.148
X43.449 Y88.175
X43.461 Y88.203
X43.474 Y88.23
X43.491 Y88.257
X43.501 Y88.273
X43.513 Y88.288
X43.526 Y88.303
X43.54 Y88.318
X43.554 Y88.332
X43.568 Y88.344
X43.595 Y88.365
X43.622 Y88.382
X43.65 Y88.397
X43.677 Y88.409
X43.704 Y88.419
X43.759 Y88.433
X43.868 Y88.458
X43.896 Y88.464
X43.923 Y88.468
X43.951 Y88.47
X43.978
X44.005 Y88.469
X44.033 Y88.465
X44.06 Y88.46
X44.087 Y88.452
X44.115 Y88.443
X44.142 Y88.431
X44.169 Y88.416
X44.197 Y88.399
X44.216 Y88.385
X44.236 Y88.368
X44.256 Y88.348
X44.274 Y88.328
X44.288 Y88.31
X44.301 Y88.293
X44.312 Y88.275
X44.322 Y88.257
X44.335 Y88.23
X44.346 Y88.203
X44.354 Y88.175
X44.361 Y88.148
X44.365 Y88.121
X44.368 Y88.093
X44.473 Y86.925
X44.492 Y86.726 F13.
X44.506
X44.513 Y86.753
X44.521 Y86.781
X44.531 Y86.808
X44.544 Y86.835 F50.
X44.559 Y86.863
X44.578 Y86.89
X44.588 Y86.904
X44.6 Y86.917
X44.613 Y86.931
X44.627 Y86.945
X44.634 Y86.952
X44.648 Y86.963
X44.662 Y86.974
X44.689 Y86.992
X44.716 Y87.008
X44.744 Y87.021
X44.771 Y87.031
X44.799 Y87.039
X44.853 Y87.05
X44.973 Y87.073
X45.17 Y87.109 F13.
X45.189 Y87.122
X45.197 Y87.136
X45.212 Y87.204
X45.213 Y87.218 F50.
X45.204 Y87.382
X45.191 Y87.601
X44.924 Y90.883
X44.902 Y91.101
X44.881 Y91.293
X44.879 Y91.306
X44.853 Y91.371 F13.
X44.84 Y91.389
X44.826 Y91.396
X44.812 Y91.398
X44.47 Y91.403 F50.
X44.443 Y91.405
X44.416 Y91.408
X44.388 Y91.414
X44.361 Y91.421
X44.333 Y91.431
X44.306 Y91.443
X44.279 Y91.457
X44.251 Y91.475
X44.224 Y91.495
X44.21 Y91.507
X44.197 Y91.52
X44.179 Y91.539
X44.168 Y91.553
X44.157 Y91.566
X44.139 Y91.594
X44.123 Y91.621
X44.111 Y91.648
X44.1 Y91.676
X44.092 Y91.703
X44.086 Y91.73
X44.082 Y91.758
X44.072 Y91.867
X44.068 Y91.922
X44.067 Y91.949
Y91.976
X44.07 Y92.004
X44.075 Y92.031
X44.081 Y92.059
X44.09 Y92.086
X44.101 Y92.113
X44.114 Y92.141
X44.131 Y92.168
X44.15 Y92.195
X44.171 Y92.221
X44.184 Y92.234
X44.197 Y92.246
X44.21 Y92.258
X44.224 Y92.269
X44.251 Y92.288
X44.279 Y92.304
X44.306 Y92.317
X44.333 Y92.328
X44.361 Y92.336
X44.388 Y92.343
X44.416 Y92.347
X44.634 Y92.366
X47.26 Y92.585
X47.479 Y92.6
X47.862 Y92.611
X47.89 Y92.612
X47.917 Y92.611
X48.136 Y92.582
X48.573 Y92.52
X48.628 Y92.511
X48.656 Y92.504
X48.683 Y92.496
X48.71 Y92.486
X48.738 Y92.474
X48.865 Y92.414
X49.23 Y92.236
X49.266 Y92.218
X49.285 Y92.207
X49.303 Y92.195
X49.324 Y92.18
X49.345 Y92.163
X49.367 Y92.142
X49.387 Y92.121
X49.735 Y91.703
X49.757 Y91.676
X49.776 Y91.648
X49.792 Y91.621
X49.805 Y91.594
X49.816 Y91.566
X49.824 Y91.539
X49.941 Y91.101
X49.983 Y90.937
X49.989 Y90.91
X49.994 Y90.883
X49.996 Y90.855
Y90.828
X49.995 Y90.801
X49.992 Y90.773
X49.98 Y90.664
X49.942 Y90.336
X49.935 Y90.281
X49.93 Y90.254
X49.923 Y90.226
X49.916 Y90.205
X49.908 Y90.183
X49.898 Y90.162
X49.886 Y90.14
X49.668 Y89.743
X49.642 Y89.7
X49.627 Y89.678
X49.609 Y89.657
X49.586 Y89.632
X49.563 Y89.611
X49.23 Y89.318
X49.202 Y89.294 F13.
X49.188 Y89.282
X49.174 Y89.272
X49.155 Y89.26
X49.137 Y89.249
X49.148 Y89.225
X50.334 Y87.82 F50.
X50.405 Y87.745
X50.543 Y87.6 F13.
X50.557 Y87.587
X50.817 Y87.523 F50.
X50.844 Y87.515
X50.871 Y87.505
X50.899 Y87.492
X50.926 Y87.477
X50.953 Y87.459
X50.967 Y87.449
X50.981 Y87.437
X50.995 Y87.424 F13.
X51.009 Y87.41
X51.022 Y87.396
X51.033 Y87.382
X51.044 Y87.368
X51.054 Y87.353
X51.073 Y87.368
X51.168 Y88.859 F50.
X51.17 Y88.886
X51.175 Y88.914
X51.179 Y88.934
X51.185 Y88.955
X51.191 Y88.975
X51.199 Y88.996
X51.207 Y89.013
X51.216 Y89.03
X51.226 Y89.047
X51.237 Y89.064
X51.249 Y89.081
X51.263 Y89.098
X51.278 Y89.115
X51.295 Y89.132
X51.311 Y89.146
X51.326 Y89.158
X51.341 Y89.169
X51.357 Y89.179
X51.372 Y89.188
X51.388 Y89.197
X51.418 Y89.211
X51.446 Y89.22
X51.473 Y89.228
X51.5 Y89.234
X51.528 Y89.238
X51.555 Y89.239
X51.582
X51.637 Y89.236
X51.747 Y89.229
X51.774 Y89.226
X51.801 Y89.221
X51.829 Y89.214
X51.856 Y89.204
X51.886 Y89.192
X51.916 Y89.176
X51.931 Y89.166
X51.946 Y89.156
X51.961 Y89.145
X51.976 Y89.132
X51.993 Y89.117
X52.009 Y89.1
X52.023 Y89.084
X52.036 Y89.068
X52.047 Y89.051
X52.058 Y89.035
X52.067 Y89.019
X52.075 Y89.003
X52.085 Y88.98
X52.093 Y88.958
X52.1 Y88.936
X52.105 Y88.914
X52.239 Y88.326
X52.243 Y88.312
X52.513 Y87.84
X52.53 Y87.82
X52.886 Y87.508
X52.908 Y87.491
X53.388 Y87.344
X53.402
X53.593 Y87.36
X53.607 Y87.361
X53.784 Y87.433
X53.805 Y87.443
X53.915 Y87.549 F13.
X53.923 Y87.567
X53.961 Y87.683
X53.963 Y87.697
X53.918 Y87.893
X53.91 Y87.917
X53.72 Y88.137 F50.
X53.706 Y88.151
X52.873 Y88.695
X52.731 Y88.787
X52.643 Y88.847
X52.556 Y88.914
X51.99 Y89.351
X51.923 Y89.403
X51.856 Y89.464
X51.799 Y89.517
X51.785 Y89.53
X51.773 Y89.544
X51.751 Y89.57
X51.734 Y89.593
X51.719 Y89.615
X51.614 Y89.789
X51.483 Y90.007
X51.418 Y90.12
X51.406 Y90.146
X51.396 Y90.173
X51.388 Y90.2
X51.381 Y90.226
X51.349 Y90.445
X51.319 Y90.664
X51.292 Y90.883
X51.291 Y90.91
Y90.937
X51.294 Y90.965
X51.298 Y90.992
