(1001)
(T1  D=2. CR=0. - ZMIN=-2.928 - FLAT END MILL)
G0 G90 G94 G17
G21
G53 G0 Z0.

(2MM  FLATEND  MORPHED-SPIRAL)
M5
M9
T1
S12000 M3
G4 P4.
G55
M8
G0 X34.588 Y32.485
Z15.
Z1.103
G1 Z-2.817 F200.
Z-2.828
X34.592 Y32.481 Z-2.928
X35.083 Y31.988
Z-2.828
G0 Z5.
X66.77 Y31.852
Z1.147
G1 Z-2.828 F200.
X66.784 Y31.865 Z-2.928
X67.391 Y32.47
Z-2.828
G0 Z5.
X73.975 Y47.913
Z1.114
G1 Z-2.807 F200.
Y47.914 Z-2.828
X73.976 Y47.925 Z-2.928
X73.995 Y48.502
Z-2.828
G0 Z5.
X27.928 Y48.749
Z1.151
G1 Z-2.809 F200.
Y48.748 Z-2.828
Y48.739 Z-2.928
X27.942 Y47.899
Z-2.828
G0 Z5.
X34.526 Y32.414
Z1.035
G1 Z-2.828 F200.
X34.547 Y32.392 Z-2.928
X35.628 Y31.345 Z-2.922
G0 Z5.
X66.278 Y31.266
Z1.151
G1 Z-2.798 F200.
X66.28 Y31.268 Z-2.828
X66.291 Y31.278 Z-2.928
X67.452 Y32.397
Z-2.828
G0 Z5.
X74.067 Y47.874
Z1.045
G1 Z-2.796 F200.
Y47.877 Z-2.828
X74.068 Y47.898 Z-2.928
X74.08 Y49.181
Z-2.828
G0 Z5.
X27.85 Y49.434
Z1.15
G1 Z-2.828 F200.
Y49.426 Z-2.928
Y47.858
Z-2.828
G0 Z5.
X34.462 Y32.344
Z0.98
G1 Z-2.828 F200.
X34.475 Y32.331 Z-2.928
X36.074 Y30.825
X36.076 Y30.823 Z-2.828
Z-2.825
G0 Z5.
X65.829 Y30.748
Z1.161
G1 Z-2.813 F200.
Z-2.828
X65.835 Y30.754 Z-2.928
X67.517 Y32.328
Z-2.828
G0 Z5.
X74.159 Y47.83
Z0.98
G1 Z-2.827 F200.
Z-2.828
Y47.831 Z-2.928
X74.145 Y49.749
Z-2.828
G0 Z5.
X27.786 Y49.994
Z1.149
G1 Z-2.818 F200.
Z-2.828
Y49.988 Z-2.928
X27.758 Y47.804
Z-2.828
G0 Z5.
X34.393 Y32.279
Z0.98
G1 Z-2.826 F200.
Z-2.828
Y32.278 Z-2.928
X36.45 Y30.387
X36.451 Y30.386 Z-2.828
Z-2.825
G0 Z5.
X65.449 Y30.31
Z1.169
G1 Z-2.828 F200.
X65.463 Y30.322 Z-2.928
X67.543 Y32.219
X67.585 Y32.263 Z-2.828
G0 Z5.
X74.25 Y47.769
Z0.98
G1 Z-2.828 F200.
X74.251 Y47.793 Z-2.928
X74.239 Y49.764
X74.203 Y50.253
G0 Z5.
X27.732 Y50.489
Z1.15
G1 Z-2.814 F200.
Z-2.832
Y50.48 Z-2.928
X27.659 Y47.94
X27.667 Y47.736
Z-2.828
G0 Z5.
X34.322 Y32.216
Z1.02
G1 Z-2.82 F200.
Z-2.828
X34.325 Y32.213 Z-2.928
X36.153 Y30.51
X36.792 Y29.992
Z-2.828
G0 Z5.
X65.087 Y29.904
Z1.159
G1 Z-2.81 F200.
X65.088 Y29.905 Z-2.828
X65.095 Y29.91 Z-2.928
X67.112 Y31.656
X67.654 Y32.198
X67.655 Z-2.828
G0 Z5.
X74.339 Y47.694
Z0.98
G1 Z-2.828 F200.
Y47.696 Z-2.928
X74.333 Y49.766
X74.252 Y50.763
Y50.764 Z-2.828
Z-2.827
G0 Z5.
X27.69 Y51.007
Z1.159
G1 Z-2.821 F200.
Z-2.828
X27.689 Y51.003 Z-2.928
X27.553 Y48.433
X27.577 Y47.651
Z-2.828
G0 Z5.
X34.25 Y32.154
Z1.063
G1 Z-2.82 F200.
Z-2.828
X34.253 Y32.151 Z-2.928
X36.08 Y30.447
X37.236 Y29.536
Y29.535 Z-2.828
G0 Z5.
X64.699 Y29.493
Z1.151
G1 Z-2.82 F200.
Z-2.828
X64.702 Y29.496 Z-2.928
X66.819 Y31.247
X67.725 Y32.135
Z-2.828
G0 Z5.
X74.428 Y47.599
Z0.98
G1 Z-2.828 F200.
X74.429 Y47.628 Z-2.928
X74.427 Y49.768
X74.292 Y51.269
Z-2.828
G0 Z5.
X27.656 Y51.518
Z1.155
G1 Z-2.816 F200.
Z-2.828
X27.655 Y51.512 Z-2.928
X27.46 Y48.926
X27.489 Y47.541
Z-2.828
G0 Z5.
X34.179 Y32.092
Z1.1
G1 Z-2.824 F200.
Z-2.828
X34.18 Y32.09 Z-2.928
X36.007 Y30.385
X37.626 Y29.137
X37.627 Z-2.828
G0 Z5.
X64.298 Y29.089
Z1.153
G1 Z-2.824 F200.
Z-2.828
X64.3 Y29.09 Z-2.928
X66.518 Y30.846
X67.794 Y32.07
Y32.071 Z-2.828
G0 Z5.
X74.514 Y47.474
Z0.98
G1 Z-2.828 F200.
X74.516 Y47.5 Z-2.928
X74.521 Y49.77
X74.314 Y51.834
Z-2.828
G0 Z5.
X27.638 Y52.072
Z1.156
G1 Z-2.813 F200.
X27.637 Y52.071 Z-2.828
X27.636 Y52.064 Z-2.928
X27.379 Y49.419
X27.403 Y47.394
Z-2.828
G0 Z5.
X34.108 Y32.029
Z1.131
G1 Z-2.812 F200.
Z-2.828
X34.114 Y32.023 Z-2.928
X35.934 Y30.322
X37.973 Y28.782
X37.974 Z-2.828
Z-2.826
G0 Z5.
X63.943 Y28.732
Z1.154
G1 Z-2.811 F200.
X63.944 Z-2.828
X63.951 Y28.737 Z-2.928
X66.211 Y30.451
X67.866 Y32.008
Z-2.828
G0 Z5.
X74.596 Y47.299
Z0.98
G1 Z-2.828 F200.
X74.597 Y47.311 Z-2.928
X74.64 Y49.286
X74.369 Y52.108
X74.331 Y52.354
Z-2.828
G0 Z5.
X27.621 Y52.568
Z1.157
G1 Z-2.814 F200.
Y52.567 Z-2.828
X27.62 Y52.56 Z-2.928
X27.31 Y49.912
X27.304 Y47.482
X27.323 Y47.195
Z-2.828
G0 Z5.
X34.037 Y31.966
Z1.158
G1 Z-2.824 F200.
Z-2.828
X34.039 Y31.964 Z-2.928
X35.861 Y30.26
X37.811 Y28.778
X38.288 Y28.46
G0 Z5.
X63.619 Y28.406
Z1.155
G1 Z-2.831 F200.
X63.62 Y28.407 Z-2.853
X63.627 Y28.411 Z-2.928
X65.897 Y30.065
X67.937 Y31.946
Z-2.828
G0 Z5.
X74.675 Y47.099
Z0.98
G1 Z-2.828 F200.
X74.677 Y47.123 Z-2.928
X74.733 Y49.288
X74.463 Y52.119
X74.347 Y52.824
Z-2.828
G0 Z5.
X27.606 Y53.021
Z1.158
G1 Z-2.828 F200.
Y53.018 Z-2.928
X27.253 Y50.404
X27.188 Y47.975
X27.244 Y46.995
Z-2.828
G0 Z5.
X33.965 Y31.904
Z1.179
G1 Z-2.824 F200.
Z-2.828
X33.967 Y31.903 Z-2.928
X35.788 Y30.197
X37.756 Y28.701
X38.625 Y28.135
Z-2.828
G0 Z5.
X63.277 Y28.08
Z1.164
G1 Z-2.813 F200.
Z-2.828
X63.284 Y28.084 Z-2.928
X65.577 Y29.686
X67.408 Y31.284
X68.009 Y31.884
Z-2.828
G0 Z5.
X74.754 Y46.904
Z0.98
G1 Z-2.828 F200.
X74.756 Y46.934 Z-2.928
X74.827 Y49.29
X74.556 Y52.13
X74.362 Y53.26
Z-2.828
G0 Z5.
X27.593 Y53.443
Z1.159
G1 Z-2.828 F200.
X27.588 Y53.42 Z-2.928
X27.163 Y50.454
X27.093 Y47.982
X27.166 Y46.798
Z-2.828
G0 Z5.
X33.894 Y31.841
Z1.196
G1 Z-2.819 F200.
Z-2.828
X33.897 Y31.838 Z-2.928
X35.715 Y30.135
X37.701 Y28.624
X38.996 Y27.799
Y27.798 Z-2.828
G0 Z5.
X62.949 Y27.773
Z1.18
G1 Z-2.82 F200.
Z-2.828
X62.953 Y27.775 Z-2.928
X65.094 Y29.196
X67.114 Y30.875
X68.081 Y31.822
Z-2.828
G0 Z5.
X74.83 Y46.708
Z0.98
G1 Z-2.814 F200.
X74.831 Z-2.828
Y46.715 Z-2.928
X74.923 Y49.256
X74.65 Y52.142
X74.375 Y53.666
Z-2.828
G0 Z5.
X27.58 Y53.837
Z1.16
G1 Z-2.828 F200.
X27.578 Y53.831 Z-2.928
X27.14 Y51.175
X26.989 Y48.475
X27.089 Y46.603
Z-2.828
G0 Z5.
X33.823 Y31.778
Z1.208
G1 Z-2.823 F200.
Z-2.828
X33.825 Y31.776 Z-2.928
X35.642 Y30.073
X37.646 Y28.546
X39.337 Y27.491
X39.338 Y27.49 Z-2.828
G0 Z5.
X62.595 Y27.457
Z1.195
G1 Z-2.822 F200.
Z-2.828
X62.598 Y27.459 Z-2.928
X64.756 Y28.833
X66.813 Y30.474
X68.153 Y31.76
Z-2.828
G0 Z5.
X74.907 Y46.516
Z0.98
G1 Z-2.828 F200.
X74.908 Y46.527 Z-2.928
X75.024 Y49.029
X74.811 Y51.671
X74.387 Y54.052
Z-2.828
G0 Z5.
X27.574 Y54.235
Z1.16
G1 Z-2.828 F200.
X27.568 Y54.211 Z-2.928
X27.106 Y51.669
X26.897 Y48.968
X27.013 Y46.411
Z-2.828
G0 Z5.
X33.751 Y31.717
Z1.216
G1 Z-2.797 F200.
X33.753 Y31.715 Z-2.828
X33.795 Y31.671 Z-2.928
X35.943 Y29.7
X38.171 Y28.085
X39.651 Y27.208
X39.652 Y27.207 Z-2.828
Z-2.827
G0 Z5.
X62.271 Y27.17
Z1.208
G1 Z-2.783 F200.
X62.276 Y27.173 Z-2.828
X62.296 Y27.184 Z-2.928
X64.639 Y28.634
X66.872 Y30.4
X68.225 Y31.699
Z-2.828
G0 Z5.
X74.982 Y46.326
Z0.98
G1 Z-2.812 F200.
Y46.327 Z-2.828
X74.983 Y46.335 Z-2.928
X75.118 Y49.027
X74.904 Y51.682
X74.387 Y54.463
Z-2.828
G0 Z5.
X27.574 Y54.632
Z1.16
G1 Z-2.828 F200.
X27.571 Y54.62 Z-2.928
X27.04 Y51.888
X26.817 Y49.461
X26.882 Y46.81
X26.938 Y46.222
Z-2.828
G0 Z5.
X33.68 Y31.654
Z1.219
G1 Z-2.825 F200.
Z-2.828
X33.681 Y31.653 Z-2.928
X35.496 Y29.948
X37.536 Y28.392
X39.943 Y26.944
G0 Z5.
X61.974 Y26.906
Z1.216
G1 Z-2.834 F200.
X61.975 Z-2.846
X61.979 Y26.908 Z-2.928
X64.29 Y28.279
X66.565 Y30.006
X68.131 Y31.466
Z-2.828
G0 Z5.
X75.056 Y46.139
Z0.98
G1 Z-2.822 F200.
Z-2.828
Y46.142 Z-2.928
X75.216 Y48.539
X75.08 Y50.993
X74.627 Y53.839
X74.387 Y54.849
Z-2.828
G0 Z5.
X27.574 Y55.007
Z1.16
G1 Z-2.81 F200.
Y55.006 Z-2.828
X27.571 Y54.997 Z-2.928
X27.019 Y52.385
X26.723 Y49.469
X26.788 Y46.804
X26.864 Y46.035
Z-2.828
G0 Z5.
X37.543 Y28.273
Z1.219
G1 Z-2.756 F200.
X37.546 Y28.27 Z-2.784
X37.556 Y28.263 Z-2.81
X37.572 Y28.253 Z-2.832
X37.671 Y28.186 Z-2.928
X40.126 Y26.742
X40.255 Y26.677
Z-2.828
G0 Z5.
X61.66 Y26.639
Z1.219
G1 Z-2.828 F200.
X61.663 Y26.641 Z-2.928
X63.231 Y27.497
Z-2.828
G0 Z5.
X75.13 Y45.954
Z0.98
G1 Z-2.828 F200.
X75.133 Y45.98 Z-2.928
X75.309 Y48.536
X75.174 Y51.
X74.72 Y53.855
X74.387 Y55.214
Z-2.828
G0 Z5.
X27.574 Y55.362
Z1.16
G1 Z-2.828 F200.
X27.567 Y55.339 Z-2.928
X27.006 Y52.88
X26.654 Y49.961
X26.643 Y47.531
X26.791 Y45.851
Z-2.828
G0 Z5.
X75.202 Y45.771
Z0.98
G1 Z-2.828 F200.
X75.204 Y45.788 Z-2.928
X75.403 Y48.534
X75.268 Y51.006
X74.813 Y53.871
X74.387 Y55.561
Z-2.828
G0 Z5.
X27.574 Y55.701
Z1.16
G1 Z-2.828 F200.
X27.566 Y55.673 Z-2.928
X26.913 Y52.896
X26.561 Y49.968
X26.548 Y47.539
X26.719 Y45.669
Z-2.828
G0 Z5.
X75.274 Y45.59
Z0.98
G1 Z-2.816 F200.
Z-2.828
X75.275 Y45.596 Z-2.928
X75.497 Y48.532
X75.361 Y51.013
X74.906 Y53.886
X74.387 Y55.892
Z-2.828
G0 Z5.
X63.405 Y69.972
Z1.156
G1 Z-2.828 F200.
X63.403 Y69.973 Z-2.928
X63.114 Y70.145
Z-2.828
G0 Z5.
X27.574 Y56.026
Z1.16
G1 Z-2.828 F200.
X27.573 Y56.022 Z-2.928
X26.908 Y53.384
X26.503 Y50.46
X26.434 Y48.031
X26.648 Y45.488
Z-2.828
G0 Z5.
X75.345 Y45.411
Z0.98
G1 Z-2.823 F200.
Z-2.828
Y45.413 Z-2.928
X75.578 Y48.044
X75.5 Y50.535
X75.097 Y53.426
X74.387 Y56.211
Z-2.828
G0 Z5.
X63.588 Y69.972
Z1.156
G1 Z-2.828 F200.
X63.584 Y69.975 Z-2.928
X63.105 Y70.259
Z-2.828
G0 Z5.
X38.856 Y70.277
Z0.98
G1 Z-2.818 F200.
Z-2.828
X38.852 Y70.275 Z-2.928
X38.342 Y69.972
Z-2.828
G0 Z5.
X27.574 Y56.338
Z1.16
G1 Z-2.828 F200.
X27.566 Y56.312 Z-2.928
X26.915 Y53.885
X26.487 Y51.254
X26.332 Y48.525
X26.512 Y45.81
X26.577 Y45.31
Z-2.828
G0 Z5.
X75.415 Y45.234
Z0.98
G1 Z-2.828 F200.
X75.418 Y45.25 Z-2.928
X75.672 Y48.041
X75.594 Y50.541
X75.19 Y53.442
X74.535 Y56.053
X74.387 Y56.517
Z-2.828
G0 Z5.
X63.769 Y69.972
Z1.156
G1 Z-2.828 F200.
X63.765 Y69.975 Z-2.928
X63.097 Y70.373
Z-2.828
G0 Z5.
X38.866 Y70.392
Z0.98
G1 Z-2.8 F200.
X38.864 Y70.391 Z-2.828
X38.852 Y70.384 Z-2.928
X38.161 Y69.972
Z-2.828
G0 Z5.
X27.574 Y56.639
Z1.16
G1 Z-2.828 F200.
X27.569 Y56.625 Z-2.928
X26.824 Y53.91
X26.393 Y51.265
X26.238 Y48.532
X26.418 Y45.804
X26.507 Y45.133
Z-2.828
G0 Z5.
X75.485 Y45.058
Z0.98
G1 Z-2.828 F200.
X75.489 Y45.084 Z-2.928
X75.766 Y48.039
X75.688 Y50.548
X75.283 Y53.457
X74.627 Y56.074
X74.387 Y56.814
Z-2.828
G0 Z5.
X63.949 Y69.972
Z1.156
G1 Z-2.828 F200.
X63.945 Y69.974 Z-2.928
X63.088 Y70.488
Z-2.828
G0 Z5.
X38.874 Y70.506
Z0.98
G1 Z-2.801 F200.
X38.872 Y70.505 Z-2.828
X38.861 Y70.498 Z-2.928
X37.982 Y69.972
Z-2.828
G0 Z5.
X27.574 Y56.932
Z1.16
G1 Z-2.809 F200.
Y56.931 Z-2.828
X27.571 Y56.922 Z-2.928
X26.84 Y54.409
X26.358 Y51.759
X26.147 Y49.025
X26.27 Y46.28
X26.438 Y44.959
Z-2.828
G0 Z5.
X75.554 Y44.885
Z0.98
G1 Z-2.828 F200.
Y44.888 Z-2.928
X75.848 Y47.769
X75.803 Y50.283
X75.465 Y52.995
X74.858 Y55.628
X74.387 Y57.101
Z-2.828
G0 Z5.
X64.126 Y69.972
Z1.156
G1 Z-2.828 F200.
X64.125 Y69.973 Z-2.928
X63.08 Y70.602
Z-2.828
G0 Z5.
X38.883 Y70.62
Z0.98
G1 Z-2.808 F200.
X38.88 Y70.618 Z-2.828
X38.857 Y70.605 Z-2.928
X37.804 Y69.972
Z-2.828
G0 Z5.
X27.574 Y57.213
Z1.16
G1 Z-2.828 F200.
Z-2.928
X26.749 Y54.434
X26.265 Y51.77
X26.053 Y49.032
X26.176 Y46.274
X26.369 Y44.786
Z-2.828
G0 Z5.
X75.622 Y44.713
Z0.98
G1 Z-2.828 F200.
X75.623 Y44.722 Z-2.928
X75.941 Y47.762
X75.898 Y50.285
X75.558 Y53.011
X74.95 Y55.648
X74.387 Y57.379
Z-2.828
G0 Z5.
X64.302 Y69.972
Z1.156
G1 Z-2.828 F200.
X64.278 Y69.987 Z-2.928
X63.071 Y70.715
Z-2.828
G0 Z5.
X38.889 Y70.732
Z0.98
G1 Z-2.812 F200.
X38.888 Z-2.828
X38.881 Y70.728 Z-2.928
X37.628 Y69.972
Z-2.828
G0 Z5.
X27.574 Y57.488
Z1.16
G1 Z-2.828 F200.
X27.569 Y57.475 Z-2.928
X26.774 Y54.931
X26.205 Y52.031
X25.974 Y49.525
X26.033 Y46.806
X26.301 Y44.615
Z-2.828
G0 Z5.
X75.689 Y44.545
Z0.98
G1 Z-2.825 F200.
Z-2.828
X75.69 Y44.546 Z-2.928
X76.007 Y47.27
X76.047 Y49.316
X75.772 Y52.276
X75.172 Y55.199
X74.387 Y57.65
Z-2.828
G0 Z5.
X64.476 Y69.972
Z1.156
G1 Z-2.828 F200.
X64.466 Y69.979 Z-2.928
X63.063 Y70.829
Z-2.828
G0 Z5.
X38.9 Y70.847
Z0.98
G1 Z-2.79 F200.
X38.896 Y70.845 Z-2.828
X38.879 Y70.835 Z-2.928
X37.454 Y69.972
Z-2.828
G0 Z5.
X27.574 Y57.755
Z1.16
G1 Z-2.828 F200.
X27.566 Y57.736 Z-2.928
X26.683 Y54.956
X26.112 Y52.047
X25.88 Y49.532
X25.94 Y46.799
X26.234 Y44.445
Z-2.828
G0 Z5.
X75.756 Y44.375
Z0.98
G1 Z-2.828 F200.
X75.759 Y44.391 Z-2.928
X76.1 Y47.263
X76.141 Y49.318
X75.866 Y52.287
X75.264 Y55.22
X74.387 Y57.914
Z-2.828
G0 Z5.
X64.649 Y69.972
Z1.156
G1 Z-2.828 F200.
X64.626 Y69.987 Z-2.928
X63.054 Y70.942
Z-2.828
G0 Z5.
X38.905 Y70.958
Z0.98
G1 Z-2.813 F200.
X38.904 Z-2.828
X38.86 Y70.933 Z-2.928
X37.281 Y69.972
Z-2.828
G0 Z5.
X27.574 Y58.015
Z1.16
G1 Z-2.828 F200.
X27.573 Y58.014 Z-2.928
X26.717 Y55.45
X26.09 Y52.543
X25.786 Y49.539
X25.846 Y46.792
X26.167 Y44.279
Z-2.828
G0 Z5.
X75.822 Y44.208
Z0.98
G1 Z-2.828 F200.
X75.825 Y44.225 Z-2.928
X76.194 Y47.256
X76.235 Y49.32
X75.959 Y52.298
X75.356 Y55.24
X74.513 Y57.849
X74.387 Y58.172
Z-2.828
G0 Z5.
X64.82 Y69.972
Z1.156
G1 Z-2.828 F200.
X64.808 Y69.98 Z-2.928
X63.046 Y71.055
Z-2.828
G0 Z5.
X38.915 Y71.072
Z0.98
G1 Z-2.808 F200.
X38.912 Y71.071 Z-2.828
X38.889 Y71.058 Z-2.928
X37.11 Y69.972
Z-2.828
G0 Z5.
X27.574 Y58.268
Z1.16
G1 Z-2.828 F200.
X27.573 Y58.264 Z-2.928
X26.626 Y55.475
X25.998 Y52.559
X25.692 Y49.546
X25.752 Y46.785
X26.102 Y44.111
Z-2.828
G0 Z5.
X75.888 Y44.042
Z0.98
G1 Z-2.828 F200.
X75.89 Y44.051 Z-2.928
X76.251 Y46.764
X76.329 Y49.322
X76.053 Y52.309
X75.449 Y55.26
X74.601 Y57.883
X74.387 Y58.424
Z-2.828
G0 Z5.
X64.99 Y69.972
Z1.156
G1 Z-2.828 F200.
X64.989 Y69.973 Z-2.928
X63.038 Y71.168
Z-2.828
G0 Z5.
X38.924 Y71.185
Z0.98
G1 Z-2.791 F200.
X38.92 Y71.183 Z-2.828
X38.902 Y71.173 Z-2.928
X36.94 Y69.972
Z-2.828
G0 Z5.
X27.574 Y58.516
Z1.16
G1 Z-2.828 F200.
X27.566 Y58.497 Z-2.928
X26.61 Y55.765
X25.985 Y53.055
X25.624 Y50.039
X25.604 Y47.609
X25.86 Y44.998
X26.036 Y43.946
Z-2.828
G0 Z5.
X75.953 Y43.878
Z0.98
G1 Z-2.828 F200.
X75.958 Y43.907 Z-2.928
X76.345 Y46.758
X76.423 Y49.324
X76.146 Y52.32
X75.541 Y55.28
X74.689 Y57.916
X74.387 Y58.67
Z-2.828
G0 Z5.
X65.159 Y69.972
Z1.156
G1 Z-2.828 F200.
X65.145 Y69.982 Z-2.928
X63.029 Y71.281
Z-2.828
G0 Z5.
X38.929 Y71.297
Z0.98
G1 Z-2.807 F200.
X38.928 Y71.296 Z-2.828
X38.919 Y71.291 Z-2.928
X36.771 Y69.972
Z-2.828
G0 Z5.
X27.574 Y58.76
Z1.16
G1 Z-2.828 F200.
X27.572 Y58.756 Z-2.928
X26.586 Y56.017
X25.907 Y53.155
X25.566 Y50.531
X25.493 Y48.102
X25.701 Y45.469
X25.971 Y43.783
Z-2.828
G0 Z5.
X76.018 Y43.716
Z0.98
G1 Z-2.828 F200.
X76.021 Y43.733 Z-2.928
X76.439 Y46.751
X76.516 Y49.326
X76.24 Y52.331
X75.633 Y55.3
X74.778 Y57.95
X74.387 Y58.911
Z-2.828
G0 Z5.
X65.326 Y69.972
Z1.156
G1 Z-2.828 F200.
X65.325 Y69.973 Z-2.928
X63.021 Y71.394
Z-2.828
G0 Z5.
X38.936 Y71.408
Z0.98
G1 Z-2.827 F200.
Z-2.828
X38.935 Z-2.928
X36.604 Y69.972
Z-2.828
G0 Z5.
X27.574 Y58.999
Z1.16
G1 Z-2.828 F200.
X27.569 Y58.987 Z-2.928
X26.562 Y56.264
X25.906 Y53.657
X25.502 Y50.882
X25.399 Y48.109
X25.608 Y45.458
X25.907 Y43.621
Z-2.828
G0 Z5.
X76.081 Y43.554
Z0.98
G1 Z-2.828 F200.
X76.082 Y43.559 Z-2.928
X76.504 Y46.428
X76.62 Y48.991
X76.4 Y51.861
X75.845 Y54.849
X74.97 Y57.706
X74.387 Y59.148
Z-2.828
G0 Z5.
X65.492 Y69.972
Z1.156
G1 Z-2.828 F200.
X65.48 Y69.98 Z-2.928
X63.012 Y71.506
Z-2.828
G0 Z5.
X38.947 Y71.522
Z0.98
G1 Z-2.793 F200.
X38.944 Y71.52 Z-2.828
X38.925 Y71.51 Z-2.928
X36.438 Y69.972
Z-2.828
G0 Z5.
X27.574 Y59.233
Z1.16
G1 Z-2.828 F200.
X27.567 Y59.216 Z-2.928
X26.539 Y56.507
X25.814 Y53.682
X25.409 Y50.893
X25.305 Y48.116
X25.514 Y45.447
X25.843 Y43.46
Z-2.828
G0 Z5.
X76.145 Y43.395
Z0.98
G1 Z-2.828 F200.
X76.149 Y43.415 Z-2.928
X76.598 Y46.417
X76.714 Y48.989
X76.493 Y51.872
X75.937 Y54.87
X75.06 Y57.735
X74.387 Y59.38
Z-2.828
G0 Z5.
X65.656 Y69.972
Z1.156
G1 Z-2.828 F200.
X65.635 Y69.987 Z-2.928
X63.189 Y71.518
X63.004 Y71.618
Z-2.828
G0 Z5.
X38.953 Y71.633
Z0.98
G1 Z-2.807 F200.
X38.952 Y71.632 Z-2.828
X38.942 Y71.627 Z-2.928
X36.424 Y70.078
X36.273 Y69.972
Z-2.828
G0 Z5.
X27.574 Y59.463
Z1.16
G1 Z-2.828 F200.
X27.566 Y59.446 Z-2.928
X26.516 Y56.746
X25.822 Y54.183
X25.365 Y51.388
X25.205 Y48.609
X25.384 Y45.732
X25.78 Y43.301
Z-2.828
G0 Z5.
X76.208 Y43.236
Z0.98
G1 Z-2.828 F200.
X76.209 Y43.241 Z-2.928
X76.641 Y45.922
X76.81 Y48.5
X76.676 Y51.104
X76.208 Y54.107
X75.47 Y56.847
X74.387 Y59.608
Z-2.828
G0 Z5.
X65.82 Y69.972
Z1.156
G1 Z-2.828 F200.
X65.789 Y69.994 Z-2.928
X63.66 Y71.362
X62.996 Y71.731
Z-2.828
G0 Z5.
X38.96 Y71.744
Z0.98
G1 Z-2.827 F200.
Z-2.828
X38.959 Z-2.928
X36.774 Y70.432
X36.11 Y69.972
Z-2.828
G0 Z5.
X27.574 Y59.689
Z1.16
G1 Z-2.828 F200.
X27.567 Y59.674 Z-2.928
X26.495 Y56.98
X25.731 Y54.208
X25.272 Y51.399
X25.111 Y48.617
X25.29 Y45.725
X25.706 Y43.195
Z-2.828
G0 Z5.
X76.305 Y43.239
Z0.98
G1 Z-2.815 F200.
Y43.24 Z-2.828
X76.306 Y43.246 Z-2.928
X76.735 Y45.911
X76.904 Y48.498
X76.77 Y51.11
X76.301 Y54.122
X75.56 Y56.876
X74.47 Y59.653
X74.387 Y59.832
Z-2.828
G0 Z5.
X65.982 Y69.972
Z1.156
G1 Z-2.828 F200.
X65.969 Y69.982 Z-2.928
X63.707 Y71.444
X62.987 Y71.843
Z-2.828
G0 Z5.
X38.971 Y71.858
Z0.98
G1 Z-2.791 F200.
X38.968 Y71.856 Z-2.828
X38.949 Y71.846 Z-2.928
X36.722 Y70.511
X35.947 Y69.972
Z-2.828
G0 Z5.
X27.574 Y59.911
Z1.16
G1 Z-2.828 F200.
X27.57 Y59.902 Z-2.928
X26.473 Y57.211
X25.748 Y54.706
X25.237 Y51.893
X25.022 Y49.11
X25.1 Y46.686
X25.514 Y43.669
X25.587 Y43.304
Z-2.828
G0 Z5.
X76.424 Y43.349
Z0.98
G1 Z-2.828 F200.
X76.429 Y43.37 Z-2.928
X76.878 Y46.383
X76.996 Y48.982
X76.773 Y51.906
X76.214 Y54.93
X75.494 Y57.366
X74.387 Y60.053
Z-2.828
G0 Z5.
X66.143 Y69.972
Z1.156
G1 Z-2.828 F200.
X66.116 Y69.992 Z-2.928
X63.754 Y71.526
X62.979 Y71.954
Z-2.828
G0 Z5.
X38.977 Y71.968
Z0.98
G1 Z-2.808 F200.
X38.976 Y71.967 Z-2.828
X38.967 Y71.962 Z-2.928
X36.671 Y70.591
X35.786 Y69.972
Z-2.828
G0 Z5.
X27.574 Y60.13
Z1.16
G1 Z-2.828 F200.
Y60.129 Z-2.928
X26.453 Y57.438
X25.657 Y54.731
X25.143 Y51.904
X24.928 Y49.117
X25.006 Y46.68
X25.421 Y43.653
X25.469 Y43.412
Z-2.828
G0 Z5.
X76.542 Y43.456
Z0.98
G1 Z-2.812 F200.
Y43.457 Z-2.828
X76.544 Y43.464 Z-2.928
X76.971 Y46.372
X77.09 Y48.98
X76.867 Y51.917
X76.306 Y54.95
X75.583 Y57.395
X74.44 Y60.161
X74.387 Y60.27
Z-2.828
G0 Z5.
X66.303 Y69.972
Z1.156
G1 Z-2.828 F200.
Z-2.928
X63.801 Y71.608
X62.971 Y72.066
Z-2.828
G0 Z5.
X38.985 Y72.079
Z0.98
G1 Z-2.817 F200.
X38.983 Y72.078 Z-2.828
X38.957 Y72.064 Z-2.928
X36.62 Y70.671
X35.626 Y69.972
Z-2.828
G0 Z5.
X27.574 Y60.345
Z1.16
G1 Z-2.828 F200.
X27.566 Y60.329 Z-2.928
X26.432 Y57.662
X25.682 Y55.228
X25.091 Y52.221
X24.849 Y49.61
X24.875 Y47.18
X25.24 Y44.115
X25.351 Y43.521
Z-2.828
G0 Z5.
X76.66 Y43.564
Z0.98
G1 Z-2.828 F200.
X76.665 Y43.589 Z-2.928
X77.065 Y46.361
X77.184 Y48.977
X76.96 Y51.928
X76.509 Y54.497
X75.829 Y56.964
X74.835 Y59.533
X74.387 Y60.484
Z-2.828
G0 Z5.
X66.462 Y69.972
Z1.156
G1 Z-2.828 F200.
X66.459 Y69.974 Z-2.928
X64.117 Y71.534
X62.963 Y72.177
Z-2.828
G0 Z5.
X38.995 Y72.191
Z0.98
G1 Z-2.79 F200.
X38.991 Y72.19 Z-2.828
X38.974 Y72.181 Z-2.928
X36.568 Y70.75
X35.467 Y69.972
Z-2.828
G0 Z5.
X27.574 Y60.559
Z1.16
G1 Z-2.828 F200.
X27.562 Y60.536 Z-2.928
X26.521 Y58.173
X25.716 Y55.723
X25.149 Y53.197
X24.78 Y50.103
X24.755 Y47.673
X25.019 Y44.898
X25.234 Y43.626
Z-2.828
G0 Z5.
X76.777 Y43.671
Z0.98
G1 Z-2.828 F200.
X76.779 Y43.683 Z-2.928
X77.189 Y46.696
X77.267 Y49.342
X76.988 Y52.421
X76.49 Y54.991
X75.763 Y57.454
X74.721 Y60.009
X74.387 Y60.695
Z-2.828
G0 Z5.
X66.62 Y69.972
Z1.156
G1 Z-2.828 F200.
X66.615 Y69.976 Z-2.928
X64.168 Y71.614
X62.954 Y72.289
Z-2.828
G0 Z5.
X39. Y72.301
Z0.98
G1 Z-2.811 F200.
X38.999 Z-2.828
X38.991 Y72.297 Z-2.928
X36.517 Y70.83
X35.309 Y69.972
Z-2.828
G0 Z5.
X27.574 Y60.769
Z1.16
G1 Z-2.828 F200.
X27.566 Y60.753 Z-2.928
X26.433 Y58.206
X25.625 Y55.747
X25.056 Y53.213
X24.687 Y50.11
X24.661 Y47.68
X24.925 Y44.887
X25.118 Y43.732
Z-2.828
G0 Z5.
X76.893 Y43.778
Z0.98
G1 Z-2.828 F200.
X76.898 Y43.808 Z-2.928
X77.283 Y46.689
X77.361 Y49.344
X77.082 Y52.432
X76.582 Y55.011
X75.852 Y57.484
X74.809 Y60.043
X74.387 Y60.903
Z-2.828
G0 Z5.
X66.777 Y69.972
Z1.156
G1 Z-2.828 F200.
X66.771 Y69.977 Z-2.928
X64.635 Y71.443
X62.946 Y72.4
Z-2.828
G0 Z5.
X39.009 Y72.412
Z0.98
G1 Z-2.813 F200.
X39.007 Y72.411 Z-2.828
X38.982 Y72.398 Z-2.928
X36.466 Y70.91
X35.152 Y69.972
Z-2.828
G0 Z5.
X27.574 Y60.975
Z1.16
G1 Z-2.828 F200.
X27.571 Y60.97 Z-2.928
X26.345 Y58.24
X25.534 Y55.772
X24.963 Y53.229
X24.593 Y50.117
X24.567 Y47.687
X24.832 Y44.876
X25.002 Y43.838
Z-2.828
G0 Z5.
X77.008 Y43.882
Z0.98
G1 Z-2.828 F200.
X77.012 Y43.902 Z-2.928
X77.376 Y46.683
X77.455 Y49.346
X77.175 Y52.443
X76.674 Y55.031
X75.942 Y57.513
X74.898 Y60.077
X74.387 Y61.108
Z-2.828
G0 Z5.
X66.933 Y69.972
Z1.156
G1 Z-2.828 F200.
X66.927 Y69.977 Z-2.928
X64.687 Y71.522
X62.938 Y72.511
Z-2.828
G0 Z5.
X39.017 Y72.523
Z0.98
G1 Z-2.794 F200.
X39.015 Y72.522 Z-2.828
X38.999 Y72.514 Z-2.928
X36.414 Y70.99
X34.996 Y69.972
Z-2.828
G0 Z5.
X27.574 Y61.179
Z1.16
G1 Z-2.828 F200.
X27.563 Y61.159 Z-2.928
X26.356 Y58.53
X25.443 Y55.797
X24.87 Y53.245
X24.499 Y50.124
X24.472 Y47.694
X24.738 Y44.864
X24.888 Y43.943
Z-2.828
G0 Z5.
X77.123 Y43.988
Z0.98
G1 Z-2.826 F200.
Z-2.828
Y43.989 Z-2.928
X77.47 Y46.676
X77.549 Y49.348
X77.269 Y52.454
X76.766 Y55.051
X76.032 Y57.542
X74.986 Y60.111
X74.387 Y61.311
Z-2.828
G0 Z5.
X67.089 Y69.972
Z1.156
G1 Z-2.828 F200.
X67.082 Y69.977 Z-2.928
X64.738 Y71.602
X62.93 Y72.622
Z-2.828
G0 Z5.
X39.023 Y72.633
Z0.98
G1 Z-2.815 F200.
Z-2.828
X39.017 Y72.63 Z-2.928
X36.77 Y71.336
X34.841 Y69.972
X34.84 Z-2.828
G0 Z5.
X27.574 Y61.38
Z1.16
G1 Z-2.828 F200.
X27.571 Y61.375 Z-2.928
X26.338 Y58.739
X25.443 Y56.142
X24.778 Y53.26
X24.406 Y50.131
X24.378 Y47.701
X24.645 Y44.853
X24.773 Y44.048
Z-2.828
G0 Z5.
X77.236 Y44.091
Z0.98
G1 Z-2.828 F200.
X77.239 Y44.107 Z-2.928
X77.6 Y47.154
X77.621 Y49.836
X77.288 Y52.946
X76.739 Y55.543
X75.835 Y58.355
X74.646 Y61.018
X74.387 Y61.511
Z-2.828
G0 Z5.
X67.243 Y69.972
Z1.156
G1 Z-2.828 F200.
X67.236 Y69.977 Z-2.928
X64.789 Y71.682
X62.921 Y72.732
Z-2.828
G0 Z5.
X39.033 Y72.744
Z0.98
G1 Z-2.808 F200.
X39.03 Y72.743 Z-2.828
X39.007 Y72.731 Z-2.928
X36.718 Y71.416
X34.686 Y69.972
Z-2.828
G0 Z5.
X27.574 Y61.579
Z1.16
G1 Z-2.828 F200.
X27.565 Y61.563 Z-2.928
X26.321 Y58.946
X25.353 Y56.171
X24.685 Y53.276
X24.312 Y50.138
X24.284 Y47.708
X24.551 Y44.842
X24.66 Y44.15
Z-2.828
G0 Z5.
X77.35 Y44.194
Z0.98
G1 Z-2.828 F200.
X77.353 Y44.211 Z-2.928
X77.693 Y47.147
X77.715 Y49.838
X77.382 Y52.957
X76.832 Y55.563
X75.923 Y58.389
X74.735 Y61.052
X74.387 Y61.709
Z-2.828
G0 Z5.
X67.396 Y69.972
Z1.156
G1 Z-2.828 F200.
X67.391 Y69.976 Z-2.928
X65.252 Y71.503
X62.913 Y72.843
Z-2.828
G0 Z5.
X39.04 Y72.854
Z0.98
G1 Z-2.799 F200.
X39.038 Y72.853 Z-2.828
X39.025 Y72.847 Z-2.928
X36.667 Y71.495
X34.533 Y69.972
Z-2.828
G0 Z5.
X27.574 Y61.776
Z1.16
G1 Z-2.828 F200.
X27.56 Y61.75 Z-2.928
X26.304 Y59.151
X25.402 Y56.666
X24.721 Y53.979
X24.288 Y51.027
X24.176 Y48.201
X24.393 Y45.313
X24.547 Y44.253
Z-2.828
G0 Z5.
X77.462 Y44.297
Z0.98
G1 Z-2.828 F200.
X77.465 Y44.315 Z-2.928
X77.787 Y47.14
X77.809 Y49.84
X77.476 Y52.968
X76.924 Y55.583
X76.011 Y58.423
X74.824 Y61.086
X74.387 Y61.904
Z-2.828
G0 Z5.
X67.549 Y69.972
Z1.156
G1 Z-2.828 F200.
X67.538 Y69.98 Z-2.928
X65.303 Y71.582
X62.905 Y72.953
Z-2.828
G0 Z5.
X39.046 Y72.963
Z0.98
G1 Z-2.821 F200.
Z-2.828
X39.043 Y72.962 Z-2.928
X36.616 Y71.575
X34.38 Y69.972
Z-2.828
G0 Z5.
X27.574 Y61.97
Z1.16
G1 Z-2.828 F200.
X27.57 Y61.964 Z-2.928
X26.287 Y59.354
X25.313 Y56.695
X24.63 Y54.004
X24.195 Y51.038
X24.082 Y48.208
X24.299 Y45.302
X24.435 Y44.356
Z-2.828
G0 Z5.
X77.575 Y44.4
Z0.98
G1 Z-2.828 F200.
X77.578 Y44.419 Z-2.928
X77.881 Y47.133
X77.903 Y49.842
X77.569 Y52.98
X77.016 Y55.603
X76.099 Y58.456
X74.912 Y61.12
X74.387 Y62.097
Z-2.828
G0 Z5.
X67.7 Y69.972
Z1.156
G1 Z-2.828 F200.
X67.686 Y69.983 Z-2.928
X65.354 Y71.662
X62.897 Y73.063
Z-2.828
G0 Z5.
X39.057 Y73.075
Z0.98
G1 Z-2.799 F200.
X39.054 Y73.073 Z-2.828
X39.033 Y73.063 Z-2.928
X36.564 Y71.655
X34.229 Y69.972
Z-2.828
G0 Z5.
X27.574 Y62.162
Z1.16
G1 Z-2.828 F200.
X27.567 Y62.15 Z-2.928
X26.27 Y59.554
X25.223 Y56.725
X24.538 Y54.029
X24.101 Y51.05
X23.988 Y48.215
X24.206 Y45.29
X24.323 Y44.458
Z-2.828
G0 Z5.
X77.686 Y44.502
Z0.98
G1 Z-2.828 F200.
X77.689 Y44.524 Z-2.928
X78.002 Y47.612
X77.967 Y50.329
X77.601 Y53.356
X76.981 Y56.093
X76.01 Y58.943
X74.776 Y61.585
X74.387 Y62.288
Z-2.828
G0 Z5.
X67.851 Y69.972
Z1.156
G1 Z-2.828 F200.
X67.836 Y69.984 Z-2.928
X65.405 Y71.742
X62.889 Y73.173
Z-2.828
G0 Z5.
X39.063 Y73.184
Z0.98
G1 Z-2.806 F200.
X39.061 Y73.183 Z-2.828
X39.051 Y73.178 Z-2.928
X36.513 Y71.734
X34.078 Y69.972
Z-2.828
G0 Z5.
X27.574 Y62.352
Z1.16
G1 Z-2.828 F200.
X27.565 Y62.337 Z-2.928
X26.254 Y59.752
X25.281 Y57.217
X24.547 Y54.53
X24.058 Y51.544
X23.89 Y48.709
X24.017 Y46.124
X24.212 Y44.561
Z-2.828
G0 Z5.
X77.797 Y44.603
Z0.98
G1 Z-2.828 F200.
X77.801 Y44.628 Z-2.928
X78.096 Y47.605
X78.061 Y50.331
X77.694 Y53.372
X77.073 Y56.113
X76.234 Y58.632
X75.037 Y61.29
X74.387 Y62.477
Z-2.828
G0 Z5.
X68.001 Y69.972
Z1.156
G1 Z-2.828 F200.
X67.987 Y69.984 Z-2.928
X65.759 Y71.625
X63.47 Y72.982
X62.88 Y73.283
Z-2.828
G0 Z5.
X39.069 Y73.293
Z0.98
G1 Z-2.828 F200.
Z-2.928
X36.462 Y71.814
X34.006 Y70.036
X33.928 Y69.972
Z-2.828
G0 Z5.
X27.574 Y62.54
Z1.16
G1 Z-2.828 F200.
X27.563 Y62.522 Z-2.928
X26.238 Y59.948
X25.191 Y57.246
X24.456 Y54.554
X23.964 Y51.556
X23.796 Y48.716
X23.923 Y46.117
X24.102 Y44.66
Z-2.828
G0 Z5.
X77.907 Y44.705
Z0.98
G1 Z-2.825 F200.
Z-2.828
X77.908 Y44.707 Z-2.928
X78.19 Y47.598
X78.155 Y50.333
X77.787 Y53.388
X77.165 Y56.133
X76.324 Y58.661
X75.128 Y61.32
X74.387 Y62.665
Z-2.828
G0 Z5.
X68.15 Y69.972
Z1.156
G1 Z-2.828 F200.
X68.143 Y69.978 Z-2.928
X65.814 Y71.702
X63.517 Y73.064
X62.872 Y73.393
Z-2.828
G0 Z5.
X39.08 Y73.404
Z0.98
G1 Z-2.791 F200.
X39.077 Y73.402 Z-2.828
X39.06 Y73.394 Z-2.928
X36.41 Y71.894
X34.232 Y70.338
X33.778 Y69.972
Z-2.828
G0 Z5.
X27.574 Y62.727
Z1.16
G1 Z-2.828 F200.
X27.562 Y62.708 Z-2.928
X26.223 Y60.143
X25.101 Y57.276
X24.365 Y54.579
X23.871 Y51.567
X23.702 Y48.702
X23.829 Y46.111
X23.992 Y44.76
Z-2.828
G0 Z5.
X78.017 Y44.804
Z0.98
G1 Z-2.822 F200.
Z-2.828
Y44.807 Z-2.928
X78.3 Y47.978
X78.22 Y50.724
X77.88 Y53.403
X77.258 Y56.153
X76.414 Y58.69
X75.219 Y61.35
X74.387 Y62.85
Z-2.828
G0 Z5.
X68.299 Y69.972
Z1.156
G1 Z-2.828 F200.
X68.275 Y69.991 Z-2.928
X65.869 Y71.779
X63.564 Y73.146
X62.864 Y73.503
Z-2.828
G0 Z5.
X39.085 Y73.512
Z0.98
G1 Z-2.814 F200.
Z-2.828
X39.078 Y73.509 Z-2.928
X36.671 Y72.171
X34.173 Y70.413
X33.63 Y69.972
Z-2.828
G0 Z5.
X27.574 Y62.911
Z1.16
G1 Z-2.828 F200.
X27.562 Y62.892 Z-2.928
X26.208 Y60.335
X25.131 Y57.662
X24.383 Y55.078
X23.835 Y52.061
X23.614 Y49.338
X23.693 Y46.589
X23.883 Y44.86
Z-2.828
G0 Z5.
X78.126 Y44.904
Z0.98
G1 Z-2.828 F200.
X78.129 Y44.927 Z-2.928
X78.393 Y47.976
X78.314 Y50.73
X77.973 Y53.419
X77.35 Y56.173
X76.362 Y59.078
X75.131 Y61.721
X74.387 Y63.034
Z-2.828
G0 Z5.
X68.447 Y69.972
Z1.156
G1 Z-2.828 F200.
X68.431 Y69.985 Z-2.928
X66.327 Y71.584
X64.039 Y72.998
X62.856 Y73.613
Z-2.828
G0 Z5.
X39.093 Y73.622
Z0.98
G1 Z-2.828 F200.
X39.069 Y73.61 Z-2.928
X36.624 Y72.253
X34.114 Y70.487
X33.482 Y69.972
Z-2.828
G0 Z5.
X27.574 Y63.094
Z1.16
G1 Z-2.828 F200.
X27.563 Y63.077 Z-2.928
X26.193 Y60.526
X25.043 Y57.696
X24.292 Y55.103
X23.741 Y52.072
X23.52 Y49.341
X23.599 Y46.582
X23.774 Y44.959
Z-2.828
G0 Z5.
X78.235 Y45.004
Z0.98
G1 Z-2.826 F200.
Z-2.828
Y45.005 Z-2.928
X78.487 Y47.974
X78.408 Y50.737
X78.066 Y53.435
X77.442 Y56.194
X76.593 Y58.749
X75.4 Y61.41
X74.387 Y63.216
Z-2.828
G0 Z5.
X68.594 Y69.972
Z1.156
G1 Z-2.828 F200.
X68.587 Y69.978 Z-2.928
X66.382 Y71.661
X64.086 Y73.08
X62.837 Y73.727
Z-2.828
G0 Z5.
X39.113 Y73.737
Z0.98
G1 Z-2.828 F200.
X39.087 Y73.724 Z-2.928
X36.576 Y72.336
X34.055 Y70.561
X33.335 Y69.972
Z-2.828
G0 Z5.
X27.574 Y63.275
Z1.16
G1 Z-2.828 F200.
X27.565 Y63.26 Z-2.928
X26.178 Y60.715
X25.117 Y58.188
X24.318 Y55.599
X23.769 Y52.939
X23.442 Y49.741
X23.475 Y46.975
X23.666 Y45.058
Z-2.828
G0 Z5.
X78.343 Y45.101
Z0.98
G1 Z-2.814 F200.
Y45.102 Z-2.828
X78.344 Y45.109 Z-2.928
X78.581 Y47.971
X78.502 Y50.743
X78.158 Y53.45
X77.535 Y56.214
X76.683 Y58.779
X75.491 Y61.44
X74.387 Y63.396
Z-2.828
G0 Z5.
X68.74 Y69.972
Z1.156
G1 Z-2.828 F200.
X68.718 Y69.99 Z-2.928
X66.437 Y71.738
X64.134 Y73.162
X62.801 Y73.85
Z-2.828
G0 Z5.
X39.15 Y73.86
Z0.98
G1 Z-2.828 F200.
X39.133 Y73.851 Z-2.928
X36.529 Y72.418
X33.996 Y70.635
X33.189 Y69.972
Z-2.828
G0 Z5.
X27.574 Y63.455
Z1.16
G1 Z-2.828 F200.
X27.567 Y63.444 Z-2.928
X26.164 Y60.903
X25.029 Y58.221
X24.227 Y55.624
X23.676 Y52.955
X23.349 Y49.748
X23.381 Y46.973
X23.558 Y45.156
Z-2.828
G0 Z5.
X78.451 Y45.2
Z0.98
G1 Z-2.828 F200.
X78.452 Y45.216 Z-2.928
X78.675 Y47.969
X78.595 Y50.75
X78.251 Y53.466
X77.627 Y56.234
X76.773 Y58.808
X75.582 Y61.47
X74.387 Y63.575
Z-2.828
G0 Z5.
X68.886 Y69.972
Z1.156
G1 Z-2.828 F200.
X68.873 Y69.983 Z-2.928
X66.493 Y71.816
X64.181 Y73.244
X62.741 Y73.984
Z-2.828
G0 Z5.
X39.213 Y73.995
Z0.98
G1 Z-2.828 F200.
X39.206 Y73.991 Z-2.928
X36.896 Y72.753
X34.632 Y71.241
X33.043 Y69.972
Z-2.828
G0 Z5.
X27.574 Y63.633
Z1.16
G1 Z-2.828 F200.
X27.57 Y63.627 Z-2.928
X26.149 Y61.088
X24.94 Y58.255
X24.136 Y55.649
X23.584 Y52.971
X23.283 Y50.24
X23.259 Y47.457
X23.451 Y45.255
Z-2.828
G0 Z5.
X78.558 Y45.298
Z0.98
G1 Z-2.828 F200.
X78.561 Y45.325 Z-2.928
X78.78 Y48.453
X78.647 Y51.241
X78.257 Y53.96
X77.585 Y56.721
X76.684 Y59.29
X75.448 Y61.931
X74.387 Y63.753
Z-2.828
G0 Z5.
X69.031 Y69.972
Z1.156
G1 Z-2.828 F200.
X69.027 Y69.975 Z-2.928
X66.946 Y71.614
X64.652 Y73.088
X62.64 Y74.137
Z-2.828
G0 Z5.
X39.319 Y74.15
Z0.98
G1 Z-2.828 F200.
X39.307 Y74.144 Z-2.928
X36.849 Y72.836
X34.577 Y71.318
X32.898 Y69.972
Z-2.828
G0 Z5.
X27.574 Y63.809
Z1.16
G1 Z-2.828 F200.
Z-2.928
X26.136 Y61.273
X25.022 Y58.744
X24.17 Y56.143
X23.57 Y53.466
X23.224 Y50.732
X23.144 Y47.94
X23.344 Y45.352
Z-2.828
G0 Z5.
X78.664 Y45.395
Z0.98
G1 Z-2.811 F200.
Z-2.828
X78.665 Y45.404 Z-2.928
X78.874 Y48.451
X78.741 Y51.247
X78.35 Y53.976
X77.677 Y56.742
X76.774 Y59.319
X75.539 Y61.961
X74.387 Y63.928
Z-2.828
G0 Z5.
X69.175 Y69.972
Z1.156
G1 Z-2.828 F200.
X69.159 Y69.986 Z-2.928
X67.001 Y71.691
X64.699 Y73.17
X62.463 Y74.323
Z-2.828
G0 Z5.
X39.499 Y74.338
Z0.98
G1 Z-2.826 F200.
Z-2.828
X39.498 Y74.337 Z-2.928
X36.802 Y72.918
X34.522 Y71.395
X32.753 Y69.972
Z-2.828
G0 Z5.
X27.574 Y63.984
Z1.16
G1 Z-2.828 F200.
X27.562 Y63.965 Z-2.928
X26.122 Y61.456
X24.934 Y58.778
X24.079 Y56.168
X23.477 Y53.482
X23.13 Y50.739
X23.05 Y47.938
X23.238 Y45.449
Z-2.828
G0 Z5.
X78.771 Y45.493
Z0.98
G1 Z-2.828 F200.
X78.773 Y45.514 Z-2.928
X78.968 Y48.448
X78.835 Y51.254
X78.443 Y53.991
X77.769 Y56.762
X76.864 Y59.349
X75.63 Y61.991
X74.387 Y64.103
Z-2.828
G0 Z5.
X69.319 Y69.972
Z1.156
G1 Z-2.828 F200.
X69.317 Y69.974 Z-2.928
X67.056 Y71.768
X64.746 Y73.252
X62.275 Y74.513
Z-2.828
G0 Z5.
X39.685 Y74.526
Z0.98
G1 Z-2.826 F200.
Z-2.828
X39.683 Y74.525 Z-2.928
X37.174 Y73.246
X34.86 Y71.758
X32.61 Y69.972
Z-2.828
G0 Z5.
X27.574 Y64.158
Z1.16
G1 Z-2.828 F200.
X27.567 Y64.147 Z-2.928
X26.109 Y61.637
X24.846 Y58.811
X23.988 Y56.193
X23.385 Y53.498
X23.036 Y50.746
X22.957 Y47.936
X23.132 Y45.546
Z-2.828
G0 Z5.
X78.876 Y45.589
Z0.98
G1 Z-2.82 F200.
Z-2.828
X78.877 Y45.593 Z-2.928
X79.061 Y48.446
X78.928 Y51.26
X78.536 Y54.007
X77.862 Y56.782
X76.953 Y59.378
X75.721 Y62.021
X74.387 Y64.276
Z-2.828
G0 Z5.
X69.462 Y69.972
Z1.156
G1 Z-2.828 F200.
X69.458 Y69.976 Z-2.928
X67.111 Y71.845
X64.794 Y73.334
X62.091 Y74.698
Z-2.828
G0 Z5.
X39.866 Y74.709
Z0.98
G1 Z-2.825 F200.
Z-2.828
X39.865 Z-2.928
X37.126 Y73.328
X34.805 Y71.836
X32.467 Y69.972
Z-2.828
G0 Z5.
X27.574 Y64.33
Z1.16
G1 Z-2.828 F200.
X27.572 Y64.328 Z-2.928
X26.095 Y61.817
X24.883 Y59.165
X23.897 Y56.218
X23.292 Y53.514
X22.943 Y50.752
X22.863 Y47.934
X23.027 Y45.642
Z-2.828
G0 Z5.
X78.982 Y45.685
Z0.98
G1 Z-2.828 F200.
X78.983 Y45.703 Z-2.928
X79.155 Y48.444
X79.022 Y51.267
X78.629 Y54.023
X77.954 Y56.802
X77.043 Y59.408
X75.812 Y62.051
X74.387 Y64.448
Z-2.828
G0 Z5.
X69.604 Y69.972
Z1.156
G1 Z-2.828 F200.
X69.6 Y69.976 Z-2.928
X67.166 Y71.922
X64.841 Y73.416
X62.24 Y74.736
X62.018 Y74.833
G0 Z5.
X39.932 Y74.841
Z0.98
G1 Z-2.825 F200.
Z-2.828
X39.93 Y74.84 Z-2.928
X37.35 Y73.565
X34.75 Y71.913
X32.324 Y69.972
Z-2.828
G0 Z5.
X27.574 Y64.501
Z1.16
G1 Z-2.828 F200.
X27.562 Y64.484 Z-2.928
X26.082 Y61.996
X24.855 Y59.351
X23.918 Y56.639
X23.261 Y53.874
X22.849 Y50.759
X22.769 Y47.932
X22.922 Y45.738
Z-2.828
G0 Z5.
X79.087 Y45.782
Z0.98
G1 Z-2.828 F200.
X79.09 Y45.813 Z-2.928
X79.249 Y48.442
X79.116 Y51.273
X78.722 Y54.039
X78.046 Y56.823
X77.133 Y59.437
X75.903 Y62.081
X74.387 Y64.618
Z-2.828
G0 Z5.
X69.746 Y69.972
Z1.156
G1 Z-2.828 F200.
X69.724 Y69.992 Z-2.928
X67.559 Y71.755
X65.245 Y73.29
X62.731 Y74.617
X61.998 Y74.945
Z-2.828
G0 Z5.
X39.952 Y74.953
Z0.98
G1 Z-2.798 F200.
X39.949 Y74.952 Z-2.828
X39.928 Y74.943 Z-2.928
X37.333 Y73.664
X34.695 Y71.99
X32.24 Y70.024
X32.182 Y69.972
Z-2.828
G0 Z5.
X27.574 Y64.671
Z1.16
G1 Z-2.828 F200.
X27.569 Y64.664 Z-2.928
X26.07 Y62.173
X24.828 Y59.535
X23.828 Y56.668
X23.17 Y53.899
X22.755 Y50.766
X22.675 Y47.93
X22.817 Y45.833
Z-2.828
G0 Z5.
X79.191 Y45.877
Z0.98
G1 Z-2.828 F200.
X79.193 Y45.892 Z-2.928
X79.343 Y48.926
X79.16 Y51.763
X78.719 Y54.531
X77.997 Y57.308
X77.037 Y59.916
X75.763 Y62.539
X74.387 Y64.787
Z-2.828
G0 Z5.
X69.887 Y69.972
Z1.156
G1 Z-2.828 F200.
X69.88 Y69.979 Z-2.928
X67.618 Y71.829
X65.296 Y73.37
X62.778 Y74.7
X61.982 Y75.055
Z-2.828
G0 Z5.
X39.968 Y75.063
Z0.98
G1 Z-2.792 F200.
X39.965 Y75.062 Z-2.828
X39.948 Y75.054 Z-2.928
X37.346 Y73.779
X34.985 Y72.31
X32.773 Y70.613
X32.041 Y69.972
Z-2.828
G0 Z5.
X27.574 Y64.84
Z1.16
G1 Z-2.828 F200.
X27.559 Y64.819 Z-2.928
X26.057 Y62.349
X24.801 Y59.718
X23.878 Y57.163
X23.172 Y54.401
X22.7 Y51.217
X22.571 Y48.391
X22.713 Y45.928
Z-2.828
G0 Z5.
X79.295 Y45.972
Z0.98
G1 Z-2.828 F200.
Z-2.928
X79.436 Y48.923
X79.254 Y51.77
X78.812 Y54.547
X78.09 Y57.328
X77.127 Y59.945
X75.854 Y62.569
X74.387 Y64.955
Z-2.828
G0 Z5.
X70.028 Y69.972
Z1.156
G1 Z-2.828 F200.
X70.013 Y69.986 Z-2.928
X67.677 Y71.903
X65.347 Y73.45
X62.825 Y74.782
X61.967 Y75.164
Z-2.828
G0 Z5.
X39.983 Y75.172
Z0.98
G1 Z-2.799 F200.
X39.981 Z-2.828
X39.967 Y75.166 Z-2.928
X37.359 Y73.895
X34.934 Y72.39
X32.714 Y70.688
X31.9 Y69.972
Z-2.828
G0 Z5.
X27.574 Y65.007
Z1.16
G1 Z-2.828 F200.
X27.568 Y64.998 Z-2.928
X26.045 Y62.524
X24.775 Y59.899
X23.788 Y57.192
X23.08 Y54.426
X22.656 Y51.712
X22.476 Y48.88
X22.61 Y46.023
Z-2.828
G0 Z5.
X79.399 Y46.066
Z0.98
G1 Z-2.828 F200.
X79.4 Y46.081 Z-2.928
X79.53 Y48.921
X79.348 Y51.776
X78.905 Y54.563
X78.182 Y57.348
X77.217 Y59.975
X75.945 Y62.599
X74.387 Y65.122
Z-2.828
G0 Z5.
X70.168 Y69.972
Z1.156
G1 Z-2.828 F200.
X70.146 Y69.992 Z-2.928
X67.736 Y71.978
X65.398 Y73.529
X62.873 Y74.865
X61.951 Y75.274
Z-2.828
G0 Z5.
X39.998 Y75.282
Z0.98
G1 Z-2.807 F200.
X39.997 Y75.281 Z-2.828
X39.987 Y75.277 Z-2.928
X37.372 Y74.01
X34.883 Y72.47
X32.655 Y70.762
X31.76 Y69.972
Z-2.828
G0 Z5.
X27.574 Y65.173
Z1.16
G1 Z-2.828 F200.
X27.559 Y65.152 Z-2.928
X26.033 Y62.698
X24.749 Y60.079
X23.698 Y57.222
X22.989 Y54.45
X22.563 Y51.723
X22.383 Y48.882
X22.506 Y46.117
Z-2.828
G0 Z5.
X79.502 Y46.161
Z0.98
G1 Z-2.828 F200.
X79.504 Y46.183 Z-2.928
X79.624 Y48.919
X79.442 Y51.783
X78.998 Y54.578
X78.275 Y57.369
X77.307 Y60.004
X76.037 Y62.629
X74.387 Y65.288
Z-2.828
G0 Z5.
X70.308 Y69.972
Z1.156
G1 Z-2.828 F200.
X70.301 Y69.978 Z-2.928
X68.183 Y71.76
X65.865 Y73.357
X63.359 Y74.738
X61.935 Y75.384
Z-2.828
G0 Z5.
X40.013 Y75.391
Z0.98
G1 Z-2.815 F200.
Z-2.828
X40.007 Y75.388 Z-2.928
X37.385 Y74.126
X34.831 Y72.549
X32.596 Y70.836
X31.62 Y69.972
Z-2.828
G0 Z5.
X27.574 Y65.339
Z1.16
G1 Z-2.828 F200.
X27.564 Y65.325 Z-2.928
X25.987 Y62.809
X24.696 Y60.195
X23.609 Y57.251
X22.898 Y54.475
X22.469 Y51.735
X22.289 Y48.884
X22.403 Y46.211
Z-2.828
G0 Z5.
X79.605 Y46.256
Z0.98
G1 Z-2.825 F200.
Z-2.828
Y46.258 Z-2.928
X79.718 Y48.916
X79.536 Y51.789
X79.091 Y54.594
X78.367 Y57.389
X77.397 Y60.034
X76.128 Y62.659
X74.708 Y64.988
X74.387 Y65.453
Z-2.828
G0 Z5.
X70.447 Y69.972
Z1.156
G1 Z-2.828 F200.
X70.434 Y69.984 Z-2.928
X68.242 Y71.835
X65.916 Y73.437
X63.407 Y74.821
X61.921 Y75.492
Z-2.828
G0 Z5.
X40.027 Y75.5
Z0.98
G1 Z-2.826 F200.
Z-2.828
X40.026 Y75.499 Z-2.928
X37.29 Y74.181
X34.78 Y72.629
X32.537 Y70.91
X31.481 Y69.972
Z-2.828
G0 Z5.
X27.574 Y65.503
Z1.16
G1 Z-2.828 F200.
X27.562 Y65.486 Z-2.928
X25.909 Y62.864
X24.617 Y60.249
X23.519 Y57.28
X22.807 Y54.5
X22.376 Y51.746
X22.195 Y48.886
X22.301 Y46.304
Z-2.828
G0 Z5.
X79.707 Y46.344
Z0.98
G1 Z-2.828 F200.
X79.708 Y46.363 Z-2.928
X79.812 Y48.914
X79.63 Y51.796
X79.184 Y54.61
X78.46 Y57.409
X77.487 Y60.063
X76.219 Y62.689
X74.788 Y65.038
X74.387 Y65.616
Z-2.828
G0 Z5.
X70.585 Y69.972
Z1.156
G1 Z-2.828 F200.
X70.566 Y69.99 Z-2.928
X68.301 Y71.909
X65.968 Y73.516
X63.454 Y74.903
X61.905 Y75.602
Z-2.828
G0 Z5.
X40.043 Y75.609
Z0.98
G1 Z-2.825 F200.
Z-2.828
X40.041 Y75.608 Z-2.928
X37.28 Y74.284
X34.729 Y72.709
X32.478 Y70.985
X31.343 Y69.972
Z-2.828
G0 Z5.
X27.574 Y65.666
Z1.16
G1 Z-2.828 F200.
X27.563 Y65.651 Z-2.928
X26.072 Y63.34
X24.735 Y60.749
X23.72 Y58.2
X22.927 Y55.474
X22.398 Y52.68
X22.131 Y49.836
X22.159 Y46.947
X22.2 Y46.383
Z-2.828
G0 Z5.
X79.807 Y46.413
Z0.98
G1 Z-2.828 F200.
X79.809 Y46.442 Z-2.928
X79.895 Y49.398
X79.671 Y52.252
X79.179 Y55.081
X78.428 Y57.817
X77.384 Y60.539
X76.074 Y63.144
X74.387 Y65.779
Z-2.828
G0 Z5.
X70.724 Y69.972
Z1.156
G1 Z-2.828 F200.
X70.721 Y69.975 Z-2.928
X68.36 Y71.983
X66.019 Y73.596
X63.501 Y74.985
X61.889 Y75.711
Z-2.828
G0 Z5.
X40.059 Y75.718
Z0.98
G1 Z-2.825 F200.
Z-2.828
X40.057 Y75.717 Z-2.928
X37.27 Y74.387
X34.677 Y72.788
X32.419 Y71.059
X31.204 Y69.972
Z-2.828
G0 Z5.
X27.574 Y65.828
Z1.16
G1 Z-2.828 F200.
X27.571 Y65.823 Z-2.928
X25.994 Y63.395
X24.656 Y60.803
X23.632 Y58.233
X22.836 Y55.499
X22.305 Y52.696
X22.037 Y49.843
X22.065 Y46.945
X22.101 Y46.442
Z-2.828
G0 Z5.
X79.905 Y46.464
Z0.98
G1 Z-2.828 F200.
X79.908 Y46.498 Z-2.928
X79.989 Y49.4
X79.764 Y52.263
X79.271 Y55.102
X78.518 Y57.846
X77.474 Y60.569
X76.165 Y63.175
X74.672 Y65.54
X74.387 Y65.94
Z-2.828
G0 Z5.
X70.861 Y69.972
Z1.156
G1 Z-2.828 F200.
X70.852 Y69.98 Z-2.928
X68.803 Y71.759
X66.481 Y73.416
X63.984 Y74.851
X61.874 Y75.82
Z-2.828
G0 Z5.
X40.075 Y75.827
Z0.98
G1 Z-2.826 F200.
Z-2.828
X40.074 Y75.826 Z-2.928
X37.26 Y74.489
X34.626 Y72.868
X32.36 Y71.133
X31.067 Y69.972
Z-2.828
G0 Z5.
X27.574 Y65.989
Z1.16
G1 Z-2.828 F200.
X27.57 Y65.983 Z-2.928
X25.916 Y63.449
X24.577 Y60.858
X23.544 Y58.267
X22.745 Y55.524
X22.212 Y52.712
X21.943 Y49.85
X21.971 Y46.943
X22.004 Y46.486
Z-2.828
G0 Z5.
X80.003 Y46.503
Z0.98
G1 Z-2.828 F200.
X80.004 Y46.522 Z-2.928
X80.083 Y49.402
X79.858 Y52.274
X79.363 Y55.122
X78.608 Y57.875
X77.564 Y60.599
X76.257 Y63.205
X74.752 Y65.59
X74.387 Y66.101
Z-2.828
G0 Z5.
X70.998 Y69.972
Z1.156
G1 Z-2.828 F200.
X70.984 Y69.985 Z-2.928
X68.862 Y71.834
X66.533 Y73.496
X64.031 Y74.933
X61.857 Y75.929
Z-2.828
G0 Z5.
X40.09 Y75.936
Z0.98
G1 Z-2.824 F200.
Z-2.828
X40.088 Y75.935 Z-2.928
X37.25 Y74.592
X34.575 Y72.948
X32.301 Y71.207
X30.93 Y69.972
Z-2.828
G0 Z5.
X27.574 Y66.149
Z1.16
G1 Z-2.828 F200.
X27.569 Y66.143 Z-2.928
X25.838 Y63.503
X24.499 Y60.913
X23.455 Y58.301
X22.654 Y55.548
X22.119 Y52.727
X21.85 Y49.857
X21.877 Y46.941
X21.907 Y46.518
Z-2.828
G0 Z5.
X80.099 Y46.53
Z0.98
G1 Z-2.828 F200.
X80.1 Y46.545 Z-2.928
X80.176 Y49.404
X79.951 Y52.285
X79.455 Y55.142
X78.697 Y57.905
X77.655 Y60.628
X76.348 Y63.235
X74.833 Y65.64
X74.387 Y66.261
Z-2.828
G0 Z5.
X71.135 Y69.972
Z1.156
G1 Z-2.828 F200.
X71.116 Y69.991 Z-2.928
X68.92 Y71.908
X66.584 Y73.576
X64.078 Y75.015
X61.842 Y76.037
Y76.038 Z-2.828
G0 Z5.
X40.106 Y76.045
Z0.98
G1 Z-2.825 F200.
Z-2.828
X40.105 Y76.044 Z-2.928
X37.67 Y74.922
X35.332 Y73.567
X32.995 Y71.897
X30.793 Y69.972
Z-2.828
G0 Z5.
X27.574 Y66.308
Z1.16
G1 Z-2.828 F200.
X27.57 Y66.302 Z-2.928
X26.008 Y63.975
X24.625 Y61.408
X23.53 Y58.792
X22.68 Y56.045
X22.098 Y53.224
X21.783 Y50.349
X21.756 Y47.425
X21.811 Y46.54
Z-2.828
G0 Z5.
X80.195 Y46.547
Z0.98
G1 Z-2.828 F200.
X80.196 Y46.569 Z-2.928
X80.27 Y49.406
X80.044 Y52.296
X79.547 Y55.162
X78.787 Y57.934
X77.745 Y60.658
X76.439 Y63.265
X74.913 Y65.691
X74.387 Y66.419
Z-2.828
G0 Z5.
X71.271 Y69.972
Z1.156
G1 Z-2.828 F200.
X71.266 Y69.977 Z-2.928
X68.979 Y71.982
X66.635 Y73.656
X64.126 Y75.098
X61.854 Y76.135
Z-2.828
G0 Z5.
X40.087 Y76.139
Z0.98
G1 Z-2.824 F200.
Z-2.828
X40.085 Y76.138 Z-2.928
X37.418 Y74.897
X34.874 Y73.38
X32.557 Y71.667
X30.657 Y69.972
Z-2.828
G0 Z5.
X27.574 Y66.466
Z1.16
G1 Z-2.828 F200.
X27.57 Y66.461 Z-2.928
X25.931 Y64.03
X24.547 Y61.463
X23.441 Y58.826
X22.589 Y56.07
X22.005 Y53.24
X21.689 Y50.356
X21.662 Y47.423
X21.716 Y46.552
Z-2.828
G0 Z5.
X80.29 Y46.554
Z0.98
G1 Z-2.813 F200.
Z-2.828
Y46.562 Z-2.928
X80.364 Y49.408
X80.138 Y52.308
X79.639 Y55.182
X78.877 Y57.964
X77.835 Y60.687
X76.531 Y63.296
X74.993 Y65.741
X74.387 Y66.577
Z-2.828
G0 Z5.
X71.406 Y69.972
Z1.156
G1 Z-2.828 F200.
X71.397 Y69.981 Z-2.928
X69.038 Y72.056
X66.686 Y73.735
X64.173 Y75.18
X61.927 Y76.208
Z-2.828
G0 Z5.
X40.014 Y76.212
Z0.98
G1 Z-2.826 F200.
Z-2.828
X40.013 Y76.211 Z-2.928
X37.22 Y74.899
X34.823 Y73.46
X32.498 Y71.741
X30.521 Y69.972
Z-2.828
G0 Z5.
X27.574 Y66.623
Z1.16
G1 Z-2.828 F200.
X27.571 Y66.62 Z-2.928
X25.853 Y64.084
X24.468 Y61.517
X23.353 Y58.86
X22.498 Y56.094
X21.912 Y53.256
X21.596 Y50.363
X21.568 Y47.421
X21.621 Y46.554
Z-2.828
G0 Z5.
X80.384 Y46.553
Z0.98
G1 Z-2.823 F200.
Z-2.828
Y46.555 Z-2.928
X80.458 Y49.41
X80.231 Y52.319
X79.732 Y55.202
X78.966 Y57.993
X77.925 Y60.717
X76.622 Y63.326
X75.073 Y65.792
X74.387 Y66.734
Z-2.828
G0 Z5.
X71.542 Y69.972
Z1.156
G1 Z-2.828 F200.
X71.531 Y69.982 Z-2.928
X69.475 Y71.827
X67.137 Y73.554
X64.651 Y75.038
X62. Y76.28
Z-2.828
G0 Z5.
X39.941 Y76.284
Z0.98
G1 Z-2.825 F200.
Z-2.828
X39.94 Z-2.928
X37.21 Y75.001
X34.771 Y73.54
X32.439 Y71.815
X30.386 Y69.972
Z-2.828
G0 Z5.
X27.574 Y66.78
Z1.16
G1 Z-2.828 F200.
X27.572 Y66.778 Z-2.928
X25.775 Y64.138
X24.39 Y61.572
X23.265 Y58.893
X22.407 Y56.119
X21.82 Y53.272
X21.502 Y50.37
X21.474 Y47.419
X21.527 Y46.548
Z-2.828
G0 Z5.
X80.477 Y46.542
Z0.98
G1 Z-2.816 F200.
Z-2.828
X80.478 Y46.548 Z-2.928
X80.552 Y49.412
X80.325 Y52.33
X79.824 Y55.223
X79.056 Y58.022
X78.015 Y60.746
X76.714 Y63.356
X75.153 Y65.842
X74.387 Y66.89
Z-2.828
G0 Z5.
X71.676 Y69.972
Z1.156
G1 Z-2.828 F200.
X71.668 Y69.98 Z-2.928
X69.538 Y71.898
X67.192 Y73.631
X64.699 Y75.12
X62.073 Y76.353
Z-2.828
G0 Z5.
X39.868 Y76.357
Z0.98
G1 Z-2.826 F200.
Z-2.828
X39.867 Z-2.928
X37.228 Y75.118
X34.72 Y73.619
X32.38 Y71.889
X30.251 Y69.972
Z-2.828
G0 Z5.
X27.574 Y66.936
Z1.16
G1 Z-2.828 F200.
X27.556 Y66.912 Z-2.928
X25.953 Y64.606
X24.536 Y62.086
X23.347 Y59.382
X22.441 Y56.614
X21.806 Y53.767
X21.442 Y50.861
X21.361 Y47.902
X21.434 Y46.533
Z-2.828
G0 Z5.
X80.57 Y46.52
Z0.98
G1 Z-2.798 F200.
Y46.523 Z-2.828
X80.571 Y46.542 Z-2.928
X80.646 Y49.414
X80.418 Y52.341
X79.916 Y55.243
X79.145 Y58.052
X78.105 Y60.776
X76.805 Y63.386
X75.233 Y65.892
X74.387 Y67.046
Z-2.828
G0 Z5.
X71.811 Y69.972
Z1.156
G1 Z-2.828 F200.
X71.805 Y69.977 Z-2.928
X69.6 Y71.97
X67.247 Y73.708
X64.746 Y75.202
X62.146 Y76.425
Z-2.828
G0 Z5.
X39.795 Y76.429
Z0.98
G1 Z-2.825 F200.
Z-2.828
X39.794 Z-2.928
X37.191 Y75.205
X34.669 Y73.699
X32.322 Y71.964
X30.117 Y69.972
Z-2.828
G0 Z5.
X27.574 Y67.09
Z1.16
G1 Z-2.828 F200.
X27.558 Y67.069 Z-2.928
X25.876 Y64.661
X24.453 Y62.131
X23.259 Y59.416
X22.35 Y56.639
X21.713 Y53.783
X21.349 Y50.868
X21.267 Y47.9
X21.342 Y46.509
Z-2.828
G0 Z5.
X80.662 Y46.494
Z0.98
G1 Z-2.809 F200.
Y46.495 Z-2.828
X80.663 Y46.505 Z-2.928
X80.74 Y49.416
X80.512 Y52.352
X80.008 Y55.263
X79.235 Y58.081
X78.195 Y60.806
X76.896 Y63.416
X75.313 Y65.943
X74.387 Y67.2
Z-2.828
G0 Z5.
X71.944 Y69.972
Z1.156
G1 Z-2.828 F200.
X71.942 Y69.975 Z-2.928
X69.662 Y72.041
X67.303 Y73.785
X64.793 Y75.284
X62.219 Y76.498
Z-2.828
G0 Z5.
X39.722 Y76.502
Z0.98
G1 Z-2.825 F200.
Z-2.828
X39.72 Y76.501 Z-2.928
X37.181 Y75.308
X34.617 Y73.779
X32.263 Y72.038
X29.983 Y69.972
Z-2.828
G0 Z5.
X27.574 Y67.244
Z1.16
G1 Z-2.828 F200.
X27.56 Y67.227 Z-2.928
X25.807 Y64.729
X24.376 Y62.188
X23.17 Y59.45
X22.259 Y56.663
X21.62 Y53.799
X21.255 Y50.875
X21.174 Y47.898
X21.25 Y46.476
Z-2.828
G0 Z5.
X80.753 Y46.455
Z0.98
G1 Z-2.806 F200.
X80.754 Y46.456 Z-2.828
Y46.467 Z-2.928
X80.833 Y49.418
X80.605 Y52.363
X80.1 Y55.283
X79.325 Y58.111
X78.285 Y60.835
X76.988 Y63.447
X75.394 Y65.993
X74.387 Y67.354
Z-2.828
G0 Z5.
X72.078 Y69.972
Z1.156
G1 Z-2.828 F200.
X72.057 Y69.993 Z-2.928
X69.725 Y72.112
X67.358 Y73.863
X64.84 Y75.367
X62.293 Y76.57
Z-2.828
G0 Z5.
X39.65 Y76.575
Z0.98
G1 Z-2.825 F200.
Z-2.828
X39.648 Y76.574 Z-2.928
X37.014 Y75.326
X34.566 Y73.859
X32.204 Y72.112
X29.85 Y69.972
Z-2.828
G0 Z5.
X27.574 Y67.398
Z1.16
G1 Z-2.828 F200.
X27.563 Y67.384 Z-2.928
X25.727 Y64.779
X24.295 Y62.238
X23.082 Y59.483
X22.168 Y56.688
X21.527 Y53.815
X21.161 Y50.882
X21.08 Y47.896
X21.159 Y46.432
Z-2.828
G0 Z5.
X80.844 Y46.404
Z0.98
G1 Z-2.803 F200.
Y46.407 Z-2.828
X80.846 Y46.43 Z-2.928
X80.927 Y49.42
X80.699 Y52.374
X80.192 Y55.303
X79.414 Y58.14
X78.376 Y60.865
X77.079 Y63.477
X75.474 Y66.043
X74.387 Y67.507
Z-2.828
G0 Z5.
X72.211 Y69.972
Z1.156
G1 Z-2.828 F200.
X72.193 Y69.99 Z-2.928
X70.161 Y71.873
X67.815 Y73.667
X65.315 Y75.217
X62.474 Y76.597
X62.366 Y76.642
Z-2.828
G0 Z5.
X39.577 Y76.647
Z0.98
G1 Z-2.825 F200.
Z-2.828
X39.575 Y76.646 Z-2.928
X36.92 Y75.383
X34.515 Y73.938
X32.145 Y72.186
X29.778 Y70.034
X29.717 Y69.972
Z-2.828
G0 Z5.
X27.574 Y67.55
Z1.16
G1 Z-2.828 F200.
X27.566 Y67.541 Z-2.928
X25.905 Y65.232
X24.436 Y62.721
X23.213 Y60.074
X22.213 Y57.195
X21.528 Y54.345
X21.112 Y51.408
X20.975 Y48.43
X21.069 Y46.376
Z-2.828
G0 Z5.
X80.933 Y46.345
Z0.98
G1 Z-2.828 F200.
X80.934 Y46.357 Z-2.928
X81.021 Y49.422
X80.792 Y52.386
X80.284 Y55.323
X79.504 Y58.169
X78.466 Y60.894
X77.17 Y63.507
X75.554 Y66.094
X74.387 Y67.659
Z-2.828
G0 Z5.
X72.344 Y69.972
Z1.156
G1 Z-2.828 F200.
X72.329 Y69.987 Z-2.928
X70.223 Y71.944
X67.87 Y73.744
X65.362 Y75.299
X62.521 Y76.68
X62.437 Y76.715
Z-2.828
G0 Z5.
X39.505 Y76.72
Z0.98
G1 Z-2.828 F200.
X39.489 Y76.713 Z-2.928
X36.873 Y75.465
X34.463 Y74.018
X32.086 Y72.26
X29.712 Y70.102
X29.584 Y69.972
Z-2.828
G0 Z5.
X27.574 Y67.702
Z1.16
G1 Z-2.828 F200.
X27.57 Y67.697 Z-2.928
X25.827 Y65.287
X24.356 Y62.771
X23.132 Y60.124
X22.123 Y57.224
X21.437 Y54.37
X21.018 Y51.411
X20.881 Y48.432
X20.98 Y46.306
Z-2.828
G0 Z5.
X22.563 Y38.678
Z0.98
G1 Z-2.676 F200.
X22.565 Y38.673 Z-2.72
X22.57 Y38.659 Z-2.762
X22.578 Y38.637 Z-2.8
X22.588 Y38.607 Z-2.832
X22.628 Y38.493 Z-2.928
X22.793 Y38.036 Z-2.904
X22.813 Y37.983 Z-2.833
X22.821 Y37.96 Z-2.795
X22.826 Y37.946 Z-2.753
X22.828 Y37.941 Z-2.708
G0 Z5.
X78.11 Y35.45
Z1.075
G1 Z-2.824 F200.
Z-2.828
X78.111 Y35.452 Z-2.928
X79.245 Y38.142
X79.984 Y40.438
X79.985 Y40.439 Z-2.828
Z-2.827
G0 Z5.
X81.021 Y46.268
Z0.98
G1 Z-2.828 F200.
X81.023 Y46.285 Z-2.928
X81.117 Y49.369
X80.886 Y52.397
X80.376 Y55.344
X79.594 Y58.199
X78.556 Y60.924
X77.262 Y63.537
X75.634 Y66.144
X74.387 Y67.81
Z-2.828
G0 Z5.
X72.476 Y69.972
Z1.154
G1 Z-2.828 F200.
X72.465 Y69.983 Z-2.928
X70.286 Y72.016
X67.925 Y73.821
X65.41 Y75.381
X62.569 Y76.763
X62.511 Y76.787
Z-2.828
G0 Z5.
X39.433 Y76.793
Z0.98
G1 Z-2.81 F200.
Y76.792 Z-2.828
X39.424 Y76.789 Z-2.928
X36.802 Y75.535
X34.412 Y74.098
X32.027 Y72.335
X29.818 Y70.342
X29.452 Y69.972
Z-2.828
G0 Z5.
X27.574 Y67.853
Z1.16
G1 Z-2.828 F200.
X27.555 Y67.83 Z-2.928
X25.75 Y65.341
X24.275 Y62.821
X23.05 Y60.175
X22.034 Y57.253
X21.346 Y54.395
X20.924 Y51.422
X20.787 Y48.434
X20.893 Y46.22
Z-2.828
G0 Z5.
X21.608 Y41.653
Z0.98
G1 Z-2.828 F200.
X21.609 Y41.651 Z-2.928
X22.469 Y38.662
X23.548 Y35.953
X24.122 Y34.761
Z-2.828
G0 Z5.
X77.86 Y34.731
Z1.219
G1 Z-2.824 F200.
Z-2.828
X77.861 Y34.733 Z-2.928
X79.06 Y37.389
X80. Y40.149
X80.547 Y42.343
Y42.344 Z-2.828
Z-2.827
G0 Z5.
X81.108 Y46.172
Z0.98
G1 Z-2.828 F200.
X81.109 Y46.183 Z-2.928
X81.22 Y48.88
X81.039 Y51.894
X80.579 Y54.845
X79.847 Y57.713
X78.837 Y60.506
X77.586 Y63.141
X75.989 Y65.793
X74.387 Y67.961
Z-2.828
G0 Z5.
X72.608 Y69.972
Z1.146
G1 Z-2.828 F200.
X72.601 Y69.979 Z-2.928
X70.348 Y72.087
X67.981 Y73.898
X65.481 Y75.449
X62.642 Y76.833
X62.581 Y76.858
Z-2.828
G0 Z5.
X39.36 Y76.864
Z0.98
G1 Z-2.828 F200.
X39.332 Y76.853 Z-2.928
X36.703 Y75.589
X33.958 Y73.905
X31.594 Y72.098
X29.32 Y69.972
Z-2.828
G0 Z5.
X27.574 Y68.003
Z1.159
G1 Z-2.828 F200.
X27.56 Y67.986 Z-2.928
X25.672 Y65.395
X24.183 Y62.848
X22.959 Y60.201
X21.944 Y57.282
X21.254 Y54.42
X20.831 Y51.434
X20.694 Y48.436
X20.808 Y46.11
Z-2.828
G0 Z5.
X21.222 Y43.038
Z0.98
G1 Z-2.819 F200.
Y43.037 Z-2.828
X21.223 Y43.033 Z-2.928
X21.937 Y40.028
X22.885 Y37.27
X24.041 Y34.713
Z-2.828
G0 Z5.
X77.94 Y34.681
Z1.219
G1 Z-2.816 F200.
X77.941 Y34.682 Z-2.828
X77.953 Y34.706 Z-2.928
X79.141 Y37.34
X80.084 Y40.099
X80.751 Y42.885
X80.87 Y43.543
Z-2.828
G0 Z5.
X81.191 Y46.047
Z0.98
G1 Z-2.828 F200.
X81.192 Y46.05 Z-2.928
X81.313 Y48.878
X81.133 Y51.9
X80.672 Y54.861
X79.939 Y57.734
X78.927 Y60.536
X77.677 Y63.171
X76.069 Y65.844
X74.387 Y68.111
Z-2.828
G0 Z5.
X72.739 Y69.972
Z1.133
G1 Z-2.828 F200.
X72.736 Y69.975 Z-2.928
X70.41 Y72.158
X68.036 Y73.975
X65.533 Y75.529
X62.649 Y76.932
Z-2.828
G0 Z5.
X39.293 Y76.939
Z0.98
G1 Z-2.828 F200.
X39.267 Y76.928 Z-2.928
X36.664 Y75.676
X33.907 Y73.984
X31.535 Y72.173
X29.189 Y69.972
X29.188 Z-2.828
G0 Z5.
X27.574 Y68.153
Z1.151
G1 Z-2.828 F200.
X27.564 Y68.141 Z-2.928
X25.863 Y65.854
X24.331 Y63.327
X23.064 Y60.701
X21.994 Y57.777
X21.258 Y54.921
X20.786 Y51.929
X20.6 Y48.925
X20.726 Y45.962
Z-2.828
G0 Z5.
X20.943 Y44.136
Z0.98
G1 Z-2.828 F200.
X20.948 Y44.106 Z-2.928
X21.567 Y41.029
X22.448 Y38.154
X23.568 Y35.461
X23.959 Y34.665
Z-2.828
G0 Z5.
X78.02 Y34.63
Z1.219
G1 Z-2.801 F200.
X78.022 Y34.633 Z-2.828
X78.031 Y34.652 Z-2.928
X79.223 Y37.29
X80.168 Y40.049
X80.843 Y42.86
X81.125 Y44.598
Z-2.828
G0 Z5.
X81.27 Y45.871
Z0.98
G1 Z-2.828 F200.
X81.271 Y45.888 Z-2.928
X81.407 Y48.876
X81.227 Y51.907
X80.765 Y54.877
X80.031 Y57.754
X79.017 Y60.565
X77.768 Y63.201
X76.149 Y65.894
X74.387 Y68.26
Z-2.828
G0 Z5.
X72.87 Y69.972
Z1.114
G1 Z-2.828 F200.
X72.85 Y69.993 Z-2.928
X70.473 Y72.23
X68.091 Y74.052
X65.584 Y75.609
X62.708 Y77.011
Z-2.828
G0 Z5.
X39.235 Y77.018
Z0.98
G1 Z-2.819 F200.
Z-2.828
X39.231 Y77.016 Z-2.928
X36.608 Y75.753
X33.856 Y74.064
X31.476 Y72.247
X29.109 Y70.026
X29.057 Y69.972
Z-2.828
G0 Z5.
X27.574 Y68.302
Z1.137
G1 Z-2.828 F200.
X27.569 Y68.296 Z-2.928
X25.786 Y65.909
X24.242 Y63.361
X22.976 Y60.734
X21.905 Y57.807
X21.167 Y54.946
X20.693 Y51.94
X20.507 Y48.927
X20.654 Y45.724
Z-2.828
G0 Z5.
X20.723 Y45.082
Z0.98
G1 Z-2.828 F200.
X20.724 Y45.069 Z-2.928
X21.249 Y41.959
X22.041 Y39.049
X23.074 Y36.322
X23.877 Y34.617
Z-2.828
G0 Z5.
X78.101 Y34.582
Z1.219
G1 Z-2.798 F200.
X78.103 Y34.584 Z-2.828
X78.109 Y34.597 Z-2.928
X79.305 Y37.24
X80.251 Y39.999
X80.934 Y42.835
X81.362 Y45.846
X81.501 Y48.873
X81.321 Y51.913
X80.858 Y54.893
X80.124 Y57.774
X79.107 Y60.595
X77.859 Y63.231
X76.229 Y65.945
X74.387 Y68.409
Z-2.828
G0 Z5.
X73.001 Y69.972
Z1.089
G1 Z-2.828 F200.
X72.985 Y69.988 Z-2.928
X70.904 Y71.984
X68.544 Y73.85
X66.058 Y75.449
X63.465 Y76.782
X62.757 Y77.093
Z-2.828
G0 Z5.
X39.186 Y77.1
Z0.98
G1 Z-2.828 F200.
X39.167 Y77.092 Z-2.928
X36.559 Y75.834
X33.804 Y74.144
X31.417 Y72.321
X29.043 Y70.095
X28.927 Y69.972
Z-2.828
G0 Z5.
X27.574 Y68.45
Z1.116
G1 Z-2.828 F200.
X27.556 Y68.428 Z-2.928
X25.708 Y65.963
X24.159 Y63.407
X22.893 Y60.78
X21.815 Y57.836
X21.076 Y54.971
X20.6 Y51.951
X20.413 Y48.93
X20.544 Y45.883
X20.961 Y42.896
X21.664 Y39.954
X22.61 Y37.195
X23.796 Y34.569
Z-2.828
G0 Z5.
X78.183 Y34.534
Z1.219
G1 Z-2.811 F200.
X78.184 Y34.535 Z-2.828
X78.188 Y34.543 Z-2.928
X79.387 Y37.191
X80.335 Y39.949
X81.025 Y42.81
X81.455 Y45.835
X81.595 Y48.871
X81.415 Y51.92
X80.951 Y54.908
X80.216 Y57.794
X79.197 Y60.624
X77.95 Y63.261
X76.309 Y65.995
X74.387 Y68.557
Z-2.828
G0 Z5.
X73.131 Y69.972
Z1.057
G1 Z-2.828 F200.
X73.12 Y69.984 Z-2.928
X70.966 Y72.056
X68.599 Y73.927
X66.11 Y75.529
X63.516 Y76.863
X62.798 Y77.178
Z-2.828
G0 Z5.
X39.148 Y77.187
Z0.98
G1 Z-2.795 F200.
X39.146 Y77.186 Z-2.828
X39.13 Y77.179 Z-2.928
X36.518 Y75.92
X33.753 Y74.223
X31.358 Y72.395
X29.147 Y70.337
X28.796 Y69.972
Z-2.828
G0 Z5.
X27.574 Y68.598
Z1.087
G1 Z-2.828 F200.
X27.561 Y68.583 Z-2.928
X25.631 Y66.017
X24.077 Y63.453
X22.81 Y60.826
X21.725 Y57.865
X20.985 Y54.996
X20.506 Y51.963
X20.319 Y48.932
X20.451 Y45.876
X20.868 Y42.88
X21.573 Y39.929
X22.518 Y37.17
X23.714 Y34.521
Z-2.828
G0 Z5.
X78.266 Y34.489
Z1.219
G1 Z-2.828 F200.
X78.28 Y34.516 Z-2.928
X79.47 Y37.145
X80.42 Y39.902
X81.116 Y42.785
X81.55 Y45.831
X81.689 Y48.869
X81.508 Y51.926
X81.044 Y54.924
X80.309 Y57.815
X79.287 Y60.654
X78.041 Y63.291
X76.389 Y66.045
X74.424 Y68.659
X74.387 Y68.704
Z-2.828
G0 Z5.
X73.261 Y69.972
Z1.019
G1 Z-2.828 F200.
X73.255 Y69.979 Z-2.928
X71.028 Y72.127
X68.654 Y74.004
X66.161 Y75.609
X63.568 Y76.944
X62.831 Y77.267
Z-2.828
G0 Z5.
X39.116 Y77.276
Z0.98
G1 Z-2.802 F200.
X39.113 Y77.275 Z-2.828
X39.094 Y77.267 Z-2.928
X36.486 Y76.011
X34.104 Y74.576
X31.674 Y72.78
X29.423 Y70.751
X28.666 Y69.972
Z-2.828
G0 Z5.
X27.574 Y68.745
Z1.05
G1 Z-2.828 F200.
X27.568 Y68.737 Z-2.928
X25.828 Y66.472
X24.229 Y63.925
X22.921 Y61.318
X21.783 Y58.358
X20.997 Y55.496
X20.469 Y52.457
X20.235 Y49.42
X20.316 Y46.354
X20.689 Y43.343
X21.35 Y40.372
X22.251 Y37.599
X23.408 Y34.922
X23.633 Y34.474
Z-2.828
G0 Z5.
X78.347 Y34.44
Z1.219
G1 Z-2.807 F200.
X78.349 Y34.442 Z-2.828
X78.358 Y34.461 Z-2.928
X79.553 Y37.098
X80.504 Y39.855
X81.207 Y42.761
X81.643 Y45.82
X81.783 Y48.867
X81.602 Y51.933
X81.137 Y54.94
X80.401 Y57.835
X79.377 Y60.684
X78.132 Y63.321
X76.469 Y66.096
X74.499 Y68.717
X74.387 Y68.851
Z-2.828
G0 Z5.
X73.391 Y69.972
Z0.98
G1 Z-2.828 F200.
X73.389 Y69.974 Z-2.928
X71.091 Y72.198
X68.709 Y74.081
X66.212 Y75.689
X63.62 Y77.024
X62.856 Y77.36
Z-2.828
G0 Z5.
X39.09 Y77.368
Z0.98
G1 Z-2.819 F200.
Z-2.828
X39.085 Y77.366 Z-2.928
X36.461 Y76.105
X34.053 Y74.655
X31.615 Y72.854
X29.357 Y70.819
X28.536 Y69.971
Z-2.828
G0 Z5.
X27.574 Y68.891
Z1.003
G1 Z-2.828 F200.
X27.554 Y68.868 Z-2.928
X25.751 Y66.526
X24.147 Y63.971
X22.838 Y61.364
X21.693 Y58.387
X20.905 Y55.52
X20.376 Y52.468
X20.142 Y49.422
X20.223 Y46.348
X20.596 Y43.327
X21.259 Y40.348
X22.16 Y37.574
X23.316 Y34.897
X23.551 Y34.426
Z-2.828
G0 Z5.
X78.431 Y34.396
Z1.219
G1 Z-2.814 F200.
Z-2.828
X78.434 Y34.402 Z-2.928
X79.636 Y37.051
X80.589 Y39.808
X81.299 Y42.736
X81.736 Y45.809
X81.876 Y48.864
X81.696 Y51.939
X81.23 Y54.955
X80.494 Y57.855
X79.466 Y60.713
X78.223 Y63.351
X76.549 Y66.146
X74.729 Y68.588
X74.386 Y68.998
Z-2.828
G0 Z5.
X73.529 Y69.962
Z0.98
G1 Z-2.828 F200.
X73.523 Y69.968 Z-2.928
X71.203 Y72.225
X68.764 Y74.159
X66.263 Y75.769
X63.671 Y77.105
X62.871 Y77.456
Z-2.828
G0 Z5.
X39.076 Y77.465
Z0.98
G1 Z-2.817 F200.
X39.075 Y77.464 Z-2.828
X39.049 Y77.454 Z-2.928
X36.445 Y76.204
X34.001 Y74.735
X31.556 Y72.929
X29.291 Y70.887
X28.392 Y69.955
Z-2.828
G0 Z5.
X27.576 Y69.04
Z0.98
G1 Z-2.828 F200.
X27.569 Y69.031 Z-2.928
X25.673 Y66.58
X24.064 Y64.017
X22.755 Y61.41
X21.604 Y58.416
X20.814 Y55.545
X20.282 Y52.479
X20.048 Y49.425
X20.129 Y46.341
X20.503 Y43.311
X21.168 Y40.323
X22.068 Y37.549
X23.223 Y34.871
X23.469 Y34.378
Z-2.828
G0 Z5.
X78.513 Y34.35
Z1.219
G1 Z-2.822 F200.
Z-2.828
X78.515 Y34.353 Z-2.928
X79.719 Y37.005
X80.673 Y39.761
X81.39 Y42.711
X81.83 Y45.797
X81.97 Y48.862
X81.79 Y51.946
X81.323 Y54.971
X80.586 Y57.875
X79.556 Y60.743
X78.314 Y63.381
X76.629 Y66.196
X74.804 Y68.646
X74.368 Y69.165
Z-2.828
G0 Z5.
X73.693 Y69.924
Z0.98
G1 Z-2.828 F200.
X73.682 Y69.937 Z-2.928
X71.632 Y71.97
X69.266 Y73.911
X66.791 Y75.567
X64.223 Y76.949
X62.877 Y77.553
Z-2.828
G0 Z5.
X39.071 Y77.561
Z0.98
G1 Z-2.801 F200.
X39.069 Y77.56 Z-2.828
X39.056 Y77.555 Z-2.928
X36.437 Y76.305
X33.936 Y74.805
X31.497 Y73.003
X29.226 Y70.955
X28.218 Y69.907
Z-2.828
G0 Z5.
X27.604 Y69.218
Z0.98
G1 Z-2.828 F200.
X27.592 Y69.203 Z-2.928
X25.596 Y66.634
X23.982 Y64.063
X22.673 Y61.457
X21.514 Y58.445
X20.723 Y55.57
X20.189 Y52.491
X19.954 Y49.427
X20.035 Y46.335
X20.41 Y43.296
X21.077 Y40.298
X21.977 Y37.524
X23.13 Y34.846
X23.388 Y34.33
Z-2.828
G0 Z5.
X78.595 Y34.301
Z1.219
G1 Z-2.812 F200.
X78.596 Y34.303 Z-2.828
X78.607 Y34.325 Z-2.928
X79.802 Y36.958
X80.757 Y39.713
X81.481 Y42.686
X81.923 Y45.786
X82.064 Y48.86
X81.884 Y51.952
X81.416 Y54.987
X80.679 Y57.896
X79.646 Y60.772
X78.405 Y63.411
X76.977 Y65.841
X75.185 Y68.327
X74.292 Y69.397
Z-2.828
G0 Z5.
X73.915 Y69.821
Z0.98
G1 Z-2.828 F200.
X73.909 Y69.828 Z-2.928
X71.698 Y72.038
X69.316 Y73.991
X66.894 Y75.615
X64.329 Y77.002
X62.878 Y77.655
Z-2.828
G0 Z5.
X39.07 Y77.668
Z0.98
G1 Z-2.809 F200.
X39.069 Z-2.828
X39.06 Y77.664 Z-2.928
X36.436 Y76.414
X33.899 Y74.895
X31.438 Y73.077
X29.16 Y71.023
X27.954 Y69.757
Z-2.828
G0 Z5.
X27.723 Y69.497
Z0.98
G1 Z-2.828 F200.
X27.719 Y69.493 Z-2.928
X25.892 Y67.213
X24.206 Y64.643
X22.791 Y61.945
X21.603 Y59.006
X20.743 Y56.068
X20.169 Y53.06
X19.883 Y50.008
X19.902 Y46.899
X20.227 Y43.837
X20.821 Y40.902
X21.717 Y37.956
X22.828 Y35.26
X23.306 Y34.282
Z-2.828
G0 Z5.
X78.677 Y34.255
Z1.219
G1 Z-2.797 F200.
X78.678 Y34.257 Z-2.828
X78.685 Y34.271 Z-2.928
X79.885 Y36.911
X80.842 Y39.666
X81.572 Y42.661
X82.017 Y45.775
X82.158 Y48.857
X81.978 Y51.959
X81.509 Y55.003
X80.771 Y57.916
X79.736 Y60.802
X78.496 Y63.441
X77.058 Y65.891
X75.26 Y68.384
X73.28 Y70.638
X70.971 Y72.801
X68.585 Y74.632
X66.113 Y76.179
X63.507 Y77.486
X62.878 Y77.757
Z-2.828
G0 Z5.
X39.072 Y77.772
Z0.98
G1 Z-2.792 F200.
X39.069 Y77.771 Z-2.828
X39.052 Y77.763 Z-2.928
X36.434 Y76.521
X33.847 Y74.974
X31.379 Y73.151
X29.094 Y71.091
X27.013 Y68.811
X25.166 Y66.342
X23.581 Y63.729
X22.312 Y61.103
X21.187 Y58.04
X20.438 Y55.144
X19.946 Y52.03
X19.756 Y48.945
X19.888 Y45.837
X20.311 Y42.785
X21.027 Y39.781
X21.968 Y37.021
X23.224 Y34.234
Z-2.828
G0 Z5.
X78.76 Y34.21
Z1.219
G1 Z-2.817 F200.
X78.761 Y34.211 Z-2.828
X78.763 Y34.216 Z-2.928
X79.969 Y36.865
X80.931 Y39.635
X81.663 Y42.637
X82.11 Y45.763
X82.252 Y48.855
X82.072 Y51.965
X81.602 Y55.018
X80.863 Y57.936
X79.826 Y60.831
X78.587 Y63.471
X77.138 Y65.941
X75.335 Y68.442
X73.352 Y70.7
X71.034 Y72.872
X68.645 Y74.706
X66.173 Y76.254
X63.567 Y77.563
X62.878 Y77.86
Z-2.828
G0 Z5.
X39.071 Y77.874
Z0.98
G1 Z-2.815 F200.
X39.069 Y77.873 Z-2.828
X39.043 Y77.863 Z-2.928
X36.432 Y76.627
X33.796 Y75.054
X31.32 Y73.225
X29.028 Y71.159
X26.941 Y68.872
X25.088 Y66.396
X23.499 Y63.775
X22.229 Y61.149
X21.097 Y58.07
X20.347 Y55.169
X19.852 Y52.042
X19.662 Y48.948
X19.794 Y45.831
X20.218 Y42.77
X20.936 Y39.756
X21.877 Y36.996
X23.143 Y34.187
Z-2.828
G0 Z5.
X78.842 Y34.163
Z1.219
G1 Z-2.817 F200.
X78.843 Y34.164 Z-2.828
X78.855 Y34.188 Z-2.928
X80.052 Y36.818
X81.02 Y39.602
X81.754 Y42.612
X82.203 Y45.752
X82.346 Y48.853
X82.166 Y51.972
X81.695 Y55.034
X80.956 Y57.956
X79.916 Y60.861
X78.678 Y63.501
X77.218 Y65.992
X75.41 Y68.5
X73.425 Y70.762
X71.096 Y72.943
X68.704 Y74.78
X66.233 Y76.329
X63.628 Y77.64
X62.878 Y77.963
Z-2.828
G0 Z5.
X39.069 Y77.976
Z0.98
G1 Z-2.816 F200.
Z-2.828
X39.063 Y77.973 Z-2.928
X36.431 Y76.734
X33.745 Y75.134
X31.261 Y73.3
X28.962 Y71.228
X26.869 Y68.934
X25.011 Y66.45
X23.416 Y63.821
X22.147 Y61.195
X21.008 Y58.099
X20.256 Y55.194
X19.759 Y52.053
X19.569 Y48.95
X19.7 Y45.824
X20.125 Y42.754
X20.844 Y39.733
X21.785 Y36.972
X23.061 Y34.139
Z-2.828
G0 Z5.
X78.924 Y34.115
Z1.219
G1 Z-2.796 F200.
X78.925 Y34.118 Z-2.828
X78.934 Y34.134 Z-2.928
X80.135 Y36.771
X81.108 Y39.568
X81.846 Y42.587
X82.297 Y45.741
X82.439 Y48.851
X82.26 Y51.978
X81.788 Y55.05
X81.048 Y57.977
X80.006 Y60.89
X78.769 Y63.531
X77.298 Y66.042
X75.485 Y68.558
X73.497 Y70.823
X71.158 Y73.015
X68.763 Y74.855
X66.293 Y76.404
X63.689 Y77.717
X62.878 Y78.065
Z-2.828
G0 Z5.
X39.071 Y78.079
Z0.98
G1 Z-2.798 F200.
X39.069 Y78.078 Z-2.828
X39.055 Y78.073 Z-2.928
X36.429 Y76.84
X33.693 Y75.213
X31.202 Y73.374
X28.896 Y71.296
X26.797 Y68.995
X24.933 Y66.504
X23.334 Y63.866
X22.064 Y61.241
X21.065 Y58.591
X20.268 Y55.694
X19.722 Y52.547
X19.485 Y49.438
X19.566 Y46.302
X19.946 Y43.217
X20.622 Y40.176
X21.519 Y37.401
X22.667 Y34.72
X22.979 Y34.091
Z-2.828
G0 Z5.
X79.007 Y34.071
Z1.219
G1 Z-2.81 F200.
X79.008 Z-2.828
X79.012 Y34.08 Z-2.928
X80.218 Y36.725
X81.197 Y39.535
X81.937 Y42.562
X82.39 Y45.729
X82.533 Y48.848
X82.354 Y51.985
X81.881 Y55.065
X81.141 Y57.997
X80.096 Y60.92
X78.86 Y63.561
X77.378 Y66.092
X75.559 Y68.616
X73.569 Y70.885
X71.221 Y73.086
X68.822 Y74.929
X66.353 Y76.479
X63.749 Y77.793
X62.878 Y78.168
Z-2.828
G0 Z5.
X39.071 Y78.182
Z0.98
G1 Z-2.807 F200.
X39.069 Y78.181 Z-2.828
X39.046 Y78.172 Z-2.928
X36.427 Y76.946
X33.642 Y75.293
X31.143 Y73.448
X28.831 Y71.364
X26.724 Y69.056
X24.855 Y66.558
X23.251 Y63.912
X21.981 Y61.287
X20.976 Y58.621
X20.177 Y55.719
X19.628 Y52.559
X19.391 Y49.441
X19.472 Y46.296
X19.853 Y43.201
X20.531 Y40.151
X21.427 Y37.376
X22.574 Y34.695
X22.898 Y34.043
Z-2.828
G0 Z5.
X79.09 Y34.025
Z1.219
G1 Z-2.828 F200.
X79.118 Y34.079 Z-2.928
X80.323 Y36.735
X81.285 Y39.501
X82.028 Y42.537
X82.484 Y45.718
X82.627 Y48.846
X82.448 Y51.991
X81.974 Y55.081
X81.233 Y58.017
X80.186 Y60.949
X78.951 Y63.591
X77.458 Y66.143
X75.634 Y68.674
X73.641 Y70.946
X71.283 Y73.157
X68.882 Y75.003
X66.412 Y76.554
X63.81 Y77.87
X62.878 Y78.27
Z-2.828
G0 Z5.
X39.069 Y78.284
Z0.98
G1 Z-2.822 F200.
Z-2.828
X39.066 Y78.282 Z-2.928
X36.425 Y77.052
X33.591 Y75.373
X31.084 Y73.522
X28.765 Y71.432
X26.652 Y69.118
X24.778 Y66.612
X23.169 Y63.958
X21.898 Y61.334
X20.886 Y58.65
X20.086 Y55.743
X19.535 Y52.57
X19.297 Y49.443
X19.378 Y46.289
X19.76 Y43.185
X20.44 Y40.126
X21.336 Y37.351
X22.482 Y34.669
X22.816 Y33.995
Z-2.828
G0 Z5.
X79.171 Y33.976
Z1.219
G1 Z-2.802 F200.
X79.172 Y33.979 Z-2.828
X79.182 Y33.998 Z-2.928
X80.384 Y36.632
X81.373 Y39.468
X82.119 Y42.512
X82.577 Y45.707
X82.721 Y48.844
X82.542 Y51.998
X82.067 Y55.097
X81.326 Y58.037
X80.276 Y60.979
X79.042 Y63.621
X77.538 Y66.193
X75.709 Y68.732
X73.713 Y71.008
X71.345 Y73.229
X68.941 Y75.077
X66.472 Y76.629
X63.87 Y77.947
X62.878 Y78.373
Z-2.828
G0 Z5.
X39.07 Y78.386
Z0.98
G1 Z-2.805 F200.
X39.069 Z-2.828
X39.058 Y78.381 Z-2.928
X36.424 Y77.159
X33.946 Y75.719
X31.404 Y73.901
X29.046 Y71.84
X26.893 Y69.551
X24.975 Y67.067
X23.321 Y64.43
X22.01 Y61.825
X20.83 Y58.781
X19.995 Y55.768
X19.441 Y52.581
X19.203 Y49.445
X19.285 Y46.283
X19.667 Y43.169
X20.349 Y40.101
X21.245 Y37.326
X22.389 Y34.644
X22.735 Y33.948
Z-2.828
G0 Z5.
X79.253 Y33.929
Z1.219
G1 Z-2.801 F200.
X79.254 Y33.931 Z-2.828
X79.26 Y33.943 Z-2.928
X80.466 Y36.584
X81.462 Y39.434
X82.21 Y42.488
X82.67 Y45.695
X82.815 Y48.841
X82.635 Y52.004
X82.16 Y55.113
X81.418 Y58.058
X80.366 Y61.008
X79.133 Y63.651
X77.618 Y66.243
X75.784 Y68.79
X73.785 Y71.069
X71.408 Y73.3
X69. Y75.151
X66.532 Y76.704
X63.931 Y78.023
X62.878 Y78.475
Z-2.828
G0 Z5.
X39.072 Y78.49
Z0.98
G1 Z-2.797 F200.
X39.069 Y78.488 Z-2.828
X39.05 Y78.48 Z-2.928
X36.422 Y77.265
X33.895 Y75.798
X31.346 Y73.975
X28.981 Y71.908
X26.821 Y69.613
X24.898 Y67.122
X23.238 Y64.476
X21.927 Y61.871
X20.742 Y58.815
X19.904 Y55.793
X19.348 Y52.593
X19.109 Y49.448
X19.191 Y46.276
X19.575 Y43.154
X20.258 Y40.076
X21.153 Y37.301
X22.296 Y34.618
X22.655 Y33.895
Z-2.828
G0 Z5.
X79.331 Y33.874
Z1.219
G1 Z-2.803 F200.
X79.332 Y33.876 Z-2.828
X79.341 Y33.894 Z-2.928
X80.548 Y36.534
X81.55 Y39.401
X82.301 Y42.463
X82.764 Y45.684
X82.909 Y48.839
X82.729 Y52.011
X82.253 Y55.128
X81.51 Y58.078
X80.456 Y61.038
X79.224 Y63.681
X77.698 Y66.294
X75.859 Y68.848
X73.858 Y71.131
X71.47 Y73.372
X69.057 Y75.227
X66.589 Y76.781
X63.989 Y78.101
X62.878 Y78.578
Z-2.828
G0 Z5.
X39.07 Y78.591
Z0.98
G1 Z-2.82 F200.
X39.069 Z-2.828
X39.041 Y78.579 Z-2.928
X36.42 Y77.37
X33.843 Y75.878
X31.287 Y74.05
X28.915 Y71.976
X26.749 Y69.674
X24.82 Y67.176
X23.156 Y64.522
X21.844 Y61.917
X20.653 Y58.848
X19.813 Y55.818
X19.254 Y52.604
X19.016 Y49.45
X19.097 Y46.27
X19.482 Y43.138
X20.167 Y40.052
X21.062 Y37.276
X22.204 Y34.593
X22.58 Y33.835
Z-2.828
G0 Z5.
X79.407 Y33.816
Z1.219
G1 Z-2.827 F200.
Z-2.828
X79.408 Y33.817 Z-2.928
X80.634 Y36.496
X81.639 Y39.367
X82.393 Y42.438
X82.857 Y45.673
X83.002 Y48.837
X82.823 Y52.017
X82.346 Y55.144
X81.603 Y58.098
X80.546 Y61.067
X79.314 Y63.711
X77.778 Y66.344
X75.933 Y68.906
X73.93 Y71.193
X71.532 Y73.443
X69.031 Y75.361
X66.559 Y76.908
X63.955 Y78.222
X62.878 Y78.682
Z-2.828
G0 Z5.
X39.071 Y78.689
Z0.98
G1 Z-2.815 F200.
X39.069 Y78.688 Z-2.828
X39.044 Y78.678 Z-2.928
X36.418 Y77.473
X33.89 Y76.02
X31.228 Y74.124
X28.849 Y72.044
X26.677 Y69.736
X24.743 Y67.23
X23.073 Y64.568
X21.762 Y61.963
X20.565 Y58.882
X19.722 Y55.842
X19.161 Y52.615
X18.922 Y49.452
X19.003 Y46.263
X19.389 Y43.122
X20.076 Y40.027
X20.97 Y37.251
X22.111 Y34.567
X22.505 Y33.775
Z-2.828
G0 Z5.
X79.481 Y33.754
Z1.219
G1 Z-2.828 F200.
X79.488 Y33.767 Z-2.928
X80.721 Y36.459
X81.727 Y39.334
X82.484 Y42.413
X82.951 Y45.661
X83.096 Y48.835
X82.917 Y52.024
X82.439 Y55.16
X81.695 Y58.118
X80.636 Y61.097
X79.405 Y63.741
X77.858 Y66.394
X76.008 Y68.964
X74.002 Y71.254
X71.595 Y73.514
X69.086 Y75.439
X66.614 Y76.986
X64.011 Y78.301
X62.878 Y78.784
Z-2.828
G0 Z5.
X39.069 Y78.791
Z0.98
G1 Z-2.827 F200.
Z-2.828
X39.068 Y78.79 Z-2.928
X36.416 Y77.579
X33.886 Y76.13
X31.169 Y74.198
X28.783 Y72.112
X26.605 Y69.797
X24.665 Y67.284
X22.991 Y64.614
X21.679 Y62.009
X20.477 Y58.916
X19.631 Y55.867
X19.068 Y52.627
X18.828 Y49.454
X18.909 Y46.257
X19.296 Y43.106
X19.985 Y40.002
X20.879 Y37.226
X22.019 Y34.542
X22.432 Y33.709
Z-2.828
G0 Z5.
X79.552 Y33.685
Z1.219
G1 Z-2.819 F200.
X79.553 Z-2.828
X79.555 Y33.689 Z-2.928
X80.807 Y36.421
X81.816 Y39.3
X82.575 Y42.388
X83.044 Y45.65
X83.19 Y48.832
X83.011 Y52.03
X82.532 Y55.175
X81.788 Y58.139
X80.726 Y61.126
X79.496 Y63.771
X77.938 Y66.445
X76.083 Y69.021
X74.074 Y71.316
X71.657 Y73.586
X69.141 Y75.516
X66.669 Y77.064
X64.067 Y78.38
X62.878 Y78.886
Z-2.828
G0 Z5.
X39.069 Y78.893
Z0.98
G1 Z-2.819 F200.
Z-2.828
X39.065 Y78.891 Z-2.928
X36.415 Y77.685
X33.882 Y76.239
X31.211 Y74.352
X28.717 Y72.181
X26.533 Y69.858
X24.588 Y67.338
X22.9 Y64.645
X21.589 Y62.04
X20.389 Y58.949
X19.54 Y55.892
X18.974 Y52.638
X18.734 Y49.457
X18.816 Y46.25
X19.203 Y43.091
X19.894 Y39.977
X20.788 Y37.201
X21.926 Y34.516
X22.364 Y33.635
Z-2.828
G0 Z5.
X79.619 Y33.607
Z1.219
G1 Z-2.818 F200.
Y33.608 Z-2.828
X79.621 Y33.612 Z-2.928
X80.894 Y36.383
X81.904 Y39.267
X82.666 Y42.364
X83.138 Y45.639
X83.284 Y48.83
X83.105 Y52.037
X82.624 Y55.192
X81.92 Y58.022
X80.966 Y60.777
X79.771 Y63.437
X78.343 Y65.98
X76.694 Y68.386
X74.838 Y70.635
X72.553 Y72.925
X70.09 Y74.951
X67.564 Y76.65
X65.003 Y78.046
X62.878 Y78.988
Z-2.828
G0 Z5.
X39.07 Y78.995
Z0.98
G1 Z-2.812 F200.
X39.069 Z-2.828
X39.061 Y78.992 Z-2.928
X36.413 Y77.79
X33.878 Y76.349
X31.155 Y74.429
X28.652 Y72.249
X26.461 Y69.92
X24.51 Y67.392
X22.818 Y64.691
X21.506 Y62.086
X20.3 Y58.983
X19.449 Y55.917
X18.881 Y52.649
X18.64 Y49.459
X18.722 Y46.244
X19.11 Y43.075
X19.803 Y39.952
X20.696 Y37.176
X21.834 Y34.491
X22.301 Y33.551
X22.302 Z-2.828
G0 Z5.
X79.679 Y33.519
Z1.219
G1 Z-2.828 F200.
X79.688 Y33.535 Z-2.928
X80.981 Y36.346
X81.993 Y39.234
X82.757 Y42.339
X83.231 Y45.628
X83.378 Y48.828
X83.199 Y52.043
X82.717 Y55.207
X82.014 Y58.037
X81.061 Y60.794
X79.868 Y63.454
X78.443 Y65.999
X76.797 Y68.406
X74.944 Y70.658
X72.619 Y72.993
X70.149 Y75.026
X67.619 Y76.728
X65.059 Y78.124
X62.878 Y79.09
Z-2.828
G0 Z5.
X39.07 Y79.098
Z0.98
G1 Z-2.805 F200.
X39.069 Y79.097 Z-2.828
X39.058 Y79.093 Z-2.928
X36.412 Y77.896
X33.874 Y76.459
X31.485 Y74.803
X29.043 Y72.749
X26.805 Y70.46
X24.881 Y68.075
X23.118 Y65.402
X21.626 Y62.575
X20.368 Y59.477
X19.469 Y56.415
X18.869 Y53.281
X18.571 Y50.101
X18.586 Y46.871
X18.917 Y43.68
X19.515 Y40.68
X20.439 Y37.608
X21.535 Y34.906
X22.244 Y33.456
Z-2.828
G0 Z5.
X79.735 Y33.422
Z1.219
G1 Z-2.825 F200.
Z-2.828
X79.736 Y33.424 Z-2.928
X81.087 Y36.356
X82.081 Y39.2
X82.848 Y42.314
X83.324 Y45.616
X83.472 Y48.825
X83.293 Y52.05
X82.81 Y55.223
X82.066 Y58.195
X81.103 Y60.947
X79.9 Y63.604
X78.466 Y66.143
X76.608 Y68.813
X74.625 Y71.147
X72.212 Y73.483
X69.701 Y75.47
X67.01 Y77.199
X64.165 Y78.653
X62.878 Y79.199
X62.877 Z-2.828
G0 Z5.
X39.069
Z0.98
G1 Z-2.828 F200.
Z-2.928
X36.302 Y77.946
X33.767 Y76.503
X31.045 Y74.583
X28.52 Y72.385
X26.317 Y70.042
X24.355 Y67.5
X22.661 Y64.797
X21.348 Y62.193
X20.271 Y59.483
X19.378 Y56.44
X18.776 Y53.297
X18.477 Y50.108
X18.493 Y46.869
X18.823 Y43.669
X19.422 Y40.664
X20.348 Y37.583
X21.443 Y34.881
X22.19 Y33.356
Z-2.828
G0 Z5.
X79.789 Y33.321
Z1.219
G1 Z-2.815 F200.
Y33.322 Z-2.828
X79.792 Y33.328 Z-2.928
X81.027 Y35.962
X82.027 Y38.702
X82.842 Y41.811
X83.369 Y45.121
X83.564 Y48.337
X83.433 Y51.572
X82.996 Y54.761
X82.295 Y57.748
X81.374 Y60.515
X80.211 Y63.19
X78.817 Y65.751
X77.202 Y68.179
X75.349 Y70.488
X73.108 Y72.8
X70.654 Y74.881
X68.017 Y76.707
X65.215 Y78.263
X62.878 Y79.301
Z-2.828
G0 Z5.
X39.069 Y79.3
Z0.98
G1 Z-2.828 F200.
X39.041 Y79.289 Z-2.928
X36.408 Y78.106
X33.866 Y76.677
X31.375 Y74.958
X28.918 Y72.892
X26.667 Y70.589
X24.737 Y68.198
X22.963 Y65.51
X21.468 Y62.681
X20.35 Y59.988
X19.404 Y56.936
X18.755 Y53.793
X18.409 Y50.6
X18.375 Y47.353
X18.66 Y44.139
X19.216 Y41.121
X20.097 Y38.018
X21.152 Y35.299
X22.139 Y33.249
Z-2.828
G0 Z5.
X79.837 Y33.209
Z1.219
G1 Z-2.828 F200.
X79.845 Y33.224 Z-2.928
X81.082 Y35.847
X82.115 Y38.668
X82.933 Y41.787
X83.462 Y45.11
X83.658 Y48.335
X83.527 Y51.579
X83.089 Y54.777
X82.386 Y57.773
X81.472 Y60.524
X80.243 Y63.342
X78.599 Y66.286
X76.757 Y68.928
X74.769 Y71.27
X72.338 Y73.624
X69.811 Y75.624
X67.105 Y77.363
X64.242 Y78.826
X62.878 Y79.403
Z-2.828
G0 Z5.
X39.069 Y79.402
Z0.98
G1 Z-2.828 F200.
X39.041 Y79.391 Z-2.928
X36.407 Y78.211
X33.863 Y76.786
X31.319 Y75.035
X28.856 Y72.963
X26.598 Y70.654
X24.665 Y68.259
X22.885 Y65.565
X21.385 Y62.727
X20.266 Y60.034
X19.313 Y56.961
X18.663 Y53.809
X18.316 Y50.607
X18.281 Y47.351
X18.567 Y44.128
X19.123 Y41.105
X20.006 Y37.993
X21.06 Y35.274
X22.098 Y33.125
Z-2.828
G0 Z5.
X79.874 Y33.077
Z1.219
G1 Z-2.828 F200.
X79.882 Y33.093 Z-2.928
X81.313 Y36.16
X82.346 Y39.1
X83.122 Y42.238
X83.605 Y45.582
X83.753 Y48.819
X83.575 Y52.069
X83.089 Y55.27
X82.342 Y58.26
X81.383 Y61.011
X80.111 Y63.815
X78.679 Y66.337
X76.832 Y68.986
X74.841 Y71.332
X72.52 Y73.591
X69.992 Y75.61
X67.287 Y77.368
X64.423 Y78.849
X62.878 Y79.505
Z-2.828
G0 Z5.
X39.069 Y79.504
Z0.98
G1 Z-2.828 F200.
X39.041 Y79.493 Z-2.928
X36.405 Y78.317
X33.859 Y76.896
X31.264 Y75.112
X28.793 Y73.034
X26.529 Y70.719
X24.593 Y68.32
X22.807 Y65.619
X21.302 Y62.773
X20.183 Y60.08
X19.222 Y56.986
X18.57 Y53.825
X18.222 Y50.613
X18.187 Y47.349
X18.473 Y44.117
X19.029 Y41.09
X19.915 Y37.968
X20.968 Y35.249
X22.07 Y32.976
Z-2.828
G0 Z5.
X79.898 Y32.922
Z1.219
G1 Z-2.826 F200.
Z-2.828
X79.899 Y32.923 Z-2.928
X81.227 Y35.705
X82.292 Y38.602
X83.116 Y41.737
X83.649 Y45.087
X83.845 Y48.33
X83.715 Y51.592
X83.275 Y54.808
X82.571 Y57.814
X81.648 Y60.591
X80.416 Y63.418
X79.014 Y65.975
X77.394 Y68.397
X75.565 Y70.672
X73.305 Y73.005
X70.831 Y75.104
X68.171 Y76.946
X65.345 Y78.516
X62.878 Y79.607
Z-2.828
G0 Z5.
X39.069 Y79.606
Z0.98
G1 Z-2.828 F200.
X39.041 Y79.595 Z-2.928
X36.404 Y78.422
X33.855 Y77.005
X31.209 Y75.189
X28.731 Y73.106
X26.46 Y70.783
X24.521 Y68.382
X22.73 Y65.673
X21.219 Y62.819
X20.099 Y60.127
X19.131 Y57.01
X18.477 Y53.841
X18.128 Y50.62
X18.093 Y47.347
X18.38 Y44.106
X18.936 Y41.074
X19.824 Y37.943
X20.876 Y35.223
X22.049 Y32.814
Z-2.828
G0 Z5.
X79.914 Y32.752
Z1.219
G1 Z-2.828 F200.
X79.943 Y32.806 Z-2.928
X81.308 Y35.655
X82.38 Y38.568
X83.207 Y41.712
X83.743 Y45.076
X83.939 Y48.328
X83.809 Y51.598
X83.368 Y54.824
X82.663 Y57.834
X81.737 Y60.625
X80.503 Y63.456
X79.101 Y66.013
X77.474 Y68.448
X75.637 Y70.734
X73.371 Y73.073
X70.89 Y75.179
X68.222 Y77.026
X65.388 Y78.601
X62.878 Y79.709
Z-2.828
G0 Z5.
X39.07
Z0.98
G1 Z-2.821 F200.
X39.069 Y79.708 Z-2.828
X39.041 Y79.697 Z-2.928
X36.402 Y78.527
X33.852 Y77.114
X31.154 Y75.266
X28.668 Y73.177
X26.391 Y70.848
X24.448 Y68.443
X22.652 Y65.727
X21.137 Y62.865
X20.016 Y60.173
X19.04 Y57.035
X18.384 Y53.857
X18.034 Y50.627
X17.999 Y47.345
X18.286 Y44.095
X18.843 Y41.058
X19.733 Y37.918
X20.925 Y34.88
X22.055 Y32.605
Z-2.828
G0 Z5.
X79.888 Y32.507
Z1.219
G1 Z-2.828 F200.
X79.892 Y32.515 Z-2.928
X81.374 Y35.567
X82.469 Y38.535
X83.298 Y41.687
X83.836 Y45.065
X84.033 Y48.326
X83.902 Y51.605
X83.46 Y54.84
X82.755 Y57.854
X81.825 Y60.658
X80.589 Y63.494
X79.188 Y66.051
X77.554 Y68.498
X75.709 Y70.795
X73.437 Y73.141
X70.949 Y75.253
X68.273 Y77.106
X65.431 Y78.685
X62.878 Y79.81
Z-2.828
G0 Z5.
X39.07
Z0.98
G1 Z-2.821 F200.
X39.069 Z-2.828
X39.041 Y79.799 Z-2.928
X36.401 Y78.632
X33.848 Y77.223
X31.099 Y75.343
X28.606 Y73.248
X26.322 Y70.913
X24.376 Y68.505
X22.574 Y65.782
X21.048 Y62.9
X19.928 Y60.207
X18.949 Y57.06
X18.291 Y53.873
X17.94 Y50.629
X17.905 Y47.343
X18.193 Y44.084
X18.75 Y41.042
X19.641 Y37.893
X20.836 Y34.847
X22.139 Y32.258
Z-2.828
G0 Z5.
X79.624 Y31.847
Z1.219
G1 Z-2.828 F200.
X79.625 Y31.849 Z-2.928
X81.084 Y34.675
X82.253 Y37.586
X83.174 Y40.714
X83.787 Y43.915
X84.093 Y47.169
X84.078 Y50.46
X83.745 Y53.718
X83.099 Y56.935
X82.147 Y60.059
X80.887 Y63.094
X79.276 Y66.09
X77.635 Y68.549
X75.781 Y70.857
X73.503 Y73.209
X71.007 Y75.327
X68.325 Y77.185
X65.474 Y78.77
X62.878 Y79.912
Z-2.828
G0 Z5.
X39.069
Z0.98
G1 Z-2.822 F200.
Z-2.828
X39.066 Y79.911 Z-2.928
X36.4 Y78.737
X33.844 Y77.332
X31.433 Y75.712
X28.902 Y73.647
X26.578 Y71.339
X24.595 Y68.956
X22.748 Y66.252
X21.175 Y63.385
X19.844 Y60.254
X18.858 Y57.085
X18.198 Y53.888
X17.846 Y50.635
X17.811 Y47.341
X18.099 Y44.072
X18.657 Y41.026
X19.55 Y37.869
X20.746 Y34.816
X22.09 Y32.152
X22.732 Y31.057 Z-2.917
Z-2.833
Z-2.832
G0 Z5.
X78.725 Y30.207
Z1.219
G1 Z-2.828 F200.
X78.728 Y30.211 Z-2.928
X80.304 Y32.88
X81.742 Y35.963
X82.791 Y38.94
X83.577 Y42.114
X84.023 Y45.042
X84.221 Y48.321
X84.09 Y51.618
X83.646 Y54.871
X82.94 Y57.894
X82.001 Y60.725
X80.763 Y63.569
X79.108 Y66.542
X77.206 Y69.276
X75.201 Y71.639
X72.849 Y73.932
X70.287 Y75.982
X67.543 Y77.767
X64.639 Y79.271
X62.878 Y80.014
X62.877 Z-2.828
G0 Z5.
X56.518 Y81.768
Z0.98
G1 Z-2.828 F200.
X56.502 Y81.771 Z-2.928
X55.654 Y81.903
Z-2.828
G0 Z5.
X46.305
Z0.976
G1 Z-2.823 F200.
Z-2.828
X46.302 Y81.902 Z-2.928
X45.443 Y81.768
Z-2.828
G0 Z5.
X39.069 Y80.013
Z0.98
G1 Z-2.825 F200.
Z-2.828
X39.067 Z-2.928
X36.398 Y78.842
X33.841 Y77.44
X31.377 Y75.789
X28.84 Y73.718
X26.509 Y71.404
X24.523 Y69.018
X22.67 Y66.306
X21.093 Y63.431
X19.761 Y60.3
X18.767 Y57.109
X18.105 Y53.904
X17.753 Y50.642
X17.718 Y47.339
X18.006 Y44.061
X18.564 Y41.011
X19.459 Y37.844
X20.658 Y34.783
X22.007 Y32.106
X23.641 Y29.485
X25.71 Y26.785
X28.006 Y24.339
X30.481 Y22.177
X32.995 Y20.37
X35.185 Y19.064
X35.186 Y19.063 Z-2.828
G0 Z5.
X65.832 Y18.554
Z1.219
G1 Z-2.828 F200.
X65.846 Y18.561 Z-2.928
X68.378 Y19.977
X71. Y21.78
X73.511 Y23.889
X75.811 Y26.24
X77.766 Y28.659
X79.424 Y31.139
X81.039 Y34.133
X82.266 Y37.061
X83.238 Y40.193
X83.901 Y43.403
X84.254 Y46.67
X84.289 Y49.978
X84.001 Y53.259
X83.398 Y56.503
X82.487 Y59.659
X81.266 Y62.728
X79.699 Y65.748
X78.08 Y68.255
X76.244 Y70.612
X73.987 Y73.011
X71.509 Y75.177
X68.838 Y77.085
X65.995 Y78.72
X62.945 Y80.089
X62.878 Y80.116
Z-2.828
G0 Z5.
X57.058 Y81.768
Z0.98
G1 Z-2.828 F200.
X57.039 Y81.772 Z-2.928
X55.654 Y81.999
Z-2.828
G0 Z5.
X46.305 Y81.998
Z0.967
G1 Z-2.826 F200.
Z-2.828
X46.303 Z-2.928
X44.903 Y81.768
Z-2.828
G0 Z5.
X39.069 Y80.115
Z0.98
G1 Z-2.818 F200.
Z-2.828
X39.064 Y80.113 Z-2.928
X36.397 Y78.947
X33.837 Y77.549
X31.322 Y75.866
X28.777 Y73.79
X26.44 Y71.469
X24.45 Y69.079
X22.593 Y66.36
X21.01 Y63.477
X19.678 Y60.347
X18.676 Y57.134
X18.013 Y53.92
X17.659 Y50.649
X17.624 Y47.337
X17.912 Y44.05
X18.471 Y40.995
X19.368 Y37.819
X20.57 Y34.749
X21.925 Y32.06
X23.561 Y29.435
X25.63 Y26.734
X27.94 Y24.271
X30.422 Y22.102
X32.94 Y20.293
X35.453 Y18.812
X38.086 Y17.559
X38.734 Y17.293
G0 Z5.
X62.921 Y17.16
Z1.219
G1 Z-2.818 F200.
Z-2.828
X62.926 Y17.162 Z-2.928
X65.593 Y18.329
X68.152 Y19.728
X70.666 Y21.411
X73.214 Y23.49
X75.555 Y25.814
X77.548 Y28.208
X79.249 Y30.675
X80.908 Y33.645
X82.185 Y36.572
X83.204 Y39.698
X83.915 Y42.907
X84.315 Y46.178
X84.399 Y49.494
X84.157 Y52.788
X83.599 Y56.049
X82.731 Y59.228
X81.551 Y62.322
X80.028 Y65.365
X78.438 Y67.907
X76.44 Y70.527
X74.33 Y72.809
X72.094 Y74.825
X69.453 Y76.795
X66.633 Y78.493
X63.661 Y79.904
X62.878 Y80.217
Z-2.828
G0 Z5.
X57.556 Y81.768
Z0.98
G1 Z-2.807 F200.
X57.555 Z-2.828
X57.545 Y81.77 Z-2.928
X55.654 Y82.094
Z-2.828
G0 Z5.
X46.307 Y82.095
Z0.953
G1 Z-2.8 F200.
X46.305 Y82.094 Z-2.828
X46.29 Y82.092 Z-2.928
X44.406 Y81.768
X44.405 Z-2.828
G0 Z5.
X39.071 Y80.217
Z0.98
G1 Z-2.815 F200.
X39.069 Z-2.828
X39.043 Y80.207 Z-2.928
X35.96 Y78.836
X33.419 Y77.404
X30.878 Y75.651
X28.356 Y73.533
X26.045 Y71.172
X24.088 Y68.751
X22.416 Y66.252
X20.8 Y63.258
X19.564 Y60.311
X18.585 Y57.159
X17.92 Y53.936
X17.565 Y50.656
X17.53 Y47.335
X17.819 Y44.039
X18.378 Y40.979
X19.277 Y37.794
X20.481 Y34.715
X21.842 Y32.014
X23.481 Y29.384
X25.549 Y26.683
X27.875 Y24.203
X30.363 Y22.028
X32.885 Y20.216
X35.397 Y18.735
X38.03 Y17.48
X40.762 Y16.46
X42.125 Y16.051
X42.126 Z-2.828
G0 Z5.
X59.624 Y15.985
Z1.219
G1 Z-2.828 F200.
X59.628 Y15.986 Z-2.928
X62.415 Y16.869
X65.107 Y17.991
X67.691 Y19.344
X70.328 Y21.048
X72.913 Y23.096
X75.294 Y25.393
X77.323 Y27.761
X79.226 Y30.461
X80.77 Y33.161
X82.166 Y36.263
X83.193 Y39.306
X83.942 Y42.517
X84.352 Y45.492
X84.504 Y48.8
X84.326 Y52.122
X83.833 Y55.395
X83.081 Y58.422
X82.09 Y61.279
X80.805 Y64.117
X79.32 Y66.739
X77.43 Y69.449
X75.418 Y71.824
X73.047 Y74.137
X70.463 Y76.206
X67.865 Y77.906
X65.29 Y79.276
X62.878 Y80.312
Z-2.828
G0 Z5.
X57.99 Y81.768
Z0.98
G1 Z-2.828 F200.
Z-2.928
X55.654 Y82.186
Z-2.828
G0 Z5.
X46.305 Y82.19
Z0.935
G1 Z-2.811 F200.
Z-2.828
X46.296 Y82.189 Z-2.928
X43.939 Y81.768
Z-2.828
G0 Z5.
X39.072 Y80.32
Z0.98
G1 Z-2.791 F200.
X39.069 Y80.319 Z-2.828
X39.051 Y80.312 Z-2.928
X35.958 Y78.942
X33.416 Y77.513
X30.823 Y75.729
X28.293 Y73.604
X25.976 Y71.237
X24.015 Y68.812
X22.336 Y66.302
X20.72 Y63.309
X19.476 Y60.345
X18.494 Y57.184
X17.827 Y53.952
X17.471 Y50.663
X17.436 Y47.333
X17.725 Y44.028
X18.285 Y40.963
X19.186 Y37.769
X20.393 Y34.681
X21.76 Y31.968
X23.401 Y29.334
X25.468 Y26.632
X27.809 Y24.135
X30.304 Y21.954
X32.83 Y20.138
X35.342 Y18.657
X37.974 Y17.4
X40.705 Y16.379
X43.516 Y15.601
X44.284 Y15.433
Z-2.828
G0 Z5.
X57.674 Y15.426
Z1.701
G1 Z-2.808 F200.
X57.675 Z-2.828
X57.685 Y15.428 Z-2.928
X60.968 Y16.277
X63.71 Y17.271
X66.355 Y18.501
X68.881 Y19.957
X71.551 Y21.845
X74.052 Y24.008
X76.339 Y26.412
X78.268 Y28.868
X79.914 Y31.406
X81.487 Y34.422
X82.694 Y37.418
X83.629 Y40.59
X84.251 Y43.836
X84.561 Y47.135
X84.548 Y50.47
X84.213 Y53.773
X83.559 Y57.036
X82.596 Y60.206
X81.32 Y63.283
X79.712 Y66.281
X78.036 Y68.801
X76.141 Y71.164
X73.832 Y73.55
X71.302 Y75.699
X68.75 Y77.477
X66.217 Y78.923
X63.568 Y80.141
X62.878 Y80.414
Z-2.828
G0 Z5.
X58.427 Y81.768
Z0.98
G1 Z-2.828 F200.
X58.404 Y81.773 Z-2.928
X55.654 Y82.282
Z-2.828
G0 Z5.
X46.305 Y82.286
Z0.912
G1 Z-2.81 F200.
Z-2.828
X46.295 Y82.285 Z-2.928
X43.503 Y81.768
Z-2.828
G0 Z5.
X39.07 Y80.421
Z0.98
G1 Z-2.806 F200.
X39.069 Y80.42 Z-2.828
X39.058 Y80.416 Z-2.928
X35.957 Y79.047
X33.412 Y77.623
X30.768 Y75.806
X28.231 Y73.676
X25.907 Y71.302
X23.943 Y68.874
X22.108 Y66.107
X20.558 Y63.187
X19.388 Y60.378
X18.403 Y57.208
X17.734 Y53.967
X17.378 Y50.67
X17.342 Y47.331
X17.632 Y44.017
X18.192 Y40.947
X19.094 Y37.744
X20.305 Y34.648
X21.677 Y31.922
X23.321 Y29.283
X25.387 Y26.581
X27.596 Y24.21
X30.089 Y22.004
X32.775 Y20.061
X35.286 Y18.579
X37.918 Y17.321
X40.649 Y16.298
X43.458 Y15.517
X44.295 Y15.334
Z-2.828
G0 Z5.
X57.664 Y15.327
Z1.701
G1 Z-2.824 F200.
Z-2.828
X57.666 Y15.328 Z-2.928
X60.958 Y16.175
X63.701 Y17.165
X66.348 Y18.391
X68.877 Y19.842
X71.606 Y21.768
X74.115 Y23.937
X76.408 Y26.347
X78.34 Y28.807
X79.994 Y31.356
X81.568 Y34.372
X82.782 Y37.385
X83.72 Y40.566
X84.344 Y43.82
X84.655 Y47.128
X84.642 Y50.472
X84.306 Y53.785
X83.652 Y57.056
X82.685 Y60.236
X81.407 Y63.32
X79.8 Y66.319
X78.116 Y68.852
X76.213 Y71.225
X73.897 Y73.618
X71.36 Y75.773
X68.805 Y77.555
X65.839 Y79.22
X62.878 Y80.515
Z-2.828
G0 Z5.
X58.84 Y81.768
Z0.98
G1 Z-2.828 F200.
X58.817 Y81.774 Z-2.928
X55.654 Y82.378
Z-2.828
G0 Z5.
X46.305 Y82.382
Z0.884
G1 Z-2.81 F200.
Z-2.828
X46.295 Y82.381 Z-2.928
X43.09 Y81.768
Z-2.828
G0 Z5.
X39.07 Y80.522
Z0.98
G1 Z-2.805 F200.
X39.069 Z-2.828
X39.058 Y80.518 Z-2.928
X35.955 Y79.152
X32.996 Y77.473
X30.327 Y75.586
X27.814 Y73.414
X25.518 Y71.
X23.586 Y68.542
X21.785 Y65.742
X20.271 Y62.792
X19.136 Y59.954
X18.195 Y56.761
X17.569 Y53.502
X17.258 Y50.191
X17.271 Y46.843
X17.607 Y43.524
X18.211 Y40.458
X19.161 Y37.259
X20.418 Y34.172
X21.836 Y31.453
X23.519 Y28.834
X25.394 Y26.426
X27.678 Y23.998
X30.187 Y21.805
X32.72 Y19.984
X35.662 Y18.275
X38.762 Y16.874
X41.988 Y15.794
X44.314 Y15.233
Z-2.828
G0 Z5.
X57.645 Y15.227
Z1.701
G1 Z-2.821 F200.
Z-2.828
X57.649 Z-2.928
X60.66 Y15.984
X63.864 Y17.13
X66.935 Y18.594
X69.841 Y20.362
X72.202 Y22.123
X74.677 Y24.352
X76.93 Y26.819
X78.926 Y29.485
X80.554 Y32.151
X82.042 Y35.21
X83.178 Y38.274
X84.027 Y41.489
X84.528 Y44.491
X84.774 Y47.821
X84.692 Y51.172
X84.289 Y54.486
X83.622 Y57.547
X82.608 Y60.722
X81.282 Y63.796
X79.633 Y66.772
X77.907 Y69.293
X75.962 Y71.65
X73.606 Y74.017
X71.032 Y76.141
X68.447 Y77.888
X65.458 Y79.511
X62.878 Y80.617
Z-2.828
G0 Z5.
X59.234 Y81.768
Z0.98
G1 Z-2.828 F200.
X59.228 Y81.769 Z-2.928
X55.898 Y82.438
X55.654 Y82.474
Z-2.828
G0 Z5.
X46.305 Y82.478
Z0.932
G1 Z-2.81 F200.
Z-2.828
X46.295 Y82.476 Z-2.928
X42.964 Y81.835
X42.696 Y81.768
Z-2.828
G0 Z5.
X39.072 Y80.624
Z0.98
G1 Z-2.805 F200.
X39.069 Y80.623 Z-2.828
X39.047 Y80.615 Z-2.928
X35.953 Y79.257
X32.992 Y77.583
X30.272 Y75.663
X27.752 Y73.485
X25.449 Y71.065
X23.513 Y68.603
X21.707 Y65.796
X20.188 Y62.838
X19.048 Y59.987
X18.104 Y56.786
X17.476 Y53.518
X17.164 Y50.198
X17.177 Y46.841
X17.514 Y43.513
X18.118 Y40.443
X19.07 Y37.234
X20.33 Y34.138
X21.753 Y31.407
X23.439 Y28.784
X25.322 Y26.364
X27.612 Y23.93
X30.128 Y21.731
X32.665 Y19.907
X35.606 Y18.197
X38.705 Y16.794
X41.93 Y15.712
X44.334 Y15.133
Z-2.828
G0 Z5.
X57.624 Y15.126
Z1.701
G1 Z-2.813 F200.
X57.625 Z-2.828
X57.632 Y15.127 Z-2.928
X60.681 Y15.891
X63.885 Y17.036
X66.957 Y18.498
X69.865 Y20.264
X72.261 Y22.049
X74.743 Y24.284
X77.002 Y26.758
X79.004 Y29.431
X80.635 Y32.101
X82.123 Y35.16
X83.266 Y38.24
X84.118 Y41.464
X84.621 Y44.48
X84.868 Y47.819
X84.786 Y51.179
X84.382 Y54.502
X83.714 Y57.567
X82.698 Y60.751
X81.369 Y63.834
X79.721 Y66.81
X77.987 Y69.343
X76.034 Y71.711
X73.672 Y74.085
X71.09 Y76.215
X68.503 Y77.966
X65.513 Y79.59
X62.878 Y80.718
Z-2.828
G0 Z5.
X59.61 Y81.768
Z0.98
G1 Z-2.828 F200.
Z-2.928
X56.283 Y82.475
X55.654 Y82.569
Z-2.828
G0 Z5.
X46.305 Y82.574
Z0.986
G1 Z-2.809 F200.
Y82.573 Z-2.828
X46.295 Y82.572 Z-2.928
X42.963 Y81.933
X42.319 Y81.768
Z-2.828
G0 Z5.
X39.072 Y80.726
Z0.986
G1 Z-2.792 F200.
X39.069 Y80.725 Z-2.828
X39.051 Y80.718 Z-2.928
X35.952 Y79.363
X32.988 Y77.693
X30.217 Y75.74
X27.689 Y73.556
X25.38 Y71.13
X23.441 Y68.665
X21.629 Y65.85
X20.106 Y62.884
X18.959 Y60.021
X18.013 Y56.811
X17.384 Y53.534
X17.071 Y50.204
X17.083 Y46.839
X17.42 Y43.502
X18.025 Y40.425
X18.996 Y37.164
X20.284 Y34.016
X21.878 Y31.01
X23.762 Y28.177
X25.892 Y25.572
X28.256 Y23.197
X30.84 Y21.064
X33.432 Y19.311
X36.421 Y17.686
X39.559 Y16.371
X42.813 Y15.379
X44.353 Y15.032
X44.354 Z-2.828
Z-2.826
G0 Z5.
X57.604 Y15.025
Z1.701
G1 Z-2.821 F200.
Z-2.828
X57.608 Y15.026 Z-2.928
X60.902 Y15.86
X64.099 Y17.023
X67.163 Y18.502
X70.061 Y20.283
X72.694 Y22.285
X75.151 Y24.561
X77.382 Y27.073
X79.351 Y29.781
X80.946 Y32.478
X82.392 Y35.557
X83.498 Y38.671
X84.307 Y41.916
X84.77 Y44.951
X84.971 Y48.303
X84.841 Y51.67
X84.39 Y54.997
X83.678 Y58.056
X82.709 Y60.988
X81.356 Y64.074
X79.72 Y66.99
X77.804 Y69.739
X75.627 Y72.293
X73.21 Y74.624
X70.585 Y76.702
X67.721 Y78.538
X64.687 Y80.076
X62.876 Y80.82
Z-2.828
G0 Z5.
X59.972 Y81.768
Z1.025
G1 Z-2.828 F200.
X59.959 Y81.772 Z-2.928
X56.652 Y82.51
X55.654 Y82.665
Z-2.828
G0 Z5.
X46.305 Y82.669
Z1.033
G1 Z-2.809 F200.
Z-2.828
X46.295 Y82.668 Z-2.928
X42.963 Y82.03
X41.957 Y81.768
Z-2.828
G0 Z5.
X39.071 Y80.827
Z1.033
G1 Z-2.825 F200.
Z-2.828
X39.069 Y80.826 Z-2.928
X35.952 Y79.469
X32.985 Y77.803
X30.547 Y76.114
X27.981 Y73.961
X25.631 Y71.561
X23.655 Y69.12
X21.797 Y66.324
X20.227 Y63.371
X19.035 Y60.512
X18.04 Y57.307
X17.363 Y54.031
X17.003 Y50.697
X16.966 Y47.323
X17.258 Y43.972
X17.819 Y40.884
X18.73 Y37.644
X19.968 Y34.476
X21.347 Y31.738
X23.157 Y28.857
X25.178 Y26.242
X27.48 Y23.794
X30.01 Y21.582
X32.554 Y19.752
X35.495 Y18.041
X38.592 Y16.635
X41.816 Y15.547
X44.381 Y14.93 Z-2.924
X44.382 Y14.929 Z-2.828
Z-2.826
G0 Z5.
X57.576 Y14.923
Z1.701
G1 Z-2.816 F200.
Z-2.828
X57.583 Y14.924 Z-2.928
X60.876 Y15.752
X64.075 Y16.91
X67.142 Y18.383
X70.044 Y20.157
X72.753 Y22.21
X75.217 Y24.493
X77.454 Y27.012
X79.428 Y29.727
X81.026 Y32.428
X82.473 Y35.507
X83.586 Y38.637
X84.398 Y41.891
X84.864 Y44.94
X85.065 Y48.3
X84.935 Y51.676
X84.483 Y55.012
X83.77 Y58.076
X82.797 Y61.022
X81.441 Y64.116
X79.8 Y67.041
X77.879 Y69.797
X75.696 Y72.357
X73.272 Y74.696
X70.64 Y76.779
X67.776 Y78.616
X64.742 Y80.155
X62.865 Y80.926
Z-2.828
G0 Z5.
X60.321 Y81.768
Z1.063
G1 Z-2.828 F200.
X60.298 Y81.775 Z-2.928
X57.009 Y82.543
X55.654 Y82.761
Z-2.828
G0 Z5.
X46.305 Y82.765
Z1.074
G1 Z-2.809 F200.
Z-2.828
X46.295 Y82.764 Z-2.928
X42.963 Y82.128
X41.608 Y81.768
Z-2.828
G0 Z5.
X39.084 Y80.933
Z1.074
G1 Z-2.802 F200.
X39.083 Z-2.828
X39.07 Y80.928 Z-2.928
X35.961 Y79.579
X32.992 Y77.919
X30.492 Y76.191
X27.919 Y74.032
X25.562 Y71.625
X23.582 Y69.181
X21.72 Y66.378
X20.144 Y63.417
X18.946 Y60.545
X17.949 Y57.332
X17.27 Y54.047
X16.909 Y50.704
X16.872 Y47.321
X17.164 Y43.961
X17.726 Y40.868
X18.639 Y37.62
X19.863 Y34.479
X21.265 Y31.692
X23.074 Y28.81
X25.106 Y26.18
X27.415 Y23.726
X29.951 Y21.508
X32.499 Y19.675
X35.439 Y17.963
X38.536 Y16.555
X41.759 Y15.464
X44.421 Y14.825 Z-2.906
Z-2.84
Z-2.839
G0 Z5.
X57.535 Y14.818
Z1.701
G1 Z-2.828 F200.
X57.556 Y14.822 Z-2.928
X60.836 Y15.641
X64.038 Y16.791
X67.108 Y18.257
X70.016 Y20.023
X72.438 Y21.826
X74.94 Y24.08
X77.218 Y26.573
X79.236 Y29.268
X80.875 Y31.95
X82.248 Y34.734
X83.38 Y37.677
X84.286 Y40.915
X84.874 Y44.223
X85.143 Y47.58
X85.083 Y50.967
X84.699 Y54.321
X83.991 Y57.628
X83.045 Y60.629
X81.839 Y63.512
X80.249 Y66.489
X78.517 Y69.104
X76.574 Y71.532
X74.226 Y73.959
X71.655 Y76.145
X69.081 Y77.941
X66.117 Y79.611
X63.001 Y80.976
X62.841 Y81.036
Z-2.828
G0 Z5.
X60.659 Y81.768
Z1.096
G1 Z-2.828 F200.
X60.652 Y81.77 Z-2.928
X57.354 Y82.575
X55.654 Y82.857
Z-2.828
G0 Z5.
X46.306 Y82.861
Z1.109
G1 Z-2.808 F200.
X46.305 Z-2.828
X46.294 Y82.859 Z-2.928
X42.962 Y82.225
X41.271 Y81.768
Z-2.828
G0 Z5.
X39.108 Y81.043
Z1.11
G1 Z-2.828 F200.
X39.082 Y81.033 Z-2.928
X35.984 Y79.696
X33.01 Y78.043
X30.436 Y76.268
X27.856 Y74.103
X25.493 Y71.69
X23.51 Y69.243
X21.78 Y66.661
X20.272 Y63.902
X19.028 Y61.034
X17.982 Y57.827
X17.255 Y54.542
X16.848 Y51.196
X16.763 Y47.805
X17.009 Y44.432
X17.528 Y41.327
X18.397 Y38.057
X19.579 Y34.89
X21.077 Y31.835
X22.715 Y29.165
X24.759 Y26.445
X26.836 Y24.162
X29.337 Y21.883
X32.039 Y19.866
X34.953 Y18.112
X38.029 Y16.658
X41.235 Y15.518
X44.477 Y14.717
Z-2.828
G0 Z5.
X57.482 Y14.711
Z1.701
G1 Z-2.828 F200.
X57.493 Y14.713 Z-2.928
X60.785 Y15.526
X63.989 Y16.668
X67.064 Y18.125
X69.977 Y19.882
X72.497 Y21.752
X75.006 Y24.011
X77.29 Y26.512
X79.314 Y29.214
X80.955 Y31.899
X82.334 Y34.696
X83.469 Y37.644
X84.377 Y40.89
X84.967 Y44.207
X85.236 Y47.573
X85.177 Y50.969
X84.792 Y54.332
X84.083 Y57.648
X83.136 Y60.654
X81.925 Y63.55
X80.331 Y66.535
X78.598 Y69.154
X76.646 Y71.594
X74.292 Y74.027
X71.713 Y76.219
X69.136 Y78.018
X66.173 Y79.689
X63.057 Y81.056
X62.801 Y81.152
Z-2.828
G0 Z5.
X60.986 Y81.768
Z1.125
G1 Z-2.828 F200.
X60.959 Y81.776 Z-2.928
X57.689 Y82.606
X55.654 Y82.952
Z-2.828
G0 Z5.
X46.306 Y82.957
Z1.139
G1 Z-2.806 F200.
X46.305 Z-2.828
X46.294 Y82.955 Z-2.928
X42.963 Y82.323
X40.944 Y81.768
Z-2.828
G0 Z5.
X39.149 Y81.16
Z1.14
G1 Z-2.828 F200.
X39.131 Y81.153 Z-2.928
X36.022 Y79.82
X33.044 Y78.175
X30.381 Y76.345
X27.794 Y74.174
X25.424 Y71.755
X23.438 Y69.304
X21.699 Y66.711
X20.189 Y63.948
X18.938 Y61.064
X17.891 Y57.852
X17.163 Y54.558
X16.754 Y51.202
X16.669 Y47.803
X16.916 Y44.421
X17.435 Y41.311
X18.305 Y38.032
X19.491 Y34.857
X20.988 Y31.801
X22.632 Y29.118
X24.676 Y26.398
X26.767 Y24.098
X29.275 Y21.811
X31.984 Y19.789
X34.898 Y18.034
X37.973 Y16.578
X41.178 Y15.436
X44.51 Y14.614
X44.539 Y14.609 Z-2.828
G0 Z5.
X57.412 Y14.601
Z1.701
G1 Z-2.828 F200.
X57.436 Y14.605 Z-2.928
X60.717 Y15.407
X63.925 Y16.539
X67.005 Y17.986
X69.924 Y19.732
X72.556 Y21.678
X75.072 Y23.943
X77.363 Y26.451
X79.391 Y29.16
X81.035 Y31.849
X82.421 Y34.659
X83.557 Y37.61
X84.468 Y40.866
X85.059 Y44.192
X85.33 Y47.566
X85.271 Y50.971
X84.886 Y54.343
X84.175 Y57.668
X83.227 Y60.679
X82.012 Y63.587
X80.414 Y66.581
X78.678 Y69.205
X76.718 Y71.655
X74.358 Y74.096
X71.772 Y76.293
X69.191 Y78.096
X66.228 Y79.767
X63.114 Y81.136
X62.739 Y81.276
Z-2.828
G0 Z5.
X61.303 Y81.768
Z1.156
G1 Z-2.828 F200.
X61.302 Y81.769 Z-2.928
X58.014 Y82.636
X55.646 Y83.049
Z-2.828
G0 Z5.
X46.315 Y83.054
Z1.164
G1 Z-2.803 F200.
X46.313 Z-2.828
X46.301 Y83.052 Z-2.928
X42.97 Y82.422
X40.626 Y81.768
Z-2.828
G0 Z5.
X39.212 Y81.284
Z1.165
G1 Z-2.828 F200.
X39.189 Y81.276 Z-2.928
X36.081 Y79.955
X33.097 Y78.32
X30.326 Y76.422
X27.731 Y74.246
X25.355 Y71.82
X23.366 Y69.366
X21.619 Y66.761
X20.107 Y63.994
X18.85 Y61.098
X17.8 Y57.876
X17.07 Y54.574
X16.66 Y51.209
X16.575 Y47.801
X16.822 Y44.41
X17.342 Y41.296
X18.214 Y38.007
X19.403 Y34.823
X20.898 Y31.767
X22.549 Y29.072
X24.592 Y26.351
X26.698 Y24.033
X29.212 Y21.74
X31.74 Y19.84
X34.642 Y18.065
X37.707 Y16.588
X40.903 Y15.423
X44.199 Y14.58
X44.62 Y14.498
Z-2.828
G0 Z5.
X57.315 Y14.484
Z1.701
G1 Z-2.828 F200.
X57.317 Z-2.928
X60.638 Y15.283
X63.85 Y16.404
X66.935 Y17.84
X69.886 Y19.593
X72.614 Y21.604
X75.138 Y23.875
X77.435 Y26.389
X79.469 Y29.106
X81.116 Y31.799
X82.508 Y34.621
X83.645 Y37.576
X84.559 Y40.841
X85.152 Y44.176
X85.424 Y47.559
X85.365 Y50.973
X84.98 Y54.354
X84.267 Y57.688
X83.319 Y60.704
X82.098 Y63.625
X80.496 Y66.627
X78.758 Y69.255
X76.79 Y71.717
X74.424 Y74.164
X71.831 Y76.367
X69.044 Y78.3
X66.071 Y79.953
X62.948 Y81.302
X62.639 Y81.416
Z-2.828
G0 Z5.
X61.62 Y81.768
Z1.18
G1 Z-2.828 F200.
X61.605 Y81.773 Z-2.928
X58.338 Y82.665
X55.628 Y83.149
Z-2.828
G0 Z5.
X46.332 Y83.151
Z1.184
G1 Z-2.814 F200.
X46.331 Z-2.828
X46.324 Y83.15 Z-2.928
X42.988 Y82.523
X40.32 Y81.768
Z-2.828
G0 Z5.
X39.311 Y81.42
Z1.185
G1 Z-2.828 F200.
X39.286 Y81.411 Z-2.928
X36.174 Y80.104
X33.183 Y78.482
X30.66 Y76.791
X28.028 Y74.645
X25.611 Y72.246
X23.585 Y69.816
X21.794 Y67.224
X20.241 Y64.475
X18.852 Y61.366
X17.839 Y58.365
X17.06 Y55.058
X16.627 Y51.943
X16.471 Y48.539
X16.648 Y45.126
X17.151 Y41.756
X17.979 Y38.447
X19.127 Y35.234
X20.468 Y32.368
X22.197 Y29.43
X24.2 Y26.68
X26.289 Y24.315
X28.777 Y21.981
X31.281 Y20.042
X34.157 Y18.226
X37.2 Y16.703
X40.378 Y15.49
X43.661 Y14.597
X44.725 Y14.381
Z-2.828
G0 Z5.
X57.223 Y14.37
Z1.701
G1 Z-2.842 F200.
Z-2.844
X57.224 Z-2.928
X60.534 Y15.153
X63.75 Y16.262
X66.841 Y17.684
X69.53 Y19.247
X72.294 Y21.225
X74.856 Y23.467
X77.193 Y25.955
X79.271 Y28.649
X80.958 Y31.324
X82.495 Y34.36
X83.732 Y37.538
X84.651 Y40.818
X85.245 Y44.16
X85.518 Y47.553
X85.46 Y50.975
X85.073 Y54.366
X84.36 Y57.708
X83.41 Y60.728
X82.186 Y63.661
X80.579 Y66.673
X78.838 Y69.306
X76.862 Y71.778
X74.489 Y74.232
X71.89 Y76.442
X69.096 Y78.38
X66.122 Y80.034
X63. Y81.384
X62.459 Y81.582
Z-2.828
G0 Z5.
X61.924 Y81.767
Z1.198
G1 Z-2.828 F200.
X61.913 Y81.771 Z-2.928
X58.65 Y82.692
X55.599 Y83.249
Z-2.828
G0 Z5.
X46.361 Y83.251
Z1.2
G1 Z-2.82 F200.
Z-2.828
X46.356 Y83.25 Z-2.928
X43.016 Y82.627
X40.015 Y81.767
Z-2.828
G0 Z5.
X39.495 Y81.587
Z1.2
G1 Z-2.828 F200.
X39.47 Y81.578 Z-2.928
X36.349 Y80.292
X33.346 Y78.692
X30.605 Y76.868
X27.966 Y74.716
X25.542 Y72.31
X23.513 Y69.878
X21.714 Y67.274
X20.158 Y64.521
X18.766 Y61.404
X17.751 Y58.399
X16.969 Y55.083
X16.534 Y51.954
X16.377 Y48.542
X16.554 Y45.119
X17.058 Y41.74
X17.888 Y38.422
X19.038 Y35.201
X20.381 Y32.33
X22.114 Y29.384
X23.969 Y26.818
X26.22 Y24.25
X28.715 Y21.909
X31.222 Y19.968
X34.098 Y18.151
X37.139 Y16.627
X40.316 Y15.41
X43.598 Y14.514
X44.839 Y14.264 Z-2.922
X44.841 Z-2.831
Z-2.827
G0 Z5.
X57.107 Y14.253
Z1.701
G1 Z-2.814 F200.
X57.108 Z-2.828
X57.125 Y14.256 Z-2.928
X60.466 Y15.035
X63.686 Y16.134
X66.781 Y17.546
X69.581 Y19.167
X72.353 Y21.151
X74.922 Y23.399
X77.265 Y25.894
X79.349 Y28.597
X81.157 Y31.485
X82.681 Y34.546
X83.82 Y37.504
X84.742 Y40.794
X85.338 Y44.144
X85.611 Y47.546
X85.554 Y50.977
X85.167 Y54.377
X84.452 Y57.728
X83.502 Y60.753
X82.272 Y63.699
X80.662 Y66.719
X78.919 Y69.356
X76.934 Y71.839
X74.555 Y74.3
X71.949 Y76.516
X69.147 Y78.46
X66.174 Y80.114
X63.052 Y81.466
X59.812 Y82.502
X56.485 Y83.213
X55.558 Y83.35
Z-2.828
G0 Z5.
X46.402 Y83.352
Z1.211
G1 Z-2.828 F200.
X46.388 Y83.35 Z-2.928
X43.057 Y82.735
X39.788 Y81.79
X36.629 Y80.527
X33.611 Y78.958
X30.943 Y77.23
X28.267 Y75.11
X25.803 Y72.732
X23.738 Y70.324
X21.764 Y67.532
X20.075 Y64.567
X18.679 Y61.441
X17.662 Y58.432
X16.878 Y55.107
X16.44 Y51.965
X16.283 Y48.544
X16.46 Y45.113
X16.965 Y41.724
X17.797 Y38.397
X18.95 Y35.167
X20.294 Y32.292
X22.031 Y29.338
X23.894 Y26.76
X26.151 Y24.185
X28.653 Y21.838
X31.162 Y19.894
X34.038 Y18.076
X37.078 Y16.55
X40.255 Y15.331
X43.535 Y14.431
X45.006 Y14.138
Z-2.828
G0 Z5.
X56.946 Y14.128
Z1.701
G1 Z-2.828 F200.
X56.949 Z-2.928
X60.264 Y14.88
X63.492 Y15.956
X66.597 Y17.345
X69.55 Y19.034
X72.213 Y20.92
X74.802 Y23.153
X77.168 Y25.634
X79.278 Y28.331
X81.115 Y31.219
X82.558 Y34.04
X83.752 Y37.014
X84.721 Y40.295
X85.366 Y43.647
X85.686 Y47.052
X85.676 Y50.494
X85.335 Y53.908
X84.665 Y57.278
X83.756 Y60.32
X82.563 Y63.296
X80.991 Y66.346
X79.145 Y69.204
X77.006 Y71.901
X74.621 Y74.368
X72.008 Y76.59
X69.198 Y78.54
X66.226 Y80.194
X63.104 Y81.548
X59.864 Y82.586
X56.538 Y83.3
X55.501 Y83.453
Z-2.828
G0 Z5.
X46.459 Y83.455
Z1.217
G1 Z-2.828 F200.
X46.45 Y83.454 Z-2.928
X43.112 Y82.845
X39.842 Y81.908
X36.679 Y80.654
X33.656 Y79.094
X30.888 Y77.308
X28.204 Y75.181
X25.734 Y72.797
X23.666 Y70.386
X21.687 Y67.586
X19.993 Y64.613
X18.593 Y61.479
X17.574 Y58.466
X16.786 Y55.132
X16.347 Y51.977
X16.19 Y48.546
X16.367 Y45.106
X16.872 Y41.709
X17.706 Y38.372
X18.862 Y35.134
X20.208 Y32.254
X21.949 Y29.292
X23.819 Y26.702
X26.082 Y24.12
X28.59 Y21.767
X31.104 Y19.819
X33.979 Y18.
X37.018 Y16.473
X40.194 Y15.251
X43.473 Y14.347
X45.215 Y14.005
Z-2.828
G0 Z5.
X56.701 Y13.99
Z1.701
G1 Z-2.815 F200.
X56.702 Z-2.828
X56.708 Y13.991 Z-2.928
X60.032 Y14.717
X63.268 Y15.768
X66.384 Y17.132
X69.352 Y18.796
X71.883 Y20.546
X74.51 Y22.749
X76.916 Y25.204
X79.07 Y27.878
X80.952 Y30.748
X82.436 Y33.553
X83.677 Y36.523
X84.694 Y39.799
X85.387 Y43.15
