(1001)
(T1  D=0.396 CR=0. - ZMIN=-0.781 - FLAT END MILL)
G0 G90 G94 G17
G21
G53 G0 Z0.

(RAMP5)
M5
M9
T1
S12000 M3
G4 P4.
G55
G0 X26.54 Y31.064
Z15.
Z1.935
G1 Z-0.005 F40.
X26.537 Y31.059 Z-0.024
X26.53 Y31.047 Z-0.039
X26.521 Y31.03 Z-0.044
X26.402 Y30.813 Z-0.053
X26.393 Y30.794 Z-0.054
X26.386 Y30.776
X26.381 Y30.757 Z-0.055
X26.377 Y30.739 Z-0.056
X26.376 Y30.72
Y30.702 Z-0.057
X26.378 Y30.683 Z-0.058
X26.382 Y30.664
X26.388 Y30.646 Z-0.059
X26.396 Y30.627 Z-0.06
X26.407 Y30.609
X26.42 Y30.59 Z-0.061
X26.448 Y30.553 Z-0.063
X26.474 Y30.518 Z-0.064
X26.493 Y30.499 Z-0.065
X26.494 Y30.498
X26.474 Y30.518
X26.448 Y30.553
X26.42 Y30.59
X26.407 Y30.609
X26.396 Y30.627
X26.388 Y30.646
X26.382 Y30.664
X26.378 Y30.683 Z-0.066
X26.376 Y30.702
Y30.72
X26.377 Y30.739
X26.381 Y30.757
X26.386 Y30.776
X26.393 Y30.794
X26.402 Y30.813
X27.726 Y33.225 Z-0.067
X27.802 Y33.374
X27.906 Y33.597 Z-0.068
X27.913 Y33.615
X27.91 Y33.671
X27.909 Y33.687
X27.845 Y33.819
X27.828 Y33.856
X27.821 Y33.875
X27.817 Y33.893
X27.814 Y33.912
Y33.931
X27.815 Y33.949
X27.817 Y33.968
X27.822 Y33.988
X27.83 Y34.008
X27.84 Y34.028
X27.853 Y34.048
X27.869 Y34.067
X27.891 Y34.087
X27.93 Y34.116
X27.966 Y34.143
X27.984 Y34.154
X28.001 Y34.163
X28.02 Y34.17
X28.039 Y34.175
X28.057 Y34.178
X28.076 Y34.179
X28.094 Y34.178
X28.113 Y34.176
X28.132 Y34.172
X28.15 Y34.166
X28.169 Y34.158
X28.187 Y34.147
X28.206 Y34.134
X28.224 Y34.116
X28.244 Y34.092
X28.903 Y33.225 Z-0.069
X29.016 Y33.077
X29.025 Y33.062
X29.032 Y33.047
X29.038 Y33.033
X29.043 Y33.018
X29.047 Y32.996
X29.049 Y32.973
X29.048 Y32.951
X29.045 Y32.928
X29.043 Y32.917
X29.037 Y32.899
X29.03 Y32.882
X29.021 Y32.865
X29.009 Y32.848
X28.993 Y32.829
X28.971 Y32.81
X28.933 Y32.78
X28.894 Y32.75
X28.875 Y32.739
X28.857 Y32.731
X28.838 Y32.724
X28.819 Y32.72
X28.801 Y32.717
X28.782
X28.764 Y32.718
X28.745 Y32.72
X28.732 Y32.723
X28.718 Y32.728
X28.704 Y32.733
X28.691 Y32.739
X28.677 Y32.747
X28.664 Y32.757
X28.637 Y32.78
X28.524 Y32.882
X28.511 Y32.869
X28.352 Y32.632 Z-0.07
X28.299 Y32.541
X27.647 Y31.36
X27.663 Y31.34
X28.894 Y31.682 Z-0.071
X29.043 Y31.728
X29.293 Y31.821
X29.307 Y31.836 Z-0.072
X29.255 Y31.963
X29.24 Y32.001
X29.235 Y32.019
X29.231 Y32.038
X29.229 Y32.056
X29.228 Y32.075
X29.23 Y32.093
X29.233 Y32.112
X29.238 Y32.13
X29.245 Y32.149
X29.254 Y32.168
X29.267 Y32.186
X29.282 Y32.205
X29.303 Y32.224
X29.34 Y32.253
X29.377 Y32.282
X29.396 Y32.294
X29.414 Y32.303
X29.433 Y32.31
X29.452 Y32.315
X29.47 Y32.318
X29.489 Y32.32
X29.507 Y32.319
X29.526 Y32.317
X29.544 Y32.313
X29.563 Y32.307
X29.582 Y32.299
X29.6 Y32.288
X29.619 Y32.275
X29.637 Y32.257
X29.652 Y32.239
X30.232 Y31.476 Z-0.073
X30.243 Y31.46
X30.252 Y31.444
X30.257 Y31.431
X30.262 Y31.419
X30.266 Y31.406
X30.268 Y31.393
X30.27 Y31.381
X30.271 Y31.368
X30.294 Y31.346
X30.316 Y31.343
X30.333 Y31.339
X30.349 Y31.334
X30.365 Y31.327
X30.381 Y31.318
X30.396 Y31.308
X30.412 Y31.295
X30.428 Y31.279
X32.017 Y29.538 Z-0.074
X32.039 Y29.514
X32.053 Y29.495
X32.064 Y29.477
X32.072 Y29.458
X32.078 Y29.44
X32.082 Y29.421
X32.085 Y29.403
Y29.384
X32.084 Y29.365
X32.082 Y29.349
X32.078 Y29.333
X32.073 Y29.317
X32.066 Y29.3
X32.057 Y29.284
X32.046 Y29.268
X32.032 Y29.252
X31.571 Y28.766 Z-0.075
X31.552 Y28.747
X31.534 Y28.732
X31.515 Y28.72
X31.497 Y28.71
X31.478 Y28.703
X31.459 Y28.698
X31.441 Y28.695
X31.422 Y28.694
X31.404
X31.385 Y28.696
X31.366 Y28.7
X31.348 Y28.706
X31.329 Y28.714
X31.311 Y28.725
X31.292 Y28.738
X31.273 Y28.755
X31.205 Y28.83
X31.192 Y28.816
X31.181 Y28.801
X31.168 Y28.786
X31.125 Y28.746
X30.366 Y28.041 Z-0.076
X30.351 Y28.029
X30.336 Y28.019
X30.321 Y28.011
X30.306 Y28.005
X30.292 Y28.
X30.277 Y27.996
X30.262 Y27.993
X30.247 Y27.992
X30.232 Y27.991
X30.218 Y27.992
X30.204 Y27.994
X30.189 Y27.997
X30.175 Y28.
X30.161 Y28.006
X30.147 Y28.012
X30.132 Y28.02
X30.118 Y28.029
X30.101 Y28.043
X30.084 Y28.061
X30.031 Y28.119
X30.019 Y28.134
X30.009 Y28.149
X30.001 Y28.163
X29.995 Y28.178
X29.988 Y28.196
X29.984 Y28.215
X29.981 Y28.233
X29.98 Y28.252
X29.981 Y28.271
X29.983 Y28.289
X29.988 Y28.308
X29.994 Y28.326
X30.002 Y28.343
X30.011 Y28.359
X30.035 Y28.392
X30.136 Y28.53
X30.144 Y28.549
X30.148 Y28.567
X30.15 Y28.586
X29.993 Y28.838 Z-0.077
X29.98 Y28.855
X29.731 Y29.128
X29.712 Y29.145
X29.043 Y28.524
X29.019 Y28.5
X29.014 Y28.475
X29.043 Y28.439
X29.146 Y28.326 Z-0.078
X29.453 Y27.99
X29.471 Y27.973
X29.623 Y27.846
X29.637 Y27.839
X29.768 Y27.795
X29.786 Y27.796
X30.232 Y27.845
X30.307 Y27.853
X30.325
X30.344 Y27.851
X30.362 Y27.848
X30.381 Y27.842
X30.398 Y27.835
X30.414 Y27.827
X30.431 Y27.816
X30.447 Y27.803
X30.465 Y27.785
X30.514 Y27.732
X30.53 Y27.714 Z-0.079
X30.542 Y27.698
X30.551 Y27.682
X30.559 Y27.665
X30.565 Y27.649
X30.569 Y27.633
X30.572 Y27.616
X30.573 Y27.6
Y27.584
X30.572 Y27.569
X30.57 Y27.554
X30.567 Y27.54
X30.563 Y27.525
X30.557 Y27.51
X30.549 Y27.495
X30.541 Y27.48
X30.53 Y27.466
X30.515 Y27.449
X30.5 Y27.435
X30.485 Y27.425
X30.47 Y27.416
X30.44 Y27.402
X29.712 Y27.075
X29.693 Y27.067
X29.675 Y27.062
X29.656 Y27.058
X29.637 Y27.056
X29.619
X29.6 Y27.058
X29.582 Y27.061
X29.563 Y27.067
X29.544 Y27.074
X29.526 Y27.084
X29.507 Y27.096
X29.489 Y27.112
X29.464 Y27.138
X27.974 Y28.772 Z-0.081
X27.853 Y28.904
X27.841 Y28.92
X27.829 Y28.939
X27.821 Y28.957
X27.814 Y28.976
X27.809 Y28.994
X27.807 Y29.013
X27.806 Y29.031
Y29.05
X27.809 Y29.068
X27.815 Y29.092
X27.823 Y29.115
X27.836 Y29.138
X27.853 Y29.161
X27.867 Y29.176
X27.933 Y29.238
X27.956 Y29.256
X27.979 Y29.269
X28.001 Y29.278
X28.02 Y29.283
X28.039 Y29.287
X28.057 Y29.288
X28.076
X28.094 Y29.286
X28.113 Y29.283
X28.132 Y29.277
X28.15 Y29.269
X28.168 Y29.26
X28.185 Y29.248
X28.22 Y29.217
X28.336 Y29.112
X28.355 Y29.097
X28.373 Y29.098
X28.612 Y29.266 Z-0.082
X29.994 Y30.553 Z-0.083
X30.006 Y30.567
X30.177 Y30.776
X30.186 Y30.794
X30.178 Y30.813
X30.061 Y30.969
X30.051 Y30.984
X30.042 Y30.998
X30.034 Y31.014
X30.029 Y31.029
X30.024 Y31.044
X30.021 Y31.06
X30.019 Y31.085
X29.998 Y31.107
X29.978 Y31.109
X29.956 Y31.114
X29.935 Y31.121
X29.912 Y31.132
X29.889 Y31.147
X29.786 Y31.22
X29.768 Y31.232
X29.693 Y31.247
X29.675 Y31.249
X29.359 Y31.194 Z-0.084
X26.812 Y30.494 Z-0.085
X26.663 Y30.454
X26.644 Y30.451
X26.626 Y30.45
X26.607 Y30.451
X26.589 Y30.453
X26.57 Y30.457
X26.551 Y30.464
X26.533 Y30.472
X26.514 Y30.483
X26.494 Y30.498
X26.474 Y30.518
X26.448 Y30.553
X26.42 Y30.59
X26.407 Y30.609
X26.396 Y30.627
X26.388 Y30.646
X26.382 Y30.664
X26.378 Y30.683
X26.376 Y30.702
Y30.72
X26.377 Y30.739
X26.381 Y30.757
X26.386 Y30.776
X26.393 Y30.794
X26.402 Y30.813
X27.726 Y33.225
X27.802 Y33.374
X27.906 Y33.597
X27.913 Y33.615
X27.91 Y33.671
X27.909 Y33.687
X27.845 Y33.819
X27.828 Y33.856
X27.821 Y33.875
X27.817 Y33.893
X27.814 Y33.912
Y33.931
X27.815 Y33.949
X27.817 Y33.968
X27.822 Y33.988
X27.83 Y34.008
X27.84 Y34.028
X27.853 Y34.048
X27.869 Y34.067
X27.891 Y34.087
X27.93 Y34.116
X27.966 Y34.143
X27.984 Y34.154
X28.001 Y34.163
X28.02 Y34.17
X28.039 Y34.175
X28.057 Y34.178
X28.076 Y34.179
X28.094 Y34.178
X28.113 Y34.176
X28.132 Y34.172
X28.15 Y34.166
X28.169 Y34.158
X28.187 Y34.147
X28.206 Y34.134
X28.224 Y34.116
X28.244 Y34.092
X28.903 Y33.225
X29.016 Y33.077
X29.025 Y33.062
X29.032 Y33.047
X29.038 Y33.033
X29.043 Y33.018
X29.047 Y32.996
X29.049 Y32.973
X29.048 Y32.951
X29.045 Y32.928
X29.043 Y32.917
X29.037 Y32.899
X29.03 Y32.882
X29.021 Y32.865
X29.009 Y32.848
X28.993 Y32.829
X28.971 Y32.81
X28.933 Y32.78
X28.894 Y32.75
X28.875 Y32.739
X28.857 Y32.731
X28.838 Y32.724
X28.819 Y32.72
X28.801 Y32.717
X28.782
X28.764 Y32.718
X28.745 Y32.72
X28.732 Y32.723
X28.718 Y32.728
X28.704 Y32.733
X28.691 Y32.739
X28.677 Y32.747
X28.664 Y32.757
X28.637 Y32.78
X28.524 Y32.882
X28.511 Y32.869
X28.352 Y32.632
X28.299 Y32.541
X27.647 Y31.36
X27.663 Y31.34
X28.894 Y31.682
X29.043 Y31.728
X29.293 Y31.821
X29.307 Y31.836
X29.255 Y31.963
X29.24 Y32.001
X29.235 Y32.019
X29.231 Y32.038
X29.229 Y32.056
X29.228 Y32.075
X29.23 Y32.093
X29.233 Y32.112
X29.238 Y32.13
X29.245 Y32.149
X29.254 Y32.168
X29.267 Y32.186
X29.282 Y32.205
X29.303 Y32.224
X29.34 Y32.253
X29.377 Y32.282
X29.396 Y32.294
X29.414 Y32.303
X29.433 Y32.31
X29.452 Y32.315
X29.47 Y32.318
X29.489 Y32.32
X29.507 Y32.319
X29.526 Y32.317
X29.544 Y32.313
X29.563 Y32.307
X29.582 Y32.299
X29.6 Y32.288
X29.619 Y32.275
X29.637 Y32.257
X29.652 Y32.239
X30.232 Y31.476
X30.243 Y31.46
X30.252 Y31.444
X30.257 Y31.431
X30.262 Y31.419
X30.266 Y31.406
X30.268 Y31.393
X30.27 Y31.381
X30.271 Y31.368
X30.294 Y31.346
X30.316 Y31.343
X30.333 Y31.339
X30.349 Y31.334
X30.365 Y31.327
X30.381 Y31.318
X30.396 Y31.308
X30.412 Y31.295
X30.428 Y31.279
X32.017 Y29.538
X32.039 Y29.514
X32.053 Y29.495
X32.064 Y29.477
X32.072 Y29.458
X32.078 Y29.44
X32.082 Y29.421
X32.085 Y29.403
Y29.384
X32.084 Y29.365
X32.082 Y29.349
X32.078 Y29.333
X32.073 Y29.317
X32.066 Y29.3
X32.057 Y29.284
X32.046 Y29.268
X32.032 Y29.252
X31.571 Y28.766
X31.552 Y28.747
X31.534 Y28.732
X31.515 Y28.72
X31.497 Y28.71
X31.478 Y28.703
X31.459 Y28.698
X31.441 Y28.695
X31.422 Y28.694
X31.404
X31.385 Y28.696
X31.366 Y28.7
X31.348 Y28.706
X31.329 Y28.714
X31.311 Y28.725
X31.292 Y28.738
X31.273 Y28.755
X31.205 Y28.83
X31.192 Y28.816
X31.181 Y28.801
X31.168 Y28.786
X31.125 Y28.746
X30.366 Y28.041
X30.351 Y28.029
X30.336 Y28.019
X30.321 Y28.011
X30.306 Y28.005
X30.292 Y28.
X30.277 Y27.996
X30.262 Y27.993
X30.247 Y27.992
X30.232 Y27.991
X30.218 Y27.992
X30.204 Y27.994
X30.189 Y27.997
X30.175 Y28.
X30.161 Y28.006
X30.147 Y28.012
X30.132 Y28.02
X30.118 Y28.029
X30.101 Y28.043
X30.084 Y28.061
X30.031 Y28.119
X30.019 Y28.134
X30.009 Y28.149
X30.001 Y28.163
X29.995 Y28.178
X29.988 Y28.196
X29.984 Y28.215
X29.981 Y28.233
X29.98 Y28.252
X29.981 Y28.271
X29.983 Y28.289
X29.988 Y28.308
X29.994 Y28.326
X30.002 Y28.343
X30.011 Y28.359
X30.035 Y28.392
X30.136 Y28.53
X30.144 Y28.549
X30.148 Y28.567
X30.15 Y28.586
X29.993 Y28.838
X29.98 Y28.855
X29.731 Y29.128
X29.712 Y29.145
X29.043 Y28.524
X29.019 Y28.5
X29.014 Y28.475
X29.043 Y28.439
X29.146 Y28.326
X29.453 Y27.99
X29.471 Y27.973
X29.623 Y27.846
X29.637 Y27.839
X29.768 Y27.795
X29.786 Y27.796
X30.232 Y27.845
X30.307 Y27.853
X30.325
X30.344 Y27.851
X30.362 Y27.848
X30.381 Y27.842
X30.398 Y27.835
X30.414 Y27.827
X30.431 Y27.816
X30.447 Y27.803
X30.465 Y27.785
X30.514 Y27.732
X30.53 Y27.714
X30.542 Y27.698
X30.551 Y27.682
X30.559 Y27.665
X30.565 Y27.649
X30.569 Y27.633
X30.572 Y27.616
X30.573 Y27.6
Y27.584
X30.572 Y27.569
X30.57 Y27.554
X30.567 Y27.54
X30.563 Y27.525
X30.557 Y27.51
X30.549 Y27.495
X30.541 Y27.48
X30.53 Y27.466
X30.515 Y27.449
X30.5 Y27.435
X30.485 Y27.425
X30.47 Y27.416
X30.44 Y27.402
X29.712 Y27.075
X29.693 Y27.067
X29.675 Y27.062
X29.656 Y27.058
X29.637 Y27.056
X29.619
X29.6 Y27.058
X29.582 Y27.061
X29.563 Y27.067
X29.544 Y27.074
X29.526 Y27.084
X29.507 Y27.096
X29.489 Y27.112
X29.464 Y27.138
X27.974 Y28.772
X27.853 Y28.904
X27.841 Y28.92
X27.829 Y28.939
X27.821 Y28.957
X27.814 Y28.976
X27.809 Y28.994
X27.807 Y29.013
X27.806 Y29.031
Y29.05
X27.809 Y29.068
X27.815 Y29.092
X27.823 Y29.115
X27.836 Y29.138
X27.853 Y29.161
X27.867 Y29.176
X27.933 Y29.238
X27.956 Y29.256
X27.979 Y29.269
X28.001 Y29.278
X28.02 Y29.283
X28.039 Y29.287
X28.057 Y29.288
X28.076
X28.094 Y29.286
X28.113 Y29.283
X28.132 Y29.277
X28.15 Y29.269
X28.168 Y29.26
X28.185 Y29.248
X28.22 Y29.217
X28.336 Y29.112
X28.355 Y29.097
X28.373 Y29.098
X28.612 Y29.266
X29.994 Y30.553
X30.006 Y30.567
X30.177 Y30.776
X30.186 Y30.794
X30.178 Y30.813
X30.061 Y30.969
X30.051 Y30.984
X30.042 Y30.998
X30.034 Y31.014
X30.029 Y31.029
X30.024 Y31.044
X30.021 Y31.06
X30.019 Y31.085
X29.998 Y31.107
X29.978 Y31.109
X29.956 Y31.114
X29.935 Y31.121
X29.912 Y31.132
X29.889 Y31.147
X29.786 Y31.22
X29.768 Y31.232
X29.693 Y31.247
X29.675 Y31.249
X29.359 Y31.194
X26.812 Y30.494
X26.663 Y30.454
X26.644 Y30.451
X26.626 Y30.45
X26.607 Y30.451
X26.589 Y30.453
X26.57 Y30.457
X26.551 Y30.464
X26.533 Y30.472
X26.514 Y30.483
X26.494 Y30.498
X26.479 Y30.51 Z-0.08
X26.467 Y30.519 Z-0.066
X26.463 Y30.522 Z-0.046
G0 Z5.
X30.628 Y26.858
Z1.935
G1 Z-0.005 F40.
X30.624 Y26.855 Z-0.024
X30.614 Y26.846 Z-0.039
X30.599 Y26.833 Z-0.044
X30.53 Y26.775 Z-0.047
X30.516 Y26.772 Z-0.048
X30.502 Y26.779 Z-0.049
X30.344 Y26.899 Z-0.055
X30.325 Y26.911 Z-0.056
X30.307 Y26.921 Z-0.057
X30.288 Y26.928 Z-0.058
X30.27 Y26.933
X30.251 Y26.937 Z-0.059
X30.232 Y26.938 Z-0.06
X30.214
X30.195 Y26.936 Z-0.061
X30.177 Y26.932 Z-0.062
X30.158 Y26.927
X30.139 Y26.919 Z-0.063
X30.121 Y26.909 Z-0.064
X30.102 Y26.896 Z-0.065
X30.085 Y26.88
X30.084 Y26.879
X30.102 Y26.896
X30.121 Y26.909
X30.139 Y26.919
X30.158 Y26.927
X30.177 Y26.932 Z-0.066
X30.195 Y26.936
X30.214 Y26.938
X30.232
X30.251 Y26.937
X30.27 Y26.933
X30.288 Y26.928
X30.307 Y26.921
X30.325 Y26.911
X30.344 Y26.899
X30.502 Y26.779
X30.516 Y26.772
X30.53 Y26.775
X30.752 Y26.963
X30.765 Y26.977
X32.017 Y28.364 Z-0.069
X32.027 Y28.378
X32.18 Y28.602
X32.191 Y28.623
X32.182 Y28.642
X32.066 Y28.772
X32.037 Y28.805
X32.026 Y28.821
X32.017 Y28.838
X32.009 Y28.858
X32.003 Y28.879
X31.999 Y28.9
X31.998 Y28.92
Y28.942
X32.002 Y28.965
X32.008 Y28.987
X32.017 Y29.009
X32.025 Y29.024
X32.035 Y29.039 Z-0.07
X32.046 Y29.054
X32.059 Y29.068
X32.113 Y29.127
X32.126 Y29.139
X32.139 Y29.149
X32.152 Y29.157
X32.166 Y29.164
X32.184 Y29.172
X32.203 Y29.177
X32.222 Y29.181
X32.24 Y29.183
X32.259
X32.277 Y29.181
X32.296 Y29.178
X32.314 Y29.173
X32.332 Y29.166
X32.349 Y29.157
X32.366 Y29.146
X32.384 Y29.132
X33.356 Y28.239 Z-0.072
X33.388 Y28.208
X33.402 Y28.193
X33.414 Y28.178
X33.74 Y27.769
X33.753 Y27.75
X33.764 Y27.732
X33.772 Y27.718
X33.778 Y27.704
X33.783 Y27.69
X33.787 Y27.676
X33.878 Y27.324 Z-0.073
X33.883 Y27.306
X33.886 Y27.287
X33.889 Y27.268
Y27.25
X33.888 Y27.231
X33.886 Y27.213
X33.871 Y27.138
X33.826 Y26.922
X33.822 Y26.905
X33.817 Y26.888
X33.81 Y26.871
X33.802 Y26.854
X33.794 Y26.842
X33.699 Y26.693 Z-0.074
X33.653 Y26.623
X33.642 Y26.61
X33.63 Y26.598
X33.606 Y26.579
X33.504 Y26.504
X33.355 Y26.396
X33.337 Y26.386
X33.318 Y26.377
X33.3 Y26.371
X33.281 Y26.367
X33.021 Y26.314 Z-0.075
X33.002 Y26.311
X32.984 Y26.308
X32.965
X32.947 Y26.309
X32.928 Y26.312
X32.909 Y26.317
X32.59 Y26.414
X32.569 Y26.396
X32.482 Y25.654 Z-0.076
X32.475 Y25.505
X32.463 Y25.168 Z-0.077
Y25.159
X32.662 Y24.763
X32.681 Y24.726
X32.687 Y24.707
X32.692 Y24.689
X32.695 Y24.67
X32.696 Y24.652
Y24.633
X32.693 Y24.615
X32.69 Y24.6
X32.685 Y24.585
X32.68 Y24.57
X32.672 Y24.555
X32.662 Y24.537
X32.648 Y24.52
X32.6 Y24.466 Z-0.078
X32.583 Y24.448
X32.566 Y24.432
X32.549 Y24.42
X32.532 Y24.41
X32.515 Y24.403
X32.497 Y24.397
X32.48 Y24.393
X32.463 Y24.39
X32.445 Y24.389
X32.426 Y24.39
X32.407 Y24.393
X32.389 Y24.397
X32.37 Y24.403
X32.352 Y24.412
X32.333 Y24.423
X32.314 Y24.437
X32.282 Y24.466
X31.699 Y25. Z-0.079
X31.679 Y25.021
X31.665 Y25.04
X31.653 Y25.06
X31.645 Y25.079
X31.639 Y25.097
X31.635 Y25.116
X31.633 Y25.134
X31.632 Y25.153
X31.634 Y25.171
X31.815 Y26.842 Z-0.081
X31.794 Y26.865
X31.384 Y26.41 Z-0.082
X31.372 Y26.396
X31.207 Y26.155
X31.206 Y26.136
X31.219 Y26.118
X31.346 Y25.978 Z-0.083
X31.357 Y25.964
X31.366 Y25.951
X31.377 Y25.932
X31.385 Y25.914
X31.391 Y25.895
X31.395 Y25.877
X31.398 Y25.858
Y25.839
X31.397 Y25.821
X31.394 Y25.802
X31.389 Y25.784
X31.382 Y25.765
X31.373 Y25.747
X31.361 Y25.728
X31.346 Y25.71
X31.295 Y25.654
X31.273 Y25.632
X31.255 Y25.618
X31.236 Y25.607
X31.218 Y25.598
X31.199 Y25.592
X31.18 Y25.587
X31.162 Y25.584
X31.143
X31.125 Y25.585
X31.108 Y25.587
X31.091 Y25.591
X31.074 Y25.596
X31.057 Y25.603
X31.04 Y25.613
X31.024 Y25.624
X31.007 Y25.638
X30.036 Y26.529 Z-0.085
X30.02 Y26.545
X30.006 Y26.563
X29.994 Y26.582
X29.986 Y26.6
X29.979 Y26.619
X29.974 Y26.637
X29.972 Y26.656
X29.97 Y26.675
X29.971 Y26.693
X29.974 Y26.712
X29.978 Y26.73
X29.984 Y26.749
X29.993 Y26.767
X30.004 Y26.786
X30.018 Y26.804
X30.05 Y26.842
X30.084 Y26.879
X30.102 Y26.896
X30.121 Y26.909
X30.139 Y26.919
X30.158 Y26.927
X30.177 Y26.932
X30.195 Y26.936
X30.214 Y26.938
X30.232
X30.251 Y26.937
X30.27 Y26.933
X30.288 Y26.928
X30.307 Y26.921
X30.325 Y26.911
X30.344 Y26.899
X30.502 Y26.779
X30.516 Y26.772
X30.53 Y26.775
X30.752 Y26.963
X30.765 Y26.977
X32.017 Y28.364
X32.027 Y28.378
X32.18 Y28.602
X32.191 Y28.623
X32.182 Y28.642
X32.066 Y28.772
X32.037 Y28.805
X32.026 Y28.821
X32.017 Y28.838
X32.009 Y28.858
X32.003 Y28.879
X31.999 Y28.9
X31.998 Y28.92
Y28.942
X32.002 Y28.965
X32.008 Y28.987
X32.017 Y29.009
X32.025 Y29.024
X32.035 Y29.039
X32.046 Y29.054
X32.059 Y29.068
X32.113 Y29.127
X32.126 Y29.139
X32.139 Y29.149
X32.152 Y29.157
X32.166 Y29.164
X32.184 Y29.172
X32.203 Y29.177
X32.222 Y29.181
X32.24 Y29.183
X32.259
X32.277 Y29.181
X32.296 Y29.178
X32.314 Y29.173
X32.332 Y29.166
X32.349 Y29.157
X32.366 Y29.146
X32.384 Y29.132
X33.356 Y28.239
X33.388 Y28.208
X33.402 Y28.193
X33.414 Y28.178
X33.74 Y27.769
X33.753 Y27.75
X33.764 Y27.732
X33.772 Y27.718
X33.778 Y27.704
X33.783 Y27.69
X33.787 Y27.676
X33.878 Y27.324
X33.883 Y27.306
X33.886 Y27.287
X33.889 Y27.268
Y27.25
X33.888 Y27.231
X33.886 Y27.213
X33.871 Y27.138
X33.826 Y26.922
X33.822 Y26.905
X33.817 Y26.888
X33.81 Y26.871
X33.802 Y26.854
X33.794 Y26.842
X33.699 Y26.693
X33.653 Y26.623
X33.642 Y26.61
X33.63 Y26.598
X33.606 Y26.579
X33.504 Y26.504
X33.355 Y26.396
X33.337 Y26.386
X33.318 Y26.377
X33.3 Y26.371
X33.281 Y26.367
X33.021 Y26.314
X33.002 Y26.311
X32.984 Y26.308
X32.965
X32.947 Y26.309
X32.928 Y26.312
X32.909 Y26.317
X32.59 Y26.414
X32.569 Y26.396
X32.482 Y25.654
X32.475 Y25.505
X32.463 Y25.168
Y25.159
X32.662 Y24.763
X32.681 Y24.726
X32.687 Y24.707
X32.692 Y24.689
X32.695 Y24.67
X32.696 Y24.652
Y24.633
X32.693 Y24.615
X32.69 Y24.6
X32.685 Y24.585
X32.68 Y24.57
X32.672 Y24.555
X32.662 Y24.537
X32.648 Y24.52
X32.6 Y24.466
X32.583 Y24.448
X32.566 Y24.432
X32.549 Y24.42
X32.532 Y24.41
X32.515 Y24.403
X32.497 Y24.397
X32.48 Y24.393
X32.463 Y24.39
X32.445 Y24.389
X32.426 Y24.39
X32.407 Y24.393
X32.389 Y24.397
X32.37 Y24.403
X32.352 Y24.412
X32.333 Y24.423
X32.314 Y24.437
X32.282 Y24.466
X31.699 Y25.
X31.679 Y25.021
X31.665 Y25.04
X31.653 Y25.06
X31.645 Y25.079
X31.639 Y25.097
X31.635 Y25.116
X31.633 Y25.134
X31.632 Y25.153
X31.634 Y25.171
X31.815 Y26.842
X31.794 Y26.865
X31.384 Y26.41
X31.372 Y26.396
X31.207 Y26.155
X31.206 Y26.136
X31.219 Y26.118
X31.346 Y25.978
X31.357 Y25.964
X31.366 Y25.951
X31.377 Y25.932
X31.385 Y25.914
X31.391 Y25.895
X31.395 Y25.877
X31.398 Y25.858
Y25.839
X31.397 Y25.821
X31.394 Y25.802
X31.389 Y25.784
X31.382 Y25.765
X31.373 Y25.747
X31.361 Y25.728
X31.346 Y25.71
X31.295 Y25.654
X31.273 Y25.632
X31.255 Y25.618
X31.236 Y25.607
X31.218 Y25.598
X31.199 Y25.592
X31.18 Y25.587
X31.162 Y25.584
X31.143
X31.125 Y25.585
X31.108 Y25.587
X31.091 Y25.591
X31.074 Y25.596
X31.057 Y25.603
X31.04 Y25.613
X31.024 Y25.624
X31.007 Y25.638
X30.052 Y26.514
X30.036 Y26.529
X30.02 Y26.545
X30.006 Y26.563
X29.994 Y26.582
X29.986 Y26.6
X29.979 Y26.619
X29.974 Y26.637
X29.972 Y26.656
X29.97 Y26.675
X29.971 Y26.693
X29.974 Y26.712
X29.978 Y26.73
X29.984 Y26.749
X29.993 Y26.767
X30.004 Y26.786
X30.018 Y26.804
X30.05 Y26.842
X30.084 Y26.879
X30.097 Y26.894 Z-0.08
X30.106 Y26.905 Z-0.066
X30.11 Y26.909 Z-0.046
G0 Z5.
X33.273 Y24.52
Z1.935
G1 Z-0.005 F40.
X33.269 Y24.516 Z-0.024
X33.259 Y24.506 Z-0.039
X33.245 Y24.493 Z-0.044
X33.181 Y24.429 Z-0.047
X33.168 Y24.427 Z-0.048
X33.155 Y24.433
X33.104 Y24.466 Z-0.051
X32.984 Y24.543 Z-0.056
X32.965 Y24.552
X32.947 Y24.56 Z-0.057
X32.928 Y24.565 Z-0.058
X32.909 Y24.569
X32.891 Y24.57 Z-0.059
X32.872 Z-0.06
X32.854 Y24.568
X32.835 Y24.565 Z-0.061
X32.816 Y24.559 Z-0.062
X32.798 Y24.551
X32.779 Y24.541 Z-0.063
X32.761 Y24.529 Z-0.064
X32.751 Y24.52
X32.73 Y24.498 Z-0.065
X32.729 Y24.497
X32.751 Y24.52
X32.761 Y24.529
X32.779 Y24.541
X32.798 Y24.551 Z-0.066
X32.816 Y24.559
X32.835 Y24.565
X32.854 Y24.568
X32.872 Y24.57
X32.891
X32.909 Y24.569
X32.928 Y24.565
X32.947 Y24.56
X32.965 Y24.552
X32.984 Y24.543
X33.104 Y24.466
X33.155 Y24.433
X33.168 Y24.427
X33.181 Y24.429
X33.387 Y24.633 Z-0.067
X33.403 Y24.652
X34.53 Y26.119 Z-0.07
X34.545 Y26.14
X34.694 Y26.4 Z-0.071
Y26.406
X34.685 Y26.423
X34.545 Y26.556
X34.528 Y26.573
X34.514 Y26.59
X34.503 Y26.607
X34.494 Y26.624
X34.487 Y26.642
X34.482 Y26.659
X34.478 Y26.676
X34.476 Y26.693
Y26.712
X34.477 Y26.73
X34.48 Y26.749
X34.485 Y26.767
X34.492 Y26.786 Z-0.072
X34.501 Y26.804
X34.513 Y26.823
X34.545 Y26.865
X34.575 Y26.903
X34.597 Y26.925
X34.62 Y26.941
X34.638 Y26.952
X34.657 Y26.96
X34.676 Y26.965
X34.694 Y26.969
X34.713 Y26.971
X34.731 Y26.972
X34.75 Y26.97
X34.768 Y26.967
X34.787 Y26.962
X34.806 Y26.955
X34.824 Y26.945
X34.843 Y26.933
X35.15 Y26.693 Z-0.073
X35.884 Y26.119 Z-0.075
X35.908 Y26.099
X35.924 Y26.081
X35.937 Y26.062
X35.947 Y26.044
X35.955 Y26.025
X35.96 Y26.006
X35.964 Y25.988
X35.966 Y25.969
Y25.951
X35.965 Y25.935
X35.962 Y25.919
X35.958 Y25.902
X35.952 Y25.886
X35.945 Y25.869
X35.935 Y25.851
X35.898 Y25.802
X35.884 Y25.784
X35.865 Y25.761
X35.84 Y25.737
X35.825 Y25.726
X35.81 Y25.717 Z-0.076
X35.791 Y25.708
X35.772 Y25.702
X35.754 Y25.697
X35.735 Y25.695
X35.717 Y25.694
X35.698 Y25.695
X35.679 Y25.697
X35.661 Y25.702
X35.642 Y25.708
X35.624 Y25.717
X35.586 Y25.74
X35.438 Y25.834
X35.425 Y25.837
X35.412 Y25.828
X35.206 Y25.625 Z-0.077
X35.195 Y25.611
X34.058 Y24.132 Z-0.08
X34.046 Y24.114
X33.909 Y23.872 Z-0.081
X33.905 Y23.856
X33.915 Y23.839
X34.055 Y23.706
X34.074 Y23.687
X34.088 Y23.669
X34.099 Y23.65
X34.108 Y23.631
X34.114 Y23.613
X34.119 Y23.594
X34.121 Y23.575
X34.122 Y23.562
Y23.548
X34.121 Y23.534
X34.119 Y23.52
X34.116 Y23.506
X34.111 Y23.492 Z-0.082
X34.106 Y23.478
X34.099 Y23.465
X34.088 Y23.446
X34.074 Y23.427
X34.029 Y23.369
X34.012 Y23.35
X33.997 Y23.336
X33.981 Y23.324
X33.966 Y23.315
X33.95 Y23.308
X33.932 Y23.301
X33.913 Y23.296
X33.895 Y23.293
X33.876 Y23.291
X33.858 Y23.292
X33.839 Y23.294
X33.82 Y23.298
X33.802 Y23.304
X33.783 Y23.312
X33.765 Y23.323
X33.746 Y23.336
X32.724 Y24.138 Z-0.085
X32.706 Y24.152
X32.687 Y24.169
X32.672 Y24.188
X32.66 Y24.206
X32.65 Y24.225
X32.643 Y24.244
X32.638 Y24.262
X32.635 Y24.281
X32.633 Y24.299
Y24.318
X32.635 Y24.336
X32.639 Y24.355
X32.645 Y24.373
X32.653 Y24.392
X32.663 Y24.411
X32.676 Y24.429
X32.729 Y24.497
X32.751 Y24.52
X32.761 Y24.529
X32.779 Y24.541
X32.798 Y24.551
X32.816 Y24.559
X32.835 Y24.565
X32.854 Y24.568
X32.872 Y24.57
X32.891
X32.909 Y24.569
X32.928 Y24.565
X32.947 Y24.56
X32.965 Y24.552
X32.984 Y24.543
X33.104 Y24.466
X33.155 Y24.433
X33.168 Y24.427
X33.181 Y24.429
X33.387 Y24.633
X33.403 Y24.652
X34.53 Y26.119
X34.545 Y26.14
X34.694 Y26.4
Y26.406
X34.685 Y26.423
X34.545 Y26.556
X34.528 Y26.573
X34.514 Y26.59
X34.503 Y26.607
X34.494 Y26.624
X34.487 Y26.642
X34.482 Y26.659
X34.478 Y26.676
X34.476 Y26.693
Y26.712
X34.477 Y26.73
X34.48 Y26.749
X34.485 Y26.767
X34.492 Y26.786
X34.501 Y26.804
X34.513 Y26.823
X34.545 Y26.865
X34.575 Y26.903
X34.597 Y26.925
X34.62 Y26.941
X34.638 Y26.952
X34.657 Y26.96
X34.676 Y26.965
X34.694 Y26.969
X34.713 Y26.971
X34.731 Y26.972
X34.75 Y26.97
X34.768 Y26.967
X34.787 Y26.962
X34.806 Y26.955
X34.824 Y26.945
X34.843 Y26.933
X35.15 Y26.693
X35.884 Y26.119
X35.908 Y26.099
X35.924 Y26.081
X35.937 Y26.062
X35.947 Y26.044
X35.955 Y26.025
X35.96 Y26.006
X35.964 Y25.988
X35.966 Y25.969
Y25.951
X35.965 Y25.935
X35.962 Y25.919
X35.958 Y25.902
X35.952 Y25.886
X35.945 Y25.869
X35.935 Y25.851
X35.898 Y25.802
X35.884 Y25.784
X35.865 Y25.761
X35.84 Y25.737
X35.825 Y25.726
X35.81 Y25.717
X35.791 Y25.708
X35.772 Y25.702
X35.754 Y25.697
X35.735 Y25.695
X35.717 Y25.694
X35.698 Y25.695
X35.679 Y25.697
X35.661 Y25.702
X35.642 Y25.708
X35.624 Y25.717
X35.586 Y25.74
X35.438 Y25.834
X35.425 Y25.837
X35.412 Y25.828
X35.206 Y25.625
X35.195 Y25.611
X34.058 Y24.132
X34.046 Y24.114
X33.909 Y23.872
X33.905 Y23.856
X33.915 Y23.839
X34.055 Y23.706
X34.074 Y23.687
X34.088 Y23.669
X34.099 Y23.65
X34.108 Y23.631
X34.114 Y23.613
X34.119 Y23.594
X34.121 Y23.575
X34.122 Y23.562
Y23.548
X34.121 Y23.534
X34.119 Y23.52
X34.116 Y23.506
X34.111 Y23.492
X34.106 Y23.478
X34.099 Y23.465
X34.088 Y23.446
X34.074 Y23.427
X34.029 Y23.369
X34.012 Y23.35
X33.997 Y23.336
X33.981 Y23.324
X33.966 Y23.315
X33.95 Y23.308
X33.932 Y23.301
X33.913 Y23.296
X33.895 Y23.293
X33.876 Y23.291
X33.858 Y23.292
X33.839 Y23.294
X33.82 Y23.298
X33.802 Y23.304
X33.783 Y23.312
X33.765 Y23.323
X33.746 Y23.336
X32.724 Y24.138
X32.706 Y24.152
X32.687 Y24.169
X32.672 Y24.188
X32.66 Y24.206
X32.65 Y24.225
X32.643 Y24.244
X32.638 Y24.262
X32.635 Y24.281
X32.633 Y24.299
Y24.318
X32.635 Y24.336
X32.639 Y24.355
X32.645 Y24.373
X32.653 Y24.392
X32.663 Y24.411
X32.676 Y24.429
X32.729 Y24.497
X32.741 Y24.513 Z-0.08
X32.75 Y24.525 Z-0.066
X32.753 Y24.529 Z-0.046
G0 Z5.
X32.148 Y24.589
Z1.935
G1 Z-0.025 F40.
X32.151 Y24.586 Z-0.044
X32.162 Y24.577 Z-0.059
X32.176 Y24.564 Z-0.064
X32.282 Y24.466 Z-0.069
X32.314 Y24.437 Z-0.071
X32.333 Y24.423 Z-0.072
X32.352 Y24.412
X32.37 Y24.403 Z-0.073
X32.389 Y24.397 Z-0.074
X32.407 Y24.393 Z-0.075
X32.426 Y24.39
X32.445 Y24.389 Z-0.076
X32.463 Y24.39
X32.48 Y24.393 Z-0.077
X32.497 Y24.397 Z-0.078
X32.515 Y24.403
X32.532 Y24.41 Z-0.079
X32.549 Y24.42 Z-0.08
X32.566 Y24.432
X32.583 Y24.448 Z-0.081
X32.6 Y24.466 Z-0.082
X32.648 Y24.52 Z-0.085
X32.661 Y24.537
X32.662
Y24.538
Y24.537
X32.648 Y24.52
X32.6 Y24.466
X32.583 Y24.448 Z-0.086
X32.566 Y24.432
X32.549 Y24.42
X32.532 Y24.41
X32.515 Y24.403
X32.497 Y24.397
X32.48 Y24.393
X32.463 Y24.39
X32.445 Y24.389
X32.426 Y24.39
X32.407 Y24.393
X32.389 Y24.397
X32.37 Y24.403
X32.352 Y24.412
X32.333 Y24.423
X32.314 Y24.437
X32.282 Y24.466
X31.699 Y25. Z-0.087
X31.679 Y25.021
X31.665 Y25.04
X31.653 Y25.06
X31.645 Y25.079
X31.639 Y25.097
X31.635 Y25.116
X31.633 Y25.134
X31.632 Y25.153
X31.634 Y25.171
X31.815 Y26.842 Z-0.089
X31.794 Y26.865
X31.384 Y26.41 Z-0.09
X31.372 Y26.396
X31.207 Y26.155
X31.206 Y26.136
X31.219 Y26.118
X31.346 Y25.978
X31.357 Y25.964
X31.366 Y25.951 Z-0.091
X31.377 Y25.932
X31.385 Y25.914
X31.391 Y25.895
X31.395 Y25.877
X31.398 Y25.858
Y25.839
X31.397 Y25.821
X31.394 Y25.802
X31.389 Y25.784
X31.382 Y25.765
X31.373 Y25.747
X31.361 Y25.728
X31.346 Y25.71
X31.295 Y25.654
X31.273 Y25.632
X31.255 Y25.618
X31.236 Y25.607
X31.218 Y25.598
X31.199 Y25.592
X31.18 Y25.587
X31.162 Y25.584
X31.143
X31.125 Y25.585
X31.108 Y25.587
X31.091 Y25.591
X31.074 Y25.596
X31.057 Y25.603
X31.04 Y25.613
X31.024 Y25.624
X31.007 Y25.638
X30.036 Y26.529 Z-0.093
X30.02 Y26.545
X30.006 Y26.563
X29.994 Y26.582
X29.986 Y26.6
X29.979 Y26.619
X29.974 Y26.637
X29.972 Y26.656
X29.97 Y26.675
X29.971 Y26.693
X29.974 Y26.712
X29.978 Y26.73
X29.984 Y26.749
X29.993 Y26.767
X30.004 Y26.786
X30.018 Y26.804
X30.05 Y26.842
X30.084 Y26.879
X30.102 Y26.896
X30.121 Y26.909
X30.139 Y26.919
X30.158 Y26.927
X30.177 Y26.932
X30.195 Y26.936
X30.214 Y26.938
X30.232 Z-0.094
X30.251 Y26.937
X30.27 Y26.933
X30.288 Y26.928
X30.307 Y26.921
X30.325 Y26.911
X30.344 Y26.899
X30.502 Y26.779
X30.516 Y26.772
X30.53 Y26.775
X30.752 Y26.963
X30.765 Y26.977
X32.017 Y28.364 Z-0.097
X32.027 Y28.378
X32.18 Y28.602
X32.191 Y28.623
X32.182 Y28.642
X32.066 Y28.772
X32.037 Y28.805
X32.026 Y28.821
X32.017 Y28.838
X32.009 Y28.858
X32.003 Y28.879
X31.999 Y28.9
X31.998 Y28.92
Y28.942
X32.002 Y28.965
X32.008 Y28.987
X32.017 Y29.009
X32.025 Y29.024
X32.035 Y29.039
X32.046 Y29.054
X32.059 Y29.068 Z-0.098
X32.113 Y29.127
X32.126 Y29.139
X32.139 Y29.149
X32.152 Y29.157
X32.166 Y29.164
X32.184 Y29.172
X32.203 Y29.177
X32.222 Y29.181
X32.24 Y29.183
X32.259
X32.277 Y29.181
X32.296 Y29.178
X32.314 Y29.173
X32.332 Y29.166
X32.349 Y29.157
X32.366 Y29.146
X32.384 Y29.132
X33.356 Y28.239 Z-0.1
X33.388 Y28.208
X33.416 Y28.178
X33.534 Y28.029
X33.74 Y27.769
X33.753 Y27.751
X33.764 Y27.732
X33.771 Y27.719
X33.777 Y27.705
X33.787 Y27.678
X33.802 Y27.624
X33.879 Y27.324 Z-0.101
X33.884 Y27.306
X33.886 Y27.287
X33.889 Y27.268
Y27.25
X33.888 Y27.231
X33.886 Y27.213
X33.871 Y27.138
X33.827 Y26.922
X33.822 Y26.905
X33.817 Y26.888
X33.81 Y26.871
X33.802 Y26.854
X33.794 Y26.842
X33.699 Y26.693 Z-0.102
X33.653 Y26.623
X33.642 Y26.61
X33.63 Y26.598
X33.606 Y26.579
X33.56 Y26.545
X33.504 Y26.504
X33.356 Y26.396
X33.337 Y26.386
X33.318 Y26.377
X33.3 Y26.371
X33.281 Y26.367
X33.021 Y26.314 Z-0.103
X33.002 Y26.311
X32.984 Y26.308
X32.965
X32.947 Y26.309
X32.928 Y26.312
X32.909 Y26.317
X32.59 Y26.414
X32.569 Y26.396
X32.482 Y25.654 Z-0.104
X32.475 Y25.505
X32.463 Y25.168 Z-0.105
Y25.159
X32.662 Y24.763
X32.681 Y24.726
X32.687 Y24.707
X32.692 Y24.689
X32.695 Y24.67
X32.696 Y24.652
Y24.633
X32.693 Y24.615
X32.69 Y24.6
X32.685 Y24.585
X32.68 Y24.57
X32.672 Y24.555
X32.662 Y24.538
Y24.537
X32.648 Y24.52
X32.6 Y24.466
X32.583 Y24.448
X32.566 Y24.432
X32.549 Y24.42
X32.532 Y24.41
X32.515 Y24.403
X32.497 Y24.397
X32.48 Y24.393
X32.463 Y24.39
X32.445 Y24.389
X32.426 Y24.39
X32.407 Y24.393
X32.389 Y24.397
X32.37 Y24.403
X32.352 Y24.412
X32.333 Y24.423
X32.314 Y24.437
X32.282 Y24.466
X31.699 Y25.
X31.679 Y25.021
X31.665 Y25.04
X31.653 Y25.06
X31.645 Y25.079
X31.639 Y25.097
X31.635 Y25.116
X31.633 Y25.134
X31.632 Y25.153
X31.634 Y25.171
X31.815 Y26.842
X31.794 Y26.865
X31.384 Y26.41
X31.372 Y26.396
X31.207 Y26.155
X31.206 Y26.136
X31.219 Y26.118
X31.346 Y25.978
X31.357 Y25.964
X31.366 Y25.951
X31.377 Y25.932
X31.385 Y25.914
X31.391 Y25.895
X31.395 Y25.877
X31.398 Y25.858
Y25.839
X31.397 Y25.821
X31.394 Y25.802
X31.389 Y25.784
X31.382 Y25.765
X31.373 Y25.747
X31.361 Y25.728
X31.346 Y25.71
X31.295 Y25.654
X31.273 Y25.632
X31.255 Y25.618
X31.236 Y25.607
X31.218 Y25.598
X31.199 Y25.592
X31.18 Y25.587
X31.162 Y25.584
X31.143
X31.125 Y25.585
X31.108 Y25.587
X31.091 Y25.591
X31.074 Y25.596
X31.057 Y25.603
X31.04 Y25.613
X31.024 Y25.624
X31.007 Y25.638
X30.052 Y26.514
X30.036 Y26.529
X30.02 Y26.545
X30.006 Y26.563
X29.994 Y26.582
X29.986 Y26.6
X29.979 Y26.619
X29.974 Y26.637
X29.972 Y26.656
X29.97 Y26.675
X29.971 Y26.693
X29.974 Y26.712
X29.978 Y26.73
X29.984 Y26.749
X29.993 Y26.767
X30.004 Y26.786
X30.018 Y26.804
X30.05 Y26.842
X30.084 Y26.879
X30.102 Y26.896
X30.121 Y26.909
X30.139 Y26.919
X30.158 Y26.927
X30.177 Y26.932
X30.195 Y26.936
X30.214 Y26.938
X30.232
X30.251 Y26.937
X30.27 Y26.933
X30.288 Y26.928
X30.307 Y26.921
X30.325 Y26.911
X30.344 Y26.899
X30.502 Y26.779
X30.516 Y26.772
X30.53 Y26.775
X30.752 Y26.963
X30.765 Y26.977
X32.017 Y28.364
X32.027 Y28.378
X32.18 Y28.602
X32.191 Y28.623
X32.182 Y28.642
X32.066 Y28.772
X32.037 Y28.805
X32.026 Y28.821
X32.017 Y28.838
X32.009 Y28.858
X32.003 Y28.879
X31.999 Y28.9
X31.998 Y28.92
Y28.942
X32.002 Y28.965
X32.008 Y28.987
X32.017 Y29.009
X32.025 Y29.024
X32.035 Y29.039
X32.046 Y29.054
X32.059 Y29.068
X32.113 Y29.127
X32.126 Y29.139
X32.139 Y29.149
X32.152 Y29.157
X32.166 Y29.164
X32.184 Y29.172
X32.203 Y29.177
X32.222 Y29.181
X32.24 Y29.183
X32.259
X32.277 Y29.181
X32.296 Y29.178
X32.314 Y29.173
X32.332 Y29.166
X32.349 Y29.157
X32.366 Y29.146
X32.384 Y29.132
X33.356 Y28.239
X33.388 Y28.208
X33.416 Y28.178
X33.534 Y28.029
X33.74 Y27.769
X33.753 Y27.751
X33.764 Y27.732
X33.771 Y27.719
X33.777 Y27.705
X33.787 Y27.678
X33.802 Y27.624
X33.879 Y27.324
X33.884 Y27.306
X33.886 Y27.287
X33.889 Y27.268
Y27.25
X33.888 Y27.231
X33.886 Y27.213
X33.871 Y27.138
X33.827 Y26.922
X33.822 Y26.905
X33.817 Y26.888
X33.81 Y26.871
X33.802 Y26.854
X33.794 Y26.842
X33.699 Y26.693
X33.653 Y26.623
X33.642 Y26.61
X33.63 Y26.598
X33.606 Y26.579
X33.56 Y26.545
X33.504 Y26.504
X33.356 Y26.396
X33.337 Y26.386
X33.318 Y26.377
X33.3 Y26.371
X33.281 Y26.367
X33.021 Y26.314
X33.002 Y26.311
X32.984 Y26.308
X32.965
X32.947 Y26.309
X32.928 Y26.312
X32.909 Y26.317
X32.59 Y26.414
X32.569 Y26.396
X32.482 Y25.654
X32.475 Y25.505
X32.463 Y25.168
Y25.159
X32.662 Y24.763
X32.681 Y24.726
X32.687 Y24.707
X32.692 Y24.689
X32.695 Y24.67
X32.696 Y24.652
Y24.633
X32.693 Y24.615
X32.69 Y24.6
X32.685 Y24.585
X32.68 Y24.57
X32.672 Y24.555
X32.662 Y24.538
X32.652 Y24.521 Z-0.1
X32.644 Y24.509 Z-0.086
X32.641 Y24.504 Z-0.066
G0 Z5.
X33.058 Y27.426
Z1.935
G1 Z-0.005 F40.
X33.057 Y27.422 Z-0.023
X33.055 Y27.409 Z-0.037
X33.052 Y27.392 Z-0.044
X33.05 Y27.389
X33.044 Y27.375 Z-0.045
X32.953 Y27.23 Z-0.051
X32.935 Y27.216 Z-0.052
X32.761 Y27.098 Z-0.059
X32.742 Y27.092 Z-0.06
X32.579 Y27.085 Z-0.065
X32.578
X32.742 Y27.092 Z-0.067
X32.761 Y27.098
X32.935 Y27.216 Z-0.068
X32.953 Y27.23 Z-0.069
X33.044 Y27.375 Z-0.07
X33.052 Y27.392
X33.08 Y27.547 Z-0.071
X33.077 Y27.565
X33.048 Y27.69 Z-0.072
X33.041 Y27.711
X32.932 Y27.858 Z-0.074
X32.909 Y27.876
X32.796 Y27.959 Z-0.075
X32.779
X32.19 Y27.306 Z-0.082
X32.213 Y27.287
X32.561 Y27.09 Z-0.085
X32.578 Y27.085
X32.597 Y27.079 Z-0.08
X32.611 Y27.074 Z-0.066
X32.616 Y27.073 Z-0.046
G0 Z5.
X33.058 Y27.428
Z1.935
G1 Z-0.025 F40.
X33.057 Y27.423 Z-0.042
X33.055 Y27.412 Z-0.056
X33.052 Y27.396 Z-0.064
X33.05 Y27.39
X33.031 Y27.354 Z-0.066
X32.956 Y27.235 Z-0.071
X32.92 Y27.206 Z-0.072
X32.764 Y27.1 Z-0.079
X32.718 Y27.091 Z-0.08
X32.579 Y27.085 Z-0.085
X32.578
X32.718 Y27.091 Z-0.086
X32.764 Y27.1 Z-0.087
X32.92 Y27.206 Z-0.088
X32.956 Y27.235 Z-0.089
X33.031 Y27.354 Z-0.09
X33.052 Y27.396
X33.078 Y27.534 Z-0.091
X33.073 Y27.581
X33.052 Y27.672 Z-0.092
X33.037 Y27.716 Z-0.093
X32.954 Y27.829 Z-0.094
X32.924 Y27.866
X32.816 Y27.945 Z-0.095
X32.771 Y27.951
X32.217 Y27.335 Z-0.102
X32.209 Y27.289
X32.535 Y27.105 Z-0.105
X32.578 Y27.085
X32.628 Y27.087
X32.72 Y27.091 Z-0.106
X32.766 Y27.102
X32.922 Y27.207 Z-0.108
X32.958 Y27.237
X33.033 Y27.356 Z-0.109
X33.053 Y27.399 Z-0.11
X33.078 Y27.537 Z-0.111
X33.073 Y27.583
X33.052 Y27.674 Z-0.112
X33.036 Y27.718
X32.952 Y27.831 Z-0.113
X32.922 Y27.867 Z-0.114
X32.816 Y27.945 Z-0.115
X32.769 Y27.948
X32.203 Y27.32 Z-0.121
X32.227 Y27.279 Z-0.122
X32.293 Y27.242 Z-0.123
X32.537 Y27.104 Z-0.125
X32.58 Y27.085
X32.628 Y27.087
X32.678 Y27.089
X32.725 Y27.092 Z-0.126
X32.77 Y27.104
X32.924 Y27.209 Z-0.128
X32.959 Y27.24
X33.034 Y27.359 Z-0.129
X33.053 Y27.402
X33.079 Y27.54 Z-0.13
X33.072 Y27.586 Z-0.131
X33.051 Y27.678
X33.033 Y27.721 Z-0.132
X32.95 Y27.834 Z-0.133
X32.919 Y27.869
X32.805 Y27.953 Z-0.134
X32.76 Y27.939 Z-0.135
X32.704 Y27.876
X32.201 Y27.318 Z-0.141
X32.224 Y27.281
X32.541 Y27.102 Z-0.144
X32.584 Y27.085 Z-0.145
X32.678 Y27.089
X32.728 Y27.092
X32.772 Y27.105 Z-0.146
X32.924 Y27.208 Z-0.147
X32.958 Y27.239
X33.032 Y27.355 Z-0.149
X33.052 Y27.397
X33.078 Y27.533 Z-0.15
X33.074 Y27.579
X33.053 Y27.668 Z-0.151
X33.04 Y27.712
X32.93 Y27.86 Z-0.153
X32.893 Y27.888
X32.819 Y27.943 Z-0.154
X32.773 Y27.953
X32.562 Y27.719 Z-0.157
X32.192 Y27.308 Z-0.161
X32.19 Y27.306
X32.213 Y27.287
X32.314 Y27.23
X32.561 Y27.09
X32.578 Y27.085
X32.742 Y27.092
X32.761 Y27.098
X32.935 Y27.216
X32.953 Y27.23
X33.044 Y27.375
X33.052 Y27.392
X33.08 Y27.547
X33.077 Y27.565
X33.048 Y27.689
X33.041 Y27.711
X32.932 Y27.858
X32.909 Y27.876
X32.796 Y27.959
X32.779
X32.192 Y27.308
X32.19 Y27.306
X32.213 Y27.287
X32.314 Y27.23 Z-0.162
X32.561 Y27.09 Z-0.164
X32.578 Y27.085
X32.742 Y27.093 Z-0.165
X32.761 Y27.098 Z-0.166
X32.935 Y27.216 Z-0.167
X32.953 Y27.23
X33.044 Y27.375 Z-0.169
X33.052 Y27.392
X33.06 Y27.435
X33.08 Y27.547 Z-0.17
X33.077 Y27.565
X33.048 Y27.689 Z-0.171
X33.041 Y27.711
X32.932 Y27.858 Z-0.173
X32.909 Y27.876
X32.796 Y27.959 Z-0.174
X32.779
X32.192 Y27.308 Z-0.181
X32.19 Y27.306
X32.213 Y27.287
X32.314 Y27.23
X32.561 Y27.09
X32.578 Y27.085
X32.742 Y27.093
X32.761 Y27.098
X32.935 Y27.216
X32.953 Y27.23
X33.044 Y27.375
X33.052 Y27.392
X33.06 Y27.435
X33.08 Y27.547
X33.077 Y27.565
X33.048 Y27.689
X33.041 Y27.711
X32.932 Y27.858
X32.909 Y27.876
X32.796 Y27.959
X32.779
X32.192 Y27.308
X32.19 Y27.306
X32.213 Y27.287
X32.314 Y27.23 Z-0.182
X32.561 Y27.09 Z-0.184
X32.578 Y27.085
X32.723 Y27.092 Z-0.185
X32.742 Y27.093
X32.761 Y27.098 Z-0.186
X32.935 Y27.216 Z-0.187
X32.953 Y27.23
X33.044 Y27.375 Z-0.189
X33.051 Y27.392
X33.06 Y27.435
X33.08 Y27.547 Z-0.19
X33.077 Y27.565
X33.058 Y27.647 Z-0.191
X33.048 Y27.689
X33.041 Y27.711
X32.932 Y27.858 Z-0.193
X32.909 Y27.876
X32.796 Y27.959 Z-0.194
X32.779
X32.192 Y27.308 Z-0.201
X32.19 Y27.306
X32.213 Y27.287
X32.314 Y27.23
X32.561 Y27.09
X32.578 Y27.085
X32.723 Y27.092
X32.742 Y27.093
X32.761 Y27.098
X32.935 Y27.216
X32.953 Y27.23
X33.044 Y27.375
X33.051 Y27.392
X33.06 Y27.435
X33.08 Y27.547
X33.077 Y27.565
X33.058 Y27.647
X33.048 Y27.689
X33.041 Y27.711
X32.932 Y27.858
X32.909 Y27.876
X32.796 Y27.959
X32.779
X32.192 Y27.308
X32.19 Y27.306
X32.213 Y27.287
X32.314 Y27.23 Z-0.202
X32.561 Y27.09 Z-0.204
X32.578 Y27.085
X32.686 Y27.09 Z-0.205
X32.723 Y27.092
X32.742 Y27.093
X32.761 Y27.098 Z-0.206
X32.935 Y27.216 Z-0.207
X32.953 Y27.23
X33.044 Y27.375 Z-0.209
X33.051 Y27.392
X33.06 Y27.435
X33.08 Y27.547 Z-0.21
X33.077 Y27.565
X33.058 Y27.647 Z-0.211
X33.048 Y27.689
X33.041 Y27.711
X32.932 Y27.858 Z-0.213
X32.909 Y27.876
X32.796 Y27.959 Z-0.214
X32.779
X32.192 Y27.308 Z-0.221
X32.19 Y27.306
X32.213 Y27.287
X32.314 Y27.23
X32.561 Y27.09
X32.578 Y27.085
X32.686 Y27.09
X32.723 Y27.092
X32.742 Y27.093
X32.761 Y27.098
X32.935 Y27.216
X32.953 Y27.23
X33.044 Y27.375
X33.051 Y27.392
X33.06 Y27.435
X33.08 Y27.547
X33.077 Y27.565
X33.058 Y27.647
X33.048 Y27.689
X33.041 Y27.711
X32.932 Y27.858
X32.909 Y27.876
X32.796 Y27.959
X32.779
X32.192 Y27.308
X32.19 Y27.306
X32.213 Y27.287
X32.314 Y27.23 Z-0.222
X32.561 Y27.09 Z-0.224
X32.578 Y27.085
X32.686 Y27.09 Z-0.225
X32.723 Y27.092
X32.742 Y27.093
X32.761 Y27.098 Z-0.226
X32.935 Y27.216 Z-0.227
X32.953 Y27.23
X33.044 Y27.375 Z-0.229
X33.051 Y27.392
X33.06 Y27.435
X33.08 Y27.547 Z-0.23
X33.077 Y27.565
X33.058 Y27.646 Z-0.231
X33.048 Y27.689
X33.041 Y27.711
X32.932 Y27.858 Z-0.233
X32.909 Y27.876
X32.796 Y27.959 Z-0.234
X32.779
X32.192 Y27.308 Z-0.241
X32.19 Y27.306
X32.213 Y27.287
X32.314 Y27.23
X32.561 Y27.09
X32.578 Y27.085
X32.686 Y27.09
X32.723 Y27.092
X32.742 Y27.093
X32.761 Y27.098
X32.935 Y27.216
X32.953 Y27.23
X33.044 Y27.375
X33.051 Y27.392
X33.06 Y27.435
X33.08 Y27.547
X33.077 Y27.565
X33.058 Y27.646
X33.048 Y27.689
X33.041 Y27.711
X32.932 Y27.858
X32.909 Y27.876
X32.796 Y27.959
X32.779
X32.192 Y27.308
X32.19 Y27.306
X32.213 Y27.287
X32.314 Y27.23 Z-0.242
X32.561 Y27.09 Z-0.244
X32.578 Y27.085
X32.686 Y27.09 Z-0.245
X32.742 Y27.093
X32.761 Y27.098 Z-0.246
X32.935 Y27.216 Z-0.247
X32.953 Y27.23
X33.044 Y27.375 Z-0.249
X33.051 Y27.392
X33.06 Y27.435
X33.08 Y27.547 Z-0.25
X33.077 Y27.565
X33.058 Y27.646 Z-0.251
X33.048 Y27.689
X33.041 Y27.711
X32.932 Y27.858 Z-0.253
X32.909 Y27.876
X32.796 Y27.959 Z-0.254
X32.779
X32.192 Y27.308 Z-0.261
X32.19 Y27.306
X32.213 Y27.287
X32.314 Y27.23
X32.561 Y27.09
X32.578 Y27.085
X32.686 Y27.09
X32.742 Y27.093
X32.761 Y27.098
X32.935 Y27.216
X32.953 Y27.23
X33.044 Y27.375
X33.051 Y27.392
X33.06 Y27.435
X33.08 Y27.547
X33.077 Y27.565
X33.058 Y27.646
X33.048 Y27.689
X33.041 Y27.711
X32.932 Y27.858
X32.909 Y27.876
X32.796 Y27.959
X32.779
X32.192 Y27.308
X32.19 Y27.306
X32.213 Y27.287
X32.314 Y27.23 Z-0.262
X32.561 Y27.09 Z-0.264
X32.578 Y27.085
X32.686 Y27.09 Z-0.265
X32.742 Y27.094
X32.761 Y27.098 Z-0.266
X32.935 Y27.216 Z-0.267
X32.953 Y27.23
X33.044 Y27.375 Z-0.269
X33.051 Y27.393
X33.06 Y27.435
X33.08 Y27.547 Z-0.27
X33.077 Y27.565
X33.058 Y27.646 Z-0.271
X33.048 Y27.689
X33.041 Y27.711
X32.932 Y27.858 Z-0.273
X32.909 Y27.876
X32.796 Y27.959 Z-0.274
X32.779
X32.192 Y27.308 Z-0.281
X32.19 Y27.306
X32.213 Y27.287
X32.314 Y27.23
X32.561 Y27.09
X32.578 Y27.085
X32.686 Y27.09
X32.742 Y27.094
X32.761 Y27.098
X32.935 Y27.216
X32.953 Y27.23
X33.044 Y27.375
X33.051 Y27.393
X33.06 Y27.435
X33.08 Y27.547
X33.077 Y27.565
X33.058 Y27.646
X33.048 Y27.689
X33.041 Y27.711
X32.932 Y27.858
X32.909 Y27.876
X32.796 Y27.959
X32.779
X32.192 Y27.308
Z-0.279
X32.19 Y27.306
X32.213 Y27.287
X32.314 Y27.23 Z-0.28
X32.561 Y27.09 Z-0.282
X32.578 Y27.085 Z-0.283
X32.612 Y27.086
X32.686 Y27.09
X32.742 Y27.094 Z-0.284
X32.761 Y27.098
X32.935 Y27.216 Z-0.286
X32.953 Y27.23
X33.044 Y27.375 Z-0.287
X33.051 Y27.393
X33.06 Y27.435
X33.073 Y27.51 Z-0.288
X33.08 Y27.547
X33.077 Y27.565
X33.058 Y27.646 Z-0.289
X33.048 Y27.689
X33.041 Y27.711 Z-0.29
X32.932 Y27.858 Z-0.291
X32.909 Y27.876
X32.796 Y27.959 Z-0.292
X32.779
X32.192 Y27.308 Z-0.299
X32.19 Y27.306
X32.213 Y27.287
X32.314 Y27.23
X32.561 Y27.09
X32.578 Y27.085
X32.612 Y27.086
X32.686 Y27.09
X32.742 Y27.094
X32.761 Y27.098
X32.935 Y27.216
X32.953 Y27.23
X33.044 Y27.375
X33.051 Y27.393
X33.06 Y27.435
X33.073 Y27.51
X33.08 Y27.547
X33.077 Y27.565
X33.058 Y27.646
X33.048 Y27.689
X33.041 Y27.711
X32.932 Y27.858
X32.909 Y27.876
X32.796 Y27.959
X32.779
X32.192 Y27.308
X32.19 Y27.306
X32.213 Y27.287
X32.314 Y27.23 Z-0.3
X32.561 Y27.09 Z-0.302
X32.578 Y27.085 Z-0.303
X32.612 Y27.086
X32.686 Y27.09
X32.742 Y27.094 Z-0.304
X32.761 Y27.098
X32.935 Y27.216 Z-0.306
X32.953 Y27.23
X33.045 Y27.376 Z-0.307
X33.051 Y27.393
X33.059 Y27.435
X33.073 Y27.51 Z-0.308
X33.08 Y27.547
X33.077 Y27.565
X33.058 Y27.645 Z-0.309
X33.048 Y27.689
X33.041 Y27.711 Z-0.31
X32.932 Y27.858 Z-0.311
X32.909 Y27.876
X32.796 Y27.959 Z-0.312
X32.779
X32.192 Y27.308 Z-0.319
X32.19 Y27.306
X32.213 Y27.287
X32.314 Y27.23
X32.561 Y27.09
X32.578 Y27.085
X32.612 Y27.086
X32.686 Y27.09
X32.742 Y27.094
X32.761 Y27.098
X32.935 Y27.216
X32.953 Y27.23
X33.045 Y27.376
X33.051 Y27.393
X33.059 Y27.435
X33.073 Y27.51
X33.08 Y27.547
X33.077 Y27.565
X33.058 Y27.645
X33.048 Y27.689
X33.041 Y27.711
X32.932 Y27.858
X32.909 Y27.876
X32.796 Y27.959
X32.779
X32.192 Y27.308
X32.19 Y27.306
X32.213 Y27.287
X32.314 Y27.23 Z-0.32
X32.561 Y27.09 Z-0.322
X32.578 Y27.085 Z-0.323
X32.612 Y27.086
X32.686 Y27.091
X32.742 Y27.094 Z-0.324
X32.761 Y27.098
X32.935 Y27.216 Z-0.326
X32.953 Y27.23
X33.045 Y27.376 Z-0.327
X33.051 Y27.394
X33.059 Y27.435
X33.073 Y27.51 Z-0.328
X33.08 Y27.547
X33.077 Y27.565
X33.072 Y27.584 Z-0.329
X33.058 Y27.645
X33.048 Y27.689
X33.041 Y27.711 Z-0.33
X32.932 Y27.858 Z-0.331
X32.909 Y27.876
X32.796 Y27.959 Z-0.332
X32.779
X32.192 Y27.308 Z-0.339
X32.19 Y27.306
X32.213 Y27.287
X32.314 Y27.23
X32.561 Y27.09
X32.578 Y27.085
X32.612 Y27.086
X32.686 Y27.091
X32.742 Y27.094
X32.761 Y27.098
X32.935 Y27.216
X32.953 Y27.23
X33.045 Y27.376
X33.051 Y27.394
X33.059 Y27.435
X33.073 Y27.51
X33.08 Y27.547
X33.077 Y27.565
X33.072 Y27.584
X33.058 Y27.645
X33.048 Y27.689
X33.041 Y27.711
X32.932 Y27.858
X32.909 Y27.876
X32.796 Y27.959
X32.779
X32.192 Y27.308
X32.19 Y27.306
X32.213 Y27.287
X32.314 Y27.23 Z-0.34
X32.561 Y27.091 Z-0.342
X32.578 Y27.085 Z-0.343
X32.612 Y27.086
X32.686 Y27.091
X32.742 Y27.094 Z-0.344
X32.761 Y27.098
X32.935 Y27.216 Z-0.346
X32.953 Y27.23
X33.045 Y27.376 Z-0.347
X33.051 Y27.394
X33.059 Y27.435
X33.073 Y27.51 Z-0.348
X33.08 Y27.547
X33.077 Y27.565
X33.072 Y27.584 Z-0.349
X33.048 Y27.689
X33.041 Y27.71 Z-0.35
X32.932 Y27.858 Z-0.351
X32.909 Y27.876
X32.796 Y27.959 Z-0.352
X32.779
X32.192 Y27.308 Z-0.359
X32.19 Y27.306
X32.213 Y27.287
X32.314 Y27.23
X32.561 Y27.091
X32.578 Y27.085
X32.612 Y27.086
X32.686 Y27.091
X32.742 Y27.094
X32.761 Y27.098
X32.935 Y27.216
X32.953 Y27.23
X33.045 Y27.376
X33.051 Y27.394
X33.059 Y27.435
X33.073 Y27.51
X33.08 Y27.547
X33.077 Y27.565
X33.072 Y27.584
X33.048 Y27.689
X33.041 Y27.71
X32.932 Y27.858
X32.909 Y27.876
X32.796 Y27.959
X32.779
X32.192 Y27.308
X32.19 Y27.306
X32.213 Y27.287
X32.314 Y27.23 Z-0.36
X32.561 Y27.091 Z-0.362
X32.578 Y27.085 Z-0.363
X32.612 Y27.086
X32.686 Y27.091
X32.742 Y27.095 Z-0.364
X32.761 Y27.098
X32.935 Y27.216 Z-0.366
X32.953 Y27.23
X33.045 Y27.376 Z-0.367
X33.051 Y27.394
X33.059 Y27.435
X33.073 Y27.51 Z-0.368
X33.08 Y27.547
X33.077 Y27.565
X33.072 Y27.584 Z-0.369
X33.048 Y27.688
X33.042 Y27.71 Z-0.37
X32.932 Y27.858 Z-0.371
X32.909 Y27.876
X32.796 Y27.959 Z-0.372
X32.779
X32.192 Y27.308 Z-0.379
X32.19 Y27.306
X32.213 Y27.287
X32.314 Y27.23
X32.561 Y27.091
X32.578 Y27.085
X32.612 Y27.086
X32.686 Y27.091
X32.742 Y27.095
X32.761 Y27.098
X32.935 Y27.216
X32.953 Y27.23
X33.045 Y27.376
X33.051 Y27.394
X33.059 Y27.435
X33.073 Y27.51
X33.08 Y27.547
X33.077 Y27.565
X33.072 Y27.584
X33.048 Y27.688
X33.042 Y27.71
X32.932 Y27.858
X32.909 Y27.876
X32.796 Y27.959
X32.779
X32.192 Y27.308
X32.19 Y27.306
X32.213 Y27.287
X32.314 Y27.23 Z-0.38
X32.561 Y27.091 Z-0.382
X32.578 Y27.085 Z-0.383
X32.612 Y27.086
X32.742 Y27.095 Z-0.384
X32.761 Y27.098
X32.935 Y27.216 Z-0.386
X32.953 Y27.23
X33.045 Y27.377 Z-0.387
X33.051 Y27.394
X33.073 Y27.51 Z-0.388
X33.08 Y27.547
X33.077 Y27.565
X33.072 Y27.584 Z-0.389
X33.048 Y27.688
X33.042 Y27.71 Z-0.39
X32.932 Y27.858 Z-0.391
X32.909 Y27.876
X32.796 Y27.959 Z-0.392
X32.779
X32.192 Y27.308 Z-0.399
X32.19 Y27.306
X32.213 Y27.287
X32.314 Y27.23
X32.561 Y27.091
X32.578 Y27.085
X32.612 Y27.086
X32.742 Y27.095
X32.761 Y27.098
X32.935 Y27.216
X32.953 Y27.23
X33.045 Y27.377
X33.051 Y27.394
X33.073 Y27.51
X33.08 Y27.547
X33.077 Y27.565
X33.072 Y27.584
X33.048 Y27.688
X33.042 Y27.71
X32.932 Y27.858
X32.909 Y27.876
X32.796 Y27.959
X32.779
X32.192 Y27.308
X32.19 Y27.306
X32.213 Y27.287
X32.561 Y27.091 Z-0.402
X32.578 Y27.085 Z-0.403
X32.612 Y27.087
X32.742 Y27.095 Z-0.404
X32.761 Y27.098
X32.935 Y27.216 Z-0.406
X32.953 Y27.23
X33.045 Y27.377 Z-0.407
X33.051 Y27.395
X33.073 Y27.51 Z-0.408
X33.08 Y27.547
X33.077 Y27.565
X33.048 Y27.688 Z-0.409
X33.042 Y27.71 Z-0.41
X32.932 Y27.858 Z-0.411
X32.909 Y27.876
X32.796 Y27.959 Z-0.412
X32.779
X32.192 Y27.308 Z-0.419
X32.19 Y27.306
X32.213 Y27.287
X32.561 Y27.091
X32.578 Y27.085
X32.612 Y27.087
X32.742 Y27.095
X32.761 Y27.098
X32.935 Y27.216
X32.953 Y27.23
X33.045 Y27.377
X33.051 Y27.395
X33.073 Y27.51
X33.08 Y27.547
X33.077 Y27.565
X33.048 Y27.688
X33.042 Y27.71
X32.932 Y27.858
X32.909 Y27.876
X32.796 Y27.959
X32.779
X32.192 Y27.308
X32.19 Y27.306
X32.213 Y27.287
X32.561 Y27.091 Z-0.422
X32.578 Y27.085 Z-0.423
X32.612 Y27.087
X32.742 Y27.095 Z-0.424
X32.761 Y27.098
X32.935 Y27.216 Z-0.426
X32.953 Y27.23
X33.046 Y27.377 Z-0.427
X33.051 Y27.395
X33.073 Y27.51 Z-0.428
X33.08 Y27.547
X33.077 Y27.565
X33.048 Y27.688 Z-0.429
X33.042 Y27.71 Z-0.43
X32.932 Y27.858 Z-0.431
X32.909 Y27.876
X32.796 Y27.959 Z-0.432
X32.779
X32.192 Y27.308 Z-0.439
X32.19 Y27.306
X32.213 Y27.287
X32.561 Y27.091
X32.578 Y27.085
X32.612 Y27.087
X32.742 Y27.095
X32.761 Y27.098
X32.935 Y27.216
X32.953 Y27.23
X33.046 Y27.377
X33.051 Y27.395
X33.073 Y27.51
X33.08 Y27.547
X33.077 Y27.565
X33.048 Y27.688
X33.042 Y27.71
X32.932 Y27.858
X32.909 Y27.876
X32.796 Y27.959
X32.779
X32.192 Y27.308
X32.19 Y27.306
X32.213 Y27.287
X32.561 Y27.091 Z-0.442
X32.578 Y27.085 Z-0.443
X32.742 Y27.096 Z-0.444
X32.761 Y27.098
X32.935 Y27.216 Z-0.446
X32.953 Y27.23
X33.046 Y27.377 Z-0.447
X33.051 Y27.395
X33.073 Y27.51 Z-0.448
X33.08 Y27.547
X33.077 Y27.565
X33.048 Y27.688 Z-0.449
X33.042 Y27.71 Z-0.45
X32.932 Y27.858 Z-0.451
X32.909 Y27.876
X32.796 Y27.959 Z-0.452
X32.779
X32.192 Y27.308 Z-0.459
X32.19 Y27.306
X32.213 Y27.287
X32.561 Y27.091
X32.578 Y27.085
X32.742 Y27.096
X32.761 Y27.098
X32.935 Y27.216
X32.953 Y27.23
X33.046 Y27.377
X33.051 Y27.395
X33.073 Y27.51
X33.08 Y27.547
X33.077 Y27.565
X33.048 Y27.688
X33.042 Y27.71
X32.932 Y27.858
X32.909 Y27.876
X32.796 Y27.959
X32.779
X32.192 Y27.308
X32.19 Y27.306
X32.213 Y27.287
X32.561 Y27.091 Z-0.462
X32.578 Y27.085 Z-0.463
X32.742 Y27.096 Z-0.464
X32.761 Y27.098
X32.935 Y27.216 Z-0.466
X32.953 Y27.23
X33.046 Y27.378 Z-0.467
X33.051 Y27.396
X33.073 Y27.51 Z-0.468
X33.08 Y27.547
X33.077 Y27.565
X33.047 Y27.688 Z-0.469
X33.042 Y27.71 Z-0.47
X32.932 Y27.858 Z-0.471
X32.909 Y27.876
X32.796 Y27.959 Z-0.472
X32.779
X32.192 Y27.308 Z-0.479
X32.19 Y27.306
X32.213 Y27.287
X32.561 Y27.091
X32.578 Y27.085
X32.742 Y27.096
X32.761 Y27.098
X32.935 Y27.216
X32.953 Y27.23
X33.046 Y27.378
X33.051 Y27.396
X33.073 Y27.51
X33.08 Y27.547
X33.077 Y27.565
X33.047 Y27.688
X33.042 Y27.71
X32.932 Y27.858
X32.909 Y27.876
X32.796 Y27.959
X32.779
X32.192 Y27.308
X32.19 Y27.306
X32.213 Y27.287
X32.561 Y27.091 Z-0.482
X32.578 Y27.085 Z-0.483
X32.742 Y27.096 Z-0.484
X32.761 Y27.098
X32.935 Y27.216 Z-0.486
X32.953 Y27.23
X33.046 Y27.378 Z-0.487
X33.051 Y27.396
X33.08 Y27.547 Z-0.488
X33.076 Y27.565
X33.047 Y27.687 Z-0.489
X33.042 Y27.71 Z-0.49
X32.932 Y27.858 Z-0.491
X32.909 Y27.876
X32.796 Y27.959 Z-0.492
X32.779
X32.192 Y27.308 Z-0.499
X32.19 Y27.306
X32.213 Y27.287
X32.561 Y27.091
X32.578 Y27.085
X32.742 Y27.096
X32.761 Y27.098
X32.935 Y27.216
X32.953 Y27.23
X33.046 Y27.378
X33.051 Y27.396
X33.08 Y27.547
X33.076 Y27.565
X33.047 Y27.687
X33.042 Y27.71
X32.932 Y27.858
X32.909 Y27.876
X32.796 Y27.959
X32.779
X32.192 Y27.308
X32.19 Y27.306
X32.213 Y27.287
X32.561 Y27.091 Z-0.502
X32.578 Y27.085 Z-0.503
X32.742 Y27.096 Z-0.504
X32.761 Y27.098
X32.935 Y27.216 Z-0.506
X32.953 Y27.23
X33.046 Y27.378 Z-0.507
X33.051 Y27.396
X33.08 Y27.547 Z-0.508
X33.076 Y27.565
X33.047 Y27.687 Z-0.509
X33.042 Y27.71 Z-0.51
X32.932 Y27.858 Z-0.511
X32.909 Y27.876
X32.796 Y27.959 Z-0.512
X32.779
X32.192 Y27.308 Z-0.519
X32.19 Y27.306
X32.213 Y27.287
X32.561 Y27.091
X32.578 Y27.085
X32.742 Y27.096
X32.761 Y27.098
X32.935 Y27.216
X32.953 Y27.23
X33.046 Y27.378
X33.051 Y27.396
X33.08 Y27.547
X33.076 Y27.565
X33.047 Y27.687
X33.042 Y27.71
X32.932 Y27.858
X32.909 Y27.876
X32.796 Y27.959
X32.779
X32.192 Y27.308
Z-0.511
X32.19 Y27.306
X32.213 Y27.287
X32.561 Y27.091 Z-0.514
X32.578 Y27.086
X32.742 Y27.096 Z-0.515
X32.761 Y27.098 Z-0.516
X32.935 Y27.216 Z-0.517
X32.953 Y27.23
X33.046 Y27.378 Z-0.519
X33.051 Y27.396
X33.08 Y27.547 Z-0.52
X33.076 Y27.565
X33.042 Y27.71 Z-0.521
X32.932 Y27.858 Z-0.523
X32.909 Y27.876
X32.796 Y27.959 Z-0.524
X32.779
X32.192 Y27.308 Z-0.531
X32.19 Y27.306
X32.213 Y27.287
X32.561 Y27.091
X32.578 Y27.086
X32.742 Y27.096
X32.761 Y27.098
X32.935 Y27.216
X32.953 Y27.23
X33.046 Y27.378
X33.051 Y27.396
X33.08 Y27.547
X33.076 Y27.565
X33.042 Y27.71
X32.932 Y27.858
X32.909 Y27.876
X32.796 Y27.959
X32.779
X32.192 Y27.308
Z-0.523
X32.19 Y27.306
X32.213 Y27.287
X32.561 Y27.091 Z-0.526
X32.578 Y27.086
X32.742 Y27.096 Z-0.527
X32.761 Y27.098
X32.935 Y27.216 Z-0.529
X32.953 Y27.23
X33.046 Y27.378 Z-0.53
X33.051 Y27.397 Z-0.531
X33.08 Y27.547 Z-0.532
X33.076 Y27.565
X33.042 Y27.71 Z-0.533
X32.932 Y27.858 Z-0.534
X32.909 Y27.876 Z-0.535
X32.796 Y27.959 Z-0.536
X32.779
X32.192 Y27.308 Z-0.543
X32.19 Y27.306
X32.213 Y27.287
X32.561 Y27.091
X32.578 Y27.086
X32.742 Y27.096
X32.761 Y27.098
X32.935 Y27.216
X32.953 Y27.23
X33.046 Y27.378
X33.051 Y27.397
X33.08 Y27.547
X33.076 Y27.565
X33.042 Y27.71
X32.932 Y27.858
X32.909 Y27.876
X32.796 Y27.959
X32.779
X32.192 Y27.308
G0 Z5.
X31.172 Y29.621
Z1.935
G1 Z-0.005 F40.
X31.175 Y29.617 Z-0.024
X31.184 Y29.607 Z-0.039
X31.196 Y29.592 Z-0.044
X31.287 Y29.482 Z-0.049
X31.296 Y29.465 Z-0.05
X31.331 Y29.382 Z-0.053
Y29.365 Z-0.054
X31.318 Y29.291 Z-0.056
X31.311 Y29.273 Z-0.057
X31.186 Y29.07 Z-0.065
Y29.068
X31.311 Y29.273 Z-0.067
X31.318 Y29.291
X31.331 Y29.365
Y29.382
X31.296 Y29.465 Z-0.068
X31.287 Y29.482
X31.138 Y29.662 Z-0.069
X31.125 Y29.677 Z-0.07
X30.753 Y30.085 Z-0.073
X30.734 Y30.096
X30.14 Y29.543 Z-0.078
X30.132 Y29.528
X30.401 Y29.233 Z-0.08
X30.421 Y29.217
X30.646 Y29.044 Z-0.082
X30.662 Y29.043
X30.679 Y29.045
X30.702 Y29.053
X30.864 Y29.157 Z-0.083
X30.883 Y29.168
X30.902 Y29.176
X30.92 Y29.182 Z-0.084
X30.939 Y29.186
X30.957 Y29.188
X30.976
X30.995 Y29.187
X31.013 Y29.184
X31.032 Y29.179
X31.05 Y29.172
X31.069 Y29.163
X31.088 Y29.151 Z-0.085
X31.106 Y29.135
X31.125 Y29.116
X31.168 Y29.068
X31.186
X31.206 Z-0.08
X31.22 Z-0.066
X31.226 Z-0.046
G0 Z5.
X31.17 Y29.622
Z1.935
G1 Z-0.025 F40.
X31.173 Y29.618 Z-0.044
X31.182 Y29.607 Z-0.059
X31.195 Y29.593 Z-0.064
X31.215 Y29.569 Z-0.065
X31.276 Y29.496 Z-0.069
X31.3 Y29.455 Z-0.07
X31.319 Y29.411 Z-0.072
X31.331 Y29.365 Z-0.074
X31.323 Y29.318 Z-0.075
X31.311 Y29.272 Z-0.077
X31.186 Y29.07 Z-0.085
Y29.068
X31.311 Y29.272 Z-0.087
X31.323 Y29.318
X31.331 Y29.365
X31.319 Y29.411 Z-0.088
X31.3 Y29.455
X31.276 Y29.496
X31.215 Y29.569 Z-0.089
X31.09 Y29.715 Z-0.09
X30.758 Y30.079 Z-0.093
X30.738 Y30.1
X30.696 Y30.061
X30.136 Y29.539 Z-0.098
X30.159 Y29.499
X30.383 Y29.253 Z-0.1
X30.417 Y29.22
X30.643 Y29.046 Z-0.102
X30.692 Y29.047
X30.853 Y29.15 Z-0.103
X30.895 Y29.173
X30.941 Y29.186 Z-0.104
X30.989 Y29.188
X31.036 Y29.178
X31.078 Y29.157 Z-0.105
X31.114 Y29.128
X31.146 Y29.093
X31.186 Y29.068
X31.212 Y29.111
X31.311 Y29.273
X31.318 Y29.291
X31.331 Y29.365
Y29.382
X31.296 Y29.465
X31.287 Y29.482
X31.138 Y29.662
X31.125 Y29.677
X30.753 Y30.085
X30.734 Y30.096
X30.14 Y29.543
X30.132 Y29.528
X30.401 Y29.233
X30.421 Y29.217
X30.646 Y29.044
X30.662 Y29.043
X30.679 Y29.045
X30.702 Y29.053
X30.864 Y29.157
X30.883 Y29.168
X30.902 Y29.176
X30.92 Y29.182
X30.939 Y29.186
X30.957 Y29.188
X30.976
X30.995 Y29.187
X31.013 Y29.184
X31.032 Y29.179
X31.05 Y29.172
X31.069 Y29.163
X31.088 Y29.151
X31.106 Y29.135
X31.125 Y29.116
X31.168 Y29.068
X31.186
X31.212 Y29.111
X31.22 Y29.124 Z-0.091
X31.223 Y29.129 Z-0.07
G0 Z5.
X30.74 Y28.389
Z1.935
G1 Z-0.025 F40.
X30.744 Y28.392 Z-0.044
X30.754 Y28.402 Z-0.059
X30.768 Y28.415 Z-0.064
X31.125 Y28.746 Z-0.081
X31.168 Y28.786 Z-0.083
X31.181 Y28.801 Z-0.084
X31.192 Y28.816 Z-0.085
X31.204 Y28.829
X31.205 Y28.83
X31.192 Y28.816
X31.181 Y28.801
X31.168 Y28.786
X31.125 Y28.746
X30.366 Y28.041 Z-0.086
X30.351 Y28.029
X30.336 Y28.019
X30.321 Y28.011
X30.306 Y28.005
X30.292 Y28.
X30.277 Y27.996
X30.262 Y27.993
X30.247 Y27.992
X30.232 Y27.991
X30.218 Y27.992
X30.204 Y27.994
X30.189 Y27.997
X30.175 Y28.
X30.161 Y28.006
X30.147 Y28.012
X30.132 Y28.02
X30.118 Y28.029
X30.101 Y28.043
X30.084 Y28.061
X30.031 Y28.119
X30.019 Y28.134
X30.009 Y28.149
X30.001 Y28.163
X29.995 Y28.178
X29.988 Y28.196
X29.984 Y28.215
X29.981 Y28.233
X29.98 Y28.252
X29.981 Y28.271
X29.983 Y28.289
X29.988 Y28.308
X29.994 Y28.326
X30.002 Y28.343
X30.011 Y28.359
X30.035 Y28.392
X30.136 Y28.53 Z-0.087
X30.144 Y28.549
X30.148 Y28.567
X30.15 Y28.586
X29.993 Y28.838
X29.98 Y28.855
X29.731 Y29.128
X29.712 Y29.145
X29.043 Y28.524 Z-0.088
X29.019 Y28.5
X29.014 Y28.475
X29.043 Y28.439
X29.146 Y28.326
X29.453 Y27.99
X29.471 Y27.973
X29.623 Y27.846
X29.637 Y27.839
X29.768 Y27.795
X29.786 Y27.796
X30.232 Y27.845 Z-0.089
X30.307 Y27.853
X30.325
X30.344 Y27.851
X30.362 Y27.848
X30.381 Y27.842
X30.398 Y27.835
X30.414 Y27.827
X30.431 Y27.816
X30.447 Y27.803
X30.465 Y27.785
X30.514 Y27.732
X30.53 Y27.714
X30.542 Y27.698
X30.551 Y27.682
X30.559 Y27.665
X30.565 Y27.649
X30.569 Y27.633
X30.572 Y27.616
X30.573 Y27.6
Y27.584
X30.572 Y27.569
X30.57 Y27.554
X30.567 Y27.54
X30.563 Y27.525
X30.557 Y27.51
X30.549 Y27.495
X30.541 Y27.48
X30.53 Y27.466
X30.515 Y27.449
X30.5 Y27.435
X30.485 Y27.425
X30.47 Y27.416
X30.44 Y27.402
X29.712 Y27.075 Z-0.09
X29.693 Y27.067
X29.675 Y27.062
X29.656 Y27.058
X29.637 Y27.056
X29.619
X29.6 Y27.058
X29.582 Y27.061
X29.563 Y27.067
X29.544 Y27.074
X29.526 Y27.084
X29.507 Y27.096
X29.489 Y27.112
X29.464 Y27.138
X27.974 Y28.772 Z-0.091
X27.853 Y28.904
X27.841 Y28.92
X27.829 Y28.939
X27.821 Y28.957
X27.814 Y28.976
X27.809 Y28.994
X27.807 Y29.013
X27.806 Y29.031
Y29.05
X27.809 Y29.068
X27.815 Y29.092
X27.823 Y29.115
X27.836 Y29.138
X27.853 Y29.161
X27.867 Y29.176
X27.933 Y29.238
X27.956 Y29.256
X27.979 Y29.269
X28.001 Y29.278
X28.02 Y29.283
X28.039 Y29.287
X28.057 Y29.288
X28.076
X28.094 Y29.286
X28.113 Y29.283
X28.132 Y29.277 Z-0.092
X28.15 Y29.269
X28.168 Y29.26
X28.185 Y29.248
X28.22 Y29.217
X28.336 Y29.112
X28.355 Y29.097
X28.373 Y29.098
X28.612 Y29.266
X29.994 Y30.553 Z-0.093
X30.006 Y30.567
X30.177 Y30.776
X30.186 Y30.794
X30.178 Y30.813
X30.061 Y30.969
X30.051 Y30.984
X30.042 Y30.998
X30.034 Y31.014
X30.029 Y31.029
X30.024 Y31.044
X30.021 Y31.06
X30.019 Y31.085
X29.998 Y31.107
X29.978 Y31.109
X29.956 Y31.114
X29.935 Y31.121
X29.912 Y31.132
X29.889 Y31.147 Z-0.094
X29.786 Y31.22
X29.768 Y31.232
X29.693 Y31.247
X29.675 Y31.249
X29.359 Y31.194
X26.812 Y30.494 Z-0.095
X26.663 Y30.454 Z-0.096
X26.644 Y30.451
X26.626 Y30.45
X26.607 Y30.451
X26.589 Y30.453
X26.57 Y30.457
X26.551 Y30.464
X26.533 Y30.472
X26.514 Y30.483
X26.494 Y30.498
X26.474 Y30.518
X26.448 Y30.553
X26.42 Y30.59
X26.407 Y30.609
X26.396 Y30.627
X26.388 Y30.646
X26.382 Y30.664
X26.378 Y30.683
X26.376 Y30.702
Y30.72
X26.377 Y30.739
X26.381 Y30.757
X26.386 Y30.776
X26.393 Y30.794
X26.402 Y30.813
X27.726 Y33.225 Z-0.098
X27.802 Y33.374
X27.906 Y33.597
X27.913 Y33.615
X27.91 Y33.671
X27.909 Y33.687
X27.845 Y33.819
X27.828 Y33.856
X27.821 Y33.875
X27.817 Y33.893
X27.814 Y33.912
Y33.931
X27.815 Y33.949
X27.817 Y33.968
X27.822 Y33.988
X27.83 Y34.008
X27.84 Y34.028
X27.853 Y34.048
X27.869 Y34.067
X27.891 Y34.087
X27.93 Y34.116
X27.966 Y34.143
X27.984 Y34.154
X28.001 Y34.163
X28.02 Y34.17
X28.039 Y34.175
X28.057 Y34.178
X28.076 Y34.179
X28.094 Y34.178
X28.113 Y34.176
X28.132 Y34.172
X28.15 Y34.166
X28.169 Y34.158
X28.187 Y34.147
X28.206 Y34.134
X28.224 Y34.116
X28.244 Y34.092
X28.903 Y33.225 Z-0.099
X29.016 Y33.077
X29.025 Y33.062
X29.032 Y33.047
X29.038 Y33.033
X29.043 Y33.018
X29.047 Y32.996
X29.049 Y32.973
X29.048 Y32.951
X29.045 Y32.928
X29.043 Y32.917
X29.037 Y32.899
X29.03 Y32.882
X29.021 Y32.865
X29.009 Y32.848
X28.993 Y32.829
X28.971 Y32.81
X28.933 Y32.78
X28.894 Y32.75
X28.875 Y32.739
X28.857 Y32.731
X28.838 Y32.724
X28.819 Y32.72
X28.801 Y32.717
X28.782
X28.764 Y32.718
X28.745 Y32.72
X28.732 Y32.723 Z-0.1
X28.718 Y32.728
X28.704 Y32.733
X28.691 Y32.739
X28.677 Y32.747
X28.664 Y32.757
X28.637 Y32.78
X28.524 Y32.882
X28.511 Y32.869
X28.352 Y32.632
X28.299 Y32.541
X27.647 Y31.36 Z-0.101
X27.663 Y31.34
X28.894 Y31.682 Z-0.102
X29.043 Y31.728
X29.293 Y31.821
X29.307 Y31.836
X29.255 Y31.963
X29.24 Y32.001
X29.235 Y32.019
X29.231 Y32.038
X29.229 Y32.056
X29.228 Y32.075
X29.23 Y32.093
X29.233 Y32.112
X29.238 Y32.13
X29.245 Y32.149
X29.254 Y32.168
X29.267 Y32.186
X29.282 Y32.205
X29.303 Y32.224
X29.34 Y32.253
X29.377 Y32.282
X29.396 Y32.294
X29.414 Y32.303
X29.433 Y32.31
X29.452 Y32.315
X29.47 Y32.318
X29.489 Y32.32
X29.507 Y32.319
X29.526 Y32.317
X29.544 Y32.313
X29.563 Y32.307
X29.582 Y32.299
X29.6 Y32.288
X29.619 Y32.275
X29.637 Y32.257
X29.652 Y32.239
X30.232 Y31.476 Z-0.103
X30.243 Y31.46
X30.252 Y31.444
X30.257 Y31.431
X30.262 Y31.419
X30.266 Y31.406
X30.268 Y31.393
X30.27 Y31.381
X30.271 Y31.368
X30.294 Y31.346
X30.316 Y31.343
X30.333 Y31.339
X30.349 Y31.334
X30.365 Y31.327
X30.381 Y31.318
X30.396 Y31.308
X30.412 Y31.295
X30.428 Y31.279
X32.017 Y29.538 Z-0.105
X32.039 Y29.514
X32.053 Y29.495
X32.064 Y29.477
X32.072 Y29.458
X32.078 Y29.44
X32.082 Y29.421
X32.085 Y29.403
Y29.384
X32.084 Y29.365
X32.082 Y29.349
X32.078 Y29.333
X32.073 Y29.317
X32.066 Y29.3
X32.057 Y29.284
X32.046 Y29.268
X32.032 Y29.252
X31.571 Y28.766
X31.552 Y28.747
X31.534 Y28.732
X31.515 Y28.72
X31.497 Y28.71
X31.478 Y28.703
X31.459 Y28.698
X31.441 Y28.695
X31.422 Y28.694
X31.404
X31.385 Y28.696
X31.366 Y28.7
X31.348 Y28.706
X31.329 Y28.714
X31.311 Y28.725
X31.292 Y28.738
X31.273 Y28.755
X31.205 Y28.83
X31.192 Y28.816
X31.181 Y28.801
X31.168 Y28.786
X31.125 Y28.746
X30.366 Y28.041
X30.351 Y28.029
X30.336 Y28.019
X30.321 Y28.011
X30.306 Y28.005
X30.292 Y28.
X30.277 Y27.996
X30.262 Y27.993
X30.247 Y27.992
X30.232 Y27.991
X30.218 Y27.992
X30.204 Y27.994
X30.189 Y27.997
X30.175 Y28.
X30.161 Y28.006
X30.147 Y28.012
X30.132 Y28.02
X30.118 Y28.029
X30.101 Y28.043
X30.084 Y28.061
X30.031 Y28.119
X30.019 Y28.134
X30.009 Y28.149
X30.001 Y28.163
X29.995 Y28.178
X29.988 Y28.196
X29.984 Y28.215
X29.981 Y28.233
X29.98 Y28.252
X29.981 Y28.271
X29.983 Y28.289
X29.988 Y28.308
X29.994 Y28.326
X30.002 Y28.343
X30.011 Y28.359
X30.035 Y28.392
X30.136 Y28.53
X30.144 Y28.549
X30.148 Y28.567
X30.15 Y28.586
X29.993 Y28.838
X29.98 Y28.855
X29.731 Y29.128
X29.712 Y29.145
X29.043 Y28.524
X29.019 Y28.5
X29.014 Y28.475
X29.043 Y28.439
X29.146 Y28.326
X29.453 Y27.99
X29.471 Y27.973
X29.623 Y27.846
X29.637 Y27.839
X29.768 Y27.795
X29.786 Y27.796
X30.232 Y27.845
X30.307 Y27.853
X30.325
X30.344 Y27.851
X30.362 Y27.848
X30.381 Y27.842
X30.398 Y27.835
X30.414 Y27.827
X30.431 Y27.816
X30.447 Y27.803
X30.465 Y27.785
X30.514 Y27.732
X30.53 Y27.714
X30.542 Y27.698
X30.551 Y27.682
X30.559 Y27.665
X30.565 Y27.649
X30.569 Y27.633
X30.572 Y27.616
X30.573 Y27.6
Y27.584
X30.572 Y27.569
X30.57 Y27.554
X30.567 Y27.54
X30.563 Y27.525
X30.557 Y27.51
X30.549 Y27.495
X30.541 Y27.48
X30.53 Y27.466
X30.515 Y27.449
X30.5 Y27.435
X30.485 Y27.425
X30.47 Y27.416
X30.44 Y27.402
X29.712 Y27.075
X29.693 Y27.067
X29.675 Y27.062
X29.656 Y27.058
X29.637 Y27.056
X29.619
X29.6 Y27.058
X29.582 Y27.061
X29.563 Y27.067
X29.544 Y27.074
X29.526 Y27.084
X29.507 Y27.096
X29.489 Y27.112
X29.464 Y27.138
X27.974 Y28.772
X27.853 Y28.904
X27.841 Y28.92
X27.829 Y28.939
X27.821 Y28.957
X27.814 Y28.976
X27.809 Y28.994
X27.807 Y29.013
X27.806 Y29.031
Y29.05
X27.809 Y29.068
X27.815 Y29.092
X27.823 Y29.115
X27.836 Y29.138
X27.853 Y29.161
X27.867 Y29.176
X27.933 Y29.238
X27.956 Y29.256
X27.979 Y29.269
X28.001 Y29.278
X28.02 Y29.283
X28.039 Y29.287
X28.057 Y29.288
X28.076
X28.094 Y29.286
X28.113 Y29.283
X28.132 Y29.277
X28.15 Y29.269
X28.168 Y29.26
X28.185 Y29.248
X28.22 Y29.217
X28.336 Y29.112
X28.355 Y29.097
X28.373 Y29.098
X28.612 Y29.266
X29.994 Y30.553
X30.006 Y30.567
X30.177 Y30.776
X30.186 Y30.794
X30.178 Y30.813
X30.061 Y30.969
X30.051 Y30.984
X30.042 Y30.998
X30.034 Y31.014
X30.029 Y31.029
X30.024 Y31.044
X30.021 Y31.06
X30.019 Y31.085
X29.998 Y31.107
X29.978 Y31.109
X29.956 Y31.114
X29.935 Y31.121
X29.912 Y31.132
X29.889 Y31.147
X29.786 Y31.22
X29.768 Y31.232
X29.693 Y31.247
X29.675 Y31.249
X29.359 Y31.194
X26.812 Y30.494
X26.663 Y30.454
X26.644 Y30.451
X26.626 Y30.45
X26.607 Y30.451
X26.589 Y30.453
X26.57 Y30.457
X26.551 Y30.464
X26.533 Y30.472
X26.514 Y30.483
X26.494 Y30.498
X26.474 Y30.518
X26.448 Y30.553
X26.42 Y30.59
X26.407 Y30.609
X26.396 Y30.627
X26.388 Y30.646
X26.382 Y30.664
X26.378 Y30.683
X26.376 Y30.702
Y30.72
X26.377 Y30.739
X26.381 Y30.757
X26.386 Y30.776
X26.393 Y30.794
X26.402 Y30.813
X27.726 Y33.225
X27.802 Y33.374
X27.906 Y33.597
X27.913 Y33.615
X27.91 Y33.671
X27.909 Y33.687
X27.845 Y33.819
X27.828 Y33.856
X27.821 Y33.875
X27.817 Y33.893
X27.814 Y33.912
Y33.931
X27.815 Y33.949
X27.817 Y33.968
X27.822 Y33.988
X27.83 Y34.008
X27.84 Y34.028
X27.853 Y34.048
X27.869 Y34.067
X27.891 Y34.087
X27.93 Y34.116
X27.966 Y34.143
X27.984 Y34.154
X28.001 Y34.163
X28.02 Y34.17
X28.039 Y34.175
X28.057 Y34.178
X28.076 Y34.179
X28.094 Y34.178
X28.113 Y34.176
X28.132 Y34.172
X28.15 Y34.166
X28.169 Y34.158
X28.187 Y34.147
X28.206 Y34.134
X28.224 Y34.116
X28.244 Y34.092
X28.903 Y33.225
X29.016 Y33.077
X29.025 Y33.062
X29.032 Y33.047
X29.038 Y33.033
X29.043 Y33.018
X29.047 Y32.996
X29.049 Y32.973
X29.048 Y32.951
X29.045 Y32.928
X29.043 Y32.917
X29.037 Y32.899
X29.03 Y32.882
X29.021 Y32.865
X29.009 Y32.848
X28.993 Y32.829
X28.971 Y32.81
X28.933 Y32.78
X28.894 Y32.75
X28.875 Y32.739
X28.857 Y32.731
X28.838 Y32.724
X28.819 Y32.72
X28.801 Y32.717
X28.782
X28.764 Y32.718
X28.745 Y32.72
X28.732 Y32.723
X28.718 Y32.728
X28.704 Y32.733
X28.691 Y32.739
X28.677 Y32.747
X28.664 Y32.757
X28.637 Y32.78
X28.524 Y32.882
X28.511 Y32.869
X28.352 Y32.632
X28.299 Y32.541
X27.647 Y31.36
X27.663 Y31.34
X28.894 Y31.682
X29.043 Y31.728
X29.293 Y31.821
X29.307 Y31.836
X29.255 Y31.963
X29.24 Y32.001
X29.235 Y32.019
X29.231 Y32.038
X29.229 Y32.056
X29.228 Y32.075
X29.23 Y32.093
X29.233 Y32.112
X29.238 Y32.13
X29.245 Y32.149
X29.254 Y32.168
X29.267 Y32.186
X29.282 Y32.205
X29.303 Y32.224
X29.34 Y32.253
X29.377 Y32.282
X29.396 Y32.294
X29.414 Y32.303
X29.433 Y32.31
X29.452 Y32.315
X29.47 Y32.318
X29.489 Y32.32
X29.507 Y32.319
X29.526 Y32.317
X29.544 Y32.313
X29.563 Y32.307
X29.582 Y32.299
X29.6 Y32.288
X29.619 Y32.275
X29.637 Y32.257
X29.652 Y32.239
X30.232 Y31.476
X30.243 Y31.46
X30.252 Y31.444
X30.257 Y31.431
X30.262 Y31.419
X30.266 Y31.406
X30.268 Y31.393
X30.27 Y31.381
X30.271 Y31.368
X30.294 Y31.346
X30.316 Y31.343
X30.333 Y31.339
X30.349 Y31.334
X30.365 Y31.327
X30.381 Y31.318
X30.396 Y31.308
X30.412 Y31.295
X30.428 Y31.279
X32.017 Y29.538
X32.039 Y29.514
X32.053 Y29.495
X32.064 Y29.477
X32.072 Y29.458
X32.078 Y29.44
X32.082 Y29.421
X32.085 Y29.403
Y29.384
X32.084 Y29.365
X32.082 Y29.349
X32.078 Y29.333
X32.073 Y29.317
X32.066 Y29.3
X32.057 Y29.284
X32.046 Y29.268
X32.032 Y29.252
X31.571 Y28.766
X31.552 Y28.747
X31.534 Y28.732
X31.515 Y28.72
X31.497 Y28.71
X31.478 Y28.703
X31.459 Y28.698
X31.441 Y28.695
X31.422 Y28.694
X31.404
X31.385 Y28.696
X31.366 Y28.7
X31.348 Y28.706
X31.329 Y28.714
X31.311 Y28.725
X31.292 Y28.738
X31.273 Y28.755
X31.205 Y28.83
X31.192 Y28.816
X31.181 Y28.801
X31.168 Y28.786
X31.125 Y28.746
X30.366 Y28.041 Z-0.106
X30.351 Y28.029
X30.336 Y28.019
X30.321 Y28.011
X30.306 Y28.005
X30.292 Y28.
X30.277 Y27.996
X30.262 Y27.993
X30.247 Y27.992
X30.232 Y27.991
X30.218 Y27.992
X30.204 Y27.994
X30.189 Y27.997
X30.175 Y28.
X30.161 Y28.006
X30.147 Y28.012
X30.132 Y28.02
X30.118 Y28.029
X30.101 Y28.043
X30.084 Y28.061
X30.031 Y28.119
X30.019 Y28.134
X30.009 Y28.149
X30.001 Y28.163
X29.995 Y28.178
X29.988 Y28.196
X29.984 Y28.215
X29.981 Y28.233
X29.98 Y28.252
X29.981 Y28.271
X29.983 Y28.289
X29.988 Y28.308
X29.994 Y28.326
X30.002 Y28.343
X30.011 Y28.359
X30.035 Y28.392
X30.136 Y28.53 Z-0.107
X30.144 Y28.549
X30.148 Y28.567
X30.15 Y28.586
X29.993 Y28.838
X29.98 Y28.855
X29.731 Y29.128
X29.712 Y29.145
X29.043 Y28.524 Z-0.108
X29.019 Y28.5
X29.014 Y28.475
X29.043 Y28.439
X29.146 Y28.326
X29.453 Y27.99
X29.471 Y27.973
X29.623 Y27.846
X29.637 Y27.839
X29.768 Y27.795
X29.786 Y27.796
X30.232 Y27.845 Z-0.109
X30.307 Y27.853
X30.325
X30.344 Y27.851
X30.362 Y27.848
X30.381 Y27.842
X30.398 Y27.835
X30.414 Y27.827
X30.431 Y27.816
X30.447 Y27.803
X30.465 Y27.785
X30.514 Y27.732
X30.53 Y27.714
X30.542 Y27.698
X30.551 Y27.682
X30.559 Y27.665
X30.565 Y27.649
X30.569 Y27.633
X30.572 Y27.616
X30.573 Y27.6
Y27.584
X30.572 Y27.569
X30.57 Y27.554
X30.567 Y27.54
X30.563 Y27.525
X30.557 Y27.51
X30.549 Y27.495
X30.541 Y27.48
X30.53 Y27.466
X30.515 Y27.449
X30.5 Y27.435
X30.485 Y27.425
X30.47 Y27.416
X30.44 Y27.402
X29.712 Y27.075 Z-0.11
X29.693 Y27.067
X29.675 Y27.062
X29.656 Y27.058
X29.637 Y27.056
X29.619
X29.6 Y27.058
X29.582 Y27.061
X29.563 Y27.067
X29.544 Y27.074
X29.526 Y27.084
X29.507 Y27.096
X29.489 Y27.112
X29.464 Y27.138
X27.974 Y28.772 Z-0.111
X27.853 Y28.904
X27.841 Y28.92
X27.829 Y28.939
X27.821 Y28.957
X27.814 Y28.976
X27.809 Y28.994
X27.807 Y29.013
X27.806 Y29.031
Y29.05
X27.809 Y29.068
X27.815 Y29.092
X27.823 Y29.115
X27.836 Y29.138
X27.853 Y29.161
X27.867 Y29.176
X27.933 Y29.238
X27.956 Y29.256
X27.979 Y29.269
X28.001 Y29.278
X28.02 Y29.283
X28.039 Y29.287
X28.057 Y29.288
X28.076
X28.094 Y29.286
X28.113 Y29.283
X28.132 Y29.277 Z-0.112
X28.15 Y29.269
X28.168 Y29.26
X28.185 Y29.248
X28.22 Y29.217
X28.336 Y29.112
X28.355 Y29.097
X28.373 Y29.098
X28.612 Y29.266
X29.994 Y30.553 Z-0.113
X30.006 Y30.567
X30.177 Y30.776
X30.186 Y30.794
X30.178 Y30.813
X30.061 Y30.969
X30.051 Y30.984
X30.042 Y30.998
X30.034 Y31.014
X30.029 Y31.029
X30.024 Y31.044
X30.021 Y31.06
X30.019 Y31.085
X29.998 Y31.107
X29.978 Y31.109
X29.956 Y31.114
X29.935 Y31.121
X29.912 Y31.132
X29.889 Y31.147 Z-0.114
X29.786 Y31.22
X29.768 Y31.232
X29.693 Y31.247
X29.675 Y31.249
X29.359 Y31.194
X26.812 Y30.494 Z-0.115
X26.663 Y30.454 Z-0.116
X26.644 Y30.451
X26.626 Y30.45
X26.607 Y30.451
X26.589 Y30.453
X26.57 Y30.457
X26.551 Y30.464
X26.533 Y30.472
X26.514 Y30.483
X26.494 Y30.498
X26.474 Y30.518
X26.448 Y30.553
X26.42 Y30.59
X26.407 Y30.609
X26.396 Y30.627
X26.388 Y30.646
X26.382 Y30.664
X26.378 Y30.683
X26.376 Y30.702
Y30.72
X26.377 Y30.739
X26.381 Y30.757
X26.386 Y30.776
X26.393 Y30.794
X26.402 Y30.813
X27.726 Y33.225 Z-0.118
X27.802 Y33.374
X27.906 Y33.597
X27.913 Y33.615
X27.91 Y33.671
X27.909 Y33.687
X27.845 Y33.819
X27.828 Y33.856
X27.821 Y33.875
X27.817 Y33.893
X27.814 Y33.912
Y33.931
X27.815 Y33.949
X27.817 Y33.968
X27.822 Y33.988
X27.83 Y34.008
X27.84 Y34.028
X27.853 Y34.048
X27.869 Y34.067
X27.891 Y34.087
X27.93 Y34.116
X27.966 Y34.143
X27.984 Y34.154
X28.001 Y34.163
X28.02 Y34.17
X28.039 Y34.175
X28.057 Y34.178
X28.076 Y34.179
X28.094 Y34.178
X28.113 Y34.176
X28.132 Y34.172
X28.15 Y34.166
X28.169 Y34.158
X28.187 Y34.147
X28.206 Y34.134
X28.224 Y34.116
X28.244 Y34.092
X28.903 Y33.225 Z-0.119
X29.016 Y33.077
X29.025 Y33.062
X29.032 Y33.047
X29.038 Y33.033
X29.043 Y33.018
X29.047 Y32.996
X29.049 Y32.973
X29.048 Y32.951
X29.045 Y32.928
X29.043 Y32.917
X29.037 Y32.899
X29.03 Y32.882
X29.021 Y32.865
X29.009 Y32.848
X28.993 Y32.829
X28.971 Y32.81
X28.933 Y32.78
X28.894 Y32.75
X28.875 Y32.739
X28.857 Y32.731
X28.838 Y32.724
X28.819 Y32.72
X28.801 Y32.717
X28.782
X28.764 Y32.718
X28.745 Y32.72
X28.732 Y32.723 Z-0.12
X28.718 Y32.728
X28.704 Y32.733
X28.691 Y32.739
X28.677 Y32.747
X28.664 Y32.757
X28.637 Y32.78
X28.524 Y32.882
X28.511 Y32.869
X28.352 Y32.632
X28.299 Y32.541
X27.647 Y31.36 Z-0.121
X27.663 Y31.34
X28.894 Y31.682 Z-0.122
X29.043 Y31.728
X29.293 Y31.821
X29.307 Y31.836
X29.255 Y31.963
X29.24 Y32.001
X29.235 Y32.019
X29.231 Y32.038
X29.229 Y32.056
X29.228 Y32.075
X29.23 Y32.093
X29.233 Y32.112
X29.238 Y32.13
X29.245 Y32.149
X29.254 Y32.168
X29.267 Y32.186
X29.282 Y32.205
X29.303 Y32.224
X29.34 Y32.253
X29.377 Y32.282
X29.396 Y32.294
X29.414 Y32.303
X29.433 Y32.31
X29.452 Y32.315
X29.47 Y32.318
X29.489 Y32.32
X29.507 Y32.319
X29.526 Y32.317
X29.544 Y32.313
X29.563 Y32.307
X29.582 Y32.299
X29.6 Y32.288
X29.619 Y32.275
X29.637 Y32.257
X29.652 Y32.239
X30.232 Y31.476 Z-0.123
X30.243 Y31.46
X30.252 Y31.444
X30.257 Y31.431
X30.262 Y31.419
X30.266 Y31.406
X30.268 Y31.393
X30.27 Y31.381
X30.271 Y31.368
X30.294 Y31.346
X30.316 Y31.343
X30.333 Y31.339
X30.349 Y31.334
X30.365 Y31.327
X30.381 Y31.318
X30.396 Y31.308
X30.412 Y31.295
X30.428 Y31.279
X32.017 Y29.538 Z-0.125
X32.039 Y29.514
X32.053 Y29.495
X32.064 Y29.477
X32.072 Y29.458
X32.078 Y29.44
X32.082 Y29.421
X32.085 Y29.403
Y29.384
X32.084 Y29.365
X32.082 Y29.349
X32.078 Y29.333
X32.073 Y29.317
X32.066 Y29.3
X32.057 Y29.284
X32.046 Y29.268
X32.032 Y29.252
X31.571 Y28.766
X31.552 Y28.747
X31.534 Y28.732
X31.515 Y28.72
X31.497 Y28.71
X31.478 Y28.703
X31.459 Y28.698
X31.441 Y28.695
X31.422 Y28.694
X31.404
X31.385 Y28.696
X31.366 Y28.7
X31.348 Y28.706
X31.329 Y28.714
X31.311 Y28.725
X31.292 Y28.738
X31.273 Y28.755
X31.205 Y28.83
X31.192 Y28.816
X31.181 Y28.801
X31.168 Y28.786
X31.125 Y28.746
X30.366 Y28.041
X30.351 Y28.029
X30.336 Y28.019
X30.321 Y28.011
X30.306 Y28.005
X30.292 Y28.
X30.277 Y27.996
X30.262 Y27.993
X30.247 Y27.992
X30.232 Y27.991
X30.218 Y27.992
X30.204 Y27.994
X30.189 Y27.997
X30.175 Y28.
X30.161 Y28.006
X30.147 Y28.012
X30.132 Y28.02
X30.118 Y28.029
X30.101 Y28.043
X30.084 Y28.061
X30.031 Y28.119
X30.019 Y28.134
X30.009 Y28.149
X30.001 Y28.163
X29.995 Y28.178
X29.988 Y28.196
X29.984 Y28.215
X29.981 Y28.233
X29.98 Y28.252
X29.981 Y28.271
X29.983 Y28.289
X29.988 Y28.308
X29.994 Y28.326
X30.002 Y28.343
X30.011 Y28.359
X30.035 Y28.392
X30.136 Y28.53
X30.144 Y28.549
X30.148 Y28.567
X30.15 Y28.586
X29.993 Y28.838
X29.98 Y28.855
X29.731 Y29.128
X29.712 Y29.145
X29.043 Y28.524
X29.019 Y28.5
X29.014 Y28.475
X29.043 Y28.439
X29.146 Y28.326
X29.453 Y27.99
X29.471 Y27.973
X29.623 Y27.846
X29.637 Y27.839
X29.768 Y27.795
X29.786 Y27.796
X30.232 Y27.845
X30.307 Y27.853
X30.325
X30.344 Y27.851
X30.362 Y27.848
X30.381 Y27.842
X30.398 Y27.835
X30.414 Y27.827
X30.431 Y27.816
X30.447 Y27.803
X30.465 Y27.785
X30.514 Y27.732
X30.53 Y27.714
X30.542 Y27.698
X30.551 Y27.682
X30.559 Y27.665
X30.565 Y27.649
X30.569 Y27.633
X30.572 Y27.616
X30.573 Y27.6
Y27.584
X30.572 Y27.569
X30.57 Y27.554
X30.567 Y27.54
X30.563 Y27.525
X30.557 Y27.51
X30.549 Y27.495
X30.541 Y27.48
X30.53 Y27.466
X30.515 Y27.449
X30.5 Y27.435
X30.485 Y27.425
X30.47 Y27.416
X30.44 Y27.402
X29.712 Y27.075
X29.693 Y27.067
X29.675 Y27.062
X29.656 Y27.058
X29.637 Y27.056
X29.619
X29.6 Y27.058
X29.582 Y27.061
X29.563 Y27.067
X29.544 Y27.074
X29.526 Y27.084
X29.507 Y27.096
X29.489 Y27.112
X29.464 Y27.138
X27.974 Y28.772
X27.853 Y28.904
X27.841 Y28.92
X27.829 Y28.939
X27.821 Y28.957
X27.814 Y28.976
X27.809 Y28.994
X27.807 Y29.013
X27.806 Y29.031
Y29.05
X27.809 Y29.068
X27.815 Y29.092
X27.823 Y29.115
X27.836 Y29.138
X27.853 Y29.161
X27.867 Y29.176
X27.933 Y29.238
X27.956 Y29.256
X27.979 Y29.269
X28.001 Y29.278
X28.02 Y29.283
X28.039 Y29.287
X28.057 Y29.288
X28.076
X28.094 Y29.286
X28.113 Y29.283
X28.132 Y29.277
X28.15 Y29.269
X28.168 Y29.26
X28.185 Y29.248
X28.22 Y29.217
X28.336 Y29.112
X28.355 Y29.097
X28.373 Y29.098
X28.612 Y29.266
X29.994 Y30.553
X30.006 Y30.567
X30.177 Y30.776
X30.186 Y30.794
X30.178 Y30.813
X30.061 Y30.969
X30.051 Y30.984
X30.042 Y30.998
X30.034 Y31.014
X30.029 Y31.029
X30.024 Y31.044
X30.021 Y31.06
X30.019 Y31.085
X29.998 Y31.107
X29.978 Y31.109
X29.956 Y31.114
X29.935 Y31.121
X29.912 Y31.132
X29.889 Y31.147
X29.786 Y31.22
X29.768 Y31.232
X29.693 Y31.247
X29.675 Y31.249
X29.359 Y31.194
X26.812 Y30.494
X26.663 Y30.454
X26.644 Y30.451
X26.626 Y30.45
X26.607 Y30.451
X26.589 Y30.453
X26.57 Y30.457
X26.551 Y30.464
X26.533 Y30.472
X26.514 Y30.483
X26.494 Y30.498
X26.474 Y30.518
X26.448 Y30.553
X26.42 Y30.59
X26.407 Y30.609
X26.396 Y30.627
X26.388 Y30.646
X26.382 Y30.664
X26.378 Y30.683
X26.376 Y30.702
Y30.72
X26.377 Y30.739
X26.381 Y30.757
X26.386 Y30.776
X26.393 Y30.794
X26.402 Y30.813
X27.726 Y33.225
X27.802 Y33.374
X27.906 Y33.597
X27.913 Y33.615
X27.91 Y33.671
X27.909 Y33.687
X27.845 Y33.819
X27.828 Y33.856
X27.821 Y33.875
X27.817 Y33.893
X27.814 Y33.912
Y33.931
X27.815 Y33.949
X27.817 Y33.968
X27.822 Y33.988
X27.83 Y34.008
X27.84 Y34.028
X27.853 Y34.048
X27.869 Y34.067
X27.891 Y34.087
X27.93 Y34.116
X27.966 Y34.143
X27.984 Y34.154
X28.001 Y34.163
X28.02 Y34.17
X28.039 Y34.175
X28.057 Y34.178
X28.076 Y34.179
X28.094 Y34.178
X28.113 Y34.176
X28.132 Y34.172
X28.15 Y34.166
X28.169 Y34.158
X28.187 Y34.147
X28.206 Y34.134
X28.224 Y34.116
X28.244 Y34.092
X28.903 Y33.225
X29.016 Y33.077
X29.025 Y33.062
X29.032 Y33.047
X29.038 Y33.033
X29.043 Y33.018
X29.047 Y32.996
X29.049 Y32.973
X29.048 Y32.951
X29.045 Y32.928
X29.043 Y32.917
X29.037 Y32.899
X29.03 Y32.882
X29.021 Y32.865
X29.009 Y32.848
X28.993 Y32.829
X28.971 Y32.81
X28.933 Y32.78
X28.894 Y32.75
X28.875 Y32.739
X28.857 Y32.731
X28.838 Y32.724
X28.819 Y32.72
X28.801 Y32.717
X28.782
X28.764 Y32.718
X28.745 Y32.72
X28.732 Y32.723
X28.718 Y32.728
X28.704 Y32.733
X28.691 Y32.739
X28.677 Y32.747
X28.664 Y32.757
X28.637 Y32.78
X28.524 Y32.882
X28.511 Y32.869
X28.352 Y32.632
X28.299 Y32.541
X27.647 Y31.36
X27.663 Y31.34
X28.894 Y31.682
X29.043 Y31.728
X29.293 Y31.821
X29.307 Y31.836
X29.255 Y31.963
X29.24 Y32.001
X29.235 Y32.019
X29.231 Y32.038
X29.229 Y32.056
X29.228 Y32.075
X29.23 Y32.093
X29.233 Y32.112
X29.238 Y32.13
X29.245 Y32.149
X29.254 Y32.168
X29.267 Y32.186
X29.282 Y32.205
X29.303 Y32.224
X29.34 Y32.253
X29.377 Y32.282
X29.396 Y32.294
X29.414 Y32.303
X29.433 Y32.31
X29.452 Y32.315
X29.47 Y32.318
X29.489 Y32.32
X29.507 Y32.319
X29.526 Y32.317
X29.544 Y32.313
X29.563 Y32.307
X29.582 Y32.299
X29.6 Y32.288
X29.619 Y32.275
X29.637 Y32.257
X29.652 Y32.239
X30.232 Y31.476
X30.243 Y31.46
X30.252 Y31.444
X30.257 Y31.431
X30.262 Y31.419
X30.266 Y31.406
X30.268 Y31.393
X30.27 Y31.381
X30.271 Y31.368
X30.294 Y31.346
X30.316 Y31.343
X30.333 Y31.339
X30.349 Y31.334
X30.365 Y31.327
X30.381 Y31.318
X30.396 Y31.308
X30.412 Y31.295
X30.428 Y31.279
X32.017 Y29.538
X32.039 Y29.514
X32.053 Y29.495
X32.064 Y29.477
X32.072 Y29.458
X32.078 Y29.44
X32.082 Y29.421
X32.085 Y29.403
Y29.384
X32.084 Y29.365
X32.082 Y29.349
X32.078 Y29.333
X32.073 Y29.317
X32.066 Y29.3
X32.057 Y29.284
X32.046 Y29.268
X32.032 Y29.252
X31.571 Y28.766
X31.552 Y28.747
X31.534 Y28.732
X31.515 Y28.72
X31.497 Y28.71
X31.478 Y28.703
X31.459 Y28.698
X31.441 Y28.695
X31.422 Y28.694
X31.404
X31.385 Y28.696
X31.366 Y28.7
X31.348 Y28.706
X31.329 Y28.714
X31.311 Y28.725
X31.292 Y28.738
X31.273 Y28.755
X31.205 Y28.83
X31.199 Y28.837 Z-0.113
X31.197 Y28.839 Z-0.097
G0 Z5.
X31.172 Y29.621
Z1.935
G1 Z-0.045 F40.
X31.175 Y29.618 Z-0.064
X31.184 Y29.607 Z-0.079
X31.196 Y29.592 Z-0.084
X31.273 Y29.498 Z-0.089
X31.286 Y29.482
X31.296 Y29.465 Z-0.09
X31.331 Y29.382 Z-0.093
Y29.365 Z-0.094
X31.318 Y29.291 Z-0.096
X31.311 Y29.273 Z-0.097
X31.186 Y29.07 Z-0.105
Y29.068
X31.311 Y29.273 Z-0.107
X31.318 Y29.291
X31.331 Y29.365
Y29.382
X31.296 Y29.465 Z-0.108
X31.286 Y29.482
X31.273 Y29.498
X31.138 Y29.662 Z-0.109
X31.125 Y29.677 Z-0.11
X30.753 Y30.085 Z-0.113
X30.734 Y30.096
X30.14 Y29.543 Z-0.118
X30.132 Y29.528
X30.401 Y29.233 Z-0.12
X30.421 Y29.217
X30.646 Y29.044 Z-0.122
X30.662 Y29.043
X30.679 Y29.045
X30.702 Y29.053
X30.864 Y29.157 Z-0.123
X30.883 Y29.168
X30.902 Y29.176
X30.92 Y29.182 Z-0.124
X30.939 Y29.186
X30.957 Y29.188
X30.976
X30.995 Y29.187
X31.013 Y29.184
X31.032 Y29.179
X31.05 Y29.172
X31.069 Y29.163
X31.088 Y29.151 Z-0.125
X31.106 Y29.135
X31.125 Y29.116
X31.168 Y29.068
X31.186
X31.192 Z-0.114
X31.194 Z-0.101
G0 Z5.
X31.17 Y29.622
Z1.935
G1 Z-0.065 F40.
X31.173 Y29.618 Z-0.084
X31.182 Y29.607 Z-0.099
X31.195 Y29.593 Z-0.104
X31.215 Y29.57 Z-0.105
X31.275 Y29.496 Z-0.109
X31.3 Y29.455 Z-0.11
X31.319 Y29.411 Z-0.112
X31.331 Y29.365 Z-0.114
X31.323 Y29.317 Z-0.115
X31.311 Y29.272 Z-0.117
X31.186 Y29.07 Z-0.125
Y29.068
X31.311 Y29.272 Z-0.127
X31.323 Y29.317
X31.331 Y29.365
X31.319 Y29.411 Z-0.128
X31.3 Y29.455
X31.275 Y29.496
X31.215 Y29.57 Z-0.129
X31.09 Y29.715 Z-0.13
X30.758 Y30.079 Z-0.133
X30.738 Y30.1
X30.696 Y30.061
X30.135 Y29.539 Z-0.138
X30.159 Y29.498
X30.383 Y29.253 Z-0.14
X30.417 Y29.22
X30.643 Y29.046 Z-0.142
X30.692 Y29.047
X30.853 Y29.15 Z-0.143
X30.895 Y29.173
X30.941 Y29.186 Z-0.144
X30.989 Y29.188
X31.036 Y29.178
X31.078 Y29.157 Z-0.145
X31.114 Y29.128
X31.146 Y29.093
X31.186 Y29.068
X31.212 Y29.111
X31.311 Y29.273
X31.318 Y29.291
X31.331 Y29.365
Y29.382
X31.303 Y29.448
X31.295 Y29.465
X31.273 Y29.498
X31.261 Y29.514
X31.138 Y29.662
X31.125 Y29.677
X30.753 Y30.085
X30.734 Y30.096
X30.14 Y29.543
X30.132 Y29.528
X30.401 Y29.233
X30.421 Y29.217
X30.646 Y29.044
X30.662 Y29.043
X30.679 Y29.045
X30.702 Y29.053
X30.864 Y29.157
X30.883 Y29.168
X30.902 Y29.176
X30.92 Y29.182
X30.939 Y29.186
X30.957 Y29.188
X30.976
X30.995 Y29.187
X31.013 Y29.184
X31.032 Y29.179
X31.05 Y29.172
X31.069 Y29.163
X31.088 Y29.151
X31.106 Y29.135
X31.125 Y29.116
X31.168 Y29.068
X31.186
X31.212 Y29.111
X31.222 Y29.128 Z-0.14
X31.23 Y29.14 Z-0.126
X31.233 Y29.145 Z-0.106
G0 Z5.
X44.506 Y22.452
Z1.701
G1 Z-0.238 F40.
X44.504 Y22.448 Z-0.258
X44.5 Y22.435 Z-0.272
X44.493 Y22.417 Z-0.278
X44.482 Y22.388 Z-0.279
X44.51 Y22.463 Z-0.282
X44.519 Y22.482 Z-0.283
X44.531 Y22.5
X44.546 Y22.518 Z-0.284
X44.566 Y22.536 Z-0.285
X44.636 Y22.592 Z-0.288
X44.566 Y22.536 Z-0.291
X44.546 Y22.518 Z-0.292
X44.531 Y22.5 Z-0.293
X44.519 Y22.482 Z-0.294
X44.51 Y22.463 Z-0.295
X44.482 Y22.388 Z-0.297
X44.498 Y22.432 Z-0.299
X44.499 Y22.433
X44.482 Y22.388 Z-0.301
X44.51 Y22.463 Z-0.304
X44.519 Y22.482
X44.531 Y22.5 Z-0.305
X44.546 Y22.518 Z-0.306
X44.566 Y22.536 Z-0.307
X44.636 Y22.592 Z-0.31
X44.566 Y22.536 Z-0.313
X44.546 Y22.518 Z-0.314
X44.531 Y22.5 Z-0.315
X44.519 Y22.482 Z-0.316
X44.51 Y22.463
X44.482 Y22.388 Z-0.319
X44.51 Y22.463
X44.519 Y22.482
X44.531 Y22.5
X44.546 Y22.518
X44.566 Y22.536
X44.636 Y22.592
X44.651 Y22.604 Z-0.314
X44.662 Y22.613 Z-0.299
X44.667 Y22.617 Z-0.279
G0 Z5.
X44.762 Y22.69
Z1.701
G1 Z-0.238 F40.
X44.76 Y22.688 Z-0.252
X44.753 Y22.685 Z-0.265
X44.743 Y22.677 Z-0.274
X44.73 Y22.668 Z-0.278
X44.706 Y22.649 Z-0.279
X44.73 Y22.668 Z-0.28
X44.753 Y22.685 Z-0.281
X44.767 Y22.693 Z-0.282
X44.78 Y22.699
X44.808 Y22.711 Z-0.283
X44.826 Y22.72 Z-0.284
X44.845 Y22.726 Z-0.285
X44.863 Y22.73
X44.882 Y22.733 Z-0.286
X44.863 Y22.73 Z-0.287
X44.845 Y22.726
X44.826 Y22.72 Z-0.288
X44.808 Y22.711 Z-0.289
X44.78 Y22.699 Z-0.29
X44.767 Y22.693
X44.753 Y22.685 Z-0.291
X44.73 Y22.668 Z-0.292
X44.706 Y22.649 Z-0.293
X44.73 Y22.668 Z-0.294
X44.753 Y22.685 Z-0.295
X44.767 Y22.693 Z-0.296
X44.78 Y22.699
X44.808 Y22.711 Z-0.297
X44.826 Y22.72 Z-0.298
X44.845 Y22.726
X44.861 Y22.73 Z-0.299
X44.862
X44.845 Y22.726 Z-0.3
X44.826 Y22.72
X44.808 Y22.711 Z-0.301
X44.78 Y22.699 Z-0.302
X44.767 Y22.693 Z-0.303
X44.753 Y22.685
X44.73 Y22.668 Z-0.304
X44.706 Y22.649 Z-0.305
X44.73 Y22.668 Z-0.306
X44.753 Y22.685 Z-0.307
X44.767 Y22.693 Z-0.308
X44.78 Y22.699
X44.808 Y22.711 Z-0.309
X44.826 Y22.72 Z-0.31
X44.845 Y22.726 Z-0.311
X44.863 Y22.73 Z-0.312
X44.882 Y22.733
X44.863 Y22.73 Z-0.313
X44.845 Y22.726 Z-0.314
X44.826 Y22.72
X44.808 Y22.711 Z-0.315
X44.78 Y22.699 Z-0.316
X44.767 Y22.693
X44.753 Y22.685 Z-0.317
X44.73 Y22.668 Z-0.318
X44.706 Y22.649 Z-0.319
X44.73 Y22.668
X44.753 Y22.685
X44.767 Y22.693
X44.78 Y22.699
X44.808 Y22.711
X44.826 Y22.72
X44.845 Y22.726
X44.863 Y22.73
X44.882 Y22.733
X44.902 Y22.736 Z-0.314
X44.916 Y22.737 Z-0.299
X44.921 Y22.738 Z-0.279
G0 Z5.
X45.975 Y22.864
Z1.701
G1 Z-0.238 F40.
X45.98 Y22.865 Z-0.258
X45.994 Z-0.272
X46.013 Y22.866 Z-0.278
X46.615 Y22.887 Z-0.299
X46.616
X45.551 Y22.849 Z-0.313
X45.481 Y22.846 Z-0.314
X45.463 Y22.844
X45.049 Y22.761 Z-0.319
X45.463 Y22.844
X45.481 Y22.846
X45.551 Y22.849
X46.616 Y22.887
X45.551 Y22.849 Z-0.333
X45.481 Y22.846 Z-0.334
X45.463 Y22.844
X45.049 Y22.761 Z-0.339
X45.463 Y22.844
X45.481 Y22.846
X45.551 Y22.849
X46.616 Y22.887
X46.636 Y22.888 Z-0.334
X46.65 Z-0.319
X46.656 Y22.889 Z-0.299
G0 Z5.
X44.762 Y22.69
Z1.701
G1 Z-0.258 F40.
X44.76 Y22.688 Z-0.272
X44.753 Y22.685 Z-0.285
X44.743 Y22.677 Z-0.294
X44.73 Y22.668 Z-0.298
X44.706 Y22.649 Z-0.299
X44.73 Y22.668 Z-0.3
X44.753 Y22.685 Z-0.301
X44.767 Y22.693 Z-0.302
X44.78 Y22.699
X44.808 Y22.711 Z-0.303
X44.826 Y22.72 Z-0.304
X44.845 Y22.726 Z-0.305
X44.863 Y22.73
X44.882 Y22.733 Z-0.306
X44.863 Y22.73 Z-0.307
X44.845 Y22.726
X44.826 Y22.72 Z-0.308
X44.808 Y22.711 Z-0.309
X44.78 Y22.699 Z-0.31
X44.767 Y22.693
X44.753 Y22.685 Z-0.311
X44.73 Y22.668 Z-0.312
X44.706 Y22.649 Z-0.313
X44.73 Y22.668 Z-0.314
X44.753 Y22.685 Z-0.315
X44.767 Y22.693 Z-0.316
X44.78 Y22.699
X44.808 Y22.711 Z-0.317
X44.826 Y22.72 Z-0.318
X44.845 Y22.726
X44.861 Y22.73 Z-0.319
X44.862
X44.845 Y22.726 Z-0.32
X44.826 Y22.72
X44.808 Y22.711 Z-0.321
X44.78 Y22.699 Z-0.322
X44.767 Y22.693 Z-0.323
X44.753 Y22.685
X44.73 Y22.668 Z-0.324
X44.706 Y22.649 Z-0.325
X44.73 Y22.668 Z-0.326
X44.753 Y22.685 Z-0.327
X44.767 Y22.693 Z-0.328
X44.78 Y22.699
X44.808 Y22.711 Z-0.329
X44.826 Y22.72 Z-0.33
X44.845 Y22.726 Z-0.331
X44.863 Y22.73 Z-0.332
X44.882 Y22.733
X44.863 Y22.73 Z-0.333
X44.845 Y22.726 Z-0.334
X44.826 Y22.72
X44.808 Y22.711 Z-0.335
X44.78 Y22.699 Z-0.336
X44.767 Y22.693
X44.753 Y22.685 Z-0.337
X44.73 Y22.668 Z-0.338
X44.706 Y22.649 Z-0.339
X44.73 Y22.668
X44.753 Y22.685
X44.767 Y22.693
X44.78 Y22.699
X44.808 Y22.711
X44.826 Y22.72
X44.845 Y22.726
X44.863 Y22.73
X44.882 Y22.733
X44.896 Y22.735 Z-0.333
X44.901 Y22.736 Z-0.319
G0 Z5.
X45.975 Y22.864
Z1.701
G1 Z-0.278 F40.
X45.98 Y22.865 Z-0.298
X45.994 Z-0.312
X46.013 Y22.866 Z-0.318
X46.615 Y22.887 Z-0.339
X46.616
X45.551 Y22.849 Z-0.353
X45.481 Y22.846 Z-0.354
X45.463 Y22.844
X45.049 Y22.761 Z-0.359
X45.463 Y22.844
X45.481 Y22.846
X45.551 Y22.849
X46.616 Y22.887
X46.636 Y22.888 Z-0.354
X46.65 Z-0.339
X46.656 Y22.889 Z-0.319
G0 Z5.
X44.405 Y22.141
Z1.705
G1 Z-0.238 F40.
Y22.136 Z-0.258
X44.406 Y22.122 Z-0.272
X44.407 Y22.103 Z-0.278
X44.408 Y22.091
X44.41 Y22.072 Z-0.279
X44.408 Y22.091 Z-0.28
X44.403 Y22.165 Z-0.282
X44.406 Y22.202 Z-0.284
X44.408 Y22.221
X44.411 Y22.239 Z-0.285
X44.416 Y22.258 Z-0.286
X44.423 Y22.276
X44.433 Y22.295 Z-0.287
X44.445 Y22.314 Z-0.288
X44.433 Y22.295 Z-0.289
X44.423 Y22.276
X44.416 Y22.258 Z-0.29
X44.411 Y22.239 Z-0.291
X44.408 Y22.221
X44.406 Y22.202 Z-0.292
X44.403 Y22.165 Z-0.293
X44.408 Y22.091 Z-0.296
X44.41 Y22.072 Z-0.297
X44.408 Y22.091
X44.405 Y22.144 Z-0.299
X44.404 Y22.145
X44.408 Y22.091 Z-0.301
X44.41 Y22.072 Z-0.302
X44.408 Y22.091
X44.403 Y22.165 Z-0.305
X44.406 Y22.202 Z-0.306
X44.408 Y22.221 Z-0.307
X44.411 Y22.239
X44.416 Y22.258 Z-0.308
X44.423 Y22.276 Z-0.309
X44.433 Y22.295 Z-0.31
X44.445 Y22.314
X44.433 Y22.295 Z-0.311
X44.423 Y22.276 Z-0.312
X44.416 Y22.258 Z-0.313
X44.411 Y22.239
X44.408 Y22.221 Z-0.314
X44.406 Y22.202 Z-0.315
X44.403 Y22.165 Z-0.316
X44.408 Y22.091 Z-0.318
X44.41 Y22.072 Z-0.319
X44.408 Y22.091
X44.403 Y22.165
X44.406 Y22.202
X44.408 Y22.221
X44.411 Y22.239
X44.416 Y22.258
X44.423 Y22.276
X44.433 Y22.295
X44.445 Y22.314
X44.456 Y22.33 Z-0.314
X44.464 Y22.342 Z-0.299
X44.467 Y22.347 Z-0.279
G0 Z5.
X44.506 Y22.452
Z1.701
G1 Z-0.258 F40.
X44.504 Y22.448 Z-0.278
X44.5 Y22.435 Z-0.292
X44.493 Y22.417 Z-0.298
X44.482 Y22.388 Z-0.299
X44.51 Y22.463 Z-0.302
X44.519 Y22.482 Z-0.303
X44.531 Y22.5
X44.546 Y22.518 Z-0.304
X44.566 Y22.536 Z-0.305
X44.636 Y22.592 Z-0.308
X44.566 Y22.536 Z-0.311
X44.546 Y22.518 Z-0.312
X44.531 Y22.5 Z-0.313
X44.519 Y22.482 Z-0.314
X44.51 Y22.463 Z-0.315
X44.482 Y22.388 Z-0.317
X44.498 Y22.432 Z-0.319
X44.499 Y22.433
X44.482 Y22.388 Z-0.321
X44.51 Y22.463 Z-0.324
X44.519 Y22.482
X44.531 Y22.5 Z-0.325
X44.546 Y22.518 Z-0.326
X44.566 Y22.536 Z-0.327
X44.636 Y22.592 Z-0.33
X44.566 Y22.536 Z-0.333
X44.546 Y22.518 Z-0.334
X44.531 Y22.5 Z-0.335
X44.519 Y22.482 Z-0.336
X44.51 Y22.463
X44.482 Y22.388 Z-0.339
X44.51 Y22.463
X44.519 Y22.482
X44.531 Y22.5
X44.546 Y22.518
X44.566 Y22.536
X44.636 Y22.592
X44.651 Y22.604 Z-0.334
X44.662 Y22.613 Z-0.319
X44.667 Y22.617 Z-0.299
G0 Z5.
X44.762 Y22.69
Z1.701
G1 Z-0.278 F40.
X44.76 Y22.688 Z-0.292
X44.753 Y22.685 Z-0.305
X44.743 Y22.677 Z-0.314
X44.73 Y22.668 Z-0.318
X44.706 Y22.649 Z-0.319
X44.73 Y22.668 Z-0.32
X44.753 Y22.685 Z-0.321
X44.767 Y22.693 Z-0.322
X44.78 Y22.699
X44.808 Y22.711 Z-0.323
X44.826 Y22.72 Z-0.324
X44.845 Y22.726 Z-0.325
X44.863 Y22.73
X44.882 Y22.733 Z-0.326
X44.863 Y22.73 Z-0.327
X44.845 Y22.726
X44.826 Y22.72 Z-0.328
X44.808 Y22.711 Z-0.329
X44.78 Y22.699 Z-0.33
X44.767 Y22.693
X44.753 Y22.685 Z-0.331
X44.73 Y22.668 Z-0.332
X44.706 Y22.649 Z-0.333
X44.73 Y22.668 Z-0.334
X44.753 Y22.685 Z-0.335
X44.767 Y22.693 Z-0.336
X44.78 Y22.699
X44.808 Y22.711 Z-0.337
X44.826 Y22.72 Z-0.338
X44.845 Y22.726
X44.861 Y22.73 Z-0.339
X44.862
X44.845 Y22.726 Z-0.34
X44.826 Y22.72
X44.808 Y22.711 Z-0.341
X44.78 Y22.699 Z-0.342
X44.767 Y22.693 Z-0.343
X44.753 Y22.685
X44.73 Y22.668 Z-0.344
X44.706 Y22.649 Z-0.345
X44.73 Y22.668 Z-0.346
X44.753 Y22.685 Z-0.347
X44.767 Y22.693 Z-0.348
X44.78 Y22.699
X44.808 Y22.711 Z-0.349
X44.826 Y22.72 Z-0.35
X44.845 Y22.726 Z-0.351
X44.863 Y22.73 Z-0.352
X44.882 Y22.733
X44.863 Y22.73 Z-0.353
X44.845 Y22.726 Z-0.354
X44.826 Y22.72
X44.808 Y22.711 Z-0.355
X44.78 Y22.699 Z-0.356
X44.767 Y22.693
X44.753 Y22.685 Z-0.357
X44.73 Y22.668 Z-0.358
X44.706 Y22.649 Z-0.359
X44.73 Y22.668
X44.753 Y22.685
X44.767 Y22.693
X44.78 Y22.699
X44.808 Y22.711
X44.826 Y22.72
X44.845 Y22.726
X44.863 Y22.73
X44.882 Y22.733
G0 Z5.
X45.975 Y22.864
Z1.701
G1 Z-0.298 F40.
X45.98 Y22.865 Z-0.318
X45.994 Z-0.332
X46.013 Y22.866 Z-0.338
X46.615 Y22.887 Z-0.359
X46.616
X45.551 Y22.849 Z-0.373
X45.481 Y22.846 Z-0.374
X45.463 Y22.844
X45.049 Y22.761 Z-0.379
X45.463 Y22.844
X45.481 Y22.846
X45.551 Y22.849
X46.616 Y22.887
X46.636 Y22.888 Z-0.374
X46.65 Z-0.359
X46.656 Y22.889 Z-0.339
G0 Z5.
X44.405 Y22.141
Z1.705
G1 Z-0.258 F40.
Y22.136 Z-0.278
X44.406 Y22.122 Z-0.292
X44.407 Y22.103 Z-0.298
X44.408 Y22.091
X44.41 Y22.072 Z-0.299
X44.408 Y22.091 Z-0.3
X44.403 Y22.165 Z-0.302
X44.406 Y22.202 Z-0.304
X44.408 Y22.221
X44.411 Y22.239 Z-0.305
X44.416 Y22.258 Z-0.306
X44.423 Y22.276
X44.433 Y22.295 Z-0.307
X44.445 Y22.314 Z-0.308
X44.433 Y22.295 Z-0.309
X44.423 Y22.276
X44.416 Y22.258 Z-0.31
X44.411 Y22.239 Z-0.311
X44.408 Y22.221
X44.406 Y22.202 Z-0.312
X44.403 Y22.165 Z-0.313
X44.408 Y22.091 Z-0.316
X44.41 Y22.072 Z-0.317
X44.408 Y22.091
X44.405 Y22.144 Z-0.319
X44.404 Y22.145
X44.408 Y22.091 Z-0.321
X44.41 Y22.072 Z-0.322
X44.408 Y22.091
X44.403 Y22.165 Z-0.325
X44.406 Y22.202 Z-0.326
X44.408 Y22.221 Z-0.327
X44.411 Y22.239
X44.416 Y22.258 Z-0.328
X44.423 Y22.276 Z-0.329
X44.433 Y22.295 Z-0.33
X44.445 Y22.314
X44.433 Y22.295 Z-0.331
X44.423 Y22.276 Z-0.332
X44.416 Y22.258 Z-0.333
X44.411 Y22.239
X44.408 Y22.221 Z-0.334
X44.406 Y22.202 Z-0.335
X44.403 Y22.165 Z-0.336
X44.408 Y22.091 Z-0.338
X44.41 Y22.072 Z-0.339
X44.408 Y22.091
X44.403 Y22.165
X44.406 Y22.202
X44.408 Y22.221
X44.411 Y22.239
X44.416 Y22.258
X44.423 Y22.276
X44.433 Y22.295
X44.445 Y22.314
X44.456 Y22.33 Z-0.334
X44.464 Y22.342 Z-0.319
X44.467 Y22.347 Z-0.299
G0 Z5.
X44.506 Y22.452
Z1.701
G1 Z-0.278 F40.
X44.504 Y22.448 Z-0.298
X44.5 Y22.435 Z-0.312
X44.493 Y22.417 Z-0.318
X44.482 Y22.388 Z-0.319
X44.51 Y22.463 Z-0.322
X44.519 Y22.482 Z-0.323
X44.531 Y22.5
X44.546 Y22.518 Z-0.324
X44.566 Y22.536 Z-0.325
X44.636 Y22.592 Z-0.328
X44.566 Y22.536 Z-0.331
X44.546 Y22.518 Z-0.332
X44.531 Y22.5 Z-0.333
X44.519 Y22.482 Z-0.334
X44.51 Y22.463 Z-0.335
X44.482 Y22.388 Z-0.337
X44.498 Y22.432 Z-0.339
X44.499 Y22.433
X44.482 Y22.388 Z-0.341
X44.51 Y22.463 Z-0.344
X44.519 Y22.482
X44.531 Y22.5 Z-0.345
X44.546 Y22.518 Z-0.346
X44.566 Y22.536 Z-0.347
X44.636 Y22.592 Z-0.35
X44.566 Y22.536 Z-0.353
X44.546 Y22.518 Z-0.354
X44.531 Y22.5 Z-0.355
X44.519 Y22.482 Z-0.356
X44.51 Y22.463
X44.482 Y22.388 Z-0.359
X44.51 Y22.463
X44.519 Y22.482
X44.531 Y22.5
X44.546 Y22.518
X44.566 Y22.536
X44.636 Y22.592
G0 Z5.
X44.762 Y22.69
Z1.701
G1 Z-0.298 F40.
X44.76 Y22.688 Z-0.312
X44.753 Y22.685 Z-0.325
X44.743 Y22.677 Z-0.334
X44.73 Y22.668 Z-0.338
X44.706 Y22.649 Z-0.339
X44.73 Y22.668 Z-0.34
X44.753 Y22.685 Z-0.341
X44.767 Y22.693 Z-0.342
X44.78 Y22.699
X44.808 Y22.711 Z-0.343
X44.826 Y22.72 Z-0.344
X44.845 Y22.726 Z-0.345
X44.863 Y22.73
X44.882 Y22.733 Z-0.346
X44.863 Y22.73 Z-0.347
X44.845 Y22.726
X44.826 Y22.72 Z-0.348
X44.808 Y22.711 Z-0.349
X44.78 Y22.699 Z-0.35
X44.767 Y22.693
X44.753 Y22.685 Z-0.351
X44.73 Y22.668 Z-0.352
X44.706 Y22.649 Z-0.353
X44.73 Y22.668 Z-0.354
X44.753 Y22.685 Z-0.355
X44.767 Y22.693 Z-0.356
X44.78 Y22.699
X44.808 Y22.711 Z-0.357
X44.826 Y22.72 Z-0.358
X44.845 Y22.726
X44.861 Y22.73 Z-0.359
X44.862
X44.845 Y22.726 Z-0.36
X44.826 Y22.72
X44.808 Y22.711 Z-0.361
X44.78 Y22.699 Z-0.362
X44.767 Y22.693 Z-0.363
X44.753 Y22.685
X44.73 Y22.668 Z-0.364
X44.706 Y22.649 Z-0.365
X44.73 Y22.668 Z-0.366
X44.753 Y22.685 Z-0.367
X44.767 Y22.693 Z-0.368
X44.78 Y22.699
X44.808 Y22.711 Z-0.369
X44.826 Y22.72 Z-0.37
X44.845 Y22.726 Z-0.371
X44.863 Y22.73 Z-0.372
X44.882 Y22.733
X44.863 Y22.73 Z-0.373
X44.845 Y22.726 Z-0.374
X44.826 Y22.72
X44.808 Y22.711 Z-0.375
X44.78 Y22.699 Z-0.376
X44.767 Y22.693
X44.753 Y22.685 Z-0.377
X44.73 Y22.668 Z-0.378
X44.706 Y22.649 Z-0.379
X44.73 Y22.668
X44.753 Y22.685
X44.767 Y22.693
X44.78 Y22.699
X44.808 Y22.711
X44.826 Y22.72
X44.845 Y22.726
X44.863 Y22.73
X44.882 Y22.733
G0 Z5.
X45.975 Y22.864
Z1.701
G1 Z-0.318 F40.
X45.98 Y22.865 Z-0.338
X45.994 Z-0.352
X46.013 Y22.866 Z-0.358
X46.615 Y22.887 Z-0.379
X46.616
X45.551 Y22.849 Z-0.393
X45.481 Y22.846 Z-0.394
X45.463 Y22.844
X45.049 Y22.761 Z-0.399
X45.463 Y22.844
X45.481 Y22.846
X45.551 Y22.849
X46.616 Y22.887
X46.636 Y22.888 Z-0.394
X46.65 Z-0.379
X46.656 Y22.889 Z-0.359
G0 Z5.
X44.405 Y22.141
Z1.705
G1 Z-0.278 F40.
Y22.136 Z-0.298
X44.406 Y22.122 Z-0.312
X44.407 Y22.103 Z-0.318
X44.408 Y22.091
X44.41 Y22.072 Z-0.319
X44.408 Y22.091 Z-0.32
X44.403 Y22.165 Z-0.322
X44.406 Y22.202 Z-0.324
X44.408 Y22.221
X44.411 Y22.239 Z-0.325
X44.416 Y22.258 Z-0.326
X44.423 Y22.276
X44.433 Y22.295 Z-0.327
X44.445 Y22.314 Z-0.328
X44.433 Y22.295 Z-0.329
X44.423 Y22.276
X44.416 Y22.258 Z-0.33
X44.411 Y22.239 Z-0.331
X44.408 Y22.221
X44.406 Y22.202 Z-0.332
X44.403 Y22.165 Z-0.333
X44.408 Y22.091 Z-0.336
X44.41 Y22.072 Z-0.337
X44.408 Y22.091
X44.405 Y22.144 Z-0.339
X44.404 Y22.145
X44.408 Y22.091 Z-0.341
X44.41 Y22.072 Z-0.342
X44.408 Y22.091
X44.403 Y22.165 Z-0.345
X44.406 Y22.202 Z-0.346
X44.408 Y22.221 Z-0.347
X44.411 Y22.239
X44.416 Y22.258 Z-0.348
X44.423 Y22.276 Z-0.349
X44.433 Y22.295 Z-0.35
X44.445 Y22.314
X44.433 Y22.295 Z-0.351
X44.423 Y22.276 Z-0.352
X44.416 Y22.258 Z-0.353
X44.411 Y22.239
X44.408 Y22.221 Z-0.354
X44.406 Y22.202 Z-0.355
X44.403 Y22.165 Z-0.356
X44.408 Y22.091 Z-0.358
X44.41 Y22.072 Z-0.359
X44.408 Y22.091
X44.403 Y22.165
X44.406 Y22.202
X44.408 Y22.221
X44.411 Y22.239
X44.416 Y22.258
X44.423 Y22.276
X44.433 Y22.295
X44.445 Y22.314
X44.45 Y22.321 Z-0.346
X44.451 Y22.323 Z-0.331
G0 Z5.
X44.506 Y22.452
Z1.701
G1 Z-0.298 F40.
X44.504 Y22.448 Z-0.318
X44.5 Y22.435 Z-0.332
X44.493 Y22.417 Z-0.338
X44.482 Y22.388 Z-0.339
X44.51 Y22.463 Z-0.342
X44.519 Y22.482 Z-0.343
X44.531 Y22.5
X44.546 Y22.518 Z-0.344
X44.566 Y22.536 Z-0.345
X44.636 Y22.592 Z-0.348
X44.566 Y22.536 Z-0.351
X44.546 Y22.518 Z-0.352
X44.531 Y22.5 Z-0.353
X44.519 Y22.482 Z-0.354
X44.51 Y22.463 Z-0.355
X44.482 Y22.388 Z-0.357
X44.498 Y22.432 Z-0.359
X44.499 Y22.433
X44.482 Y22.388 Z-0.361
X44.51 Y22.463 Z-0.364
X44.519 Y22.482
X44.531 Y22.5 Z-0.365
X44.546 Y22.518 Z-0.366
X44.566 Y22.536 Z-0.367
X44.636 Y22.592 Z-0.37
X44.566 Y22.536 Z-0.373
X44.546 Y22.518 Z-0.374
X44.531 Y22.5 Z-0.375
X44.519 Y22.482 Z-0.376
X44.51 Y22.463
X44.482 Y22.388 Z-0.379
X44.51 Y22.463
X44.519 Y22.482
X44.531 Y22.5
X44.546 Y22.518
X44.566 Y22.536
X44.636 Y22.592
G0 Z5.
X44.762 Y22.69
Z1.701
G1 Z-0.318 F40.
X44.76 Y22.688 Z-0.332
X44.753 Y22.685 Z-0.345
X44.743 Y22.677 Z-0.354
X44.73 Y22.668 Z-0.358
X44.706 Y22.649 Z-0.359
X44.73 Y22.668 Z-0.36
X44.753 Y22.685 Z-0.361
X44.767 Y22.693 Z-0.362
X44.78 Y22.699
X44.808 Y22.711 Z-0.363
X44.826 Y22.72 Z-0.364
X44.845 Y22.726 Z-0.365
X44.863 Y22.73
X44.882 Y22.733 Z-0.366
X44.863 Y22.73 Z-0.367
X44.845 Y22.726
X44.826 Y22.72 Z-0.368
X44.808 Y22.711 Z-0.369
X44.78 Y22.699 Z-0.37
X44.767 Y22.693
X44.753 Y22.685 Z-0.371
X44.73 Y22.668 Z-0.372
X44.706 Y22.649 Z-0.373
X44.73 Y22.668 Z-0.374
X44.753 Y22.685 Z-0.375
X44.767 Y22.693 Z-0.376
X44.78 Y22.699
X44.808 Y22.711 Z-0.377
X44.826 Y22.72 Z-0.378
X44.845 Y22.726
X44.861 Y22.73 Z-0.379
X44.862
X44.845 Y22.726 Z-0.38
X44.826 Y22.72
X44.808 Y22.711 Z-0.381
X44.78 Y22.699 Z-0.382
X44.767 Y22.693 Z-0.383
X44.753 Y22.685
X44.73 Y22.668 Z-0.384
X44.706 Y22.649 Z-0.385
X44.73 Y22.668 Z-0.386
X44.753 Y22.685 Z-0.387
X44.767 Y22.693 Z-0.388
X44.78 Y22.699
X44.808 Y22.711 Z-0.389
X44.826 Y22.72 Z-0.39
X44.845 Y22.726 Z-0.391
X44.863 Y22.73 Z-0.392
X44.882 Y22.733
X44.863 Y22.73 Z-0.393
X44.845 Y22.726 Z-0.394
X44.826 Y22.72
X44.808 Y22.711 Z-0.395
X44.78 Y22.699 Z-0.396
X44.767 Y22.693
X44.753 Y22.685 Z-0.397
X44.73 Y22.668 Z-0.398
X44.706 Y22.649 Z-0.399
X44.73 Y22.668
X44.753 Y22.685
X44.767 Y22.693
X44.78 Y22.699
X44.808 Y22.711
X44.826 Y22.72
X44.845 Y22.726
X44.863 Y22.73
X44.882 Y22.733
G0 Z5.
X45.975 Y22.864
Z1.701
G1 Z-0.338 F40.
X45.98 Y22.865 Z-0.358
X45.994 Z-0.372
X46.013 Y22.866 Z-0.378
X46.615 Y22.887 Z-0.399
X46.616
X45.551 Y22.849 Z-0.413
X45.481 Y22.846 Z-0.414
X45.463 Y22.844
X45.049 Y22.761 Z-0.419
X45.463 Y22.844
X45.481 Y22.846
X45.551 Y22.849
X46.616 Y22.887
X46.636 Y22.888 Z-0.414
X46.65 Z-0.399
X46.656 Y22.889 Z-0.379
G0 Z5.
X44.405 Y22.141
Z1.705
G1 Z-0.298 F40.
Y22.136 Z-0.318
X44.406 Y22.122 Z-0.332
X44.407 Y22.103 Z-0.338
X44.408 Y22.091
X44.41 Y22.072 Z-0.339
X44.408 Y22.091 Z-0.34
X44.403 Y22.165 Z-0.342
X44.406 Y22.202 Z-0.344
X44.408 Y22.221
X44.411 Y22.239 Z-0.345
X44.416 Y22.258 Z-0.346
X44.423 Y22.276
X44.433 Y22.295 Z-0.347
X44.445 Y22.314 Z-0.348
X44.433 Y22.295 Z-0.349
X44.423 Y22.276
