(1001)
(T1  D=1. CR=0. - ZMIN=-2.928 - FLAT END MILL)
G0 G90 G94 G17
G21
G53 G0 Z0.

(1MM  FLATEND  MORPHED-SPIRAL UPPER RELIEF)
M5
M9
T1
S12000 M3
G4 P4.
G55
G0 X86.158 Y46.525
Z15.
Z1.216
G1 Z-2.828 F200.
Y46.533 Z-2.867
X86.159 Y46.555 Z-2.899
X86.161 Y46.587 Z-2.921
X86.163 Y46.625 Z-2.928
X86.199 Y47.392
X86.201 Y47.417 Z-2.922
Y47.435 Z-2.903
X86.202 Y47.442 Z-2.878
Y47.449 Z-2.853
Y47.467 Z-2.835
Y47.492 Z-2.828
X86.206 Y49.733
Y49.758 Z-2.835
Y49.776 Z-2.853
Y49.783 Z-2.878
Y49.79 Z-2.903
X86.205 Y49.808 Z-2.922
X86.204 Y49.833 Z-2.928
X86.155 Y50.845
X86.153 Y50.883 Z-2.921
X86.152 Y50.915 Z-2.899
X86.151 Y50.937 Z-2.867
X86.15 Y50.944 Z-2.828
G0 Z5.
X60.342 Y82.973
Z1.216
G1 Z-2.828 F200.
X60.334 Y82.975 Z-2.867
X60.313 Y82.98 Z-2.899
X60.282 Y82.988 Z-2.921
X60.245 Y82.998 Z-2.928
X58.705 Y83.387
X58.667 Y83.435
X58.624 Y83.484
X57.18 Y83.699
X55.019 Y84.021
X54.98 Y84.051
X54.936 Y84.081
X53.947 Y84.13
X51.418 Y84.254
X51.381 Y84.274
X51.339 Y84.293
X50.555 Y84.255
X47.934 Y84.126
X47.895 Y84.141
X47.851 Y84.157
X47.054 Y84.038
X44.597 Y83.671
X44.552 Y83.687
X44.502 Y83.703
X43.479 Y83.444
X41.371 Y82.909
X41.319 Y82.928
X41.262 Y82.945
X39.916 Y82.456
X38.303 Y81.869
X38.242 Y81.893
X38.176 Y81.914
X36.313 Y81.018
X35.526 Y80.639
X35.491 Y80.622 Z-2.921
X35.462 Y80.608 Z-2.899
X35.442 Y80.598 Z-2.867
X35.436 Y80.595 Z-2.828
G0 Z5.
X19.379 Y64.43
Z1.216
G1 Z-2.828 F200.
X19.376 Y64.424 Z-2.867
X19.367 Y64.404 Z-2.899
X19.353 Y64.375 Z-2.921
X19.337 Y64.34 Z-2.928
X18.773 Y63.132
X18.712 Y63.106
X18.649 Y63.075
X18.072 Y61.438
X17.413 Y59.568
X17.372 Y59.535
X17.329 Y59.497
X17.055 Y58.384
X16.453 Y55.933
X16.43 Y55.902
X16.406 Y55.866
X16.319 Y55.264
X15.853 Y52.005
X15.691 Y48.599
X15.862 Y45.193
X16.34 Y41.917
X16.337 Y41.891
X16.335 Y41.86
X16.419 Y41.52
X17.122 Y38.668
X17.118 Y38.632
X17.114 Y38.591
X17.325 Y37.994
X18.207 Y35.502
X18.201 Y35.458
X18.198 Y35.41
X18.584 Y34.585
X19.588 Y32.442
X19.583 Y32.392
X19.581 Y32.337
X20.178 Y31.331
X21.245 Y29.534
X21.242 Y29.479
X21.241 Y29.419
X22.09 Y28.263
X23.159 Y26.805
X23.158 Y26.743
X23.159 Y26.678
X24.292 Y25.414
X25.358 Y24.222
X25.36 Y24.158
X25.365 Y24.089
X26.689 Y22.874
X27.907 Y21.756
X27.916 Y21.695
X27.93 Y21.63
X29.204 Y20.672
X30.798 Y19.473
X30.817 Y19.422
X30.84 Y19.369
X31.837 Y18.763
X34.001 Y17.447
X34.024 Y17.415
X34.051 Y17.381
X34.581 Y17.129
X37.597 Y15.695
X40.804 Y14.537
X44.11 Y13.699
X47.482 Y13.19
X50.763 Y13.014
X53.924 Y13.136
X57.305 Y13.588
X60.624 Y14.37
X63.851 Y15.473
X66.807 Y16.813
X69.812 Y18.539
X70.533 Y19.014
X70.555 Y19.022
X70.58 Y19.032
X70.78 Y19.182
X73.257 Y21.05
X73.283 Y21.06
X73.314 Y21.073
X73.6 Y21.337
X75.836 Y23.395
X75.862 Y23.407
X75.892 Y23.423
X76.135 Y23.698
X78.397 Y26.251
X80.406 Y29.007
X82.144 Y31.941
X83.596 Y35.027
X84.747 Y38.237
X85.589 Y41.542
X86.12 Y44.967
X86.272 Y46.892 Z-2.889
X86.309 Y49.419 Z-2.928
X86.295 Y49.884 Z-2.913
X86.289 Y50.084 Z-2.906 F50.
X86.279 Y50.298 Z-2.518 F200.
X86.274 Y50.416 Z-2.457
X86.266 Y50.565 Z-2.537
X86.259 Y50.689 Z-2.755
X86.253 Y50.788 Z-2.928 F50.
X85.902 Y54.052 F200.
X85.213 Y57.453
X84.219 Y60.716
X82.919 Y63.869
X81.323 Y66.883
X79.462 Y69.713
X77.27 Y72.434
X74.824 Y74.932
X72.154 Y77.176
X69.284 Y79.147
X66.251 Y80.82
X63.117 Y82.166
X60.442 Y83.033 Z-2.921
X60.252 Y83.094 F50.
X60.022 Y83.157 Z-2.365 F200.
X60.018 Y83.158 Z-0.781
X58.985 Y83.419
X58.983 Y83.42 Z-2.728
Z-2.928 F50.
X57.453 Y83.74 Z-2.915 F200.
X57.257 Y83.781 Z-2.913 F50.
X57.03 Y83.822 Z-1.709 F200.
X57.026 Y83.823 Z-0.781
X55.194 Y84.096
X55.192 Z-2.728
Z-2.928 F50.
X54.173 Y84.202 Z-2.921 F200.
X53.974 Y84.223 Z-2.919 F50.
X53.812 Y84.236 Z-0.781 F200.
X51.56 Y84.347
X51.529 Z-2.728
X51.526 Y84.348 Z-2.928 F50.
X50.646 Z-2.922 F200.
X50.446 Z-2.921 F50.
X50.417 Z-0.781 F200.
X48.07 Y84.232
X47.927 Y84.22 Z-2.729
X47.913 Y84.219 Z-2.928 F50.
X47.094 Y84.135 F200.
X46.895 Y84.115 F50.
X46.894 Z-0.781 F200.
X44.721 Y83.79
X44.632 Y83.774 Z-2.128
X44.544 Y83.757 Z-2.731
X44.515 Y83.752 Z-2.928 F50.
X43.49 Y83.54 F200.
X43.294 Y83.499 F50.
X43.283 Y83.497 Z-0.781 F200.
X41.509 Y83.047
X41.457 Y83.032 Z-2.186
X41.35 Y83.001 Z-2.732
X41.312 Y82.99 Z-2.928 F50.
X39.854 Y82.53 F200.
X39.663 Y82.47 F50.
X39.662 Z-0.781 F200.
X38.484 Y82.042
X38.432 Y82.022 Z-2.673
X38.373 Y81.999 Z-2.928 F50.
X35.258 Y80.61 F200.
X32.433 Y79.014
X29.587 Y77.031
X26.933 Y74.772
X24.532 Y72.292
X22.529 Y69.801
X20.647 Y66.957
X19.157 Y64.164
X19.063 Y63.988 F50.
X19.061 Y63.986 Z-0.781 F200.
X18.867 Y63.57
Y63.568 Z-2.728
Z-2.928 F50.
X18.086 Y61.717 Z-2.923 F200.
X18.008 Y61.533 Z-2.922 F50.
X17.904 Y61.262 Z-2.221 F200.
X17.903 Y61.258 Z-0.781
X17.393 Y59.81
X17.382 Y59.776 Z-2.728
X17.38 Y59.772 Z-2.928 F50.
X17.067 Y58.753 Z-2.926 F200.
X17.008 Y58.562 Z-2.925 F50.
X16.921 Y58.254 Z-1.689 F200.
X16.916 Y58.237 Z-0.781
X16.395 Y56.117
X16.388 Y56.082 Z-2.728
X16.387 Y56.079 Z-2.928 F50.
X16.292 Y55.608 Z-2.92 F200.
X16.252 Y55.412 Z-2.917 F50.
X16.202 Y55.15 Z-1.265 F200.
Y55.147 Z-0.781
X15.786 Y52.282
Y52.281 Z-2.728
Z-2.928 F50.
X15.777 Y52.193 Z-2.926 F200.
X15.76 Y52.017 Z-0.781
X15.597 Y48.621
X15.764 Y45.233
X15.779 Y45.086 Z-2.857
Y45.082 Z-0.781
X16.223 Y42.026
X16.266 Y41.801 Z-2.73
X16.271 Y41.778 Z-2.928 F50.
X16.315 Y41.557 F200.
X16.355 Y41.361 F50.
Y41.36 Z-0.781 F200.
X16.992 Y38.779
X17.014 Y38.701 Z-1.799
X17.061 Y38.541 Z-2.732
X17.071 Y38.507 Z-2.928 F50.
X17.225 Y38.004 F200.
X17.283 Y37.813 F50.
X17.284 Y37.812 Z-0.781 F200.
X18.06 Y35.617
X18.081 Y35.562 Z-1.905
X18.144 Y35.403 Z-2.733
X18.159 Y35.365 Z-2.928 F50.
X18.491 Y34.57 F200.
X18.568 Y34.385 F50.
X18.569 Y34.381 Z-0.781 F200.
X19.422 Y32.56
X19.446 Y32.512 Z-2.146
X19.503 Y32.401 Z-2.733
X19.522 Y32.363 Z-2.928 F50.
X20.099 Y31.286 F200.
X20.194 Y31.11 F50.
Y31.109 Z-0.781 F200.
X21.055 Y29.658
X21.08 Y29.618 Z-2.419
X21.115 Y29.563 Z-2.733
X21.136 Y29.529 Z-2.928 F50.
X22.042 Y28.174 F200.
X22.153 Y28.007 F50.
X22.154 Y28.006 Z-0.781 F200.
X22.933 Y26.944
X22.952 Y26.92 Z-2.772
X22.988 Y26.872 Z-2.928 F50.
X24.281 Y25.289 F200.
X24.408 Y25.134 F50.
X24.409 Y25.132 Z-0.781 F200.
X25.096 Y24.365
X25.117 Y24.342 Z-2.728
X25.119 Y24.34 Z-2.928 F50.
X26.671 Y22.768 F200.
X26.812 Y22.626 F50.
X26.813 Y22.625 Z-0.781 F200.
X27.646 Y21.86
X27.648 Y21.858 Z-2.728
Z-2.928 F50.
X29.153 Y20.598 F200.
X29.307 Y20.469 F50.
X29.308 Z-0.781 F200.
X30.58 Y19.512
X30.597 Y19.5 Z-2.728
X30.599 Y19.498 Z-2.928 F50.
X31.687 Y18.753 Z-2.927 F200.
X31.852 Y18.64 Z-2.926 F50.
X31.907 Y18.604 Z-2.078 F200.
X31.909 Y18.602 Z-0.781
X33.821 Y17.44
X33.849 Y17.424 Z-2.728
X33.852 Y17.422 Z-2.928 F50.
X34.345 Y17.151 Z-2.91 F200.
X34.52 Y17.054 Z-2.903 F50.
X34.64 Y16.99 Z-1.46 F200.
X34.643 Y16.989 Z-0.781
X37.232 Y15.747
X37.234 Y15.746 Z-2.728
Z-2.928 F50.
X37.383 Y15.682 Z-2.925
X37.567 Y15.605 Z-0.781 F200.
X40.774 Y14.447
X44.08 Y13.609
X47.505 Y13.093
X50.97 Y12.919
X54.441 Y13.088
X57.814 Y13.589
X60.959 Y14.369
X64.176 Y15.502
X67.154 Y16.885
X67.657 Y17.154
X67.755 Y17.208 Z-2.928
X67.83 Y17.249
X67.856 Y17.263 Z-0.781
X70.498 Y18.876
X70.536 Y18.902 Z-2.728
X70.54 Y18.905 Z-2.928 F50.
X70.771 Y19.062 F200.
X70.936 Y19.175 F50.
X70.956 Y19.189 Z-0.781 F200.
X73.225 Y20.901
X73.227 Y20.903 Z-2.728
Z-2.928 F50.
X73.597 Y21.211 Z-2.901 F200.
X73.75 Y21.339 Z-2.89 F50.
X73.756 Y21.344 Z-0.781 F200.
X75.816 Y23.241
X75.819 Y23.243 Z-2.728
Y23.244 Z-2.928 F50.
X76.084 Y23.512 Z-2.923 F200.
X76.225 Y23.654 Z-2.921 F50.
X76.297 Y23.728 Z-0.781 F200.
X78.213 Y25.874
X78.233 Y25.899 Z-2.728
X78.235 Y25.901 Z-2.928 F50.
X78.314 Y25.999 Z-2.924 F200.
X78.441 Y26.154 Z-2.918 F50.
X78.546 Y26.284 Z-0.781 F200.
X80.35 Y28.75
X80.356 Y28.76 Z-2.728
X80.357 Y28.761 Z-2.928 F50.
X80.408 Y28.837 Z-2.91
X80.538 Y29.035 Z-0.781 F200.
X82.202 Y31.848
X82.21 Y31.862 Z-1.139
X82.214 Y31.87 Z-1.339 F50.
X82.246 Y31.93 Z-0.781 F200.
X83.726 Y35.096
X84.893 Y38.391
X85.734 Y41.784
X86.248 Y45.295
X86.411 Y48.701
X86.238 Y52.15
X85.722 Y55.623
X84.872 Y59.035
X83.7 Y62.329
X82.213 Y65.492
X80.424 Y68.495
X78.366 Y71.29
X76.028 Y73.898
X73.446 Y76.269
X70.661 Y78.367
X67.686 Y80.185
X64.587 Y81.683
X61.345 Y82.872
X58.001 Y83.733
X54.886 Y84.228
X51.55 Y84.442
X48.366 Y84.351
X44.982 Y83.933
X41.654 Y83.186
X38.416 Y82.117
X35.297 Y80.736
X32.386 Y79.097
X29.531 Y77.109
X26.871 Y74.843
X24.466 Y72.36
X22.455 Y69.859
X20.571 Y67.015
X18.967 Y64.006
X17.655 Y60.858
X16.648 Y57.599
X15.984 Y54.45
X15.582 Y51.008
X15.519 Y47.598
X15.779 Y44.255
X16.374 Y40.826
X17.273 Y37.537
X18.481 Y34.347
X19.987 Y31.287
X21.776 Y28.384
X23.884 Y25.602
X26.262 Y23.025
X28.879 Y20.689
X31.699 Y18.626
X34.703 Y16.85
X37.825 Y15.396
X41.043 Y14.267
X44.356 Y13.457
X47.732 Y12.975
X51.218 Y12.825
X54.618 Y13.011
X57.989 Y13.527
X61.354 Y14.39
X64.617 Y15.583
X67.498 Y16.961
X70.485 Y18.754
X73.292 Y20.833
X75.892 Y23.183
X78.192 Y25.701
X80.244 Y28.425
X82.03 Y31.331
X83.532 Y34.392
X84.739 Y37.582
X85.638 Y40.872
X86.228 Y44.266
X86.491 Y47.667
X86.423 Y51.076
X86.036 Y54.412
X85.312 Y57.825
X84.289 Y61.078
X82.961 Y64.219
X81.342 Y67.221
X79.415 Y70.096
X77.187 Y72.811
X74.704 Y75.299
X72. Y77.53
X69.096 Y79.484
X66.03 Y81.138
X62.884 Y82.454
X59.625 Y83.457
X56.283 Y84.138
X52.92 Y84.488
X49.51 Y84.512
X46.323 Y84.235
X42.969 Y83.619
X39.691 Y82.68
X36.519 Y81.425
X33.508 Y79.881
X30.573 Y77.998
X27.821 Y75.83
X25.321 Y73.436
X23.026 Y70.771
X21.033 Y67.945
X19.342 Y64.983
X17.939 Y61.875
X16.836 Y58.647
X16.084 Y55.535
X15.573 Y52.04
X15.409 Y48.633
X15.575 Y45.227
X16.065 Y41.85
X16.869 Y38.535
X17.982 Y35.311
X19.394 Y32.207
X21.093 Y29.25
X23.064 Y26.466
X25.238 Y23.935
X27.772 Y21.496
X30.519 Y19.322
X33.46 Y17.427
X36.528 Y15.85
X39.699 Y14.595
X42.978 Y13.655
X46.332 Y13.039
X49.719 Y12.752
X53.129 Y12.793
X56.317 Y13.133
X59.658 Y13.813
X62.918 Y14.815
X66.065 Y16.13
X69.065 Y17.741
X71.968 Y19.681
X74.683 Y21.905
X77.177 Y24.389
X79.417 Y27.099
X81.328 Y29.924
X82.963 Y32.917
X84.307 Y36.051
X85.349 Y39.299
X86.059 Y42.505
X86.494 Y45.952
X86.592 Y49.361
X86.362 Y52.764
X85.805 Y56.156
X84.932 Y59.484
X83.756 Y62.685
X82.283 Y65.761
X80.525 Y68.684
X78.516 Y71.406
X76.166 Y74.027
X73.571 Y76.411
X70.771 Y78.522
X67.781 Y80.35
X64.654 Y81.861
X61.392 Y83.056
X58.34 Y83.856
X54.975 Y84.408
X51.564 Y84.632
X48.352 Y84.54
X44.967 Y84.123
X41.639 Y83.379
X38.399 Y82.314
X35.278 Y80.939
X32.291 Y79.261
X29.421 Y77.263
X26.746 Y74.986
X24.334 Y72.497
X22.305 Y69.974
X20.421 Y67.131
X18.813 Y64.124
X17.497 Y60.977
X16.484 Y57.721
X15.798 Y54.482
X15.395 Y51.031
X15.33 Y47.621
X15.592 Y44.233
X16.18 Y40.832
X17.076 Y37.541
X18.279 Y34.35
X19.776 Y31.286
X21.555 Y28.376
X23.601 Y25.647
X25.882 Y23.135
X28.49 Y20.762
X31.323 Y18.649
X34.307 Y16.846
X37.423 Y15.357
X40.629 Y14.194
X43.996 Y13.335
X47.431 Y12.814
X50.906 Y12.634
X54.292 Y12.788
X57.668 Y13.27
X60.981 Y14.079
X64.201 Y15.205
X67.283 Y16.632
X70.303 Y18.406
X73.145 Y20.47
X75.782 Y22.808
X78.183 Y25.393
X80.288 Y28.149
X82.091 Y31.044
X83.613 Y34.096
X84.84 Y37.278
X85.762 Y40.562
X86.362 Y43.838
X86.667 Y47.303
X86.634 Y50.713
X86.277 Y54.097
X85.582 Y57.535
X84.591 Y60.798
X83.296 Y63.954
X81.709 Y66.973
X79.772 Y69.929
X77.559 Y72.679
X75.087 Y75.205
X72.39 Y77.473
X69.49 Y79.466
X66.424 Y81.158
X63.292 Y82.506
X60.043 Y83.544
X56.709 Y84.262
X53.275 Y84.656
X49.865 Y84.714
X46.648 Y84.467
X43.287 Y83.887
X39.999 Y82.983
X36.813 Y81.764
X33.756 Y80.24
X30.785 Y78.38
X27.998 Y76.232
X25.425 Y73.818
X23.093 Y71.162
X21.067 Y68.348
X19.346 Y65.403
X17.91 Y62.31
X16.748 Y59.013
X15.9 Y55.575
X15.386 Y52.062
X15.221 Y48.571
X15.401 Y45.08
X15.929 Y41.567
X16.779 Y38.177
X17.967 Y34.844
X19.475 Y31.643
X21.265 Y28.64
X23.361 Y25.79
X25.693 Y23.192
X28.296 Y20.8
X31.108 Y18.68
X34.109 Y16.845
X37.223 Y15.338
X40.423 Y14.159
X43.555 Y13.331
X46.92 Y12.774
X50.387 Y12.544
X53.619 Y12.636
X57.004 Y13.053
X60.333 Y13.795
X63.574 Y14.856
X66.697 Y16.226
X69.741 Y17.933
X72.622 Y19.938
X75.31 Y22.225
X77.77 Y24.767
X79.97 Y27.534
X81.828 Y30.394
X83.409 Y33.416
X84.698 Y36.573
X85.685 Y39.838
X86.356 Y43.147
X86.727 Y46.61
X86.762 Y50.02
X86.467 Y53.433
X85.835 Y56.892
X84.906 Y60.174
X83.673 Y63.354
X82.145 Y66.403
X80.338 Y69.295
X78.341 Y71.916
X75.942 Y74.519
X73.3 Y76.879
X70.457 Y78.961
X67.425 Y80.756
X64.288 Y82.219
X61.072 Y83.352
X57.761 Y84.169
X54.386 Y84.661
X50.895 Y84.826
X47.404 Y84.647
X43.958 Y84.127
X40.58 Y83.267
X37.314 Y82.083
X34.311 Y80.653
X31.297 Y78.844
X28.463 Y76.744
X25.838 Y74.373
X23.451 Y71.753
X21.369 Y68.974
X19.592 Y66.063
X18.097 Y62.998
X16.896 Y59.806
X16.018 Y56.597
X15.406 Y53.091
X15.142 Y49.691
X15.206 Y46.281
X15.599 Y42.859
X16.315 Y39.474
X17.332 Y36.219
X18.65 Y33.074
X20.256 Y30.065
X22.138 Y27.221
X24.278 Y24.565
X26.526 Y22.244
X29.213 Y19.941
X32.105 Y17.913
X35.167 Y16.185
X38.286 Y14.805
X41.524 Y13.734
X44.85 Y12.98
X48.233 Y12.552
X51.574 Y12.449
X54.985 Y12.669
X58.351 Y13.215
X61.649 Y14.084
X64.847 Y15.268
X67.971 Y16.785
X70.982 Y18.631
X73.79 Y20.753
X76.397 Y23.153
X78.762 Y25.796
X80.858 Y28.654
X82.663 Y31.697
X84.154 Y34.882
X85.336 Y38.217
X86.191 Y41.668
X86.711 Y45.196
X86.881 Y48.687
X86.709 Y52.178
X86.183 Y55.723
X85.328 Y59.158
X84.143 Y62.492
X82.64 Y65.695
X80.831 Y68.736
X78.728 Y71.596
X76.374 Y74.222
X73.758 Y76.625
X70.937 Y78.753
X67.923 Y80.596
X64.804 Y82.107
X61.767 Y83.236
X58.473 Y84.119
X55.109 Y84.679
X51.926 Y84.908
X48.516 Y84.837
X45.283 Y84.464
X41.947 Y83.756
X38.694 Y82.729
X35.557 Y81.393
X32.731 Y79.865
X29.8 Y77.906
X27.061 Y75.662
X24.592 Y73.21
X22.489 Y70.694
X20.55 Y67.888
X18.883 Y64.913
X17.502 Y61.795
X16.419 Y58.561
X15.651 Y55.281
X15.168 Y51.745
X15.034 Y48.338
X15.227 Y44.933
X15.759 Y41.453
X16.591 Y38.145
X17.777 Y34.812
X19.285 Y31.599
X21.098 Y28.548
X23.193 Y25.697
X25.554 Y23.062
X28.171 Y20.657
X30.998 Y18.525
X34.014 Y16.681
X37.136 Y15.169
X40.172 Y14.039
X43.466 Y13.156
X46.83 Y12.594
X50.032 Y12.363
X53.442 Y12.433
X56.682 Y12.806
X60.018 Y13.514
X63.271 Y14.539
X66.409 Y15.874
X69.254 Y17.412
X72.188 Y19.373
X74.932 Y21.62
X77.453 Y24.129
X79.717 Y26.868
X81.702 Y29.81
X83.331 Y32.807
X84.671 Y35.943
X85.738 Y39.291
X86.488 Y42.778
X86.893 Y46.247
X86.962 Y49.656
X86.698 Y53.118
X86.095 Y56.601
X85.198 Y59.891
X83.997 Y63.083
X82.502 Y66.149
X80.727 Y69.061
X78.709 Y71.769
X76.323 Y74.408
X73.69 Y76.805
X70.851 Y78.926
X67.821 Y80.76
X64.69 Y82.258
X61.404 Y83.449
X58.017 Y84.311
X54.56 Y84.835
X51.08 Y85.016
X47.644 Y84.862
X44.268 Y84.381
X40.953 Y83.578
X37.731 Y82.459
X34.83 Y81.138
X31.765 Y79.377
X28.877 Y77.32
X26.195 Y74.986
X23.746 Y72.398
X21.607 Y69.652
X19.774 Y66.775
X18.219 Y63.74
X16.953 Y60.573
X15.99 Y57.302
X15.322 Y53.871
X14.981 Y50.395
X14.977 Y46.985
X15.309 Y43.511
X15.962 Y40.105
X16.915 Y36.831
X18.17 Y33.659
X19.715 Y30.619
X21.537 Y27.736
X23.62 Y25.035
X25.847 Y22.635
X28.504 Y20.261
X31.368 Y18.163
X34.117 Y16.517
X37.249 Y15.018
X40.535 Y13.826
X43.923 Y12.963
X47.379 Y12.438
X50.878 Y12.255
X54.32 Y12.409
X57.697 Y12.889
X61.011 Y13.692
X64.234 Y14.809
X67.153 Y16.138
X70.216 Y17.897
X73.112 Y19.959
X75.799 Y22.298
X78.25 Y24.887
X80.437 Y27.7
X82.3 Y30.643
X83.845 Y33.683
X85.097 Y36.855
X86.079 Y40.258
X86.733 Y43.774
X87.042 Y47.257
X87.014 Y50.668
X86.651 Y54.143
X85.95 Y57.617
X84.962 Y60.881
X83.673 Y64.039
X82.095 Y67.062
X80.282 Y69.868
X78.295 Y72.41
X75.847 Y75.008
X73.165 Y77.352
X70.278 Y79.417
X67.265 Y81.16
X64.102 Y82.6
X60.876 Y83.706
X57.559 Y84.497
X54.181 Y84.967
X50.916 Y85.111
X47.404 Y84.934
X44.093 Y84.444
X40.946 Y83.675
X37.723 Y82.558
X34.786 Y81.222
X31.719 Y79.46
X28.876 Y77.439
X26.186 Y75.109
X23.78 Y72.582
X21.73 Y69.987
X19.87 Y67.129
X18.285 Y64.109
X16.988 Y60.955
X15.99 Y57.693
X15.28 Y54.225
X14.906 Y50.747
X14.868 Y47.337
X15.168 Y43.838
X15.79 Y40.421
X16.712 Y37.138
X17.936 Y33.955
X19.45 Y30.899
X21.242 Y27.997
X23.296 Y25.274
X25.536 Y22.811
X28.046 Y20.515
X30.887 Y18.371
X33.91 Y16.522
X37.049 Y15.
X40.085 Y13.868
X43.378 Y12.981
X46.741 Y12.413
X50.018 Y12.173
X53.428 Y12.242
X56.696 Y12.616
X60.033 Y13.321
X63.286 Y14.343
X66.427 Y15.672
X69.349 Y17.247
X72.299 Y19.218
X75.057 Y21.477
X77.591 Y23.999
X79.661 Y26.481
X81.503 Y29.129
X83.188 Y32.094
X84.59 Y35.204
X85.694 Y38.431
X86.476 Y41.649
X86.996 Y45.204
X87.164 Y48.695
X86.988 Y52.219
X86.46 Y55.781
X85.605 Y59.22
X84.448 Y62.496
X83.015 Y65.59
X81.299 Y68.538
X79.286 Y71.353
X77.173 Y73.802
X74.657 Y76.231
X72.138 Y78.253
X69.456 Y80.042
X66.641 Y81.58
X63.509 Y82.931
X60.263 Y83.976
X56.931 Y84.706
X53.65 Y85.105
X50.241 Y85.199
X46.951 Y84.981
X43.585 Y84.437
X40.285 Y83.573
X37.005 Y82.364
X33.848 Y80.833
X30.818 Y78.978
X27.973 Y76.831
X25.342 Y74.411
X22.96 Y71.751
X20.855 Y68.887
X19.036 Y65.828
X17.522 Y62.606
X16.371 Y59.396
X15.506 Y56.012
X14.953 Y52.459
X14.752 Y48.969
X14.893 Y45.444
X15.351 Y42.076
X16.119 Y38.753
X17.192 Y35.516
X18.56 Y32.392
X20.212 Y29.408
X22.134 Y26.591
X24.309 Y23.963
X26.763 Y21.507
X29.247 Y19.436
X31.899 Y17.595
X34.689 Y16.001
X37.794 Y14.59
X41.02 Y13.483
X44.336 Y12.688
X47.714 Y12.215
X51.205 Y12.066
X54.674 Y12.253
X58.129 Y12.781
X61.517 Y13.645
X64.566 Y14.739
X67.542 Y16.125
X70.325 Y17.742
X73.168 Y19.762
X75.622 Y21.868
X77.889 Y24.187
X79.942 Y26.695
X81.764 Y29.368
X83.422 Y32.349
X84.795 Y35.471
X85.871 Y38.707
X86.632 Y41.963
X87.089 Y45.192
X87.258 Y48.684
X87.084 Y52.207
X86.559 Y55.765
X85.704 Y59.22
X84.517 Y62.576
X83.031 Y65.763
X81.258 Y68.776
X79.361 Y71.411
X77.242 Y73.867
X74.722 Y76.299
X72.197 Y78.327
X69.508 Y80.122
X66.684 Y81.665
X63.553 Y83.016
X60.307 Y84.063
X56.976 Y84.795
X53.657 Y85.2
X50.248 Y85.294
X46.944 Y85.076
X43.577 Y84.532
X40.278 Y83.67
X36.987 Y82.46
X33.833 Y80.933
X30.828 Y79.1
X28.037 Y77.007
X25.51 Y74.714
X23.309 Y72.322
X21.187 Y69.545
X19.379 Y66.653
X17.848 Y63.606
X16.605 Y60.43
X15.663 Y57.152
X15.043 Y53.919
X14.7 Y50.43
X14.693 Y47.019
X14.981 Y43.816
X15.604 Y40.39
X16.524 Y37.106
X17.744 Y33.921
X19.254 Y30.863
X21.04 Y27.957
X23.087 Y25.229
X25.398 Y22.681
X27.987 Y20.317
X30.812 Y18.193
X33.843 Y16.342
X37.001 Y14.814
X39.997 Y13.697
X43.289 Y12.806
X46.651 Y12.233
X50.153 Y11.98
X53.661 Y12.069
X57.131 Y12.497
X60.542 Y13.262
X63.622 Y14.266
X66.753 Y15.619
X69.735 Y17.26
X72.682 Y19.268
X75.182 Y21.335
X77.498 Y23.618
X79.603 Y26.095
X81.617 Y28.956
X83.349 Y31.994
X84.752 Y35.102
X85.861 Y38.328
X86.66 Y41.608
X87.174 Y45.096
X87.352 Y48.63
X87.183 Y52.164
X86.668 Y55.697
X85.82 Y59.158
X84.762 Y62.221
X83.361 Y65.33
X81.678 Y68.297
X79.646 Y71.2
X77.374 Y73.865
X75.044 Y76.141
X72.53 Y78.199
X69.85 Y80.024
X67.033 Y81.598
X63.915 Y82.98
X60.68 Y84.058
X57.356 Y84.824
X53.975 Y85.27
X50.596 Y85.394
X47.276 Y85.207
X43.904 Y84.697
X40.596 Y83.867
X37.382 Y82.727
X34.354 Y81.319
X31.56 Y79.696
X28.71 Y77.671
X26.247 Y75.557
X23.806 Y73.044
X21.706 Y70.437
X19.818 Y67.597
X18.201 Y64.594
X16.868 Y61.454
X15.832 Y58.205
X15.112 Y54.946
X14.672 Y51.462
X14.567 Y48.054
X14.784 Y44.65
X15.294 Y41.374
X16.122 Y38.066
X17.252 Y34.848
X18.674 Y31.748
X20.376 Y28.792
X22.343 Y26.006
X24.617 Y23.352
X27.139 Y20.916
X29.676 Y18.879
X32.376 Y17.076
X35.213 Y15.527
X38.343 Y14.174
X41.589 Y13.126
X44.919 Y12.39
X48.293 Y11.976
X51.703 Y11.882
X55.027 Y12.101
X58.394 Y12.642
X61.695 Y13.502
X64.898 Y14.672
X67.93 Y16.116
X70.714 Y17.768
X73.348 Y19.663
X75.994 Y21.96
X78.253 Y24.313
X80.295 Y26.853
X82.102 Y29.559
X83.733 Y32.554
X85.08 Y35.688
X86.104 Y38.837
X86.877 Y42.258
X87.308 Y45.509
X87.445 Y48.917
X87.262 Y52.323
X86.777 Y55.629
X85.961 Y59.015
X84.855 Y62.242
X83.456 Y65.352
X81.775 Y68.319
X79.78 Y71.181
X77.678 Y73.677
X75.363 Y75.981
X72.862 Y78.067
X70.191 Y79.922
X67.381 Y81.528
X64.276 Y82.94
X61.052 Y84.05
X57.736 Y84.85
X54.36 Y85.331
X50.945 Y85.49
X47.609 Y85.335
X44.232 Y84.857
X40.916 Y84.061
X37.69 Y82.954
X34.614 Y81.56
X31.577 Y79.82
X28.924 Y77.957
X26.434 Y75.861
X23.967 Y73.367
X21.834 Y70.769
X19.919 Y67.946
X18.273 Y64.959
X16.91 Y61.833
X15.841 Y58.595
X15.099 Y55.404
X14.638 Y52.154
X14.468 Y48.747
X14.619 Y45.34
X15.073 Y42.029
X15.839 Y38.705
X16.908 Y35.466
X18.27 Y32.34
X19.914 Y29.352
X21.826 Y26.528
X23.991 Y23.892
X26.314 Y21.534
X28.8 Y19.421
X31.457 Y17.539
X34.483 Y15.788
X37.664 Y14.336
X40.888 Y13.225
X44.203 Y12.424
X47.579 Y11.941
X51.013 Y11.78
X54.355 Y11.936
X57.732 Y12.413
X61.049 Y13.208
X64.275 Y14.315
X67.369 Y15.715
X70.408 Y17.457
X73.064 Y19.321
X75.559 Y21.422
X77.867 Y23.74
X79.96 Y26.248
X81.901 Y29.053
X83.575 Y32.024
X84.967 Y35.138
X86.068 Y38.366
X86.844 Y41.567
X87.335 Y44.819
X87.537 Y48.223
X87.419 Y51.632
X86.994 Y54.964
X86.259 Y58.294
X85.22 Y61.543
X83.887 Y64.682
X82.272 Y67.686
X80.387 Y70.528
X78.249 Y73.185
X75.929 Y75.585
X73.459 Y77.723
X70.613 Y79.765
X67.805 Y81.414
X64.636 Y82.897
X61.423 Y84.039
X58.115 Y84.872
X54.744 Y85.388
X51.293 Y85.584
X47.942 Y85.459
X44.56 Y85.015
X41.237 Y84.251
X38. Y83.177
X34.879 Y81.801
X31.818 Y80.084
X29.14 Y78.241
X26.624 Y76.162
X24.131 Y73.687
X21.945 Y71.07
X20.008 Y68.262
X18.336 Y65.289
X16.945 Y62.176
X15.845 Y58.947
X15.047 Y55.631
X14.545 Y52.165
X14.374 Y48.759
X14.524 Y45.351
X14.98 Y42.013
X15.745 Y38.689
X16.813 Y35.45
X18.173 Y32.322
X19.815 Y29.333
X21.724 Y26.507
X23.885 Y23.868
X26.248 Y21.466
X28.741 Y19.347
X31.405 Y17.459
X34.435 Y15.705
X37.62 Y14.251
X40.844 Y13.138
X44.159 Y12.336
X47.535 Y11.85
X51.006 Y11.685
X54.362 Y11.841
X57.739 Y12.318
X61.056 Y13.112
X64.283 Y14.216
X67.412 Y15.631
X70.456 Y17.375
X73.119 Y19.244
X75.621 Y21.35
X77.936 Y23.675
X80.035 Y26.19
X81.976 Y28.995
X83.651 Y31.966
X85.046 Y35.078
X86.148 Y38.305
X86.936 Y41.547
X87.429 Y44.807
X87.631 Y48.212
X87.515 Y51.62
X87.087 Y54.98
X86.352 Y58.31
X85.315 Y61.559
X83.984 Y64.699
X82.371 Y67.704
X80.489 Y70.549
X78.354 Y73.209
X75.995 Y75.653
X73.518 Y77.797
X70.669 Y79.842
X67.852 Y81.496
X64.679 Y82.981
X61.466 Y84.125
X58.16 Y84.96
X54.789 Y85.479
X51.3 Y85.679
X47.935 Y85.554
X44.553 Y85.11
X41.229 Y84.348
X37.992 Y83.275
X34.87 Y81.902
X31.771 Y80.166
X29.085 Y78.319
X26.562 Y76.233
X24.065 Y73.755
X21.878 Y71.138
X19.94 Y68.332
X18.266 Y65.36
X16.872 Y62.247
X15.768 Y59.02
X14.965 Y55.706
X14.451 Y52.176
X14.28 Y48.77
X14.428 Y45.363
X14.887 Y41.997
X15.652 Y38.673
X16.718 Y35.433
X18.076 Y32.305
X19.715 Y29.314
X21.622 Y26.486
X23.779 Y23.844
X26.182 Y21.398
X28.682 Y19.273
X31.354 Y17.38
X34.388 Y15.623
X37.577 Y14.166
X40.8 Y13.052
X44.114 Y12.248
X47.49 Y11.759
X50.999 Y11.591
X54.369 Y11.747
X57.747 Y12.223
X61.064 Y13.015
X64.291 Y14.117
X67.455 Y15.546
X70.503 Y17.292
X73.174 Y19.167
X75.684 Y21.279
X78.005 Y23.61
X80.11 Y26.133
X82.051 Y28.937
X83.727 Y31.907
X85.124 Y35.019
X86.229 Y38.245
X87.028 Y41.526
X87.522 Y44.796
X87.725 Y48.2
X87.61 Y51.609
X87.18 Y54.996
X86.446 Y58.326
X85.409 Y61.575
X84.08 Y64.716
X82.47 Y67.723
X80.591 Y70.569
X78.46 Y73.232
X76.06 Y75.721
X73.577 Y77.871
X70.724 Y79.919
X67.9 Y81.578
X64.723 Y83.066
X61.51 Y84.211
X58.204 Y85.048
X54.834 Y85.57
X51.307 Y85.773
X47.928 Y85.649
X44.546 Y85.205
X41.222 Y84.444
X37.984 Y83.374
X34.861 Y82.003
X32.013 Y80.428
X29.303 Y78.6
X26.754 Y76.532
X24.23 Y74.074
X22.019 Y71.477
X20.054 Y68.69
X18.351 Y65.734
X16.926 Y62.636
X15.789 Y59.421
X14.951 Y56.115
X14.43 Y52.866
X14.195 Y49.464
X14.278 Y46.054
X14.663 Y42.747
X15.381 Y39.316
X16.387 Y36.057
X17.686 Y32.903
X19.267 Y29.882
X21.118 Y27.017
X23.223 Y24.334
X25.62 Y21.798
X28.27 Y19.476
X30.925 Y17.546
X33.737 Y15.86
X36.902 Y14.341
X40.104 Y13.165
X43.401 Y12.296
X46.767 Y11.741
X50.31 Y11.502
X53.697 Y11.595
X57.082 Y12.007
X60.414 Y12.735
X63.662 Y13.774
X66.799 Y15.114
X69.68 Y16.672
X72.41 Y18.477
X74.983 Y20.525
X77.529 Y22.961
X79.696 Y25.447
X81.759 Y28.304
X83.49 Y31.243
X84.945 Y34.327
X86.112 Y37.532
X86.982 Y40.838
X87.537 Y44.107
X87.804 Y47.507
X87.753 Y50.917
X87.399 Y54.233
X86.71 Y57.682
X85.735 Y60.95
X84.465 Y64.115
X82.912 Y67.152
X81.089 Y70.034
X79.01 Y72.738
X76.703 Y75.232
X74.252 Y77.447
X71.63 Y79.428
X68.845 Y81.169
X65.707 Y82.749
X62.529 Y83.985
X59.248 Y84.917
X55.894 Y85.536
X52.678 Y85.83
X49.267 Y85.831
X45.887 Y85.515
X42.536 Y84.882
X39.259 Y83.936
X36.085 Y82.687
X32.94 Y81.087
X30.168 Y79.337
X27.553 Y77.344
X25.114 Y75.122
X22.809 Y72.608
X20.742 Y69.895
X18.931 Y67.005
X17.39 Y63.962
X16.133 Y60.792
X15.171 Y57.52
X14.486 Y54.015
X14.139 Y50.498
X14.125 Y47.087
X14.42 Y43.748
X15.045 Y40.294
X15.96 Y37.009
X17.17 Y33.82
X18.666 Y30.755
X20.434 Y27.839
X22.462 Y25.096
X24.744 Y22.535
X27.156 Y20.275
X29.746 Y18.243
X32.706 Y16.33
X35.612 Y14.81
X38.766 Y13.514
X42.029 Y12.52
X45.37 Y11.836
X48.599 Y11.479
X52.008 Y11.415
X55.401 Y11.667
X58.764 Y12.236
X62.058 Y13.119
X65.255 Y14.307
X68.447 Y15.856
X71.255 Y17.557
X73.91 Y19.503
X76.391 Y21.684
X78.822 Y24.246
X80.869 Y26.839
X82.733 Y29.695
X84.329 Y32.709
X85.644 Y35.856
X86.666 Y39.11
X87.416 Y42.619
X87.828 Y46.133
X87.906 Y49.542
X87.668 Y52.944
X87.109 Y56.367
X86.254 Y59.669
X85.103 Y62.88
X83.664 Y65.972
X81.95 Y68.92
X79.975 Y71.701
X77.725 Y74.321
X75.184 Y76.777
X72.61 Y78.848
X69.868 Y80.68
X66.987 Y82.256
X63.858 Y83.611
X60.615 Y84.667
X57.287 Y85.415
X53.904 Y85.847
X50.639 Y85.963
X47.234 Y85.775
X43.862 Y85.268
X40.551 Y84.448
X37.332 Y83.321
X34.398 Y81.982
X31.34 Y80.231
X28.648 Y78.343
X26.122 Y76.217
X23.637 Y73.707
X21.472 Y71.072
X19.555 Y68.25
X17.903 Y65.267
X16.528 Y62.146
X15.443 Y58.912
X14.656 Y55.594
X14.171 Y52.21
X13.998 Y48.804
X14.142 Y45.397
X14.608 Y41.949
X15.372 Y38.625
X16.434 Y35.384
X17.786 Y32.253
X19.418 Y29.258
X21.314 Y26.424
X23.461 Y23.773
X25.984 Y21.193
X28.505 Y19.05
X31.199 Y17.141
X34.245 Y15.376
X37.446 Y13.912
X40.669 Y12.795
X43.981 Y11.984
X47.355 Y11.487
X50.637 Y11.308
X54.051 Y11.433
X57.432 Y11.875
X60.758 Y12.633
X63.998 Y13.698
X67.124 Y15.061
X70.066 Y16.684
X72.795 Y18.524
X75.364 Y20.608
X77.897 Y23.074
X80.11 Y25.669
X82.078 Y28.454
X83.785 Y31.407
X85.218 Y34.502
X86.363 Y37.714
X87.213 Y41.018
X87.765 Y44.423
X88.001 Y47.825
X87.921 Y51.235
X87.534 Y54.593
X86.813 Y58.044
X85.81 Y61.304
X84.515 Y64.459
X82.939 Y67.484
X81.096 Y70.353
X78.999 Y73.043
X76.597 Y75.601
X74.113 Y77.806
X71.459 Y79.774
X68.642 Y81.5
X65.482 Y83.055
X62.292 Y84.263
X59.004 Y85.167
X55.645 Y85.761
X52.351 Y86.034
X48.941 Y86.004
X45.535 Y85.656
X42.189 Y84.993
X38.921 Y84.02
X35.757 Y82.746
X32.752 Y81.197
X29.786 Y79.301
X27.174 Y77.273
X24.741 Y75.016
X22.458 Y72.482
X20.414 Y69.752
X18.626 Y66.848
X17.108 Y63.793
X15.873 Y60.614
X14.932 Y57.336
X14.3 Y54.046
X13.951 Y50.521
X13.936 Y47.11
X14.233 Y43.725
X14.859 Y40.262
X15.772 Y36.976
X16.979 Y33.786
X18.47 Y30.719
X20.233 Y27.8
X22.254 Y25.052
X24.606 Y22.405
X27.031 Y20.132
X29.635 Y18.089
X32.608 Y16.167
X35.634 Y14.594
X38.793 Y13.309
X42.058 Y12.322
X45.4 Y11.644
X48.791 Y11.279
X52.202 Y11.231
X55.415 Y11.477
X58.778 Y12.045
X62.073 Y12.925
X65.272 Y14.108
X68.233 Y15.524
X71.073 Y17.209
X73.76 Y19.142
X76.431 Y21.46
X78.876 Y24.02
X80.994 Y26.693
X82.862 Y29.547
X84.463 Y32.558
X85.785 Y35.702
X86.817 Y38.953
X87.545 Y42.25
X87.99 Y45.769
X88.101 Y49.178
X87.897 Y52.583
X87.364 Y56.065
X86.541 Y59.375
X85.421 Y62.596
X84.015 Y65.704
X82.333 Y68.671
X80.389 Y71.473
X78.2 Y74.088
X75.824 Y76.458
X73.274 Y78.587
X70.551 Y80.48
X67.684 Y82.118
X64.58 Y83.533
X61.359 Y84.652
X58.047 Y85.466
X54.673 Y85.968
X51.335 Y86.153
X47.9 Y86.027
X44.518 Y85.585
X41.192 Y84.83
X37.951 Y83.768
X34.823 Y82.408
X31.824 Y80.757
X29.083 Y78.909
X26.504 Y76.817
X23.966 Y74.346
X21.752 Y71.751
X19.782 Y68.967
X18.072 Y66.016
X16.635 Y62.923
X15.484 Y59.713
X14.627 Y56.412
X14.056 Y52.912
X13.82 Y49.509
X13.897 Y46.1
X14.288 Y42.702
X15.008 Y39.252
X16.009 Y35.992
X17.3 Y32.835
X18.872 Y29.808
X19.901 Y28.141
X20.006 Y27.97 F50.
X20.007 Z-0.681 F200.
G0 Z5.
X20.543 Y27.176
Z1.935
G1 Z-0.67 F200.
X20.544 Z-0.681
X20.55 Y27.167 Z-0.781 F50.
X22.676 Y24.392 F200.
X25.018 Y21.857
X27.49 Y19.621
X30.139 Y17.619
X33.15 Y15.75
X36.204 Y14.233
X39.386 Y13.005
X42.668 Y12.077
X46.021 Y11.457
X49.418 Y11.152
X52.829 Y11.162
X56.099 Y11.471
X59.451 Y12.101
X62.729 Y13.04
X65.906 Y14.281
X68.875 Y15.767
X71.692 Y17.508
X74.351 Y19.495
X76.836 Y21.719
X79.165 Y24.21
X81.26 Y26.902
X83.103 Y29.772
X84.679 Y32.796
X85.976 Y35.95
X86.982 Y39.209
X87.695 Y42.571
X88.109 Y46.098
X88.189 Y49.508
X87.956 Y52.91
X87.388 Y56.415
X86.536 Y59.717
X85.389 Y62.929
X83.956 Y66.025
X82.25 Y68.978
X80.285 Y71.765
X78.674 Y73.695
X78.546 Y73.848 F50.
Z-0.681 F200.
G0 Z5.
X77.832 Y74.622
Z1.935
G1 Z-0.66 F200.
X77.83 Y74.624 Z-0.681
X77.815 Y74.639 Z-0.781 F50.
X75.282 Y77.069 F200.
X74.69 Y77.574
X74.538 Y77.703 F50.
X74.537 Z-0.681 F200.
G0 Z5.
X73.295 Y78.691
Z1.935
G1 Z-0.679 F200.
Z-0.681
X73.294 Y78.692 Z-0.781 F50.
X70.603 Y80.56 F200.
X67.727 Y82.203
X64.624 Y83.618
X61.403 Y84.738
X58.091 Y85.554
X54.718 Y86.059
X53.68 Y86.147
X53.481 Y86.164 F50.
X53.48 Z-0.681 F200.
G0 Z5.
X53.148 Y86.185
Z1.935
G1 Z-0.673 F200.
Z-0.681
X53.14 Y86.186 Z-0.781 F50.
X49.73 Y86.229 F200.
X46.197 Y85.94
X42.839 Y85.342
X39.552 Y84.434
X36.363 Y83.224
X33.363 Y81.757
X30.527 Y80.04
X27.845 Y78.074
X25.338 Y75.87
X22.986 Y73.4
X20.867 Y70.728
X18.997 Y67.875
X17.392 Y64.866
X16.066 Y61.724
X15.027 Y58.475
X14.276 Y55.089
X13.83 Y51.565
X13.719 Y48.156
X13.92 Y44.752
X14.249 Y42.397
X14.277 Y42.199 F50.
Y42.195 Z-0.718 F200.
Z-0.711
G0 Z5.
X14.396 Y41.547
Z1.935
G1 Z-0.678 F200.
Z-0.681
Y41.544 Z-0.781 F50.
X15.035 Y38.812 F200.
X15.08 Y38.617 F50.
X15.082 Y38.61 Z-0.686 F200.
Z-0.679
G0 Z5.
X15.476 Y37.278
Z1.935
G1 Z-0.678 F200.
Z-0.681
X15.477 Y37.276 Z-0.781 F50.
X16.166 Y35.308 F200.
X16.232 Y35.119 F50.
X16.233 Y35.115 Z-0.719 F200.
Z-0.712
G0 Z5.
X17.01 Y33.245
Z1.935
G1 Z-0.676 F200.
Z-0.681
X17.012 Y33.241 Z-0.781 F50.
X17.671 Y31.855 F200.
X17.757 Y31.674 F50.
X17.759 Y31.67 Z-0.714 F200.
Z-0.707
G0 Z5.
X18.814 Y29.72
Z1.935
G1 Z-0.677 F200.
Z-0.681
X18.816 Y29.716 Z-0.781 F50.
X19.419 Y28.719 F200.
X19.522 Y28.548 F50.
X19.525 Y28.543 Z-0.688 F200.
X19.526 Z-0.682
G0 Z5.
X20.988 Y26.389
Z1.935
G1 Z-0.671 F200.
Z-0.681
X20.994 Y26.38 Z-0.781 F50.
X23.136 Y23.712 F200.
X25.538 Y21.222
X28.06 Y19.038
X30.934 Y16.973
X33.999 Y15.185
X37.094 Y13.752
X40.308 Y12.611
X43.614 Y11.773
X46.983 Y11.243
X50.386 Y11.027
X53.732 Y11.122
X57.117 Y11.532
X60.451 Y12.254
X63.702 Y13.283
X66.844 Y14.609
X69.916 Y16.26
X72.686 Y18.091
X75.295 Y20.168
X77.861 Y22.622
X80.099 Y25.196
X82.096 Y27.96
X83.836 Y30.894
X85.304 Y33.972
X86.49 Y37.17
X87.382 Y40.462
X88.002 Y44.033
X88.272 Y47.45
X88.228 Y50.86
X87.867 Y54.29
X87.176 Y57.761
X86.206 Y61.031
X84.945 Y64.2
X83.404 Y67.242
X81.596 Y70.134
X79.534 Y72.851
X78.896 Y73.593
X78.765 Y73.744 F50.
Z-0.681 F200.
G0 Z5.
X76.516 Y76.072
Z1.935
G1 Z-0.673 F200.
Y76.073 Z-0.681
X76.51 Y76.079 Z-0.781 F50.
X74.994 Y77.436 F200.
X74.845 Y77.569 F50.
X74.844 Y77.57 Z-0.681 F200.
Z-0.68
G0 Z5.
X73.106 Y78.952
Z1.935
G1 Z-0.659 F200.
X73.104 Y78.954 Z-0.681
X73.086 Y78.967 Z-0.781 F50.
X70.365 Y80.821 F200.
X68.303 Y82.001
X68.13 Y82.1 F50.
Z-0.681 F200.
G0 Z5.
X65.377 Y83.41
Z1.935
G1 Z-0.681 F200.
X65.298 Y83.443 Z-0.781 F50.
X63.075 Y84.292 F200.
X62.889 Y84.364 F50.
X62.888 Z-0.681 F200.
Z-0.68
X62.882 Y84.366 Z-0.655
X62.865 Y84.371 Z-0.637
X62.841 Y84.379 Z-0.63
X60.865 Y84.99
X60.842 Y84.998 Z-0.637
X60.824 Y85.003 Z-0.655
X60.818 Y85.005 Z-0.68
Z-0.681
X60.815 Y85.006 Z-0.781 F50.
X58.042 Y85.653 F200.
X57.847 Y85.698 F50.
Z-0.681 F200.
X57.84 Y85.699 Z-0.656
X57.822 Y85.703 Z-0.637
X57.798 Y85.707 Z-0.631
X57.183 Y85.818
X57.159 Y85.822 Z-0.637
X57.14 Y85.825 Z-0.656
X57.134 Y85.826 Z-0.681
X57.092 Y85.834 Z-0.781 F50.
X54.216 Y86.194 F200.
X54.017 Y86.219 F50.
X54.016 Z-0.681 F200.
Z-0.68
G0 Z5.
X52.577 Y86.309
Z1.935
G1 Z-0.679 F200.
Z-0.681
X52.575 Z-0.781 F50.
X52.031 Y86.328 F200.
X51.831 Y86.334 F50.
X51.83 Z-0.681 F200.
G0 Z5.
X51.194 Y86.344
Z1.935
G1 Z-0.66 F200.
X51.192 Z-0.681
X51.17 Z-0.781 F50.
X47.886 Y86.216 F200.
X44.504 Y85.775
X41.177 Y85.023
X37.935 Y83.965
X37.308 Y83.719
X37.121 Y83.646 F50.
Z-0.681 F200.
G0 Z5.
X36.637 Y83.445
Z1.935
G1 Z-0.673 F200.
Z-0.681
X36.629 Y83.441 Z-0.781 F50.
X33.62 Y82.004 F200.
X30.76 Y80.308
X28.053 Y78.361
X25.375 Y76.037
X24.519 Y75.191
X24.377 Y75.05 F50.
X24.376 Z-0.681 F200.
Z-0.68
X24.382 Y75.055 Z-0.592
X24.398 Y75.072 Z-0.507
X24.424 Y75.099 Z-0.427
X24.46 Y75.136 Z-0.355
X24.504 Y75.181 Z-0.294
X24.547 Y75.226 Z-0.233
X24.582 Y75.263 Z-0.162
X24.608 Y75.29 Z-0.083
X24.625 Y75.306 Z0.001
X24.631 Y75.313 Z0.087
X24.626 Y75.308 Z0.174
X24.611 Y75.292 Z0.259
X24.586 Y75.266 Z0.338
X24.552 Y75.231 Z0.41
X24.509 Y75.187 Z0.472
X24.46 Y75.136 Z0.523
X24.405 Y75.08 Z0.561
X24.347 Y75.02 Z0.584
X24.287 Y74.957 Z0.593
X24.226 Y74.895 Z0.586
X24.168 Y74.834 Z0.565
X24.112 Y74.777 Z0.529
X24.062 Y74.725 Z0.479
X24.019 Y74.68 Z0.418
X23.983 Y74.643 Z0.346
X23.957 Y74.616 Z0.266
X23.941 Y74.6 Z0.181
X23.935 Y74.594 Z0.093
X23.941 Y74.6 Z0.005
X23.957 Y74.616 Z-0.08
X23.983 Y74.643 Z-0.16
X24.019 Y74.68 Z-0.232
X24.062 Y74.725 Z-0.294
X24.106 Y74.771 Z-0.355
X24.142 Y74.807 Z-0.427
X24.168 Y74.835 Z-0.507
X24.184 Y74.851 Z-0.592
X24.19 Y74.857 Z-0.68
Z-0.681
X24.188 Y74.855 Z-0.781 F50.
X21.939 Y72.294 F200.
X19.929 Y69.539
X18.602 Y67.37
X18.498 Y67.2 F50.
X18.497 Z-0.681 F200.
G0 Z5.
X17.952 Y66.196
Z1.935
G1 Z-0.669 F200.
X17.949 Y66.19 Z-0.697
X17.928 Y66.15 Z-0.781 F50.
X16.857 Y63.91 F200.
X16.771 Y63.729 F50.
X16.77 Z-0.681 F200.
G0 Z5.
X16.314 Y62.634
Z1.935
G1 Z-0.667 F200.
X16.312 Y62.63 Z-0.695
X16.303 Y62.607 Z-0.781 F50.
X15.639 Y60.79 F200.
X15.571 Y60.602 F50.
Z-0.681 F200.
G0 Z5.
X15.004 Y58.748
Z1.935
G1 Z-0.686 F200.
Y58.747 Z-0.703
X15. Y58.734 Z-0.781 F50.
X14.585 Y57.074 F200.
X14.536 Y56.88 F50.
Z-0.681 F200.
G0 Z5.
X14.141 Y54.853
Z1.935
G1 Z-0.66 F200.
X14.14 Y54.847 Z-0.695
X14.127 Y54.768 Z-0.781 F50.
X13.801 Y52.23 F200.
X13.776 Y52.031 F50.
Z-0.681 F200.
G0 Z5.
X13.73 Y51.485
Z1.935
G1 Z-0.68 F200.
Z-0.686
X13.729 Y51.479 Z-0.781 F50.
X13.626 Y48.071 F200.
X13.835 Y44.667
X14.041 Y43.091
X14.067 Y42.893 F50.
Y42.892 Z-0.681 F200.
Z-0.68
G0 Z5.
X14.508 Y40.534
Z1.935
G1 Z-0.674 F200.
Y40.533 Z-0.681
X14.51 Y40.527 Z-0.781 F50.
X14.765 Y39.454 F200.
X14.811 Y39.259 F50.
X14.813 Y39.253 Z-0.682 F200.
Z-0.676
G0 Z5.
X15.553 Y36.736
Z1.935
G1 Z-0.671 F200.
Z-0.681
X15.556 Y36.725 Z-0.781 F50.
X15.851 Y35.88 F200.
X15.917 Y35.691 F50.
X15.922 Y35.677 Z-0.687 F200.
Y35.676 Z-0.671
G0 Z5.
X16.995 Y33.049
Z1.935
G1 Z-0.676 F200.
Z-0.681
X16.997 Y33.044 Z-0.781 F50.
X17.416 Y32.15 F200.
G0 Z5.
X18.803 Y29.551
Z1.935
G1 Z-0.671 F200.
Z-0.681
X18.808 Y29.542 Z-0.781 F50.
X19.106 Y29.046 F200.
X19.208 Y28.874 F50.
X19.209 Y28.873 Z-0.681 F200.
Z-0.68
G0 Z5.
X20.976 Y26.245
Z1.935
G1 Z-0.66 F200.
X20.977 Y26.243 Z-0.681
X20.99 Y26.226 Z-0.781 F50.
X23.161 Y23.541 F200.
X25.472 Y21.154
X28.001 Y18.963
X30.879 Y16.896
X33.947 Y15.105
X37.041 Y13.671
X40.255 Y12.528
X43.56 Y11.687
X46.928 Y11.154
X50.332 Y10.933
X53.739 Y11.028
X57.125 Y11.437
X60.458 Y12.158
X63.71 Y13.185
X66.853 Y14.508
X69.964 Y16.178
X72.741 Y18.014
X75.358 Y20.097
X77.927 Y22.554
X80.165 Y25.127
X82.163 Y27.891
X83.905 Y30.823
X85.377 Y33.9
X86.565 Y37.097
X87.462 Y40.388
X88.079 Y43.889
X88.366 Y47.438
X88.323 Y50.849
X87.961 Y54.301
X87.269 Y57.777
X86.3 Y61.047
X85.041 Y64.217
X83.503 Y67.261
X81.697 Y70.154
X79.638 Y72.873
X79.029 Y73.584
X78.899 Y73.736 F50.
Z-0.681 F200.
G0 Z5.
X76.443 Y76.272
Z1.935
G1 Z-0.672 F200.
Z-0.681
X76.436 Y76.279 Z-0.781 F50.
X75.249 Y77.343 F200.
X75.1 Y77.477 F50.
Z-0.681 F200.
G0 Z5.
X72.947 Y79.189
Z1.935
G1 Z-0.673 F200.
X72.946 Z-0.681
X72.939 Y79.194 Z-0.781 F50.
X70.126 Y81.079 F200.
X68.541 Y81.982
X68.367 Y82.081 F50.
Z-0.681 F200.
G0 Z5.
X65.105 Y83.627
Z1.935
G1 Z-0.672 F200.
Z-0.681
X65.096 Y83.631 Z-0.781 F50.
X63.562 Y84.222 F200.
X63.375 Y84.294 F50.
Z-0.681 F200.
G0 Z5.
X60.161 Y85.279
Z1.935
G1 Z-0.675 F200.
Z-0.681
X60.155 Y85.28 Z-0.781 F50.
X59.218 Y85.505 F200.
X59.023 Y85.552 F50.
Z-0.681 F200.
G0 Z5.
X55.763 Y86.128
Z1.935
G1 Z-0.678 F200.
X55.762 Z-0.681
X55.759 Y86.129 Z-0.781 F50.
X54.507 Y86.267 F200.
X54.309 Y86.289 F50.
X54.308 Z-0.681 F200.
G0 Z5.
X52.337 Y86.414
Z1.935
G1 Z-0.68 F200.
Z-0.681
X52.294 Y86.415 Z-0.781 F50.
X52.146 Y86.42 F200.
X51.946 Y86.426 F50.
Z-0.681 F200.
G0 Z5.
X51.072 Y86.439
Z1.935
G1 Z-0.671 F200.
Z-0.681
X51.061 Z-0.781 F50.
X50.221 Y86.429 F200.
X50.021 Y86.427 F50.
Z-0.681 F200.
G0 Z5.
X48.858 Y86.379
Z1.935
G1 Z-0.673 F200.
X48.857 Z-0.681
X48.849 Z-0.781 F50.
X48.174 Y86.332 F200.
X47.974 Y86.319 F50.
Z-0.681 F200.
G0 Z5.
X45.76 Y86.072
Z1.935
G1 Z-0.681 F200.
X45.675 Y86.06 Z-0.781 F50.
X44.1 Y85.793 F200.
X43.903 Y85.76 F50.
X43.902 Z-0.681 F200.
G0 Z5.
X40.788 Y85.012
Z1.935
G1 Z-0.679 F200.
Z-0.681
X40.787 Y85.011 Z-0.781 F50.
X37.542 Y83.915 F200.
X37.404 Y83.861
X37.218 Y83.787 F50.
Z-0.681 F200.
G0 Z5.
X36.468 Y83.476
Z1.935
G1 Z-0.673 F200.
Z-0.681
X36.46 Y83.473 Z-0.781 F50.
X33.277 Y81.926 F200.
X30.765 Y80.416
X30.594 Y80.313 F50.
Z-0.681 F200.
G0 Z5.
X30.098 Y79.98
Z1.935
G1 Z-0.681 F200.
X30.028 Y79.932 Z-0.781 F50.
X27.2 Y77.79 F200.
X24.956 Y75.754
X24.808 Y75.619 F50.
Z-0.681 F200.
G0 Z5.
X23.627 Y74.399
Z1.935
G1 Z-0.675 F200.
Y74.398 Z-0.69
X23.618 Y74.388 Z-0.781 F50.
X21.478 Y71.862 F200.
X19.513 Y69.074
X18.904 Y68.082
X18.799 Y67.912 F50.
Y67.911 Z-0.681 F200.
G0 Z5.
X17.538 Y65.594
Z1.934
G1 Z-0.691 F200.
X17.535 Y65.589 Z-0.726
X17.481 Y65.48 Z-0.781
X17.072 Y64.624
X16.986 Y64.444 F50.
Z-0.681 F200.
G0 Z5.
X15.964 Y61.993
Z1.934
G1 Z-0.7 F200.
Y61.991 Z-0.712
X15.961 Y61.985 Z-0.722
X15.921 Y61.876 Z-0.781 F50.
X15.619 Y61.03 F200.
X15.552 Y60.842 F50.
Z-0.681 F200.
G0 Z5.
X14.74 Y58.128
Z1.934
G1 Z-0.662 F200.
X14.739 Y58.122 Z-0.696
X14.731 Y58.093 Z-0.781 F50.
X14.533 Y57.278 F200.
X14.486 Y57.084 F50.
Z-0.681 F200.
G0 Z5.
X13.947 Y54.235
Z1.934
G1 Z-0.781 F200.
X13.826 Y53.339
X13.799 Y53.141 F50.
Z-0.681 F200.
G0 Z5.
X13.585 Y50.72
Z1.935
G1 Z-0.68 F200.
Z-0.681
X13.583 Y50.677 Z-0.781 F50.
X13.55 Y47.352 F200.
X13.815 Y44.019
X13.859 Y43.683
X13.885 Y43.485 F50.
Y43.484 Z-0.681 F200.
G0 Z5.
X14.44 Y40.402
Z1.935
G1 Z-0.671 F200.
X14.441 Z-0.681
X14.443 Y40.392 Z-0.781 F50.
X14.571 Y39.844 F200.
X14.616 Y39.65 F50.
Y39.649 Z-0.681 F200.
G0 Z5.
X15.496 Y36.608
Z1.935
G1 Z-0.673 F200.
Y36.607 Z-0.681
X15.498 Y36.6 Z-0.781 F50.
X15.642 Y36.182 F200.
X15.707 Y35.993 F50.
X15.708 Y35.992 Z-0.681 F200.
Z-0.68
G0 Z5.
X16.944 Y32.931
Z1.935
G1 Z-0.671 F200.
Z-0.681
X16.948 Y32.921 Z-0.781 F50.
X17.094 Y32.607 F200.
X17.179 Y32.425 F50.
Z-0.681 F200.
G0 Z5.
X18.76 Y29.436
Z1.935
G1 Z-0.677 F200.
Z-0.681
X18.763 Y29.432 Z-0.781 F50.
X18.842 Y29.299 F200.
X18.944 Y29.127 F50.
Y29.126 Z-0.681 F200.
G0 Z5.
X20.938 Y26.137
Z1.935
G1 Z-0.673 F200.
Z-0.681
X20.943 Y26.13 Z-0.781 F50.
X23.067 Y23.504 F200.
X25.406 Y21.086
X27.942 Y18.889
X30.823 Y16.819
X33.895 Y15.026
X36.989 Y13.59
X40.202 Y12.445
X43.506 Y11.601
X44.958 Y11.335
X45.154 Y11.299 F50.
X45.155 Z-0.681 F200.
G0 Z5.
X45.658 Y11.222
Z1.935
G1 Z-0.679 F200.
Z-0.681
X45.66 Y11.221 Z-0.781 F50.
X46.715 Y11.086 F200.
X46.913 Y11.06 F50.
Z-0.681 F200.
Z-0.678
X46.905 Y11.061 Z-0.592
X46.883 Y11.063 Z-0.508
X46.847 Y11.067 Z-0.43
X46.798 Y11.072 Z-0.359
X46.738 Y11.079 Z-0.297
X46.677 Y11.085 Z-0.235
X46.628 Y11.091 Z-0.163
X46.592 Y11.094 Z-0.084
X46.57 Y11.097 Z0.
X46.563 Y11.098 Z0.087
X46.571 Y11.097 Z0.174
X46.594 Y11.094 Z0.258
X46.632 Y11.09 Z0.337
X46.682 Y11.085 Z0.408
X46.744 Y11.078 Z0.469
X46.815 Y11.071 Z0.518
X46.894 Y11.062 Z0.555
X46.978 Y11.053 Z0.576
X47.064 Y11.044 Z0.583
X47.15 Y11.035 Z0.575
X47.234 Y11.026 Z0.552
X47.312 Y11.017 Z0.515
X47.383 Y11.01 Z0.464
X47.443 Y11.003 Z0.403
X47.492 Y10.998 Z0.332
X47.528 Y10.994 Z0.253
X47.55 Y10.992 Z0.17
X47.558 Y10.991 Z0.083
X47.55 Y10.992 Z-0.003
X47.528 Y10.994 Z-0.086
X47.492 Y10.998 Z-0.165
X47.443 Y11.003 Z-0.236
X47.383 Y11.01 Z-0.297
X47.322 Y11.016 Z-0.359
X47.273 Y11.021 Z-0.43
X47.237 Y11.025 Z-0.508
X47.215 Y11.028 Z-0.592
X47.208 Z-0.678
Z-0.681
X47.215 Z-0.781 F50.
X50.613 Y10.834 F200.
X54.086 Y10.96
X57.468 Y11.4
X60.795 Y12.151
X64.038 Y13.205
X66.997 Y14.482
X67.181 Y14.561 F50.
Z-0.681 F200.
G0 Z5.
X68.658 Y15.323
Z1.935
G1 Z-0.67 F200.
X68.659 Z-0.681
X68.669 Y15.328 Z-0.781 F50.
X69.474 Y15.783 F200.
X69.648 Y15.881 F50.
Z-0.681 F200.
G0 Z5.
X70.009 Y16.095
Z1.935
G1 Z-0.674 F200.
Z-0.681
X70.015 Y16.098 Z-0.781 F50.
X72.796 Y17.937 F200.
X75.42 Y20.026
X77.99 Y22.483
X80.321 Y25.171
X82.31 Y27.942
X84.043 Y30.879
X85.505 Y33.96
X86.685 Y37.16
X87.574 Y40.453
X88.191 Y44.027
X88.46 Y47.427
X88.418 Y50.837
X88.054 Y54.312
X87.413 Y57.595
X86.464 Y60.871
X85.224 Y64.048
X83.704 Y67.101
X81.917 Y70.002
X79.909 Y72.694
X79.137 Y73.603
X79.008 Y73.756 F50.
Z-0.681 F200.
G0 Z5.
X76.443 Y76.402
Z1.935
G1 Z-0.677 F200.
X76.442 Y76.403 Z-0.681
X76.44 Y76.405 Z-0.781 F50.
X75.442 Y77.302 F200.
X75.294 Y77.436 F50.
X75.293 Z-0.681 F200.
G0 Z5.
X72.863 Y79.367
Z1.935
G1 Z-0.678 F200.
Z-0.681
X72.861 Y79.369 Z-0.781 F50.
X69.885 Y81.334 F200.
X68.67 Y82.022
X68.496 Y82.12 F50.
Z-0.681 F200.
G0 Z5.
X65.049 Y83.753
Z1.935
G1 Z-0.673 F200.
Z-0.681
X65.041 Y83.756 Z-0.781 F50.
X63.687 Y84.278 F200.
X63.501 Y84.35 F50.
Z-0.681 F200.
G0 Z5.
X60.077 Y85.398
Z1.935
G1 Z-0.681 F200.
Z-0.781 F50.
X59.349 Y85.573 F200.
X59.154 Y85.62 F50.
Z-0.681 F200.
G0 Z5.
X55.657 Y86.237
Z1.935
G1 Z-0.673 F200.
X55.656 Z-0.681
X55.649 Y86.238 Z-0.781 F50.
X54.671 Y86.347 F200.
X54.473 Y86.369 F50.
X54.472 Z-0.681 F200.
G0 Z5.
X48.71 Y86.466
Z1.935
G1 Z-0.67 F200.
Z-0.681
X48.699 Y86.465 Z-0.781 F50.
X48.286 Y86.437 F200.
X48.087 Y86.423 F50.
Z-0.681 F200.
G0 Z5.
X44.792 Y86.018
Z1.935
G1 Z-0.676 F200.
Z-0.681
X44.786 Y86.017 Z-0.781 F50.
X44.663 Y85.996 F200.
X44.466 Y85.962 F50.
Z-0.681 F200.
G0 Z5.
X39.557 Y84.735
Z1.935
G1 Z-0.67 F200.
Z-0.681
X39.546 Y84.732 Z-0.781 F50.
X37.443 Y83.972 F200.
X37.255 Y83.904 F50.
Z-0.681 F200.
G0 Z5.
X36.359 Y83.533
Z1.935
G1 Z-0.671 F200.
Y83.532 Z-0.681
X36.349 Y83.528 Z-0.781 F50.
X34.272 Y82.55 F200.
X34.091 Y82.465 F50.
Z-0.681 F200.
G0 Z5.
X31.225 Y80.832
Z1.935
G1 Z-0.674 F200.
Z-0.681
X31.218 Y80.828 Z-0.781 F50.
X30.817 Y80.57 F200.
X30.649 Y80.462 F50.
Z-0.681 F200.
G0 Z5.
X29.946 Y79.99
Z1.935
G1 Z-0.675 F200.
Z-0.681
X29.941 Y79.987 Z-0.781 F50.
X28.277 Y78.769 F200.
X28.116 Y78.65 F50.
Z-0.681 F200.
G0 Z5.
X26.816 Y77.591
Z1.935
G1 Z-0.679 F200.
Z-0.681
X26.815 Y77.59 Z-0.781 F50.
X25.092 Y76.02 F200.
X24.944 Y75.885 F50.
X24.943 Y75.884 Z-0.681 F200.
G0 Z5.
X23.365 Y74.253
Z1.935
G1 Z-0.674 F200.
X23.364 Y74.252 Z-0.681
X23.36 Y74.247 Z-0.781 F50.
X21.098 Y71.521 F200.
X19.169 Y68.709
X18.875 Y68.225
X18.771 Y68.054 F50.
Z-0.681 F200.
G0 Z5.
X17.26 Y65.25
Z1.935
G1 Z-0.676 F200.
Z-0.681
X17.258 Y65.245 Z-0.781 F50.
X17.03 Y64.764 F200.
X16.945 Y64.584 F50.
Z-0.681 F200.
G0 Z5.
X15.727 Y61.628
Z1.935
G1 Z-0.681 F200.
X15.712 Y61.587 Z-0.781 F50.
X15.559 Y61.152 F200.
X15.492 Y60.963 F50.
Z-0.681 F200.
G0 Z5.
X14.555 Y57.785
Z1.935
G1 Z-0.67 F200.
Z-0.681
X14.552 Y57.774 Z-0.781 F50.
X14.46 Y57.387 F200.
X14.413 Y57.193 F50.
Z-0.681 F200.
G0 Z5.
X13.802 Y53.889
Z1.935
G1 Z-0.675 F200.
Z-0.681
X13.801 Y53.883 Z-0.781 F50.
X13.747 Y53.473 F200.
X13.72 Y53.275 F50.
Z-0.681 F200.
G0 Z5.
X13.462 Y50.122
Z1.935
G1 Z-0.669 F200.
Y50.121 Z-0.681
Y50.109 Z-0.781 F50.
X13.478 Y46.826 F200.
X13.754 Y43.754
G0 Z5.
X14.362 Y40.316
Z1.935
G1 Z-0.676 F200.
Z-0.681
X14.363 Y40.311 Z-0.781 F50.
X14.397 Y40.163 F200.
X14.442 Y39.968 F50.
Z-0.681 F200.
G0 Z5.
X20.883 Y26.05
Z1.935
G1 Z-0.671 F200.
X20.884 Z-0.681
X20.89 Y26.041 Z-0.781 F50.
X22.995 Y23.443 F200.
X25.34 Y21.018
X27.883 Y18.815
X30.768 Y16.742
X33.843 Y14.946
X36.936 Y13.509
X40.148 Y12.363
X43.452 Y11.515
X44.57 Y11.304
X44.767 Y11.267 F50.
Z-0.681 F200.
G0 Z5.
X46.142 Y11.058
Z1.935
G1 Z-0.679 F200.
Z-0.681
X46.144 Z-0.781 F50.
X46.494 Y11.014 F200.
X46.692 Y10.99 F50.
Z-0.681 F200.
G0 Z5.
X47.432 Y10.911
Z1.935
G1 Z-0.66 F200.
X47.434 Y10.91 Z-0.681
X47.456 Y10.908 Z-0.781 F50.
X49.112 Y10.791 F200.
X49.311 Y10.776 F50.
Z-0.681 F200.
G0 Z5.
X51.314 Y10.739
Z1.935
G1 Z-0.68 F200.
X51.315 Z-0.681
X51.357 Z-0.781 F50.
X54.219 Y10.884 F200.
X54.419 Y10.894 F50.
Z-0.681 F200.
G0 Z5.
X56.556 Y11.154
Z1.935
G1 Z-0.671 F200.
Z-0.681
X56.567 Y11.155 Z-0.781 F50.
X56.854 Y11.201 F200.
X57.051 Y11.232 F50.
X57.052 Z-0.681 F200.
G0 Z5.
X58.359 Y11.473
Z1.935
G1 Z-0.66 F200.
X58.362 Z-0.681
X58.383 Y11.477 Z-0.781 F50.
X59.903 Y11.824 F200.
X60.098 Y11.868 F50.
Y11.869 Z-0.681 F200.
G0 Z5.
X62.741 Y12.644
Z1.935
G1 Z-0.678 F200.
Z-0.681
X62.745 Y12.645 Z-0.781 F50.
X65.926 Y13.874 F200.
X66.762 Y14.258
X66.943 Y14.341 F50.
X66.944 Z-0.681 F200.
G0 Z5.
X68.963 Y15.382
Z1.935
G1 Z-0.67 F200.
X68.964 Z-0.681
X68.973 Y15.388 Z-0.781 F50.
X69.376 Y15.616 F200.
X69.55 Y15.715 F50.
Z-0.681 F200.
G0 Z5.
X70.221 Y16.112
Z1.935
G1 Z-0.672 F200.
Z-0.681
X70.229 Y16.116 Z-0.781 F50.
X71.287 Y16.786 F200.
X71.456 Y16.893 F50.
X71.457 Y16.894 Z-0.681 F200.
G0 Z5.
X74.985 Y19.528
Z1.935
G1 Z-0.679 F200.
Z-0.681
X74.986 Y19.529 Z-0.781 F50.
X77.581 Y21.925 F200.
X79.963 Y24.574
X81.243 Y26.239
X81.365 Y26.398 F50.
Z-0.681 F200.
G0 Z5.
X82.753 Y28.459
Z1.934
G1 Z-0.781 F200.
X83.422 Y29.574
X83.525 Y29.745 F50.
Z-0.681 F200.
G0 Z5.
X84.503 Y31.564
Z1.935
G1 Z-0.684 F200.
X84.504 Y31.565 Z-0.702
X84.51 Y31.578 Z-0.781 F50.
X85.341 Y33.353 F200.
X85.425 Y33.534 F50.
X85.426 Z-0.681 F200.
G0 Z5.
X85.982 Y34.888
Z1.935
G1 Z-0.668 F200.
X85.984 Y34.891 Z-0.695
X86.008 Y34.954 Z-0.781 F50.
X87.062 Y38.075 F200.
X87.865 Y41.389
X88.363 Y44.693
X88.57 Y48.098
X88.468 Y51.507
X88.04 Y54.997
X87.339 Y58.277
X86.332 Y61.535
X85.037 Y64.691
X83.464 Y67.717
X81.524 Y70.732
X79.449 Y73.391
X79.231 Y73.643
X79.1 Y73.794 F50.
Z-0.681 F200.
G0 Z5.
X76.467 Y76.509
Z1.935
G1 Z-0.681 F200.
X76.404 Y76.568 Z-0.781 F50.
X75.635 Y77.261 F200.
X75.486 Y77.395 F50.
X75.485 Z-0.681 F200.
G0 Z5.
X72.782 Y79.544
Z1.935
G1 Z-0.68 F200.
Z-0.681
X72.747 Y79.569 Z-0.781 F50.
X69.936 Y81.414 F200.
X68.764 Y82.078
X68.59 Y82.177 F50.
Z-0.681 F200.
G0 Z5.
X65.03 Y83.863
Z1.935
G1 Z-0.676 F200.
Z-0.681
X65.025 Y83.865 Z-0.781 F50.
X63.779 Y84.345 F200.
X63.593 Y84.417 F50.
X63.592 Y84.418 Z-0.681 F200.
G0 Z5.
X60.041 Y85.505
Z1.935
G1 Z-0.676 F200.
Z-0.681
X60.036 Y85.506 Z-0.781 F50.
X59.432 Y85.651 F200.
X59.238 Y85.698 F50.
Z-0.681 F200.
G0 Z5.
X55.601 Y86.34
Z1.935
G1 Z-0.677 F200.
X55.6 Z-0.681
X55.596 Y86.341 Z-0.781 F50.
X54.835 Y86.426 F200.
X54.636 Y86.448 F50.
Z-0.681 F200.
G0 Z5.
X48.624 Y86.556
Z1.935
G1 Z-0.678 F200.
Z-0.681
X48.621 Y86.555 Z-0.781 F50.
X48.351 Y86.537 F200.
X48.151 Y86.523 F50.
Z-0.681 F200.
G0 Z5.
X39.377 Y84.776
Z1.935
G1 Z-0.673 F200.
Z-0.681
X39.369 Y84.774 Z-0.781 F50.
X37.453 Y84.078 F200.
X37.265 Y84.01 F50.
Z-0.681 F200.
G0 Z5.
X36.276 Y83.6
Z1.935
G1 Z-0.679 F200.
Z-0.681
X36.274 Y83.599 Z-0.781 F50.
X34.331 Y82.686 F200.
X34.15 Y82.601 F50.
Z-0.681 F200.
G0 Z5.
X31.069 Y80.846
Z1.935
G1 Z-0.673 F200.
Z-0.681
X31.063 Y80.842 Z-0.781 F50.
X30.828 Y80.691 F200.
X30.66 Y80.583 F50.
Y80.582 Z-0.681 F200.
G0 Z5.
X29.822 Y80.02
Z1.935
G1 Z-0.678 F200.
Z-0.681
X29.819 Y80.018 Z-0.781 F50.
X28.314 Y78.917 F200.
X28.152 Y78.799 F50.
Z-0.681 F200.
G0 Z5.
X26.274 Y77.246
Z1.935
G1 Z-0.66 F200.
X26.272 Y77.245 Z-0.681
X26.256 Y77.231 Z-0.781 F50.
X25.182 Y76.241 F200.
X25.035 Y76.105 F50.
Z-0.681 F200.
G0 Z5.
X23.186 Y74.197
Z1.935
G1 Z-0.681 F200.
X23.184 Y74.195 Z-0.781 F50.
X21.026 Y71.583 F200.
X19.096 Y68.771
X18.826 Y68.327
X18.722 Y68.157 F50.
Z-0.681 F200.
G0 Z5.
X17.024 Y64.975
Z1.935
G1 Z-0.675 F200.
Z-0.681
X17.021 Y64.969 Z-0.781 F50.
X16.97 Y64.861 F200.
X16.886 Y64.68 F50.
Z-0.681 F200.
G0 Z5.
X13.359 Y49.861
Z1.935
G1 Z-0.781 F200.
X13.402 Y46.484
X13.614 Y44.165
X13.632 Y43.966 F50.
Y43.965 Z-0.681 F200.
Z-0.68
G0 Z5.
X20.818 Y25.979
Z1.935
G1 Z-0.67 F200.
Z-0.681
X20.825 Y25.97 Z-0.781 F50.
X22.923 Y23.381 F200.
X25.275 Y20.95
X27.824 Y18.74
X30.713 Y16.665
X33.791 Y14.866
X34.617 Y14.45
X34.796 Y14.361 F50.
Y14.36 Z-0.681 F200.
G0 Z5.
X36.444 Y13.612
Z1.935
G1 Z-0.66 F200.
X36.446 Y13.611 Z-0.681
X36.466 Y13.603 Z-0.781 F50.
X38.737 Y12.732 F200.
X38.924 Y12.66 F50.
Z-0.681 F200.
G0 Z5.
X42.757 Y11.57
Z1.935
G1 Z-0.67 F200.
Z-0.681
X42.768 Y11.567 Z-0.781 F50.
X44.317 Y11.254 F200.
X44.513 Y11.215 F50.
Z-0.681 F200.
G0 Z5.
X47.52 Y10.807
Z1.935
G1 Z-0.678 F200.
Z-0.681
X47.523 Z-0.781 F50.
X47.767 Y10.785 F200.
X47.966 Y10.768 F50.
Z-0.681 F200.
G0 Z5.
X51.867 Y10.652
Z1.935
G1 Z-0.676 F200.
Z-0.681
X51.873 Z-0.781 F50.
X53.174 Y10.709 F200.
X53.374 Y10.717 F50.
Z-0.681 F200.
G0 Z5.
X63.302 Y12.736
Z1.935
G1 Z-0.698 F200.
X63.303 Z-0.705
X63.308 Y12.738 Z-0.781 F50.
X66.406 Y13.985 F200.
X66.553 Y14.054
X66.735 Y14.138 F50.
Z-0.681 F200.
G0 Z5.
X69.248 Y15.433
Z1.935
G1 Z-0.67 F200.
X69.249 Z-0.681
X69.258 Y15.438 Z-0.781 F50.
X69.35 Y15.491 F200.
X69.524 Y15.59 F50.
Z-0.681 F200.
G0 Z5.
X70.347 Y16.077
Z1.935
G1 Z-0.66 F200.
X70.349 Y16.078 Z-0.681
X70.368 Y16.09 Z-0.781 F50.
X70.521 Y16.184 F200.
X70.691 Y16.289 F50.
Z-0.681 F200.
G0 Z5.
X75.793 Y20.101
Z1.935
G1 Z-0.671 F200.
X75.794 Y20.102 Z-0.681
X75.801 Y20.108 Z-0.781 F50.
X78.23 Y22.46 F200.
X80.459 Y25.041
X81.253 Y26.088
X81.373 Y26.248 F50.
X81.374 Z-0.681 F200.
G0 Z5.
X83.088 Y28.821
Z1.934
G1 Z-0.677 F200.
Z-0.681
X83.091 Y28.825 Z-0.781 F50.
X83.427 Y29.392 F200.
X83.529 Y29.564 F50.
Z-0.681 F200.
G0 Z5.
X84.862 Y32.077
Z1.934
G1 Z-0.663 F200.
X84.864 Y32.082 Z-0.694
X84.876 Y32.107 Z-0.781 F50.
X85.248 Y32.907 F200.
X85.332 Y33.089 F50.
Z-0.681 F200.
G0 Z5.
X86.316 Y35.502
Z1.934
G1 Z-0.781 F200.
X86.689 Y36.574
X86.755 Y36.763 F50.
Z-0.681 F200.
G0 Z5.
X87.448 Y39.125
Z1.934
G1 Z-0.691 F200.
Y39.126 Z-0.706
X87.451 Y39.137 Z-0.781 F50.
X87.753 Y40.409 F200.
X87.8 Y40.603 F50.
Z-0.681 F200.
G0 Z5.
X88.183 Y42.635
Z1.935
G1 Z-0.676 F200.
Z-0.681
X88.184 Y42.64 Z-0.781 F50.
X88.577 Y46.041 F200.
X88.661 Y49.451
X88.436 Y52.854
X88.133 Y55.014
G0 Z5.
X87.804 Y56.726
Z1.935
G1 Z-0.679 F200.
Z-0.681
Y56.729 Z-0.781 F50.
X87.349 Y58.586 F200.
X87.302 Y58.78 F50.
X87.3 Y58.786 Z-0.696 F200.
Z-0.689
G0 Z5.
X86.746 Y60.621
Z1.935
G1 Z-0.676 F200.
Z-0.681
X86.745 Y60.625 Z-0.781 F50.
X86.206 Y62.138 F200.
X86.139 Y62.326 F50.
X86.137 Y62.332 Z-0.696 F200.
Z-0.689
G0 Z5.
X85.296 Y64.35
Z1.935
G1 Z-0.674 F200.
Z-0.681
X85.293 Y64.357 Z-0.781 F50.
X84.692 Y65.618 F200.
X84.606 Y65.799 F50.
X84.604 Y65.803 Z-0.715 F200.
Z-0.708
G0 Z5.
X83.489 Y67.861
Z1.935
G1 Z-0.678 F200.
Z-0.681
X83.488 Y67.864 Z-0.781 F50.
X81.602 Y70.786 F200.
X79.521 Y73.453
X79.31 Y73.696
X79.18 Y73.847 F50.
Z-0.681 F200.
G0 Z5.
X76.51 Y76.599
Z1.935
G1 Z-0.67 F200.
X76.509 Z-0.681
X76.501 Y76.607 Z-0.781 F50.
X75.817 Y77.226 F200.
X75.669 Y77.36 F50.
Z-0.681 F200.
G0 Z5.
X72.704 Y79.717
Z1.935
G1 Z-0.681 F200.
X72.702 Y79.718 Z-0.781 F50.
X69.688 Y81.669 F200.
X68.837 Y82.147
X68.662 Y82.245 F50.
Z-0.681 F200.
G0 Z5.
X65.034 Y83.959
Z1.935
G1 Z-0.677 F200.
Z-0.681
X65.03 Y83.961 Z-0.781 F50.
X63.839 Y84.419 F200.
X63.652 Y84.491 F50.
Z-0.681 F200.
G0 Z5.
X60.029 Y85.6
Z1.935
G1 Z-0.677 F200.
Z-0.681
X60.024 Y85.601 Z-0.781 F50.
X59.488 Y85.73 F200.
X59.294 Y85.777 F50.
X59.293 Z-0.681 F200.
G0 Z5.
X55.573 Y86.435
Z1.935
G1 Z-0.676 F200.
Z-0.681
X55.568 Y86.436 Z-0.781 F50.
X54.991 Y86.502 F200.
X54.792 Y86.524 F50.
Z-0.681 F200.
G0 Z5.
X48.55 Y86.646
Z1.935
G1 Z-0.679 F200.
Z-0.681
X48.547 Z-0.781 F50.
X48.383 Y86.634 F200.
X48.183 Y86.62 F50.
Z-0.681 F200.
G0 Z5.
X39.267 Y84.84
Z1.935
G1 Z-0.67 F200.
Z-0.681
X39.256 Y84.836 Z-0.781 F50.
X37.459 Y84.183 F200.
X37.271 Y84.114 F50.
X37.27 Z-0.681 F200.
G0 Z5.
X36.204 Y83.672
Z1.935
G1 Z-0.678 F200.
Z-0.681
X36.201 Y83.671 Z-0.781 F50.
X34.349 Y82.802 F200.
X34.168 Y82.717 F50.
Z-0.681 F200.
G0 Z5.
X30.959 Y80.888
Z1.935
G1 Z-0.676 F200.
Z-0.681
X30.954 Y80.885 Z-0.781 F50.
X30.812 Y80.794 F200.
X30.644 Y80.686 F50.
Y80.685 Z-0.681 F200.
G0 Z5.
X29.701 Y80.052
Z1.935
G1 Z-0.679 F200.
Z-0.681
X29.7 Y80.051 Z-0.781 F50.
X28.309 Y79.033 F200.
X28.148 Y78.915 F50.
Z-0.681 F200.
G0 Z5.
X26.121 Y77.238
Z1.935
G1 Z-0.671 F200.
Z-0.681
X26.114 Y77.231 Z-0.781 F50.
X25.089 Y76.288 F200.
G0 Z5.
X23.01 Y74.142
Z1.935
G1 Z-0.681 F200.
X23.007 Y74.14 Z-0.781 F50.
X20.75 Y71.371 F200.
X18.845 Y68.542
X18.764 Y68.408
X18.66 Y68.237 F50.
Z-0.681 F200.
G0 Z5.
X13.258 Y49.633
Z1.935
G1 Z-0.67 F200.
Y49.632 Z-0.681
Y49.62 Z-0.781 F50.
X13.327 Y46.168 F200.
X13.493 Y44.374
X13.512 Y44.175 F50.
Y44.174 Z-0.681 F200.
Z-0.68
G0 Z5.
X20.741 Y25.925
Z1.935
G1 Z-0.681 F200.
Z-0.781 F50.
X22.851 Y23.32 F200.
X25.209 Y20.881
X26.655 Y19.587
X26.804 Y19.453 F50.
Z-0.681 F200.
G0 Z5.
X28.331 Y18.227
Z1.935
G1 Z-0.678 F200.
Z-0.681
X28.334 Y18.225 Z-0.781 F50.
X29.891 Y17.105 F200.
X30.053 Y16.989 F50.
Z-0.681 F200.
G0 Z5.
X32.783 Y15.303
Z1.935
G1 Z-0.671 F200.
Z-0.681
X32.792 Y15.298 Z-0.781 F50.
X32.925 Y15.224 F200.
X33.1 Y15.128 F50.
Z-0.681 F200.
G0 Z5.
X37.726 Y12.993
Z1.935
G1 Z-0.673 F200.
Z-0.681
X37.734 Y12.99 Z-0.781 F50.
X37.851 Y12.946 F200.
X38.038 Y12.876 F50.
Z-0.681 F200.
G0 Z5.
X43.123 Y11.391
Z1.935
G1 Z-0.673 F200.
Z-0.681
X43.131 Y11.39 Z-0.781 F50.
X44.087 Y11.199 F200.
X44.283 Y11.16 F50.
Z-0.681 F200.
G0 Z5.
X52.152 Y10.565
Z1.935
G1 Z-0.678 F200.
Z-0.681
X52.155 Z-0.781 F50.
X53.028 Y10.604 F200.
X53.228 Y10.613 F50.
Z-0.681 F200.
G0 Z5.
X63.571 Y12.73
Z1.935
G1 Z-0.679 F200.
Z-0.681
X63.573 Y12.731 Z-0.781 F50.
X66.433 Y13.903 F200.
X66.618 Y13.978 F50.
Y13.979 Z-0.681 F200.
G0 Z5.
X75.966 Y20.128
Z1.935
G1 Z-0.67 F200.
X75.967 Y20.129 Z-0.681
X75.975 Y20.136 Z-0.781 F50.
X78.532 Y22.644 F200.
X80.739 Y25.245
X81.291 Y25.98
X81.412 Y26.139 F50.
Y26.14 Z-0.681 F200.
G0 Z5.
X83.35 Y29.072
Z1.935
G1 Z-0.679 F200.
Z-0.681
X83.351 Y29.074 Z-0.781 F50.
X83.469 Y29.273 F200.
X83.57 Y29.446 F50.
Z-0.681 F200.
G0 Z5.
X85.103 Y32.363
Z1.935
G1 Z-0.678 F200.
Z-0.681
X85.104 Y32.366 Z-0.781 F50.
X85.293 Y32.776 F200.
X85.377 Y32.958 F50.
Z-0.681 F200.
G0 Z5.
X86.551 Y35.875
Z1.934
G1 Z-0.67 F200.
Z-0.681
X86.555 Y35.886 Z-0.781 F50.
X86.744 Y36.437 F200.
X86.809 Y36.626 F50.
Z-0.681 F200.
G0 Z5.
X87.659 Y39.575
Z1.934
G1 Z-0.681 F200.
Y39.576 Z-0.781 F50.
X87.815 Y40.245 F200.
X87.86 Y40.44 F50.
Z-0.681 F200.
G0 Z5.
X88.375 Y43.272
Z1.935
G1 Z-0.681 F200.
X88.376 Y43.276 Z-0.781 F50.
X88.712 Y46.711 F200.
X88.735 Y50.121
X88.706 Y50.72
X88.696 Y50.92 F50.
Y50.921 Z-0.681 F200.
Z-0.68
G0 Z5.
X88.503 Y53.093
Z1.935
G1 Z-0.675 F200.
Z-0.681
Y53.099 Z-0.781 F50.
X88.364 Y54.134 F200.
X88.337 Y54.333 F50.
X88.335 Y54.346 Z-0.701 F200.
Y54.348 Z-0.684
G0 Z5.
X87.827 Y57.06
Z1.935
G1 Z-0.678 F200.
Z-0.681
Y57.063 Z-0.781 F50.
X87.614 Y57.951 F200.
X87.567 Y58.146 F50.
X87.562 Y58.167 Z-0.684 F200.
X87.561 Y58.17 Z-0.662
G0 Z5.
X86.77 Y60.847
Z1.935
G1 Z-0.66 F200.
Y60.849 Z-0.681
X86.763 Y60.87 Z-0.781 F50.
X86.434 Y61.809 F200.
G0 Z5.
X85.32 Y64.526
Z1.935
G1 Z-0.671 F200.
Z-0.681
X85.316 Y64.536 Z-0.781 F50.
X84.927 Y65.362 F200.
G0 Z5.
X83.505 Y68.02
Z1.935
G1 Z-0.678 F200.
Z-0.681
X83.504 Y68.023 Z-0.781 F50.
X81.68 Y70.84 F200.
X79.593 Y73.514
X79.38 Y73.76
X79.25 Y73.911 F50.
Z-0.681 F200.
G0 Z5.
X76.567 Y76.675
Z1.935
G1 Z-0.68 F200.
Z-0.681
X76.536 Y76.704 Z-0.781 F50.
X75.966 Y77.221 F200.
X75.817 Y77.356 F50.
Z-0.681 F200.
G0 Z5.
X72.661 Y79.864
Z1.935
G1 Z-0.678 F200.
Z-0.681
X72.659 Y79.866 Z-0.781 F50.
X69.74 Y81.749 F200.
X68.893 Y82.224
X68.718 Y82.322 F50.
Z-0.681 F200.
G0 Z5.
X65.056 Y84.052
Z1.935
G1 Z-0.671 F200.
Z-0.681
X65.047 Y84.056 Z-0.781 F50.
X63.886 Y84.503 F200.
X63.699 Y84.575 F50.
Z-0.681 F200.
G0 Z5.
X60.034 Y85.696
Z1.935
G1 Z-0.677 F200.
Z-0.681
X60.031 Y85.697 Z-0.781 F50.
X59.527 Y85.818 F200.
X59.333 Y85.865 F50.
Z-0.681 F200.
G0 Z5.
X55.565 Y86.532
Z1.935
G1 Z-0.672 F200.
X55.564 Z-0.681
X55.555 Y86.533 Z-0.781 F50.
X55.144 Y86.581 F200.
X54.946 Y86.604 F50.
Z-0.681 F200.
G0 Z5.
X39.192 Y84.915
Z1.935
G1 Z-0.67 F200.
X39.191 Z-0.681
X39.181 Y84.911 Z-0.781 F50.
X37.463 Y84.287 F200.
X37.275 Y84.218 F50.
Z-0.681 F200.
G0 Z5.
X36.133 Y83.745
Z1.935
G1 Z-0.68 F200.
Z-0.681
X36.094 Y83.728 Z-0.781 F50.
X34.34 Y82.904 F200.
X34.159 Y82.819 F50.
Z-0.681 F200.
G0 Z5.
X30.872 Y80.945
Z1.935
G1 Z-0.677 F200.
Z-0.681
X30.869 Y80.943 Z-0.781 F50.
X30.779 Y80.885 F200.
X30.611 Y80.777 F50.
X30.61 Z-0.681 F200.
G0 Z5.
X29.58 Y80.084
Z1.935
G1 Z-0.679 F200.
Z-0.681
X29.579 Y80.082 Z-0.781 F50.
X28.283 Y79.133 F200.
X28.122 Y79.015 F50.
Z-0.681 F200.
G0 Z5.
X26.007 Y77.264
Z1.935
G1 Z-0.676 F200.
Z-0.681
X26.004 Y77.26 Z-0.781 F50.
X25.262 Y76.579 F200.
X25.115 Y76.443 F50.
X25.114 Z-0.681 F200.
Z-0.68
G0 Z5.
X22.832 Y74.085
Z1.935
G1 Z-0.781 F200.
X20.678 Y71.433
X18.772 Y68.604
X18.691 Y68.47
X18.588 Y68.299 F50.
Z-0.681 F200.
G0 Z5.
X13.159 Y49.405
Z1.935
G1 Z-0.664 F200.
Y49.403 Z-0.681
X13.158 Y49.386 Z-0.781 F50.
X13.243 Y46.013 F200.
X13.375 Y44.579
X13.393 Y44.38 F50.
Z-0.681 F200.
G0 Z5.
X20.653 Y25.885
Z1.935
G1 Z-0.674 F200.
Z-0.681
X20.657 Y25.879 Z-0.781 F50.
X22.779 Y23.259 F200.
X25.143 Y20.813
X25.748 Y20.255
X25.895 Y20.12 F50.
X25.896 Y20.119 Z-0.681 F200.
G0 Z5.
X28.771 Y17.779
Z1.935
G1 Z-0.677 F200.
Z-0.681
X28.774 Y17.776 Z-0.781 F50.
X29.707 Y17.115 F200.
X29.87 Y16.999 F50.
Z-0.681 F200.
G0 Z5.
X43.203 Y11.277
Z1.935
G1 Z-0.677 F200.
Z-0.681
X43.207 Y11.276 Z-0.781 F50.
X43.95 Y11.128 F200.
X44.146 Y11.088 F50.
X44.147 Z-0.681 F200.
G0 Z5.
X52.353 Y10.477
Z1.935
G1 Z-0.681 F200.
X52.357 Z-0.781 F50.
X52.956 Y10.505 F200.
X53.156 Y10.514 F50.
Z-0.681 F200.
G0 Z5.
X63.8 Y12.712
Z1.935
G1 Z-0.781 F200.
X66.318 Y13.745
X66.503 Y13.821 F50.
Z-0.681 F200.
G0 Z5.
X76.088 Y20.11
Z1.935
G1 Z-0.675 F200.
Z-0.681
X76.093 Y20.114 Z-0.781 F50.
X78.601 Y22.579 F200.
X80.808 Y25.179
X81.346 Y25.894
X81.466 Y26.054 F50.
Z-0.681 F200.
G0 Z5.
X86.753 Y36.166
Z1.935
G1 Z-0.681 F200.
X86.755 Y36.172 Z-0.781 F50.
X86.813 Y36.344 F200.
X86.877 Y36.533 F50.
Z-0.681 F200.
G0 Z5.
X87.832 Y39.894
Z1.935
G1 Z-0.679 F200.
Z-0.681
X87.833 Y39.896 Z-0.781 F50.
X87.89 Y40.146 F200.
X87.935 Y40.341 F50.
Z-0.681 F200.
G0 Z5.
X88.524 Y43.665
Z1.935
G1 Z-0.781 F200.
X88.822 Y47.04
X88.824 Y50.051
Y50.251 F50.
Z-0.681 F200.
G0 Z5.
X88.58 Y53.248
Z1.935
G1 Z-0.672 F200.
Z-0.681
X88.579 Y53.257 Z-0.781 F50.
X88.51 Y53.777 F200.
X88.484 Y53.975 F50.
Y53.976 Z-0.681 F200.
Z-0.68
G0 Z5.
X87.898 Y57.177
Z1.935
G1 Z-0.671 F200.
Z-0.681
X87.895 Y57.188 Z-0.781 F50.
X87.792 Y57.626 F200.
X87.746 Y57.82 F50.
Y57.821 Z-0.681 F200.
G0 Z5.
X86.83 Y60.967
Z1.935
G1 Z-0.678 F200.
Z-0.681
X86.829 Y60.97 Z-0.781 F50.
X86.708 Y61.318 F200.
X86.643 Y61.507 F50.
X86.642 Z-0.681 F200.
G0 Z5.
X85.373 Y64.639
Z1.935
G1 Z-0.674 F200.
X85.372 Z-0.681
X85.369 Y64.645 Z-0.781 F50.
X85.247 Y64.908 F200.
X85.162 Y65.09 F50.
Z-0.681 F200.
G0 Z5.
X83.55 Y68.131
Z1.935
G1 Z-0.671 F200.
Z-0.681
X83.545 Y68.14 Z-0.781 F50.
X81.558 Y71.172 F200.
X79.444 Y73.819
X79.319 Y73.976 F50.
Z-0.681 F200.
G0 Z5.
X76.636 Y76.741
Z1.935
G1 Z-0.678 F200.
Z-0.681
X76.633 Y76.743 Z-0.781 F50.
X76.109 Y77.22 F200.
X75.962 Y77.355 F50.
X75.961 Z-0.681 F200.
G0 Z5.
X72.629 Y80.003
Z1.935
G1 Z-0.679 F200.
Z-0.681
X72.626 Y80.005 Z-0.781 F50.
X69.792 Y81.829 F200.
X68.934 Y82.31
X68.76 Y82.407 F50.
Y82.408 Z-0.681 F200.
G0 Z5.
X65.094 Y84.139
Z1.935
G1 Z-0.676 F200.
Y84.14 Z-0.681
X65.089 Y84.142 Z-0.781 F50.
X63.917 Y84.593 F200.
X63.73 Y84.665 F50.
Z-0.681 F200.
G0 Z5.
X60.058 Y85.788
Z1.935
G1 Z-0.675 F200.
Z-0.681
X60.051 Y85.79 Z-0.781 F50.
X59.549 Y85.911 F200.
X59.355 Y85.957 F50.
Z-0.681 F200.
G0 Z5.
X55.575 Y86.626
Z1.935
G1 Z-0.673 F200.
X55.574 Z-0.681
X55.566 Y86.627 Z-0.781 F50.
X55.248 Y86.664 F200.
X55.049 Y86.688 F50.
Z-0.681 F200.
G0 Z5.
X39.136 Y84.996
Z1.935
G1 Z-0.678 F200.
Z-0.681
X39.133 Y84.995 Z-0.781 F50.
X37.466 Y84.39 F200.
X37.278 Y84.321 F50.
Z-0.681 F200.
G0 Z5.
X36.059 Y83.816
Z1.935
G1 Z-0.679 F200.
Z-0.681
X36.057 Y83.815 Z-0.781 F50.
X34.314 Y82.997 F200.
X34.133 Y82.912 F50.
Z-0.681 F200.
G0 Z5.
X29.459 Y80.115
Z1.935
G1 Z-0.679 F200.
Z-0.681
X29.458 Y80.114 Z-0.781 F50.
X28.241 Y79.221 F200.
X28.08 Y79.102 F50.
Z-0.681 F200.
G0 Z5.
X25.914 Y77.308
Z1.935
G1 Z-0.675 F200.
Z-0.681
X25.909 Y77.303 Z-0.781 F50.
X25.286 Y76.732 F200.
X25.139 Y76.597 F50.
Y76.596 Z-0.681 F200.
G0 Z5.
X22.666 Y74.041
Z1.935
G1 Z-0.681 F200.
X22.639 Y74.01 Z-0.781 F50.
X20.404 Y71.219 F200.
X18.616 Y68.513
X18.506 Y68.346 F50.
Z-0.681 F200.
G0 Z5.
X13.061 Y49.18
Z1.935
G1 Z-0.675 F200.
Z-0.681
Y49.174 Z-0.781 F50.
X13.16 Y45.85 F200.
X13.257 Y44.784
X13.275 Y44.585 F50.
Y44.584 Z-0.681 F200.
G0 Z5.
X20.553 Y25.861
Z1.935
G1 Z-0.681 F200.
X20.554 Y25.859 Z-0.781 F50.
X22.707 Y23.197 F200.
X25.077 Y20.745
X25.582 Y20.278
X25.729 Y20.142 F50.
Z-0.681 F200.
G0 Z5.
X28.89 Y17.574
Z1.935
G1 Z-0.676 F200.
Z-0.681
X28.895 Y17.571 Z-0.781 F50.
X29.585 Y17.083 F200.
X29.748 Y16.967 F50.
Z-0.681 F200.
G0 Z5.
X43.243 Y11.172
Z1.935
G1 Z-0.677 F200.
Z-0.681
X43.247 Y11.171 Z-0.781 F50.
X43.825 Y11.055 F200.
X44.021 Y11.016 F50.
Y11.015 Z-0.681 F200.
G0 Z5.
X52.517 Y10.388
Z1.935
G1 Z-0.67 F200.
X52.519 Z-0.69
X52.538 Y10.389 Z-0.781 F50.
X52.913 Y10.407 F200.
X53.113 Y10.417 F50.
Z-0.681 F200.
G0 Z5.
X63.982 Y12.678
Z1.935
G1 Z-0.675 F200.
Z-0.681
X63.988 Y12.68 Z-0.781 F50.
X66.203 Y13.589 F200.
X66.388 Y13.665 F50.
X66.389 Z-0.681 F200.
Z-0.68
G0 Z5.
X76.187 Y20.071
Z1.935
G1 Z-0.67 F200.
Z-0.681
X76.195 Y20.079 Z-0.781 F50.
X78.67 Y22.515 F200.
X80.877 Y25.114
X81.411 Y25.823
X81.532 Y25.983 F50.
Z-0.681 F200.
G0 Z5.
X88.647 Y43.876
Z1.935
G1 Z-0.681 F200.
Y43.88 Z-0.781 F50.
X88.929 Y47.37 F200.
X88.93 Y49.722
Y49.922 F50.
Y49.928 Z-0.687 F200.
Z-0.681
G0 Z5.
X88.663 Y53.338
Z1.935
G1 Z-0.678 F200.
Z-0.681
Y53.341 Z-0.781 F50.
X88.649 Y53.454 F200.
X88.623 Y53.653 F50.
Z-0.681 F200.
G0 Z5.
X83.609 Y68.217
Z1.935
G1 Z-0.672 F200.
Z-0.681
X83.604 Y68.225 Z-0.781 F50.
X81.636 Y71.226 F200.
X79.506 Y73.892
X79.381 Y74.049 F50.
Z-0.681 F200.
G0 Z5.
X76.706 Y76.805
Z1.935
G1 Z-0.672 F200.
Z-0.681
X76.699 Y76.811 Z-0.781 F50.
X76.253 Y77.219 F200.
X76.105 Y77.353 F50.
Y77.354 Z-0.681 F200.
G0 Z5.
X72.596 Y80.142
Z1.935
G1 Z-0.679 F200.
Z-0.681
X72.594 Y80.144 Z-0.781 F50.
X69.548 Y82.079 F200.
X68.974 Y82.397
X68.799 Y82.494 F50.
Z-0.681 F200.
G0 Z5.
X65.134 Y84.226
Z1.935
G1 Z-0.675 F200.
Z-0.681
X65.128 Y84.228 Z-0.781 F50.
X63.944 Y84.684 F200.
X63.757 Y84.756 F50.
Z-0.681 F200.
G0 Z5.
X60.086 Y85.879
Z1.935
G1 Z-0.674 F200.
Z-0.681
X60.078 Y85.881 Z-0.781 F50.
X59.565 Y86.004 F200.
X59.37 Y86.051 F50.
Z-0.681 F200.
G0 Z5.
X55.59 Y86.72
Z1.935
G1 Z-0.673 F200.
Z-0.681
X55.582 Y86.721 Z-0.781 F50.
X55.325 Y86.751 F200.
X55.127 Y86.775 F50.
X55.126 Z-0.681 F200.
G0 Z5.
X39.099 Y85.084
Z1.935
G1 Z-0.677 F200.
Z-0.681
X39.095 Y85.083 Z-0.781 F50.
X37.471 Y84.493 F200.
X37.283 Y84.425 F50.
Z-0.681 F200.
G0 Z5.
X35.988 Y83.889
Z1.935
G1 Z-0.679 F200.
Z-0.681
X35.986 Y83.888 Z-0.781 F50.
X34.272 Y83.082 F200.
X34.091 Y82.997 F50.
Z-0.681 F200.
G0 Z5.
X29.338 Y80.146
Z1.935
G1 Z-0.678 F200.
Z-0.681
X29.336 Y80.144 Z-0.781 F50.
X28.188 Y79.3 F200.
X28.027 Y79.181 F50.
X28.026 Z-0.681 F200.
G0 Z5.
X25.837 Y77.366
Z1.935
G1 Z-0.673 F200.
Y77.365 Z-0.681
X25.831 Y77.36 Z-0.781 F50.
X25.296 Y76.871 F200.
X25.149 Y76.736 F50.
X25.148 Y76.735 Z-0.681 F200.
G0 Z5.
X22.53 Y74.03
Z1.935
G1 Z-0.671 F200.
Y74.029 Z-0.681
X22.523 Y74.022 Z-0.781 F50.
X20.331 Y71.281 F200.
X18.524 Y68.545
X18.414 Y68.378 F50.
Z-0.681 F200.
G0 Z5.
X12.964 Y48.96
Z1.935
G1 Z-0.678 F200.
Z-0.681
Y48.956 Z-0.781 F50.
X13.092 Y45.522 F200.
X13.141 Y44.983
X13.16 Y44.784 F50.
Z-0.681 F200.
G0 Z5.
X20.436 Y25.86
Z1.935
G1 Z-0.681 F200.
X20.438 Y25.857 Z-0.781 F50.
X22.635 Y23.136 F200.
X25.011 Y20.677
X25.461 Y20.26
X25.608 Y20.124 F50.
Z-0.681 F200.
G0 Z5.
X29.004 Y17.374
Z1.935
G1 Z-0.681 F200.
X29.015 Y17.367 Z-0.781 F50.
X29.49 Y17.032 F200.
X29.654 Y16.917 F50.
Z-0.681 F200.
G0 Z5.
X43.257 Y11.072
Z1.935
G1 Z-0.672 F200.
X43.258 Z-0.681
X43.267 Y11.07 Z-0.781 F50.
X43.699 Y10.983 F200.
X43.895 Y10.943 F50.
Z-0.681 F200.
G0 Z5.
X52.652 Y10.299
Z1.935
G1 Z-0.679 F200.
Z-0.681
X52.654 Z-0.781 F50.
X52.894 Y10.311 F200.
X53.093 Y10.321 F50.
Z-0.681 F200.
G0 Z5.
X64.124 Y12.63
Z1.935
G1 Z-0.679 F200.
Z-0.681
X64.126 Z-0.781 F50.
X66.129 Y13.452 F200.
X66.314 Y13.528 F50.
Z-0.681 F200.
G0 Z5.
X76.268 Y20.017
Z1.935
G1 Z-0.675 F200.
X76.269 Z-0.681
X76.273 Y20.021 Z-0.781 F50.
X78.739 Y22.45 F200.
X80.947 Y25.049
X81.488 Y25.768
X81.608 Y25.927 F50.
Z-0.681 F200.
G0 Z5.
X88.768 Y44.087
Z1.935
G1 Z-0.678 F200.
Z-0.681
Y44.09 Z-0.781 F50.
X89.026 Y47.467 F200.
X89.031 Y49.498
Y49.698 F50.
Y49.699 Z-0.681 F200.
G0 Z5.
X83.679 Y68.284
Z1.935
G1 Z-0.677 F200.
Z-0.681
X83.677 Y68.288 Z-0.781 F50.
X81.713 Y71.28 F200.
X79.555 Y73.98
X79.43 Y74.136 F50.
Z-0.681 F200.
G0 Z5.
X76.782 Y76.864
Z1.935
G1 Z-0.679 F200.
Z-0.681
X76.78 Y76.865 Z-0.781 F50.
X76.395 Y77.218 F200.
X76.247 Y77.354 F50.
Z-0.681 F200.
G0 Z5.
X72.564 Y80.281
Z1.935
G1 Z-0.679 F200.
Z-0.681
X72.562 Y80.282 Z-0.781 F50.
X69.6 Y82.158 F200.
X69.007 Y82.487
X68.832 Y82.584 F50.
Z-0.681 F200.
G0 Z5.
X65.181 Y84.309
Z1.935
G1 Z-0.671 F200.
X65.18 Z-0.681
X65.17 Y84.313 Z-0.781 F50.
X63.966 Y84.777 F200.
X63.779 Y84.849 F50.
Z-0.681 F200.
G0 Z5.
X60.119 Y85.969
Z1.935
G1 Z-0.673 F200.
X60.118 Z-0.681
X60.11 Y85.971 Z-0.781 F50.
X59.577 Y86.099 F200.
X59.383 Y86.146 F50.
Z-0.681 F200.
G0 Z5.
X55.609 Y86.813
Z1.935
G1 Z-0.677 F200.
Z-0.681
X55.605 Z-0.781 F50.
X55.401 Y86.838 F200.
X55.202 Y86.861 F50.
Y86.862 Z-0.681 F200.
G0 Z5.
X39.076 Y85.176
Z1.935
G1 Z-0.672 F200.
Z-0.681
X39.067 Y85.173 Z-0.781 F50.
X37.475 Y84.597 F200.
X37.287 Y84.529 F50.
Z-0.681 F200.
G0 Z5.
X35.915 Y83.96
Z1.935
G1 Z-0.679 F200.
Z-0.681
X35.912 Y83.959 Z-0.781 F50.
X34.226 Y83.165 F200.
X34.045 Y83.08 F50.
Z-0.681 F200.
G0 Z5.
X30.705 Y81.176
Z1.935
G1 Z-0.673 F200.
Z-0.681
X30.698 Y81.172 Z-0.781 F50.
X30.447 Y81.01
Z-0.681 F200.
G0 Z5.
X29.219 Y80.177
Z1.935
G1 Z-0.679 F200.
Z-0.681
X29.217 Y80.176 Z-0.781 F50.
X28.13 Y79.375 F200.
X27.969 Y79.257 F50.
Y79.256 Z-0.681 F200.
G0 Z5.
X25.773 Y77.436
Z1.935
G1 Z-0.675 F200.
Z-0.681
X25.769 Y77.432 Z-0.781 F50.
X25.148 Y76.865 F200.
G0 Z5.
X22.41 Y74.036
Z1.935
G1 Z-0.679 F200.
Z-0.681
X22.408 Y74.034 Z-0.781 F50.
X20.259 Y71.342 F200.
X18.422 Y68.558
X18.312 Y68.391 F50.
Z-0.681 F200.
G0 Z5.
X12.869 Y48.761
Z1.935
G1 Z-0.67 F200.
Y48.76 Z-0.681
Y48.749 Z-0.781 F50.
X13.026 Y45.193 F200.
X13.051 Y44.928 F50.
Y44.927 Z-0.681 F200.
G0 Z5.
X20.31 Y25.872
Z1.935
G1 Z-0.681 F200.
Z-0.781 F50.
X22.562 Y23.074 F200.
X24.945 Y20.609
X25.361 Y20.223
X25.508 Y20.087 F50.
Y20.086 Z-0.681 F200.
G0 Z5.
X29.12 Y17.175
Z1.935
G1 Z-0.781 F200.
X29.414 Y16.969
X29.578 Y16.854 F50.
Z-0.681 F200.
G0 Z5.
X43.254 Y10.975
Z1.935
G1 Z-0.68 F200.
Z-0.681
X43.296 Y10.967 Z-0.781 F50.
X43.575 Y10.91 F200.
X43.771 Y10.87 F50.
Z-0.681 F200.
G0 Z5.
X52.755 Y10.208
Z1.935
G1 Z-0.67 F200.
Z-0.681
X52.766 Y10.209 Z-0.781 F50.
X52.892 Y10.215 F200.
X53.092 Y10.225 F50.
Z-0.681 F200.
G0 Z5.
X64.263 Y12.581
Z1.935
G1 Z-0.67 F200.
X64.264 Z-0.681
X64.274 Y12.585 Z-0.781 F50.
X66.066 Y13.32 F200.
X66.252 Y13.396 F50.
Z-0.681 F200.
G0 Z5.
X76.336 Y19.951
Z1.935
G1 Z-0.672 F200.
Z-0.681
X76.343 Y19.957 Z-0.781 F50.
X78.808 Y22.385 F200.
X81.016 Y24.984
X81.575 Y25.727
X81.695 Y25.886 F50.
Z-0.681 F200.
G0 Z5.
X88.887 Y44.295
Z1.935
G1 Z-0.681 F200.
X88.888 Y44.298 Z-0.781 F50.
X89.127 Y47.725 F200.
X89.13 Y49.271
X89.131 Y49.471 F50.
Y49.472 Z-0.681 F200.
Z-0.68
G0 Z5.
X83.759 Y68.335
Z1.935
G1 Z-0.679 F200.
Z-0.681
X83.757 Y68.337 Z-0.781 F50.
X81.791 Y71.334 F200.
X79.547 Y74.146
X79.462 Y74.243 F50.
Z-0.681 F200.
G0 Z5.
X76.872 Y76.909
Z1.935
G1 Z-0.678 F200.
Z-0.681
X76.87 Y76.911 Z-0.781 F50.
X76.523 Y77.23 F200.
X76.376 Y77.365 F50.
Z-0.681 F200.
G0 Z5.
X72.542 Y80.412
Z1.935
G1 Z-0.674 F200.
Z-0.681
X72.535 Y80.416 Z-0.781 F50.
X69.651 Y82.238 F200.
X69.022 Y82.587
X68.848 Y82.684 F50.
Z-0.681 F200.
G0 Z5.
X65.245 Y84.385
Z1.935
G1 Z-0.68 F200.
Z-0.681
X65.244 Y84.386 Z-0.781 F50.
X63.97 Y84.876 F200.
X63.784 Y84.948 F50.
X63.783 Z-0.681 F200.
G0 Z5.
X60.168 Y86.054
Z1.935
G1 Z-0.679 F200.
Z-0.681
X60.166 Y86.055 Z-0.781 F50.
X59.572 Y86.197 F200.
X59.378 Y86.244 F50.
Z-0.681 F200.
G0 Z5.
X55.645 Y86.904
Z1.935
G1 Z-0.678 F200.
Z-0.681
X55.642 Z-0.781 F50.
X55.478 Y86.924 F200.
X55.279 Y86.948 F50.
Z-0.681 F200.
G0 Z5.
X39.054 Y85.269
Z1.935
G1 Z-0.675 F200.
X39.053 Z-0.681
X39.047 Y85.267 Z-0.781 F50.
X37.48 Y84.7 F200.
X37.292 Y84.632 F50.
X37.291 Z-0.681 F200.
G0 Z5.
X35.844 Y84.033
Z1.935
G1 Z-0.67 F200.
Z-0.681
X35.834 Y84.029 Z-0.781 F50.
X34.175 Y83.246 F200.
X33.995 Y83.161 F50.
X33.994 Z-0.681 F200.
G0 Z5.
X30.66 Y81.26
Z1.935
G1 Z-0.677 F200.
Z-0.681
X30.657 Y81.258 Z-0.781 F50.
X30.559 Y81.195 F200.
X30.391 Y81.087 F50.
Z-0.681 F200.
G0 Z5.
X29.099 Y80.209
Z1.935
G1 Z-0.679 F200.
Y80.208 Z-0.681
X29.097 Y80.207 Z-0.781 F50.
X28.066 Y79.446 F200.
X27.905 Y79.327 F50.
Z-0.681 F200.
G0 Z5.
X25.717 Y77.513
Z1.935
G1 Z-0.678 F200.
Z-0.681
X25.714 Y77.51 Z-0.781 F50.
X25.284 Y77.119 F200.
X25.137 Y76.984 F50.
X25.136 Y76.983 Z-0.681 F200.
Z-0.68
G0 Z5.
X22.293 Y74.046
Z1.935
G1 Z-0.676 F200.
X22.292 Z-0.681
X22.289 Y74.042 Z-0.781 F50.
X20.187 Y71.404 F200.
X18.306 Y68.548
X18.196 Y68.381 F50.
Z-0.681 F200.
G0 Z5.
X12.775 Y48.615
Z1.935
G1 Z-0.781 F200.
X12.935 Y45.247
X12.945 Y45.047 F50.
Y45.046 Z-0.681 F200.
G0 Z5.
X20.182 Y25.887
Z1.935
G1 Z-0.681 F200.
X20.233 Y25.818 Z-0.781 F50.
X22.49 Y23.013 F200.
X24.88 Y20.541
X25.28 Y20.169
X25.426 Y20.033 F50.
X25.427 Y20.032 Z-0.681 F200.
G0 Z5.
X29.178 Y17.017
Z1.935
G1 Z-0.678 F200.
Z-0.681
X29.181 Y17.015 Z-0.781 F50.
X29.354 Y16.894 F200.
X29.518 Y16.78 F50.
Z-0.681 F200.
G0 Z5.
X43.23 Y10.883
Z1.935
G1 Z-0.675 F200.
Z-0.681
X43.237 Y10.881 Z-0.781 F50.
X43.459 Y10.836 F200.
X43.655 Y10.796 F50.
X43.663 Y10.794 Z-0.681 F200.
G0 Z5.
X64.397 Y12.53
Z1.935
G1 Z-0.676 F200.
Z-0.681
X64.402 Y12.532 Z-0.781 F50.
X66.007 Y13.19 F200.
X66.192 Y13.266 F50.
Z-0.681 F200.
G0 Z5.
X76.393 Y19.874
Z1.935
G1 Z-0.675 F200.
Z-0.681
X76.398 Y19.879 Z-0.781 F50.
X78.877 Y22.32 F200.
X81.085 Y24.919
X81.674 Y25.702
X81.795 Y25.862 F50.
Z-0.681 F200.
G0 Z5.
X89.005 Y44.502
Z1.935
G1 Z-0.675 F200.
Z-0.681
X89.006 Y44.508 Z-0.781 F50.
X89.228 Y48.018 F200.
X89.229 Y49.048
Y49.248 F50.
Y49.249 Z-0.681 F200.
G0 Z5.
X83.848 Y68.37
Z1.935
G1 Z-0.673 F200.
Y68.371 Z-0.681
X83.843 Y68.378 Z-0.781 F50.
X81.869 Y71.388 F200.
X79.731 Y74.079
X79.601 Y74.228
X79.469 Y74.378 F50.
Z-0.681 F200.
G0 Z5.
X76.981 Y76.936
Z1.935
G1 Z-0.681 F200.
X76.974 Y76.943 Z-0.781 F50.
X76.638 Y77.253 F200.
X76.491 Y77.389 F50.
X76.49 Z-0.681 F200.
G0 Z5.
X72.539 Y80.529
Z1.935
G1 Z-0.67 F200.
X72.538 Y80.53 Z-0.681
X72.529 Y80.536 Z-0.781 F50.
X69.699 Y82.32 F200.
X69.016 Y82.698
X68.841 Y82.795 F50.
Z-0.681 F200.
G0 Z5.
X65.332 Y84.452
Z1.935
G1 Z-0.681 F200.
X65.323 Y84.456 Z-0.781 F50.
X63.952 Y84.984 F200.
X63.765 Y85.056 F50.
Z-0.681 F200.
G0 Z5.
X60.241 Y86.134
Z1.935
G1 Z-0.681 F200.
X60.239 Y86.135 Z-0.781 F50.
X59.545 Y86.302 F200.
X59.351 Y86.348 F50.
Z-0.681 F200.
G0 Z5.
X55.705 Y86.993
Z1.935
G1 Z-0.681 F200.
X55.698 Y86.994 Z-0.781 F50.
X55.554 Y87.011 F200.
X55.355 Y87.035 F50.
Z-0.681 F200.
G0 Z5.
X39.042 Y85.365
Z1.935
G1 Z-0.671 F200.
X39.041 Z-0.681
X39.031 Y85.362 Z-0.781 F50.
X37.483 Y84.803 F200.
X37.295 Y84.735 F50.
Z-0.681 F200.
G0 Z5.
X35.77 Y84.104
Z1.935
G1 Z-0.679 F200.
Z-0.681
X35.768 Y84.103 Z-0.781 F50.
X34.109 Y83.319 F200.
X33.928 Y83.234 F50.
Z-0.681 F200.
G0 Z5.
X30.63 Y81.353
Z1.935
G1 Z-0.675 F200.
Z-0.681
X30.625 Y81.35 Z-0.781 F50.
X30.503 Y81.271 F200.
X30.335 Y81.163 F50.
Z-0.681 F200.
G0 Z5.
X28.979 Y80.24
Z1.935
G1 Z-0.679 F200.
Z-0.681
X28.977 Y80.238 Z-0.781 F50.
X27.987 Y79.505 F200.
X27.827 Y79.386 F50.
Z-0.681 F200.
G0 Z5.
X25.662 Y77.59
Z1.935
G1 Z-0.679 F200.
Z-0.681
X25.66 Y77.589 Z-0.781 F50.
X25.271 Y77.235 F200.
X25.123 Y77.1 F50.
X25.122 Z-0.681 F200.
G0 Z5.
X22.174 Y74.054
Z1.934
G1 Z-0.781 F200.
X19.915 Y71.189
X18.18 Y68.523
X18.071 Y68.355 F50.
Z-0.681 F200.
G0 Z5.
X12.681 Y48.487
Z1.935
G1 Z-0.677 F200.
Z-0.681
Y48.483 Z-0.781 F50.
X12.83 Y45.361 F200.
X12.84 Y45.161 F50.
Z-0.681 F200.
Z-0.68
G0 Z5.
X20.054 Y25.902
Z1.935
G1 Z-0.681 F200.
X20.055 Z-0.781 F50.
X22.193 Y23.208 F200.
X24.567 Y20.708
X25.215 Y20.101
X25.361 Y19.964 F50.
Z-0.681 F200.
G0 Z5.
X43.203 Y10.786
Z1.935
G1 Z-0.68 F200.
Z-0.681
X43.204 Z-0.781 F50.
X43.387 Y10.749 F200.
X43.583 Y10.708 F50.
Z-0.681 F200.
G0 Z5.
X64.494 Y12.471
Z1.935
G1 Z-0.679 F200.
Z-0.681
X64.496 Z-0.781 F50.
X65.947 Y13.065 F200.
X66.133 Y13.14 F50.
Z-0.681 F200.
G0 Z5.
X76.448 Y19.796
Z1.935
G1 Z-0.676 F200.
Y19.797 Z-0.681
X76.452 Y19.8 Z-0.781 F50.
X78.946 Y22.255 F200.
X81.154 Y24.854
X81.79 Y25.699
X81.91 Y25.859 F50.
Z-0.681 F200.
G0 Z5.
X89.122 Y44.705
Z1.935
G1 Z-0.678 F200.
Z-0.681
Y44.708 Z-0.781 F50.
X89.323 Y48.11 F200.
X89.325 Y48.829
X89.326 Y49.029 F50.
Z-0.681 F200.
G0 Z5.
X83.946 Y68.389
Z1.935
G1 Z-0.679 F200.
Z-0.681
X83.945 Y68.391 Z-0.781 F50.
X81.946 Y71.442 F200.
X79.803 Y74.141
X79.518 Y74.463
X79.386 Y74.613 F50.
Z-0.681 F200.
G0 Z5.
X77.12 Y76.936
Z1.935
G1 Z-0.681 F200.
X77.118 Y76.938 Z-0.781 F50.
X76.753 Y77.276 F200.
X76.606 Y77.412 F50.
Y77.413 Z-0.681 F200.
G0 Z5.
X72.534 Y80.648
Z1.935
G1 Z-0.679 F200.
Z-0.681
X72.532 Y80.649 Z-0.781 F50.
X69.605 Y82.483 F200.
X68.974 Y82.83
X68.799 Y82.926 F50.
Z-0.681 F200.
G0 Z5.
X65.456 Y84.507
Z1.935
G1 Z-0.681 F200.
X65.455 Z-0.781 F50.
X63.898 Y85.107 F200.
X63.712 Y85.179 F50.
Z-0.681 F200.
G0 Z5.
X60.351 Y86.208
Z1.935
G1 Z-0.681 F200.
X60.349 Z-0.781 F50.
X59.483 Y86.416 F200.
X59.289 Y86.463 F50.
Z-0.681 F200.
G0 Z5.
X55.797 Y87.079
Z1.935
G1 Z-0.681 F200.
X55.794 Y87.08 Z-0.781 F50.
X55.633 Y87.099 F200.
X55.435 Y87.124 F50.
Z-0.681 F200.
G0 Z5.
X39.049 Y85.464
Z1.935
G1 Z-0.681 F200.
X39.04 Y85.461 Z-0.781 F50.
X37.488 Y84.904 F200.
X37.3 Y84.836 F50.
Z-0.681 F200.
G0 Z5.
X35.7 Y84.175
Z1.935
G1 Z-0.679 F200.
Z-0.681
X35.698 Y84.174 Z-0.781 F50.
X34.022 Y83.381 F200.
X33.842 Y83.295 F50.
Z-0.681 F200.
G0 Z5.
X30.618 Y81.458
Z1.935
G1 Z-0.681 F200.
X30.612 Y81.454 Z-0.781 F50.
X30.447 Y81.348 F200.
X30.278 Y81.24 F50.
Z-0.681 F200.
G0 Z5.
X28.859 Y80.271
Z1.935
G1 Z-0.679 F200.
Z-0.681
X28.857 Y80.269 Z-0.781 F50.
X27.891 Y79.551 F200.
X27.731 Y79.432 F50.
Z-0.681 F200.
G0 Z5.
X25.618 Y77.679
Z1.935
G1 Z-0.675 F200.
Z-0.681
X25.613 Y77.674 Z-0.781 F50.
X25.253 Y77.347 F200.
X25.105 Y77.213 F50.
Z-0.681 F200.
G0 Z5.
X22.066 Y74.073
Z1.934
G1 Z-0.781 F200.
X19.931 Y71.374
X18.051 Y68.493
X17.942 Y68.326 F50.
Z-0.681 F200.
G0 Z5.
X12.588 Y48.36
Z1.935
G1 Z-0.678 F200.
Z-0.681
Y48.357 Z-0.781 F50.
X12.725 Y45.475 F200.
X12.735 Y45.275 F50.
Z-0.681 F200.
G0 Z5.
X19.929 Y25.914
Z1.935
G1 Z-0.678 F200.
Z-0.681
X19.93 Y25.912 Z-0.781 F50.
X22.121 Y23.147 F200.
X24.501 Y20.64
X25.156 Y20.026
X25.302 Y19.889 F50.
Z-0.681 F200.
G0 Z5.
X43.178 Y10.695
Z1.935
G1 Z-0.678 F200.
Z-0.681
X43.181 Y10.694 Z-0.781 F50.
X43.318 Y10.666 F200.
X43.514 Y10.625 F50.
Z-0.681 F200.
G0 Z5.
X64.583 Y12.402
Z1.935
G1 Z-0.679 F200.
Z-0.681
X64.585 Y12.403 Z-0.781 F50.
X66.073 Y13.01 F200.
G0 Z5.
X76.496 Y19.712
Z1.935
G1 Z-0.677 F200.
Z-0.681
X76.499 Y19.715 Z-0.781 F50.
X79.015 Y22.19 F200.
X81.224 Y24.789
X81.916 Y25.712
X82.036 Y25.872 F50.
Z-0.681 F200.
G0 Z5.
X89.233 Y44.871
Z1.935
G1 Z-0.675 F200.
Y44.872 Z-0.681
X89.234 Y44.877 Z-0.781 F50.
X89.419 Y48.293 F200.
X89.42 Y48.614
X89.421 Y48.814 F50.
Z-0.681 F200.
G0 Z5.
X84.058 Y68.386
Z1.935
G1 Z-0.681 F200.
X84.053 Y68.395 Z-0.781 F50.
X82.223 Y71.219 F200.
X80.098 Y73.943
X79.358 Y74.781
X79.226 Y74.931 F50.
Z-0.681 F200.
G0 Z5.
X77.446 Y76.756
Z1.935
G1 Z-0.781 F200.
X76.867 Y77.299
X76.721 Y77.436 F50.
X76.72 Z-0.681 F200.
G0 Z5.
X72.531 Y80.765
Z1.935
G1 Z-0.679 F200.
Z-0.681
X72.529 Y80.767 Z-0.781 F50.
X69.653 Y82.565 F200.
X68.801 Y83.03
X68.625 Y83.126 F50.
Z-0.681 F200.
G0 Z5.
X65.674 Y84.519
Z1.935
G1 Z-0.681 F200.
X65.666 Y84.522 Z-0.781 F50.
X63.756 Y85.258 F200.
X63.57 Y85.33 F50.
Y85.331 Z-0.681 F200.
G0 Z5.
X60.536 Y86.258
Z1.935
G1 Z-0.681 F200.
X60.532 Y86.259 Z-0.781 F50.
X59.35 Y86.543 F200.
X59.156 Y86.59 F50.
Z-0.681 F200.
G0 Z5.
X55.955 Y87.154
Z1.935
G1 Z-0.671 F200.
X55.954 Z-0.681
X55.944 Y87.156 Z-0.781 F50.
X55.708 Y87.185 F200.
X55.51 Y87.211 F50.
Z-0.681 F200.
G0 Z5.
X39.081 Y85.575
Z1.935
G1 Z-0.681 F200.
X39.072 Y85.572 Z-0.781 F50.
X37.492 Y85.007 F200.
X37.303 Y84.939 F50.
Z-0.681 F200.
G0 Z5.
X35.631 Y84.248
Z1.935
G1 Z-0.66 F200.
X35.628 Y84.247 Z-0.681
X35.609 Y84.238 Z-0.781 F50.
X33.907 Y83.429 F200.
X33.726 Y83.343 F50.
Z-0.681 F200.
G0 Z5.
X30.632 Y81.58
Z1.935
G1 Z-0.681 F200.
X30.628 Y81.577 Z-0.781 F50.
X30.391 Y81.424 F200.
X30.222 Y81.316 F50.
Z-0.681 F200.
G0 Z5.
X28.739 Y80.301
Z1.935
G1 Z-0.678 F200.
Z-0.681
X28.737 Y80.3 Z-0.781 F50.
X27.77 Y79.578 F200.
X27.61 Y79.458 F50.
Z-0.681 F200.
G0 Z5.
X25.592 Y77.782
Z1.935
G1 Z-0.681 F200.
X25.591 Y77.781 Z-0.781 F50.
X25.227 Y77.452 F200.
X25.079 Y77.318 F50.
Z-0.681 F200.
G0 Z5.
X21.967 Y74.103
Z1.934
G1 Z-0.781 F200.
X19.856 Y71.432
X17.886 Y68.417
X17.817 Y68.3 F50.
Z-0.681 F200.
G0 Z5.
X12.495 Y48.233
Z1.935
G1 Z-0.678 F200.
Z-0.681
Y48.23 Z-0.781 F50.
X12.621 Y45.588 F200.
X12.631 Y45.388 F50.
Z-0.681 F200.
G0 Z5.
X19.803 Y25.928
Z1.935
G1 Z-0.679 F200.
Z-0.681
X19.805 Y25.926 Z-0.781 F50.
X22.049 Y23.086 F200.
X24.435 Y20.572
X25.099 Y19.95
X25.245 Y19.814 F50.
Z-0.681 F200.
G0 Z5.
X64.674 Y12.333
Z1.935
G1 Z-0.679 F200.
Z-0.681
X64.676 Y12.334 Z-0.781 F50.
X65.859 Y12.817 F200.
X66.044 Y12.892 F50.
X66.045 Z-0.681 F200.
G0 Z5.
X76.528 Y19.614
Z1.935
G1 Z-0.681 F200.
X76.53 Y19.615 Z-0.781 F50.
X79.084 Y22.126 F200.
X81.293 Y24.724
X82.042 Y25.725
X82.162 Y25.885 F50.
Z-0.681 F200.
G0 Z5.
X89.34 Y45.
Z1.935
G1 Z-0.781 F200.
X89.515 Y48.577
Y48.655
G0 Z5.
X84.183 Y68.36
Z1.935
G1 Z-0.66 F200.
X84.182 Y68.362 Z-0.681
X84.171 Y68.38 Z-0.781 F50.
X82.301 Y71.273 F200.
X80.17 Y74.005
X79.427 Y74.846
X79.295 Y74.996 F50.
Z-0.681 F200.
Z-0.68
G0 Z5.
X77.678 Y76.664
Z1.935
G1 Z-0.68 F200.
Z-0.681
X77.677 Y76.665 Z-0.781 F50.
X76.98 Y77.323 F200.
X76.835 Y77.46 F50.
X76.834 Z-0.681 F200.
G0 Z5.
X72.529 Y80.882
Z1.935
G1 Z-0.67 F200.
Z-0.681
X72.52 Y80.888 Z-0.781 F50.
X69.7 Y82.647 F200.
X68.449 Y83.32
X68.273 Y83.415 F50.
Z-0.681 F200.
G0 Z5.
X66.175 Y84.407
Z1.935
G1 Z-0.678 F200.
Z-0.681
X66.172 Y84.408 Z-0.781 F50.
X63.393 Y85.484 F200.
X63.206 Y85.556 F50.
Z-0.681 F200.
G0 Z5.
X60.988 Y86.235
Z1.935
G1 Z-0.677 F200.
Z-0.681
X60.984 Y86.236 Z-0.781 F50.
X58.923 Y86.732 F200.
X58.729 Y86.779 F50.
X58.728 Z-0.681 F200.
G0 Z5.
X56.443 Y87.182
Z1.935
G1 Z-0.678 F200.
Z-0.681
X56.44 Y87.183 Z-0.781 F50.
X55.765 Y87.273 F200.
X55.567 Y87.299 F50.
Z-0.681 F200.
G0 Z5.
X53.641 Y87.484
Z1.935
G1 Z-0.676 F200.
X53.64 Z-0.681
X53.636 Z-0.781 F50.
X53.374 Y87.501 F200.
X53.174 Y87.514 F50.
Z-0.681 F200.
G0 Z5.
X47.883 Y87.453
Z1.935
G1 Z-0.68 F200.
Z-0.681
X47.84 Y87.449 Z-0.781 F50.
X47.583 Y87.426 F200.
X47.383 Y87.409 F50.
Z-0.681 F200.
G0 Z5.
X39.158 Y85.7
Z1.935
G1 Z-0.681 F200.
X39.154 Y85.698 Z-0.781 F50.
X37.497 Y85.11 F200.
X37.308 Y85.043 F50.
Z-0.681 F200.
G0 Z5.
X35.557 Y84.319
Z1.935
G1 Z-0.66 F200.
X35.555 Y84.318 Z-0.681
X35.535 Y84.309 Z-0.781 F50.
X33.728 Y83.445 F200.
X33.548 Y83.358 F50.
Z-0.681 F200.
G0 Z5.
X30.699 Y81.734
Z1.935
G1 Z-0.681 F200.
X30.697 Y81.733 Z-0.781 F50.
X30.335 Y81.501 F200.
X30.166 Y81.393 F50.
Z-0.681 F200.
G0 Z5.
X28.619 Y80.332
Z1.935
G1 Z-0.678 F200.
Z-0.681
X28.617 Y80.33 Z-0.781 F50.
X27.596 Y79.564 F200.
X27.436 Y79.443 F50.
Z-0.681 F200.
G0 Z5.
X25.589 Y77.906
Z1.935
G1 Z-0.681 F200.
X25.584 Y77.902 Z-0.781 F50.
X25.051 Y77.42 F200.
G0 Z5.
X21.871 Y74.137
Z1.935
G1 Z-0.678 F200.
Z-0.681
X21.869 Y74.135 Z-0.781 F50.
X19.782 Y71.49 F200.
X17.808 Y68.471
X17.692 Y68.273 F50.
Y68.272 Z-0.681 F200.
G0 Z5.
X12.402 Y48.109
Z1.935
G1 Z-0.675 F200.
Z-0.681
Y48.103 Z-0.781 F50.
X12.518 Y45.689 F200.
X12.528 Y45.49 F50.
Y45.489 Z-0.681 F200.
G0 Z5.
X19.677 Y25.942
Z1.935
G1 Z-0.679 F200.
Z-0.681
X19.678 Y25.94 Z-0.781 F50.
X21.754 Y23.283 F200.
X24.224 Y20.645
X25.051 Y19.866
X25.197 Y19.729 F50.
Z-0.681 F200.
G0 Z5.
X56.707 Y10.123
Z1.935
G1 Z-0.681 F200.
X56.716 Y10.124 Z-0.781 F50.
X56.986 Y10.167 F200.
X57.184 Y10.198 F50.
Z-0.681 F200.
G0 Z5.
X64.759 Y12.264
Z1.935
G1 Z-0.66 F200.
X64.761 Y12.265 Z-0.681
X64.781 Y12.273 Z-0.781 F50.
X65.831 Y12.701 F200.
X66.016 Y12.777 F50.
Z-0.681 F200.
G0 Z5.
X76.539 Y19.496
Z1.935
G1 Z-0.681 F200.
X76.544 Y19.501 Z-0.781 F50.
X79.153 Y22.061 F200.
X81.363 Y24.659
X82.168 Y25.738
X82.288 Y25.898 F50.
Y25.899 Z-0.681 F200.
G0 Z5.
X89.445 Y45.113
Z1.935
G1 Z-0.675 F200.
Z-0.681
X89.446 Y45.12 Z-0.781 F50.
X89.6 Y48.326 F200.
X89.609 Y48.525 F50.
Y48.527 Z-0.681 F200.
Z-0.68
G0 Z5.
X84.306 Y68.335
Z1.935
G1 Z-0.678 F200.
Z-0.681
X84.305 Y68.338 Z-0.781 F50.
X82.378 Y71.327 F200.
X80.308 Y73.976
X80.185 Y74.133 F50.
Z-0.681 F200.
G0 Z5.
X79.704 Y74.683
Z1.935
G1 Z-0.676 F200.
Z-0.681
X79.701 Y74.687 Z-0.781 F50.
X79.497 Y74.913 F200.
X79.363 Y75.062 F50.
X79.362 Y75.063 Z-0.681 F200.
Z-0.68
G0 Z5.
X77.749 Y76.727
Z1.935
G1 Z-0.676 F200.
Z-0.681
X77.745 Y76.731 Z-0.781 F50.
X77.09 Y77.35 F200.
X76.945 Y77.488 F50.
Z-0.681 F200.
G0 Z5.
X72.528 Y80.998
Z1.935
G1 Z-0.675 F200.
X72.527 Z-0.681
X72.522 Y81.001 Z-0.781 F50.
X69.45 Y82.896 F200.
X68.488 Y83.408
X68.311 Y83.502 F50.
Z-0.681 F200.
G0 Z5.
X66.219 Y84.492
Z1.935
G1 Z-0.672 F200.
Z-0.681
X66.21 Y84.495 Z-0.781 F50.
X63.421 Y85.575 F200.
X63.235 Y85.647 F50.
X63.234 Z-0.681 F200.
Z-0.68
G0 Z5.
X61.018 Y86.326
Z1.935
G1 Z-0.679 F200.
Z-0.681
X61.016 Z-0.781 F50.
X58.935 Y86.826 F200.
X58.741 Y86.873 F50.
Z-0.681 F200.
G0 Z5.
X56.463 Y87.275
Z1.935
G1 Z-0.671 F200.
X56.462 Z-0.681
X56.452 Y87.277 Z-0.781 F50.
X55.807 Y87.363 F200.
X55.609 Y87.39 F50.
X55.608 Z-0.681 F200.
Z-0.68
G0 Z5.
X53.787 Y87.568
Z1.935
G1 Z-0.675 F200.
Z-0.681
X53.781 Y87.569 Z-0.781 F50.
X53.108 Y87.611 F200.
X52.909 Y87.623 F50.
X52.908 Z-0.681 F200.
G0 Z5.
X50.993 Y87.673
Z1.935
G1 Z-0.672 F200.
Z-0.681
X50.984 Z-0.781 F50.
X50.832 Y87.672 F200.
X50.632 Y87.671 F50.
Z-0.681 F200.
G0 Z5.
X47.811 Y87.542
Z1.935
G1 Z-0.671 F200.
X47.81 Z-0.681
X47.8 Y87.541 Z-0.781 F50.
X47.574 Y87.521 F200.
X47.375 Y87.503 F50.
X47.374 Z-0.681 F200.
G0 Z5.
X45.112 Y87.221
Z1.935
G1 Z-0.67 F200.
Z-0.681
X45.101 Y87.219 Z-0.781 F50.
X44.755 Y87.163 F200.
X44.558 Y87.131 F50.
X44.557 Z-0.681 F200.
G0 Z5.
X39.667 Y85.961
Z1.935
G1 Z-0.681 F200.
X39.585 Y85.936 Z-0.781 F50.
X37.501 Y85.212 F200.
X37.312 Y85.146 F50.
Z-0.681 F200.
G0 Z5.
X35.483 Y84.39
Z1.935
G1 Z-0.678 F200.
Z-0.681
X35.48 Y84.389 Z-0.781 F50.
X33.273 Y83.315 F200.
X33.093 Y83.228 F50.
Z-0.681 F200.
G0 Z5.
X31.076 Y82.079
Z1.935
G1 Z-0.672 F200.
X31.075 Y82.078 Z-0.681
X31.067 Y82.073 Z-0.781 F50.
X30.279 Y81.576 F200.
X30.11 Y81.47 F50.
Z-0.681 F200.
G0 Z5.
X28.502 Y80.364
Z1.935
G1 Z-0.67 F200.
X28.501 Z-0.681
X28.493 Y80.357 Z-0.781 F50.
X27.282 Y79.438 F200.
X27.123 Y79.317 F50.
X27.109 Y79.306 Z-0.705 F200.
X27.107 Y79.305 Z-0.683
G0 Z5.
X25.638 Y78.076
Z1.935
G1 Z-0.681 F200.
X25.634 Y78.072 Z-0.781 F50.
X25.013 Y77.514 F200.
G0 Z5.
X21.774 Y74.17
Z1.935
G1 Z-0.662 F200.
X21.773 Y74.169 Z-0.681
X21.73 Y74.118 Z-0.781 F50.
X19.508 Y71.27 F200.
X17.675 Y68.413
X17.567 Y68.245 F50.
Z-0.681 F200.
G0 Z5.
X12.31 Y48.007
Z1.935
G1 Z-0.662 F200.
Y48.005 Z-0.681
Y47.986 Z-0.781 F50.
X12.417 Y45.776 F200.
X12.426 Y45.576 F50.
Y45.575 Z-0.681 F200.
Z-0.679
G0 Z5.
X19.551 Y25.956
Z1.935
G1 Z-0.679 F200.
Z-0.681
X19.552 Y25.954 Z-0.781 F50.
X21.682 Y23.221 F200.
X24.155 Y20.58
X25.019 Y19.767
X25.164 Y19.63 F50.
Z-0.681 F200.
G0 Z5.
X56.246 Y9.96
Z1.935
G1 Z-0.676 F200.
Z-0.681
X56.251 Y9.961 Z-0.781 F50.
X57.419 Y10.144 F200.
X57.617 Y10.175 F50.
Z-0.681 F200.
G0 Z5.
X64.843 Y12.195
Z1.935
G1 Z-0.67 F200.
X64.844 Z-0.681
X64.854 Y12.199 Z-0.781 F50.
X65.803 Y12.586 F200.
X65.989 Y12.662 F50.
Z-0.681 F200.
G0 Z5.
X70.919 Y15.204
Z1.935
G1 Z-0.672 F200.
X70.92 Z-0.681
X70.927 Y15.209 Z-0.781 F50.
X71.044 Y15.281 F200.
X71.215 Y15.386 F50.
Z-0.681 F200.
G0 Z5.
X73.586 Y16.987
Z1.935
G1 Z-0.676 F200.
Z-0.681
X73.591 Y16.99 Z-0.781 F50.
X74.134 Y17.396 F200.
X74.294 Y17.516 F50.
X74.295 Z-0.681 F200.
G0 Z5.
X76.511 Y19.345
Z1.935
G1 Z-0.681 F200.
X76.519 Y19.351 Z-0.781 F50.
X78.989 Y21.747 F200.
X81.348 Y24.486
X82.297 Y25.754
X82.417 Y25.914 F50.
Z-0.681 F200.
G0 Z5.
X89.55 Y45.227
Z1.935
G1 Z-0.678 F200.
Z-0.681
X89.551 Y45.23 Z-0.781 F50.
X89.693 Y48.198 F200.
X89.703 Y48.398 F50.
Z-0.681 F200.
Z-0.68
G0 Z5.
X84.432 Y68.308
Z1.935
G1 Z-0.679 F200.
Z-0.681
X84.43 Y68.31 Z-0.781 F50.
X82.456 Y71.381 F200.
X80.444 Y73.962
X80.321 Y74.119 F50.
Z-0.681 F200.
G0 Z5.
X79.711 Y74.818
Z1.935
G1 Z-0.671 F200.
X79.71 Y74.819 Z-0.681
X79.704 Y74.826 Z-0.781 F50.
X79.562 Y74.983 Z-0.76 F200.
X79.428 Y75.131 Z-0.74 F50.
Z-0.681 F200.
G0 Z5.
X77.821 Y76.789
Z1.935
G1 Z-0.672 F200.
X77.82 Y76.79 Z-0.681
X77.814 Y76.796 Z-0.781 F50.
X77.046 Y77.523 F200.
G0 Z5.
X72.538 Y81.105
Z1.935
G1 Z-0.675 F200.
Z-0.681
X72.533 Y81.109 Z-0.781 F50.
X69.498 Y82.978 F200.
X68.526 Y83.495
X68.349 Y83.589 F50.
Z-0.681 F200.
Z-0.68
G0 Z5.
X66.261 Y84.577
Z1.935
G1 Z-0.678 F200.
Z-0.681
X66.258 Y84.578 Z-0.781 F50.
X63.446 Y85.667 F200.
X63.26 Y85.739 F50.
X63.258 Z-0.681 F200.
Z-0.679
G0 Z5.
X61.048 Y86.416
Z1.935
G1 Z-0.68 F200.
Z-0.681
Z-0.781 F50.
X58.952 Y86.92 F200.
X58.758 Y86.966 F50.
X58.756 Y86.967 Z-0.681 F200.
Z-0.68
G0 Z5.
X56.481 Y87.368
Z1.935
G1 Z-0.68 F200.
Z-0.681
X56.48 Y87.369 Z-0.781 F50.
X55.834 Y87.455 F200.
X55.636 Y87.482 F50.
X55.635 Z-0.681 F200.
Z-0.68
G0 Z5.
X53.849 Y87.659
Z1.935
G1 Z-0.676 F200.
X53.848 Z-0.681
X53.843 Z-0.781 F50.
X52.995 Y87.712 F200.
X52.796 Y87.724 F50.
X52.795 Z-0.681 F200.
Z-0.68
G0 Z5.
X50.999 Y87.767
Z1.935
G1 Z-0.676 F200.
Z-0.681
X50.993 Z-0.781 F50.
X50.724 Y87.766 Z-0.778 F200.
X50.524 Y87.765 Z-0.775 F50.
Z-0.681 F200.
G0 Z5.
X47.735 Y87.631
Z1.935
G1 Z-0.679 F200.
Z-0.681
X47.733 Z-0.781 F50.
X47.565 Y87.616 F200.
X47.365 Y87.598 F50.
X47.364 Z-0.681 F200.
Z-0.68
G0 Z5.
X45.107 Y87.317
Z1.935
G1 Z-0.679 F200.
Z-0.681
X45.105 Z-0.781 F50.
X44.747 Y87.258 F200.
X44.549 Y87.226 F50.
Z-0.681 F200.
G0 Z5.
X42.343 Y86.784
Z1.935
G1 Z-0.672 F200.
Z-0.681
X42.334 Y86.782 Z-0.781 F50.
X42.078 Y86.721 F200.
X41.883 Y86.675 F50.
Z-0.681 F200.
G0 Z5.
X39.651 Y86.057
Z1.935
G1 Z-0.674 F200.
Z-0.681
X39.644 Y86.054 Z-0.781 F50.
X37.505 Y85.316 F200.
X37.316 Y85.25 F50.
Z-0.681 F200.
G0 Z5.
X35.411 Y84.463
Z1.935
G1 Z-0.679 F200.
Z-0.681
X35.409 Y84.462 Z-0.781 F50.
X33.224 Y83.397 F200.
X33.044 Y83.31 F50.
Y83.309 Z-0.681 F200.
G0 Z5.
X31.031 Y82.163
Z1.935
G1 Z-0.678 F200.
Z-0.681
X31.029 Y82.161 Z-0.781 F50.
X30.223 Y81.653 F200.
X30.054 Y81.546 F50.
Z-0.681 F200.
G0 Z5.
X28.382 Y80.394
Z1.935
G1 Z-0.679 F200.
Z-0.681
X28.38 Y80.393 Z-0.781 F50.
X27.138 Y79.445 F200.
X26.979 Y79.323 F50.
X26.977 Y79.322 Z-0.681 F200.
Z-0.68
G0 Z5.
X25.947 Y78.469
Z1.935
G1 Z-0.677 F200.
Z-0.681
X25.944 Y78.467 Z-0.781 F50.
X24.971 Y77.605 F200.
G0 Z5.
X21.677 Y74.202
Z1.935
G1 Z-0.672 F200.
Z-0.681
X21.671 Y74.195 Z-0.781 F50.
X19.433 Y71.328 F200.
X17.557 Y68.398
X17.449 Y68.229 F50.
X17.442 Y68.218
Z-0.681 F200.
G0 Z5.
X12.217 Y47.913
Z1.935
G1 Z-0.681 F200.
X12.219 Y47.827 Z-0.781 F50.
X12.239 Y47.197 F200.
X12.246 Y46.997 F50.
Z-0.681 F200.
G0 Z5.
X12.27 Y46.501
Z1.935
G1 Z-0.679 F200.
Z-0.681
Y46.499 Z-0.781 F50.
X12.313 Y45.853 F200.
X12.326 Y45.654 F50.
Y45.653 Z-0.681 F200.
G0 Z5.
X19.426 Y25.968
Z1.935
G1 Z-0.678 F200.
Z-0.681
X19.428 Y25.966 Z-0.781 F50.
X21.61 Y23.16 F200.
X24.086 Y20.515
X25.008 Y19.649
X25.153 Y19.512 F50.
Z-0.681 F200.
G0 Z5.
X47.48 Y9.665
Z1.935
G1 Z-0.676 F200.
Z-0.681
X47.485 Y9.664 Z-0.781 F50.
X48.14 Y9.611 F200.
X48.339 Y9.595 F50.
Z-0.681 F200.
G0 Z5.
X53.209 Y9.567
Z1.935
G1 Z-0.669 F200.
X53.21 Z-0.681
X53.223 Y9.568 Z-0.781 F50.
X53.745 Y9.603 F200.
X53.944 Y9.617 F50.
Z-0.681 F200.
G0 Z5.
X56.252 Y9.865
Z1.935
G1 Z-0.678 F200.
Z-0.681
X56.255 Z-0.781 F50.
X57.487 Y10.06 F200.
X57.684 Y10.091 F50.
Z-0.681 F200.
G0 Z5.
X59.04 Y10.357
Z1.935
G1 Z-0.781 F200.
X59.845 Y10.541
X60.04 Y10.585 F50.
Z-0.681 F200.
G0 Z5.
X64.907 Y12.118
Z1.935
G1 Z-0.671 F200.
X64.908 Z-0.681
X64.917 Y12.122 Z-0.781 F50.
X65.774 Y12.471 F200.
X65.96 Y12.546 F50.
Y12.547 Z-0.681 F200.
G0 Z5.
X68.234 Y13.601
Z1.935
G1 Z-0.681 F200.
X68.242 Y13.605 Z-0.781 F50.
X68.916 Y13.956 F200.
X69.094 Y14.048 F50.
Y14.049 Z-0.681 F200.
G0 Z5.
X70.962 Y15.119
Z1.935
G1 Z-0.678 F200.
Z-0.681
X70.965 Y15.121 Z-0.781 F50.
X71.554 Y15.49 F200.
X71.723 Y15.596 F50.
Z-0.681 F200.
G0 Z5.
X73.64 Y16.909
Z1.935
G1 Z-0.675 F200.
Z-0.681
X73.646 Y16.913 Z-0.781 F50.
X74.193 Y17.322 F200.
X74.353 Y17.441 F50.
Z-0.681 F200.
G0 Z5.
X76.157 Y18.908
Z1.935
G1 Z-0.671 F200.
Z-0.681
X76.165 Y18.915 Z-0.781 F50.
X78.674 Y21.282 F200.
X80.994 Y23.891
X82.421 Y25.768
X82.542 Y25.927 F50.
Z-0.681 F200.
G0 Z5.
X89.655 Y45.34
Z1.935
G1 Z-0.67 F200.
Y45.341 Z-0.681
X89.656 Y45.352 Z-0.781 F50.
X89.786 Y48.073 F200.
X89.796 Y48.273 F50.
Z-0.681 F200.
G0 Z5.
X84.558 Y68.278
Z1.935
G1 Z-0.66 F200.
X84.557 Y68.28 Z-0.681
X84.546 Y68.299 Z-0.781 F50.
X82.73 Y71.156 F200.
X80.523 Y74.028
X80.432 Y74.136 F50.
Z-0.681 F200.
G0 Z5.
X79.741 Y74.927
Z1.935
G1 Z-0.68 F200.
Z-0.681
X79.712 Y74.959 Z-0.781 F50.
X79.631 Y75.048 F200.
X79.497 Y75.196 F50.
Z-0.681 F200.
G0 Z5.
X77.892 Y76.852
Z1.935
G1 Z-0.668 F200.
Y76.853 Z-0.681
X77.882 Y76.862 Z-0.781 F50.
X77.285 Y77.428 F200.
X77.14 Y77.566 F50.
X77.139 Z-0.681 F200.
Z-0.68
G0 Z5.
X72.557 Y81.207
Z1.935
G1 Z-0.677 F200.
Z-0.681
X72.553 Y81.21 Z-0.781 F50.
X69.545 Y83.06 F200.
X68.563 Y83.583 Z-0.766
X68.386 Y83.677 Z-0.763 F50.
Z-0.681 F200.
G0 Z5.
X66.305 Y84.661
Z1.935
G1 Z-0.672 F200.
X66.304 Z-0.681
X66.296 Y84.665 Z-0.781 F50.
X63.468 Y85.759 Z-0.735 F200.
X63.281 Y85.832 Z-0.732 F50.
Z-0.681 F200.
G0 Z5.
X61.079 Y86.506
Z1.935
G1 Z-0.673 F200.
Z-0.681
X61.071 Y86.508 Z-0.781 F50.
X58.964 Y87.014 F200.
X58.77 Y87.061 F50.
X58.768 Z-0.681 F200.
Z-0.679
G0 Z5.
X56.501 Y87.461
Z1.935
G1 Z-0.672 F200.
Z-0.681
X56.491 Y87.463 Z-0.781 F50.
X55.859 Y87.548 F200.
X55.661 Y87.574 F50.
Z-0.681 F200.
G0 Z5.
X53.846 Y87.754
Z1.935
G1 Z-0.672 F200.
X53.845 Z-0.681
X53.836 Y87.755 Z-0.781 F50.
X52.877 Y87.812 F200.
X52.678 Y87.824 F50.
X52.677 Z-0.681 F200.
G0 Z5.
X51.005 Y87.862
Z1.935
G1 Z-0.672 F200.
Z-0.681
X50.996 Z-0.781 F50.
X50.641 Y87.86 F200.
X50.441 Y87.859 F50.
X50.435 Z-0.681 F200.
G0 Z5.
X45.102 Y87.412
Z1.935
G1 Z-0.678 F200.
Z-0.681
X45.099 Z-0.781 F50.
X44.737 Y87.353 F200.
X44.54 Y87.321 F50.
X44.539 Z-0.681 F200.
G0 Z5.
X42.167 Y86.84
Z1.935
G1 Z-0.672 F200.
Z-0.681
X42.158 Y86.838 Z-0.781 F50.
X42.058 Y86.814 F200.
X41.863 Y86.767 F50.
X41.862 Z-0.681 F200.
Z-0.68
G0 Z5.
X39.632 Y86.15
Z1.935
G1 Z-0.676 F200.
Z-0.681
X39.627 Y86.149 Z-0.781 F50.
X37.508 Y85.418 F200.
X37.319 Y85.353 F50.
Z-0.681 F200.
G0 Z5.
X35.339 Y84.535
Z1.935
G1 Z-0.67 F200.
Y84.534 Z-0.681
X35.329 Y84.53 Z-0.781 F50.
X33.178 Y83.48 F200.
X32.998 Y83.393 F50.
X32.997 Y83.392 Z-0.681 F200.
Z-0.68
G0 Z5.
X30.988 Y82.247
Z1.935
G1 Z-0.674 F200.
Z-0.681
X30.981 Y82.243 Z-0.781 F50.
X30.167 Y81.73 F200.
X29.998 Y81.623 F50.
Z-0.681 F200.
G0 Z5.
X28.263 Y80.425
Z1.935
G1 Z-0.679 F200.
Z-0.681
X28.262 Y80.424 Z-0.781 F50.
X27.073 Y79.515 F200.
X26.914 Y79.393 F50.
Z-0.681 F200.
G0 Z5.
X25.902 Y78.555
Z1.935
G1 Z-0.674 F200.
X25.901 Z-0.681
X25.896 Y78.55 Z-0.781 F50.
X24.93 Y77.696 F200.
G0 Z5.
X23.772 Y76.593
Z1.935
G1 Z-0.778 F200.
X23.325 Y76.14 Z-0.756
X23.185 Y75.998 Z-0.749 F50.
Z-0.681 F200.
G0 Z5.
X21.589 Y74.245
Z1.935
G1 Z-0.676 F200.
Z-0.681
X21.586 Y74.241 Z-0.781 F50.
X19.358 Y71.386 F200.
X17.403 Y68.339
X17.318 Y68.191 F50.
Z-0.681 F200.
G0 Z5.
X12.125 Y47.82
Z1.935
G1 Z-0.678 F200.
Z-0.681
Y47.817 Z-0.781 F50.
X12.136 Y47.45 F200.
X12.141 Y47.25 F50.
Y47.249 Z-0.681 F200.
G0 Z5.
X12.195 Y46.175
Z1.935
G1 Z-0.67 F200.
Y46.174 Z-0.681
X12.196 Y46.164 Z-0.781 F50.
X12.212 Y45.933 F200.
X12.225 Y45.733 F50.
Z-0.681 F200.
G0 Z5.
X19.297 Y25.987
Z1.935
G1 Z-0.678 F200.
Z-0.681
X19.298 Y25.984 Z-0.781 F50.
X21.538 Y23.099 F200.
X24.017 Y20.45
X25.036 Y19.496
X25.182 Y19.359 F50.
Z-0.681 F200.
G0 Z5.
X29.243 Y16.163
Z1.935
G1 Z-0.674 F200.
Z-0.681
X29.249 Y16.159 Z-0.781 F50.
X29.639 Y15.897 F200.
X29.805 Y15.785 F50.
Z-0.681 F200.
G0 Z5.
X31.784 Y14.561
Z1.935
G1 Z-0.665 F200.
X31.785 Y14.56 Z-0.681
X31.799 Y14.552 Z-0.781 F50.
X32.069 Y14.399 F200.
X32.243 Y14.3 F50.
Z-0.681 F200.
G0 Z5.
X44.952 Y9.886
Z1.935
G1 Z-0.676 F200.
Z-0.681
X44.958 Y9.885 Z-0.781 F50.
X45.511 Y9.803 F200.
X45.709 Y9.773 F50.
Z-0.681 F200.
G0 Z5.
X47.466 Y9.57
Z1.935
G1 Z-0.671 F200.
X47.467 Z-0.681
X47.477 Y9.569 Z-0.781 F50.
X48.144 Y9.516 F200.
X48.343 Y9.5 F50.
Z-0.681 F200.
G0 Z5.
X53.243 Y9.474
Z1.935
G1 Z-0.659 F200.
X53.245 Z-0.681
X53.267 Y9.475 Z-0.781 F50.
X53.759 Y9.509 F200.
X53.959 Y9.523 F50.
Z-0.681 F200.
G0 Z5.
X56.263 Y9.771
Z1.935
G1 Z-0.674 F200.
Z-0.681
X56.269 Y9.772 Z-0.781 F50.
X57.504 Y9.967 F200.
X57.702 Y9.998 F50.
Z-0.681 F200.
G0 Z5.
X59.037 Y10.259
Z1.935
G1 Z-0.677 F200.
Z-0.681
X59.041 Y10.26 Z-0.781 F50.
X59.876 Y10.451 F200.
X60.071 Y10.495 F50.
Z-0.681 F200.
G0 Z5.
X64.963 Y12.038
Z1.935
G1 Z-0.679 F200.
Z-0.681
X64.965 Y12.039 Z-0.781 F50.
X65.746 Y12.356 F200.
X65.931 Y12.431 F50.
Z-0.681 F200.
G0 Z5.
X68.139 Y13.447
Z1.935
G1 Z-0.781 F200.
X69.095 Y13.945
X69.272 Y14.037 F50.
X69.273 Z-0.681 F200.
G0 Z5.
X71.005 Y15.034
Z1.935
G1 Z-0.672 F200.
Z-0.681
X71.013 Y15.039 Z-0.781 F50.
X71.611 Y15.413 F200.
X71.78 Y15.519 F50.
X71.781 Y15.52 Z-0.681 F200.
G0 Z5.
X73.694 Y16.831
Z1.935
G1 Z-0.673 F200.
Z-0.681
X73.701 Y16.836 Z-0.781 F50.
X74.25 Y17.246 F200.
X74.41 Y17.366 F50.
Z-0.681 F200.
Z-0.68
G0 Z5.
X76.211 Y18.83
Z1.935
G1 Z-0.677 F200.
Z-0.681
X76.214 Y18.832 Z-0.781 F50.
X78.74 Y21.214 F200.
X81.066 Y23.83
X82.547 Y25.781
X82.667 Y25.94 F50.
X82.668 Z-0.681 F200.
G0 Z5.
X89.759 Y45.451
Z1.935
G1 Z-0.679 F200.
Z-0.681
Y45.454 Z-0.781 F50.
X89.879 Y47.946 F200.
X89.888 Y48.145 F50.
Y48.146 Z-0.681 F200.
G0 Z5.
X84.678 Y68.254
Z1.935
G1 Z-0.679 F200.
Z-0.681
X84.677 Y68.256 Z-0.781 F50.
X82.734 Y71.314 F200.
X80.649 Y74.012
X80.526 Y74.17 F50.
Z-0.681 F200.
G0 Z5.
X79.791 Y75.012
Z1.935
G1 Z-0.671 F200.
Z-0.681
X79.784 Y75.02 Z-0.781 F50.
X79.7 Y75.113 F200.
X79.566 Y75.261 F50.
Z-0.681 F200.
G0 Z5.
X77.961 Y76.917
Z1.935
G1 Z-0.68 F200.
Z-0.681
X77.96 Y76.918 Z-0.781 F50.
X77.379 Y77.47 F200.
X77.234 Y77.608 F50.
Z-0.681 F200.
G0 Z5.
X72.576 Y81.309
Z1.935
G1 Z-0.678 F200.
Z-0.681
X72.573 Y81.311 Z-0.781 F50.
X69.593 Y83.142 F200.
X68.603 Y83.669
X68.426 Y83.763 F50.
Z-0.681 F200.
