(1001)
(T1  D=0.396 CR=0. - ZMIN=-0.543 - FLAT END MILL)
G0 G90 G94 G17
G21
G53 G0 Z0.

(0.4MM  FLATEND  HORIZONTAL)
M5
M9
T1
S12000 M3
G4 P4.
G55
G0 X38.96 Y22.584
Z15.
Z1.007
G1 Z0.05 F40.
X38.957 Y22.581 Z0.03
X38.946 Y22.572 Z0.016
X38.931 Y22.559 Z0.01
X38.526 Y22.213 Z-0.009
X38.525 Y22.211
X38.942 Y22.003 Z-0.025
X38.943 Y22.004
X38.979 Y22.597 Z-0.046
X38.978 Y22.599
X38.526 Y22.213 Z-0.067
X38.525 Y22.211
X38.942 Y22.003 Z-0.083
X38.943 Y22.004
X38.96 Y22.274 Z-0.093
X38.979 Y22.597
X38.978 Y22.599
X38.526 Y22.213
X38.525 Y22.211
X38.942 Y22.003
X38.943 Y22.004
X38.96 Y22.274
X38.954 Y22.289
X38.909 Y22.334
X38.904 Y22.343
Y22.353
X38.944 Y22.482
X38.948 Y22.487
X38.969 Y22.496
X38.974 Y22.503
X38.979 Y22.597 Z-0.096
X38.978 Y22.599
X38.526 Y22.213 Z-0.117
X38.525 Y22.211
X38.942 Y22.003 Z-0.133
X38.943 Y22.004
X38.96 Y22.274 Z-0.143
X38.979 Y22.597
X38.978 Y22.599
X38.526 Y22.213
X38.525 Y22.211
X38.942 Y22.003
X38.943 Y22.004
X38.96 Y22.274
X38.954 Y22.289
X38.909 Y22.334
X38.904 Y22.343
Y22.353
X38.944 Y22.482
X38.948 Y22.487
X38.969 Y22.496
X38.974 Y22.503
X38.979 Y22.597 Z-0.146
X38.978 Y22.599
X38.526 Y22.213 Z-0.167
X38.525 Y22.211
X38.942 Y22.003 Z-0.183
X38.943 Y22.004
X38.96 Y22.274 Z-0.193
X38.979 Y22.597
X38.978 Y22.599
X38.526 Y22.213
X38.525 Y22.211
X38.942 Y22.003
X38.943 Y22.004
X38.96 Y22.274
X38.954 Y22.289
X38.909 Y22.334
X38.904 Y22.343
Y22.353
X38.944 Y22.482
X38.948 Y22.487
X38.969 Y22.496
X38.974 Y22.503
X38.979 Y22.597 Z-0.196
X38.978 Y22.599
X38.526 Y22.213 Z-0.217
X38.525 Y22.211
X38.942 Y22.003 Z-0.233
X38.943 Y22.004
X38.96 Y22.274 Z-0.243
X38.979 Y22.597
X38.978 Y22.599
X38.526 Y22.213
X38.525 Y22.211
X38.942 Y22.003
X38.943 Y22.004
X38.96 Y22.274
X38.954 Y22.289
X38.909 Y22.334
X38.904 Y22.343
Y22.353
X38.944 Y22.482
X38.948 Y22.487
X38.969 Y22.496
X38.974 Y22.503
X38.979 Y22.597 Z-0.246
X38.978 Y22.599
X38.526 Y22.213 Z-0.267
X38.525 Y22.211
X38.942 Y22.003 Z-0.283
X38.943 Y22.004
X38.96 Y22.274 Z-0.293
X38.979 Y22.597
X38.978 Y22.599
X38.526 Y22.213
X38.525 Y22.211
X38.942 Y22.003
X38.943 Y22.004
X38.96 Y22.274
X38.954 Y22.289
X38.909 Y22.334
X38.904 Y22.343
Y22.353
X38.944 Y22.482
X38.948 Y22.487
X38.969 Y22.496
X38.974 Y22.503
X38.979 Y22.597 Z-0.296
X38.978 Y22.599
X38.526 Y22.213 Z-0.317
X38.525 Y22.211
X38.942 Y22.003 Z-0.333
X38.943 Y22.004
X38.96 Y22.274 Z-0.343
X38.979 Y22.597
X38.978 Y22.599
X38.526 Y22.213
X38.525 Y22.211
X38.942 Y22.003
X38.943 Y22.004
X38.96 Y22.274
X38.954 Y22.289
X38.909 Y22.334
X38.904 Y22.343
Y22.353
X38.944 Y22.482
X38.948 Y22.487
X38.969 Y22.496
X38.974 Y22.503
X38.979 Y22.597 Z-0.346
X38.978 Y22.599
X38.526 Y22.213 Z-0.367
X38.525 Y22.211
X38.942 Y22.003 Z-0.383
X38.943 Y22.004
X38.96 Y22.274 Z-0.393
X38.979 Y22.597
X38.978 Y22.599
X38.526 Y22.213
X38.525 Y22.211
X38.942 Y22.003
X38.943 Y22.004
X38.96 Y22.274
X38.954 Y22.289
X38.909 Y22.334
X38.904 Y22.343
Y22.353
X38.944 Y22.482
X38.948 Y22.487
X38.969 Y22.496
X38.974 Y22.503
X38.979 Y22.597 Z-0.396
X38.978 Y22.599
X38.526 Y22.213 Z-0.417
X38.525 Y22.211
X38.942 Y22.003 Z-0.433
X38.943 Y22.004
X38.96 Y22.274 Z-0.443
X38.979 Y22.597
X38.978 Y22.599
X38.526 Y22.213
X38.525 Y22.211
X38.942 Y22.003
X38.943 Y22.004
X38.96 Y22.274
X38.954 Y22.289
X38.909 Y22.334
X38.904 Y22.343
Y22.353
X38.944 Y22.482
X38.948 Y22.487
X38.969 Y22.496
X38.974 Y22.503
X38.979 Y22.597 Z-0.446
X38.978 Y22.599
X38.526 Y22.213 Z-0.467
X38.525 Y22.211
X38.942 Y22.003 Z-0.483
X38.943 Y22.004
X38.96 Y22.274 Z-0.493
X38.979 Y22.597
X38.978 Y22.599
X38.526 Y22.213
X38.525 Y22.211
X38.942 Y22.003
X38.943 Y22.004
X38.96 Y22.274
X38.954 Y22.289
X38.909 Y22.334
X38.904 Y22.343
Y22.353
X38.944 Y22.482
X38.948 Y22.487
X38.969 Y22.496
X38.974 Y22.503
X38.979 Y22.597 Z-0.496
X38.978 Y22.599
X38.526 Y22.213 Z-0.517
X38.525 Y22.211
X38.942 Y22.003 Z-0.533
X38.943 Y22.004
X38.96 Y22.274 Z-0.543
X38.979 Y22.597
X38.978 Y22.599
X38.526 Y22.213
X38.525 Y22.211
X38.942 Y22.003
X38.943 Y22.004
X38.96 Y22.274
X38.959 Y22.286 Z-0.541
X38.954 Y22.296 Z-0.535
X38.949 Y22.303 Z-0.526
X38.945 Y22.307 Z-0.515
X38.944 Y22.308 Z-0.503
G0 Z15.

G53 Z0.
M30
