(1001)
(T1  D=1. CR=0. - ZMIN=-1.77 - FLAT END MILL)
G0 G90 G94 G17
G21
G53 G0 Z0.

(A 1MM  FLATEND  PARALLEL)
M5
M9
T1
S12000 M3
G4 P4.
G55
G0 X69.409 Y32.154
Z15.
Z4.504
G1 Z-1.77 F200.
X69.241
X69.219 Z-1.765
X69.197 Z-1.76
X69.1
X69.076 Y32.161
X69.062 Y32.181
Y32.206
X69.076 Y32.226
X69.1 Y32.234
X69.122 Z-1.765
X69.144 Z-1.77
X69.476
X69.483 Z-1.759
X69.487 Y32.239 Z-1.733
X69.5 Y32.254 Z-1.714
X69.517 Y32.274 Z-1.707
X69.533 Y32.294 Z-1.714
X69.546 Y32.308 Z-1.733
X69.55 Y32.314 Z-1.759
X69.543 Z-1.77
X69.048
X69.026 Z-1.765
X69.004 Z-1.76
X68.909
X68.885 Y32.321
X68.871 Y32.341
Y32.366
X68.885 Y32.386
X68.909 Y32.394
X68.931 Z-1.765
X68.953 Z-1.77
X69.611
X69.618 Z-1.759
X69.622 Y32.399 Z-1.732
X69.634 Y32.414 Z-1.713
X69.651 Y32.434 Z-1.706
X69.668 Y32.454 Z-1.713
X69.68 Y32.468 Z-1.732
X69.685 Y32.474 Z-1.759
X69.683 Z-1.765
X69.677 Z-1.77
X68.858
X68.836 Z-1.765
X68.814 Z-1.76
X68.72
X68.697 Y32.481
X68.682 Y32.501
Y32.526
X68.697 Y32.546
X68.72 Y32.554
X68.742 Z-1.765
X68.764 Z-1.77
X69.744
X69.75 Z-1.765
X69.752 Z-1.758
X69.757 Y32.559 Z-1.732
X69.769 Y32.574 Z-1.713
X69.786 Y32.594 Z-1.706
X69.803 Y32.614 Z-1.713
X69.815 Y32.628 Z-1.732
X69.819 Y32.634 Z-1.758
X69.817 Z-1.765
X69.812 Z-1.77
X68.671
X68.649 Z-1.765
X68.627 Z-1.76
X68.535
X68.512 Y32.641
X68.497 Y32.661
Y32.686
X68.512 Y32.706
X68.535 Y32.714
X68.557 Z-1.765
X68.579 Z-1.77
X69.876
X69.883 Z-1.76
Z-1.759
Z-1.757
Z-1.755
X69.887 Y32.719 Z-1.73
X69.898 Y32.734 Z-1.712
X69.913 Y32.755 Z-1.705
X69.928 Y32.775 Z-1.713
X69.939 Y32.789 Z-1.732
X69.942 Y32.794 Z-1.757
Z-1.759
X69.936 Z-1.77
X68.488
X68.466 Z-1.765
X68.444 Z-1.76
X68.355
X68.331 Y32.801
X68.317 Y32.821
Y32.846
X68.331 Y32.866
X68.355 Y32.874
X68.377 Z-1.765
X68.399 Z-1.77
X69.995
X70.002 Z-1.759
Z-1.757
Z-1.755
X70.006 Y32.879 Z-1.729
X70.017 Y32.894 Z-1.711
X70.033 Y32.915 Z-1.705
X70.048 Y32.935 Z-1.712
X70.058 Y32.949 Z-1.731
X70.062 Y32.954 Z-1.757
Z-1.759
Z-1.76
X70.055 Z-1.77
X68.311
X68.289 Z-1.765
X68.267 Z-1.76
X68.182
X68.158 Y32.961
X68.144 Y32.981
Y33.006
X68.158 Y33.026
X68.182 Y33.034
X68.204 Z-1.765
X68.226 Z-1.77
X70.115
X70.121 Z-1.76
Z-1.757
Y33.033 Z-1.754
X70.125 Y33.039 Z-1.729
X70.137 Y33.054 Z-1.71
X70.152 Y33.075 Z-1.704
X70.167 Y33.095 Z-1.712
X70.178 Y33.109 Z-1.731
X70.181 Y33.114 Z-1.757
Z-1.76
X70.175 Z-1.77
X68.151
X68.129 Z-1.765
X68.107 Z-1.76
X68.057
X68.034 Y33.121
X68.019 Y33.141
Y33.166
X68.034 Y33.186
X68.057 Y33.194
X68.079 Z-1.765
X68.101 Z-1.77
X70.231
X70.237 Z-1.76
Z-1.747
Z-1.745
X70.241 Y33.198 Z-1.719
X70.252 Y33.213 Z-1.7
X70.267 Y33.234 Z-1.693
X70.282 Y33.254 Z-1.7
X70.293 Y33.269 Z-1.719
X70.297 Y33.274 Z-1.745
Z-1.747
X70.295 Z-1.759
X70.288 Z-1.77
X68.076
X68.054 Z-1.765
X68.032 Z-1.76
X68.029
X68.006 Y33.281
X67.991 Y33.301
Y33.326
X68.006 Y33.346
X68.029 Y33.354
X68.051 Z-1.765
X68.073 Z-1.77
X70.344
X70.35 Z-1.76
Z-1.747
Z-1.745
Y33.353 Z-1.742
X70.354 Y33.359 Z-1.716
X70.365 Y33.374 Z-1.698
X70.38 Y33.395 Z-1.692
X70.396 Y33.415 Z-1.699
X70.406 Y33.429 Z-1.719
X70.409 Y33.434 Z-1.745
Z-1.747
X70.407 Z-1.759
X70.4 Z-1.77
X68.093
X68.071 Z-1.765
X68.049 Z-1.76
X68.026 Y33.441
X68.011 Y33.461
Y33.486
X68.026 Y33.506
X68.049 Y33.514
X68.091
X68.113 Z-1.765
X68.135 Z-1.77
X70.456
X70.462 Z-1.76
Y33.513 Z-1.751
X70.463 Y33.515 Z-1.727
X70.471 Y33.526 Z-1.706
X70.483 Y33.543 Z-1.694
X70.497 Y33.564
X70.509 Y33.582 Z-1.706
X70.517 Y33.593 Z-1.727
X70.518 Y33.594 Z-1.751
X70.517 Z-1.76
X70.511 Z-1.77
X68.198
X68.176 Z-1.765
X68.154 Z-1.76
X68.13 Y33.601
X68.116 Y33.621
Y33.646
X68.13 Y33.666
X68.154 Y33.674
X68.228
X68.25 Z-1.765
X68.272 Z-1.77
X70.564
X70.57 Z-1.76
Y33.673 Z-1.75
X70.571 Y33.674 Z-1.725
X70.578 Y33.685 Z-1.704
X70.59 Y33.703 Z-1.692
X70.604 Y33.724
X70.616 Y33.742 Z-1.704
X70.623 Y33.753 Z-1.725
X70.624 Y33.754 Z-1.75
Z-1.76
X70.617 Z-1.77
X68.347
X68.325 Z-1.765
X68.303 Z-1.76
X68.279 Y33.761
X68.265 Y33.781
Y33.806
X68.279 Y33.826
X68.303 Y33.834
X68.378
X68.4 Z-1.765
X68.422 Z-1.77
X70.67
X70.676 Z-1.76
Y33.833 Z-1.75
Y33.834 Z-1.725
X70.684 Y33.845 Z-1.704
X70.696 Y33.863 Z-1.691
X70.71 Y33.884
X70.722 Y33.902 Z-1.704
X70.729 Y33.913 Z-1.725
X70.73 Y33.914 Z-1.75
X70.729 Z-1.76
X70.723 Z-1.77
X68.496
X68.474 Z-1.765
X68.452 Z-1.76
X68.429 Y33.921
X68.414 Y33.941
Y33.966
X68.429 Y33.986
X68.452 Y33.994
X68.527
X68.549 Z-1.765
X68.571 Z-1.77
X70.775
X70.782 Z-1.76
Z-1.748
X70.781 Y33.993 Z-1.739
X70.782 Y33.994 Z-1.714
X70.79 Y34.005 Z-1.693
X70.802 Y34.023 Z-1.681
X70.816 Y34.044
X70.828 Y34.062 Z-1.693
X70.835 Y34.073 Z-1.714
X70.836 Y34.074 Z-1.739
Z-1.748
X70.833 Z-1.76
X70.827 Z-1.77
X68.64
X68.618 Z-1.765
X68.596 Z-1.76
X68.573 Y34.081
X68.558 Y34.101
Y34.126
X68.573 Y34.146
X68.596 Y34.154
X68.662
X68.684 Z-1.765
X68.706 Z-1.77
X70.876
X70.883 Z-1.76
X70.886 Z-1.748
Z-1.747
X70.885 Y34.152 Z-1.735
Y34.153 Z-1.71
X70.892 Y34.164 Z-1.688
X70.904 Y34.183 Z-1.675
X70.917 Y34.204
X70.929 Y34.223 Z-1.688
X70.936 Y34.234 Z-1.71
Y34.235 Z-1.735
X70.935 Y34.234 Z-1.747
X70.933 Z-1.759
X70.926 Z-1.77
X68.772
X68.75 Z-1.765
X68.728 Z-1.76
X68.705 Y34.241
X68.69 Y34.261
Y34.286
X68.705 Y34.306
X68.728 Y34.314
X68.795
X68.817 Z-1.765
X68.839 Z-1.77
X70.975
X70.982 Z-1.76
X70.985 Z-1.748
X70.984 Y34.312 Z-1.736
Y34.313 Z-1.71
X70.991 Y34.324 Z-1.688
X71.002 Y34.343 Z-1.675
X71.016 Y34.364
X71.028 Y34.383 Z-1.688
X71.034 Y34.395 Z-1.71
X71.035 Z-1.736
X71.034 Y34.394 Z-1.748
X71.031 Z-1.76
X71.025 Z-1.77
X68.905
X68.883 Z-1.765
X68.861 Z-1.76
X68.837 Y34.401
X68.823 Y34.421
Y34.446
X68.837 Y34.466
X68.861 Y34.474
X68.927
X68.949 Z-1.765
X68.971 Z-1.77
X71.074
X71.081 Z-1.76
X71.083 Z-1.748
X71.082 Y34.472 Z-1.734
Z-1.708
X71.088 Y34.483 Z-1.686
X71.1 Y34.502 Z-1.673
X71.113 Y34.525
X71.124 Y34.544 Z-1.686
X71.131 Y34.555 Z-1.708
Z-1.734
X71.13 Y34.554 Z-1.748
Z-1.749
X71.128 Z-1.76
X71.121 Z-1.77
X69.03
X69.008 Z-1.765
X68.986 Z-1.76
X68.963 Y34.561
X68.948 Y34.581
Y34.606
X68.963 Y34.626
X68.986 Y34.634
X69.046
X69.068 Z-1.765
X69.09 Z-1.77
X71.167
X71.174 Z-1.76
X71.176 Z-1.748
Z-1.747
Y34.632 Z-1.733
X71.175 Z-1.707
X71.182 Y34.643 Z-1.685
X71.193 Y34.662 Z-1.672
X71.206 Y34.685
X71.218 Y34.704 Z-1.685
X71.224 Y34.715 Z-1.707
Z-1.733
X71.223 Y34.714 Z-1.747
X71.221 Z-1.759
X71.214 Z-1.77
X69.149
X69.127 Z-1.765
X69.105 Z-1.76
X69.082 Y34.721
X69.067 Y34.741
Y34.766
X69.082 Y34.786
X69.105 Y34.794
X69.165
X69.187 Z-1.765
X69.209 Z-1.77
X71.26
X71.267 Z-1.76
X71.27 Z-1.747
X71.269 Y34.792 Z-1.734
X71.268 Z-1.708
X71.275 Y34.803 Z-1.685
X71.286 Y34.822 Z-1.672
X71.299 Y34.845
X71.31 Y34.864 Z-1.685
X71.317 Y34.875 Z-1.708
Z-1.734
X71.316 Y34.874 Z-1.747
Z-1.749
X71.313 Z-1.76
X71.307 Z-1.77
X69.268
X69.246 Z-1.765
X69.224 Z-1.76
X69.201 Y34.881
X69.186 Y34.901
Y34.926
X69.201 Y34.946
X69.224 Y34.954
X69.283
X69.305 Z-1.765
X69.327 Z-1.77
X71.352
X71.358 Z-1.76
X71.36 Z-1.749
Z-1.748
X71.359 Y34.952 Z-1.733
Y34.951 Z-1.707
X71.365 Y34.962 Z-1.684
X71.376 Y34.982 Z-1.671
X71.389 Y35.005
X71.4 Y35.025 Z-1.684
X71.406 Y35.036 Z-1.707
Y35.035 Z-1.733
X71.405 Y35.034 Z-1.748
X71.402 Z-1.76
X71.396 Z-1.77
X69.381
X69.359 Z-1.765
X69.337 Z-1.76
X69.314 Y35.041
X69.299 Y35.061
Y35.086
X69.314 Y35.106
X69.337 Y35.114
X69.391
X69.413 Z-1.765
X69.435 Z-1.77
X71.439
X71.446 Z-1.76
X71.448 Z-1.748
X71.447 Y35.111 Z-1.733
X71.446 Z-1.706
X71.452 Y35.122 Z-1.683
X71.463 Y35.142 Z-1.669
X71.476 Y35.165
X71.486 Y35.185 Z-1.683
X71.492 Y35.196 Z-1.706
Z-1.733
X71.491 Y35.194 Z-1.748
X71.488 Z-1.76
X71.482 Z-1.77
X69.489
X69.467 Z-1.765
X69.445 Z-1.76
X69.422 Y35.201
X69.407 Y35.221
Y35.246
X69.422 Y35.266
X69.445 Y35.274
X69.499
X69.521 Z-1.765
X69.543 Z-1.77
X71.525
X71.531 Z-1.76
X71.533 Z-1.749
X71.532 Y35.271 Z-1.734
X71.531 Y35.27 Z-1.707
X71.537 Y35.281 Z-1.684
X71.548 Y35.302 Z-1.67
X71.56 Y35.325
X71.571 Y35.346 Z-1.684
X71.576 Y35.357 Z-1.707
Y35.356 Z-1.734
X71.575 Y35.354 Z-1.749
X71.572 Z-1.76
X71.566 Z-1.77
X69.597
X69.575 Z-1.765
X69.553 Z-1.76
X69.53 Y35.361
X69.515 Y35.381
Y35.406
X69.53 Y35.426
X69.553 Y35.434
X69.607
X69.629 Z-1.765
X69.651 Z-1.77
X71.607
X71.613 Z-1.76
X71.615 Z-1.749
X71.614 Y35.431 Z-1.733
Y35.43 Z-1.706
X71.619 Y35.441 Z-1.683
X71.63 Y35.462 Z-1.669
X71.642 Y35.485
X71.652 Y35.506 Z-1.683
X71.657 Y35.517 Z-1.706
Y35.516 Z-1.733
X71.656 Y35.514 Z-1.749
X71.653 Z-1.76
X71.647 Z-1.77
X69.701
X69.679 Z-1.765
X69.657 Z-1.76
X69.634 Y35.521
X69.619 Y35.541
Y35.566
X69.634 Y35.586
X69.657 Y35.593
X69.707
X69.729 Z-1.765
X69.751 Z-1.77
X71.686
X71.693 Z-1.76
X71.695 Z-1.748
X71.694 Y35.591 Z-1.732
X71.693 Y35.59 Z-1.705
X71.699 Y35.601 Z-1.681
X71.709 Y35.621 Z-1.667
X71.721 Y35.646
X71.731 Y35.666 Z-1.681
X71.736 Y35.677 Z-1.705
X71.735 Y35.676 Z-1.732
X71.734 Y35.673 Z-1.748
Z-1.75
X71.732 Z-1.76
X71.726 Z-1.77
X69.8
X69.778 Z-1.765
X69.756 Z-1.76
X69.732 Y35.681
X69.718 Y35.701
Y35.726
X69.732 Y35.746
X69.756 Y35.753
X69.805
X69.827 Z-1.765
X69.849 Z-1.77
X71.764
X71.77 Z-1.76
X71.773 Z-1.749
Z-1.748
X71.771 Y35.751 Z-1.731
X71.77 Y35.749 Z-1.704
X71.776 Y35.76 Z-1.68
X71.785 Y35.781 Z-1.666
X71.797 Y35.806
X71.807 Y35.827 Z-1.68
X71.812 Y35.838 Z-1.704
X71.811 Y35.836 Z-1.731
X71.81 Y35.833 Z-1.748
X71.808 Z-1.76
X71.801 Z-1.77
X69.899
X69.877 Z-1.765
X69.855 Z-1.76
X69.831 Y35.841
X69.817 Y35.861
Y35.886
X69.831 Y35.906
X69.855 Y35.913
X69.904
X69.926 Z-1.765
X69.948 Z-1.77
X71.839
X71.845 Z-1.761
X71.847 Z-1.75
Z-1.749
X71.846 Y35.911 Z-1.732
X71.845 Y35.909 Z-1.705
X71.85 Y35.92 Z-1.68
X71.859 Y35.941 Z-1.666
X71.87 Y35.966
X71.88 Y35.987 Z-1.68
X71.885 Y35.998 Z-1.705
X71.884 Y35.996 Z-1.732
X71.882 Y35.993 Z-1.749
X71.88 Z-1.76
X71.874 Z-1.77
X69.995
X69.973 Z-1.765
X69.951 Z-1.76
X69.928 Y36.001
X69.913 Y36.021
Y36.046
X69.928 Y36.066
X69.951 Y36.073
X69.997
X70.019 Z-1.765
X70.041 Z-1.77
X71.909
X71.916 Z-1.76
X71.918 Z-1.748
X71.917 Y36.07 Z-1.73
X71.916 Y36.068 Z-1.703
X71.92 Y36.079 Z-1.679
X71.929 Y36.101 Z-1.664
X71.939 Y36.126
X71.948 Y36.148 Z-1.679
X71.953 Y36.159 Z-1.703
X71.952 Y36.157 Z-1.73
X71.951 Y36.153 Z-1.748
Z-1.75
X71.949 Z-1.761
X71.943 Z-1.77
X70.087
X70.065 Z-1.765
X70.043 Z-1.76
X70.019 Y36.161
X70.005 Y36.181
Y36.206
X70.019 Y36.226
X70.043 Y36.233
X70.088
X70.11 Z-1.765
X70.132 Z-1.77
X71.975
X71.981 Z-1.76
X71.983 Z-1.749
X71.982 Y36.23 Z-1.731
X71.981 Y36.228 Z-1.704
X71.986 Y36.239 Z-1.679
X71.995 Y36.261 Z-1.665
X72.005 Y36.286
X72.014 Y36.308 Z-1.679
X72.018 Y36.319 Z-1.704
X72.017 Y36.317 Z-1.731
X72.016 Y36.313 Z-1.749
X72.014 Z-1.76
X72.008 Z-1.77
X70.178
X70.156 Z-1.765
X70.134 Z-1.76
X70.11 Y36.321
X70.096 Y36.341
Y36.366
X70.11 Y36.386
X70.134 Y36.393
X70.179
X70.201 Z-1.765
X70.223 Z-1.77
X72.04
X72.047 Z-1.76
X72.049 Z-1.749
X72.048 Y36.391 Z-1.733
X72.047 Y36.39 Z-1.707
X72.053 Y36.401 Z-1.683
X72.063 Y36.422 Z-1.669
X72.075 Y36.445
X72.086 Y36.466 Z-1.683
X72.091 Y36.477 Z-1.707
Y36.476 Z-1.733
X72.09 Y36.473 Z-1.749
Z-1.76
X72.083 Z-1.77
X70.268
X70.246 Z-1.765
X70.224 Z-1.76
X70.201 Y36.481
X70.186 Y36.501
Y36.526
X70.201 Y36.546
X70.224 Y36.553
X70.267
X70.289 Z-1.765
X70.311 Z-1.77
X72.143
X72.15 Z-1.759
X72.154 Y36.559 Z-1.734
X72.165 Y36.573 Z-1.716
X72.18 Y36.593 Z-1.709
X72.195 Y36.613 Z-1.716
X72.206 Y36.628 Z-1.734
X72.211 Y36.633 Z-1.759
X72.204 Z-1.77
X70.353
X70.331 Z-1.765
X70.309 Z-1.76
X70.286 Y36.641
X70.271 Y36.661
Y36.686
X70.286 Y36.706
X70.309 Y36.713
X70.352
X70.374 Z-1.765
X70.396 Z-1.77
X72.265
X72.271 Z-1.759
X72.276 Y36.719 Z-1.734
X72.287 Y36.733 Z-1.716
X72.302 Y36.753 Z-1.709
X72.317 Y36.773 Z-1.716
X72.328 Y36.788 Z-1.734
X72.332 Y36.793 Z-1.759
X72.325 Z-1.77
X70.438
X70.416 Z-1.765
X70.394 Z-1.76
X70.37 Y36.801
X70.356 Y36.821
Y36.846
X70.37 Y36.866
X70.394 Y36.873
X70.436
X70.458 Z-1.765
X70.48 Z-1.77
X72.387
X72.393 Z-1.76
X72.397 Y36.879 Z-1.734
X72.409 Y36.893 Z-1.716
X72.424 Y36.913 Z-1.709
X72.439 Y36.933 Z-1.716
X72.45 Y36.948 Z-1.734
X72.454 Y36.953 Z-1.76
X72.448 Z-1.77
X70.523
X70.501 Z-1.765
X70.479 Z-1.76
X70.455 Y36.961
X70.441 Y36.981
Y37.006
X70.455 Y37.026
X70.479 Y37.033
X70.519
X70.541 Z-1.765
X70.563 Z-1.77
X72.508
G0 Z5.
X76.677 Y34.874
Z4.219
G1 Z-1.731 F200.
X76.681 Z-1.752
X76.693 Z-1.77
X76.792
X76.814 Z-1.765
X76.836 Z-1.76
X76.873
X76.897 Y34.881
X76.911 Y34.901
Y34.926
X76.897 Y34.946
X76.873 Y34.954
X76.851 Z-1.765
X76.829 Z-1.77
X76.571
X76.562 Z-1.762
X76.558 Z-1.751
X76.552 Y34.957 Z-1.719
X76.536 Y34.969 Z-1.694
X76.511 Y34.985 Z-1.68
X76.484 Y35.002
X76.46 Y35.018 Z-1.694
X76.443 Y35.03 Z-1.719
X76.437 Y35.034 Z-1.751
X76.44 Z-1.762
X76.449 Z-1.77
X76.866
X76.888 Z-1.765
X76.91 Z-1.76
X76.947
X76.971 Y35.041
X76.985 Y35.061
Y35.086
X76.971 Y35.106
X76.947 Y35.114
X76.925 Z-1.765
X76.903 Z-1.77
X76.327
X76.318 Z-1.762
X76.315 Z-1.751
X76.309 Y35.117 Z-1.719
X76.292 Y35.129 Z-1.694
X76.268 Y35.145 Z-1.68
X76.241 Y35.162
X76.216 Y35.178 Z-1.694
X76.2 Y35.19 Z-1.719
X76.194 Y35.194 Z-1.751
X76.197 Z-1.762
X76.206 Z-1.77
X76.94
X76.962 Z-1.765
X76.984 Z-1.76
X77.021
X77.045 Y35.201
X77.059 Y35.221
Y35.246
X77.045 Y35.266
X77.021 Y35.274
X76.999 Z-1.765
X76.977 Z-1.77
X76.085
X76.076 Z-1.762
X76.073 Z-1.751
X76.067 Y35.277 Z-1.719
X76.05 Y35.289 Z-1.694
X76.025 Y35.305 Z-1.68
X75.999 Y35.322
X75.974 Y35.338 Z-1.694
X75.958 Y35.35 Z-1.719
X75.952 Y35.354 Z-1.751
X75.955 Z-1.762
X75.964 Z-1.77
X77.014
X77.036 Z-1.765
X77.058 Z-1.76
X77.094
X77.117 Y35.361
X77.132 Y35.381
Y35.406
X77.117 Y35.426
X77.094 Y35.434
X77.072 Z-1.765
X77.05 Z-1.77
X75.842
X75.834 Z-1.763
X75.831 Z-1.752
X75.825 Y35.437 Z-1.72
X75.808 Y35.449 Z-1.695
X75.784 Y35.465 Z-1.681
X75.757 Y35.482
X75.732 Y35.498 Z-1.695
X75.716 Y35.51 Z-1.72
X75.71 Y35.514 Z-1.752
X75.713 Z-1.763
X75.722 Z-1.77
X77.085
X77.107 Z-1.765
X77.129 Z-1.76
X77.165
X77.188 Y35.521
X77.203 Y35.541
Y35.566
X77.188 Y35.586
X77.165 Y35.593
X77.143 Z-1.765
X77.121 Z-1.77
X75.601
X75.592 Z-1.762
X75.589 Z-1.752
Z-1.751
X75.583 Y35.597 Z-1.72
X75.566 Y35.609 Z-1.695
X75.541 Y35.625 Z-1.681
X75.515 Y35.642
X75.49 Y35.658 Z-1.695
X75.474 Y35.67 Z-1.72
X75.468 Y35.673 Z-1.751
X75.471 Z-1.762
X75.48 Z-1.77
X77.156
X77.178 Z-1.765
X77.2 Z-1.76
X77.236
X77.259 Y35.681
X77.274 Y35.701
Y35.726
X77.259 Y35.746
X77.236 Y35.753
X77.214 Z-1.765
X77.192 Z-1.77
X75.359
X75.35 Z-1.762
X75.347 Z-1.751
X75.341 Y35.757 Z-1.72
X75.324 Y35.769 Z-1.696
X75.301 Y35.785 Z-1.682
X75.275 Y35.802
X75.251 Y35.818 Z-1.696
X75.235 Y35.83 Z-1.72
X75.229 Y35.833 Z-1.751
Z-1.752
X75.232 Z-1.763
X75.241 Z-1.77
X77.227
X77.249 Z-1.765
X77.271 Z-1.76
X77.306
X77.329 Y35.841
X77.344 Y35.861
Y35.886
X77.329 Y35.906
X77.306 Y35.913
X77.284 Z-1.765
X77.262 Z-1.77
X75.124
X75.115 Z-1.763
X75.112 Z-1.752
X75.106 Y35.917 Z-1.721
X75.09 Y35.929 Z-1.696
X75.067 Y35.945 Z-1.683
X75.041 Y35.962
X75.017 Y35.978 Z-1.696
X75.001 Y35.99 Z-1.721
X74.996 Y35.993 Z-1.752
X74.999 Z-1.763
X75.008 Z-1.77
X77.296
X77.318 Z-1.765
X77.34 Z-1.76
X77.374
X77.397 Y36.001
X77.412 Y36.021
Y36.046
X77.397 Y36.066
X77.374 Y36.073
X77.352 Z-1.765
X77.33 Z-1.77
X74.891
X74.882 Z-1.762
X74.879 Z-1.751
X74.873 Y36.077 Z-1.721
X74.857 Y36.089 Z-1.696
X74.834 Y36.105 Z-1.682
X74.808 Y36.122
X74.784 Y36.138 Z-1.696
X74.768 Y36.15 Z-1.721
X74.762 Y36.153 Z-1.751
Z-1.752
X74.765 Z-1.763
X74.774 Z-1.77
X77.364
X77.386 Z-1.765
X77.408 Z-1.76
X77.442
X77.466 Y36.161
X77.48 Y36.181
Y36.206
X77.466 Y36.226
X77.442 Y36.233
X77.42 Z-1.765
X77.398 Z-1.77
X74.658
X74.649 Z-1.763
X74.646 Z-1.752
X74.64 Y36.237 Z-1.721
X74.624 Y36.249 Z-1.697
X74.6 Y36.265 Z-1.683
X74.575 Y36.282
X74.551 Y36.298 Z-1.697
X74.535 Y36.31 Z-1.721
X74.53 Y36.313 Z-1.752
X74.533 Z-1.763
X74.541 Z-1.77
X77.432
X77.454 Z-1.765
X77.476 Z-1.76
X77.51
X77.533 Y36.321
X77.548 Y36.341
Y36.366
X77.533 Y36.386
X77.51 Y36.393
X77.488 Z-1.765
X77.466 Z-1.77
X74.426
X74.418 Z-1.763
X74.415 Z-1.753
X74.409 Y36.397 Z-1.723
X74.394 Y36.409 Z-1.699
X74.371 Y36.425 Z-1.685
X74.346 Y36.442
X74.323 Y36.458 Z-1.699
X74.307 Y36.469 Z-1.723
X74.302 Y36.473 Z-1.753
X74.305 Z-1.763
X74.313 Z-1.77
X77.499
X77.521 Z-1.765
X77.543 Z-1.76
X77.575
X77.599 Y36.481
X77.613 Y36.501
Y36.526
X77.599 Y36.546
X77.575 Y36.553
X77.553 Z-1.765
X77.531 Z-1.77
X74.199
X74.191 Z-1.763
X74.188 Z-1.753
Z-1.752
X74.183 Y36.557 Z-1.722
X74.167 Y36.569 Z-1.698
X74.144 Y36.585 Z-1.685
X74.119 Y36.602
X74.097 Y36.618 Z-1.698
X74.081 Y36.629 Z-1.722
X74.075 Y36.633 Z-1.752
X74.078 Z-1.763
X74.087 Z-1.77
X77.564
X77.586 Z-1.765
X77.608 Z-1.76
X77.641
X77.664 Y36.641
X77.679 Y36.661
Y36.686
X77.664 Y36.706
X77.641 Y36.713
X77.619 Z-1.765
X77.597 Z-1.77
X73.975
X73.967 Z-1.763
X73.963 Z-1.752
X73.958 Y36.717 Z-1.723
X73.943 Y36.728 Z-1.699
X73.92 Y36.745 Z-1.686
X73.895 Y36.762
X73.873 Y36.778 Z-1.699
X73.858 Y36.789 Z-1.723
X73.852 Y36.793 Z-1.752
Z-1.753
X73.855 Z-1.763
X73.863 Z-1.77
X77.629
X77.651 Z-1.765
X77.673 Z-1.76
X77.706
X77.729 Y36.801
X77.744 Y36.821
Y36.846
X77.729 Y36.866
X77.706 Y36.873
X77.684 Z-1.765
X77.662 Z-1.77
X73.753
X73.745 Z-1.763
X73.742 Z-1.753
X73.736 Y36.877 Z-1.723
X73.721 Y36.888 Z-1.7
X73.699 Y36.905 Z-1.686
X73.675 Y36.922
X73.653 Y36.938 Z-1.7
X73.638 Y36.949 Z-1.723
X73.632 Y36.953 Z-1.753
X73.635 Z-1.763
X73.644 Z-1.77
X77.694
X77.716 Z-1.765
X77.738 Z-1.76
X77.769
X77.793 Y36.961
X77.807 Y36.981
Y37.006
X77.793 Y37.026
X77.769 Y37.033
X77.747 Z-1.765
X77.725 Z-1.77
X73.535
X73.527 Z-1.763
X73.524 Z-1.753
X73.518 Y37.039 Z-1.724
X73.503 Y37.053 Z-1.703
X73.482 Y37.073 Z-1.695
X73.461 Y37.093 Z-1.703
X73.445 Y37.108 Z-1.724
X73.44 Y37.113 Z-1.753
Z-1.757
X73.442 Z-1.765
X73.448 Z-1.77
X77.757
G18 G2 X78.257 Z-1.27 I0. K0.5
G0 Z5.
X72.569
Z4.219
G1 Z-1.77 F200.
X70.602
X70.58 Z-1.765
X70.558 Z-1.76
X70.535 Y37.121
X70.52 Y37.141
Y37.166
X70.535 Y37.186
X70.558 Y37.193
X70.598
X70.62 Z-1.765
X70.642 Z-1.77
X72.637
G0 Z5.
X73.353
Z4.219
G1 Z-1.77 F200.
X77.788
X77.81 Z-1.765
X77.832 Z-1.76
X77.864
X77.887 Y37.201
X77.902 Y37.221
Y37.246
X77.887 Y37.266
X77.864 Y37.273
X77.842 Z-1.765
X77.82 Z-1.77
X73.241
X73.227 Z-1.749
X73.222 Z-1.724
G0 Z5.
X72.764
Z4.219
G1 Z-1.723 F200.
X72.759 Z-1.748
X72.745 Z-1.77
X70.682
X70.66 Z-1.765
X70.638 Z-1.76
X70.614 Y37.281
X70.6 Y37.301
Y37.326
X70.614 Y37.346
X70.638 Y37.353
X70.677
X70.699 Z-1.765
X70.721 Z-1.77
X77.851
X77.873 Z-1.765
X77.895 Z-1.76
X77.927
X77.95 Y37.361
X77.965 Y37.381
Y37.406
X77.95 Y37.426
X77.927 Y37.433
X77.905 Z-1.765
X77.883 Z-1.77
X70.761
X70.739 Z-1.765
X70.717 Z-1.76
X70.693 Y37.441
X70.679 Y37.461
Y37.486
X70.693 Y37.506
X70.717 Y37.513
X70.756
X70.778 Z-1.765
X70.8 Z-1.77
X77.913
X77.935 Z-1.765
X77.957 Z-1.76
X77.987
X78.011 Y37.521
X78.025 Y37.541
Y37.566
X78.011 Y37.586
X77.987 Y37.593
X77.965 Z-1.765
X77.943 Z-1.77
X70.837
X70.815 Z-1.765
X70.793 Z-1.76
X70.769 Y37.601
X70.755 Y37.621
Y37.646
X70.769 Y37.666
X70.793 Y37.673
X70.83
X70.852 Z-1.765
X70.874 Z-1.77
X77.974
X77.996 Z-1.765
X78.018 Z-1.76
X78.048
X78.071 Y37.681
X78.086 Y37.701
Y37.726
X78.071 Y37.746
X78.048 Y37.753
X78.026 Z-1.765
X78.004 Z-1.77
X70.911
X70.889 Z-1.765
X70.867 Z-1.76
X70.843 Y37.761
X70.829 Y37.781
Y37.806
X70.843 Y37.826
X70.867 Y37.833
X70.904
X70.926 Z-1.765
X70.948 Z-1.77
X78.034
X78.056 Z-1.765
X78.078 Z-1.76
X78.108
X78.132 Y37.841
X78.147 Y37.861
Y37.886
X78.132 Y37.906
X78.108 Y37.913
X78.086 Z-1.765
X78.064 Z-1.77
X70.985
X70.963 Z-1.765
X70.941 Z-1.76
X70.918 Y37.921
X70.903 Y37.941
Y37.966
X70.918 Y37.986
X70.941 Y37.993
X70.978
X71. Z-1.765
X71.022 Z-1.77
X78.095
X78.117 Z-1.765
X78.139 Z-1.76
X78.168
X78.191 Y38.001
X78.206 Y38.021
Y38.046
X78.191 Y38.066
X78.168 Y38.073
X78.146 Z-1.765
X78.124 Z-1.77
X71.058
X71.036 Z-1.765
X71.014 Z-1.76
X70.99 Y38.081
X70.976 Y38.101
Y38.126
X70.99 Y38.146
X71.014 Y38.153
X71.049
X71.071 Z-1.765
X71.093 Z-1.77
X78.153
X78.175 Z-1.765
X78.197 Z-1.76
X78.226
X78.25 Y38.161
X78.264 Y38.181
Y38.206
X78.25 Y38.226
X78.226 Y38.233
X78.204 Z-1.765
X78.182 Z-1.77
X71.128
X71.106 Z-1.765
X71.084 Z-1.76
X71.06 Y38.241
X71.046 Y38.261
Y38.286
X71.06 Y38.306
X71.084 Y38.313
X71.118
X71.14 Z-1.765
X71.162 Z-1.77
X78.211
X78.233 Z-1.765
X78.255 Z-1.76
X78.285
X78.308 Y38.321
X78.323 Y38.341
Y38.366
X78.308 Y38.386
X78.285 Y38.393
X78.263 Z-1.765
X78.241 Z-1.77
X71.197
X71.175 Z-1.765
X71.153 Z-1.76
X71.13 Y38.401
X71.115 Y38.421
Y38.446
X71.13 Y38.466
X71.153 Y38.473
X71.188
X71.21 Z-1.765
X71.232 Z-1.77
X78.27
X78.292 Z-1.765
X78.314 Z-1.76
X78.343
X78.366 Y38.481
X78.381 Y38.501
Y38.526
X78.366 Y38.546
X78.343 Y38.553
X78.321 Z-1.765
X78.299 Z-1.77
X71.267
X71.245 Z-1.765
X71.223 Z-1.76
X71.2 Y38.561
X71.185 Y38.581
Y38.606
X71.2 Y38.626
X71.223 Y38.633
X71.256
X71.278 Z-1.765
X71.3 Z-1.77
X78.327
X78.349 Z-1.765
X78.371 Z-1.76
X78.399
X78.423 Y38.641
X78.437 Y38.661
Y38.686
X78.423 Y38.706
X78.399 Y38.713
X78.377 Z-1.765
X78.355 Z-1.77
X71.333
X71.311 Z-1.765
X71.289 Z-1.76
X71.265 Y38.721
X71.251 Y38.741
Y38.766
X71.265 Y38.786
X71.289 Y38.793
X71.322
X71.344 Z-1.765
X71.366 Z-1.77
X78.383
X78.405 Z-1.765
X78.427 Z-1.76
X78.456
X78.479 Y38.801
X78.494 Y38.821
Y38.846
X78.479 Y38.866
X78.456 Y38.873
X78.434 Z-1.765
X78.412 Z-1.77
X71.399
X71.377 Z-1.765
X71.355 Z-1.76
X71.331 Y38.881
X71.317 Y38.901
Y38.926
X71.331 Y38.946
X71.355 Y38.953
X71.388
X71.41 Z-1.765
X71.432 Z-1.77
X78.44
X78.462 Z-1.765
X78.484 Z-1.76
X78.512
X78.536 Y38.961
X78.55 Y38.981
Y39.006
X78.536 Y39.026
X78.512 Y39.033
X78.49 Z-1.765
X78.468 Z-1.77
X71.464
X71.442 Z-1.765
X71.42 Z-1.76
X71.397 Y39.041
X71.382 Y39.061
Y39.086
X71.397 Y39.106
X71.42 Y39.113
X71.453
X71.475 Z-1.765
X71.497 Z-1.77
X78.496
X78.518 Z-1.765
X78.54 Z-1.76
X78.567
X78.59 Y39.121
X78.605 Y39.141
Y39.166
X78.59 Y39.186
X78.567 Y39.193
X78.545 Z-1.765
X78.523 Z-1.77
X71.528
X71.506 Z-1.765
X71.484 Z-1.76
X71.461 Y39.201
X71.446 Y39.221
Y39.246
X71.461 Y39.266
X71.484 Y39.273
X71.515
X71.537 Z-1.765
X71.559 Z-1.77
X78.55
X78.572 Z-1.765
X78.594 Z-1.76
X78.622
X78.645 Y39.281
X78.66 Y39.301
Y39.326
X78.645 Y39.346
X78.622 Y39.353
X78.6 Z-1.765
X78.578 Z-1.77
X71.59
X71.568 Z-1.765
X71.546 Z-1.76
X71.523 Y39.361
X71.508 Y39.381
Y39.406
X71.523 Y39.426
X71.546 Y39.433
X71.577
X71.599 Z-1.765
X71.621 Z-1.77
X78.605
X78.627 Z-1.765
X78.649 Z-1.76
X78.676
X78.7 Y39.441
X78.714 Y39.461
Y39.486
X78.7 Y39.506
X78.676 Y39.513
X78.654 Z-1.765
X78.632 Z-1.77
X71.652
X71.63 Z-1.765
X71.608 Z-1.76
X71.585 Y39.521
X71.57 Y39.541
Y39.566
X71.585 Y39.586
X71.608 Y39.593
X71.639
X71.661 Z-1.765
X71.683 Z-1.77
X78.659
X78.681 Z-1.765
X78.703 Z-1.76
X78.73
X78.753 Y39.601
X78.768 Y39.621
Y39.646
X78.753 Y39.666
X78.73 Y39.673
X78.708 Z-1.765
X78.686 Z-1.77
X71.714
X71.692 Z-1.765
X71.67 Z-1.76
X71.646 Y39.681
X71.632 Y39.701
Y39.726
X71.646 Y39.746
X71.67 Y39.753
X71.699
X71.721 Z-1.765
X71.743 Z-1.77
X78.712
X78.734 Z-1.765
X78.756 Z-1.76
X78.783
X78.806 Y39.761
X78.821 Y39.781
Y39.806
X78.806 Y39.826
X78.783 Y39.833
X78.761 Z-1.765
X78.739 Z-1.77
X71.773
X71.751 Z-1.765
X71.729 Z-1.76
X71.705 Y39.841
X71.691 Y39.861
Y39.886
X71.705 Y39.906
X71.729 Y39.913
X71.758
X71.78 Z-1.765
X71.802 Z-1.77
X78.765
X78.787 Z-1.765
X78.809 Z-1.76
X78.836
X78.859 Y39.921
X78.874 Y39.941
Y39.966
X78.859 Y39.986
X78.836 Y39.993
X78.814 Z-1.765
X78.792 Z-1.77
X71.831
X71.809 Z-1.765
X71.787 Z-1.76
X71.764 Y40.001
X71.749 Y40.021
Y40.046
X71.764 Y40.066
X71.787 Y40.073
X71.817
X71.839 Z-1.765
X71.861 Z-1.77
X78.818
X78.84 Z-1.765
X78.862 Z-1.76
X78.888
X78.911 Y40.081
X78.926 Y40.101
Y40.126
X78.911 Y40.146
X78.888 Y40.153
X78.866 Z-1.765
X78.844 Z-1.77
X71.89
X71.868 Z-1.765
X71.846 Z-1.76
X71.823 Y40.161
X71.808 Y40.181
Y40.206
X71.823 Y40.226
X71.846 Y40.233
X71.875
X71.897 Z-1.765
X71.919 Z-1.77
X78.869
X78.891 Z-1.765
X78.913 Z-1.76
X78.939
X78.963 Y40.241
X78.977 Y40.261
Y40.286
X78.963 Y40.306
X78.939 Y40.313
X78.917 Z-1.765
X78.895 Z-1.77
X71.947
X71.925 Z-1.765
X71.903 Z-1.76
X71.879 Y40.321
X71.864 Y40.341
Y40.366
X71.879 Y40.386
X71.903 Y40.393
X71.93
X71.952 Z-1.765
X71.974 Z-1.77
X78.921
X78.943 Z-1.765
X78.965 Z-1.76
X78.99
X79.014 Y40.401
X79.028 Y40.421
Y40.446
X79.014 Y40.466
X78.99 Y40.473
X78.968 Z-1.765
X78.946 Z-1.77
X72.002
X71.98 Z-1.765
X71.958 Z-1.76
X71.935 Y40.481
X71.92 Y40.501
Y40.526
X71.935 Y40.546
X71.958 Y40.553
X71.986
X72.008 Z-1.765
X72.03 Z-1.77
X78.972
X78.994 Z-1.765
X79.016 Z-1.76
X79.041
X79.065 Y40.561
X79.08 Y40.581
Y40.606
X79.065 Y40.626
X79.041 Y40.633
X79.019 Z-1.765
X78.997 Z-1.77
X72.058
X72.036 Z-1.765
X72.014 Z-1.76
X71.991 Y40.641
X71.976 Y40.661
Y40.686
X71.991 Y40.706
X72.014 Y40.713
X72.042
X72.064 Z-1.765
X72.086 Z-1.77
X79.022
X79.044 Z-1.765
X79.066 Z-1.76
X79.091
X79.115 Y40.721
X79.129 Y40.741
Y40.766
X79.115 Y40.786
X79.091 Y40.793
X79.069 Z-1.765
X79.047 Z-1.77
X72.113
X72.091 Z-1.765
X72.069 Z-1.76
X72.045 Y40.801
X72.031 Y40.821
Y40.846
X72.045 Y40.866
X72.069 Y40.873
X72.095
X72.117 Z-1.765
X72.139 Z-1.77
X79.072
X79.094 Z-1.765
X79.116 Z-1.76
X79.141
X79.164 Y40.881
X79.179 Y40.901
Y40.926
X79.164 Y40.946
X79.141 Y40.953
X79.119 Z-1.765
X79.097 Z-1.77
X72.166
X72.144 Z-1.765
X72.122 Z-1.76
X72.098 Y40.961
X72.084 Y40.981
Y41.006
X72.098 Y41.026
X72.122 Y41.033
X72.148
X72.17 Z-1.765
X72.192 Z-1.77
X79.122
X79.144 Z-1.765
X79.166 Z-1.76
X79.191
X79.214 Y41.041
X79.229 Y41.061
Y41.086
X79.214 Y41.106
X79.191 Y41.113
X79.169 Z-1.765
X79.147 Z-1.77
X72.219
X72.197 Z-1.765
X72.174 Z-1.76
X72.151 Y41.121
X72.136 Y41.141
Y41.166
X72.151 Y41.186
X72.174 Y41.193
X72.201
X72.223 Z-1.765
X72.245 Z-1.77
X79.171
X79.193 Z-1.765
X79.215 Z-1.76
X79.239
X79.262 Y41.201
X79.277 Y41.221
Y41.246
X79.262 Y41.266
X79.239 Y41.273
X79.217 Z-1.765
X79.195 Z-1.77
X72.271
X72.249 Z-1.765
X72.227 Z-1.76
X72.204 Y41.281
X72.189 Y41.301
Y41.326
X72.204 Y41.346
X72.227 Y41.353
X72.252
X72.274 Z-1.765
X72.296 Z-1.77
X79.219
X79.241 Z-1.765
X79.263 Z-1.76
X79.287
X79.311 Y41.361
X79.325 Y41.381
Y41.406
X79.311 Y41.426
X79.287 Y41.433
X79.265 Z-1.765
X79.243 Z-1.77
X72.322
X72.3 Z-1.765
X72.278 Z-1.76
X72.254 Y41.441
X72.24 Y41.461
Y41.486
X72.254 Y41.506
X72.278 Y41.513
X72.303
X72.325 Z-1.765
X72.347 Z-1.77
X75.816
X75.898
X79.267
X79.289 Z-1.765
X79.311 Z-1.76
X79.336
X79.359 Y41.521
X79.374 Y41.541
Y41.566
X79.359 Y41.586
X79.336 Y41.593
X79.314 Z-1.765
X79.292 Z-1.77
X75.985
X75.784
X72.372
X72.35 Z-1.765
X72.328 Z-1.76
X72.305 Y41.601
X72.29 Y41.621
Y41.646
X72.305 Y41.666
X72.328 Y41.673
X72.353
X72.375 Z-1.765
X72.397 Z-1.77
X75.752
X76.073
X79.315
X79.337 Z-1.765
X79.359 Z-1.76
X79.383
X79.406 Y41.681
X79.421 Y41.701
Y41.726
X79.406 Y41.746
X79.383 Y41.753
X79.361 Z-1.765
X79.339 Z-1.77
X76.161
X75.72
X72.423
X72.4 Z-1.765
X72.378 Z-1.76
X72.355 Y41.761
X72.34 Y41.781
Y41.806
X72.355 Y41.826
X72.378 Y41.833
X72.403
X72.425 Z-1.765
X72.447 Z-1.77
X75.689
X76.248
X79.362
X79.384 Z-1.765
X79.406 Z-1.76
X79.429
X79.453 Y41.841
X79.468 Y41.861
Y41.886
X79.453 Y41.906
X79.429 Y41.913
X79.407 Z-1.765
X79.385 Z-1.77
X76.336
X75.657
X72.471
X72.449 Z-1.765
X72.427 Z-1.76
X72.403 Y41.921
X72.389 Y41.941
Y41.966
X72.403 Y41.986
X72.427 Y41.993
X72.451
X72.473 Z-1.765
X72.495 Z-1.77
X75.625
X76.423
X79.409
X79.431 Z-1.765
X79.453 Z-1.76
X79.476
X79.5 Y42.001
X79.514 Y42.021
Y42.046
X79.5 Y42.066
X79.476 Y42.073
X79.454 Z-1.765
X79.432 Z-1.77
X76.511
X75.593
X72.519
X72.497 Z-1.765
X72.475 Z-1.76
X72.451 Y42.081
X72.437 Y42.101
Y42.126
X72.451 Y42.146
X72.475 Y42.153
X72.499
X72.521 Z-1.765
X72.543 Z-1.77
X75.562
X75.584 Z-1.765
X75.606 Z-1.76
X75.629 Y42.161
X75.644 Y42.181
Y42.206
X75.629 Y42.226
X75.606 Y42.233
X75.574
X75.552 Z-1.765
X75.53 Z-1.77
X72.567
X72.545 Z-1.765
X72.523 Z-1.76
X72.499 Y42.241
X72.485 Y42.261
Y42.286
X72.499 Y42.306
X72.523 Y42.313
X72.546
X72.568 Z-1.765
X72.59 Z-1.77
X75.498
X75.52 Z-1.765
X75.542 Z-1.76
X75.566 Y42.321
X75.58 Y42.341
Y42.366
X75.566 Y42.386
X75.542 Y42.393
X75.51
X75.488 Z-1.765
X75.466 Z-1.77
X72.613
X72.591 Z-1.765
X72.569 Z-1.76
X72.546 Y42.401
X72.531 Y42.421
Y42.446
X72.546 Y42.465
X72.569 Y42.473
X72.592
X72.614 Z-1.765
X72.636 Z-1.77
X75.435
X75.457 Z-1.765
X75.479 Z-1.76
X75.502 Y42.481
X75.517 Y42.501
Y42.525
X75.502 Y42.545
X75.479 Y42.553
X75.447
X75.425 Z-1.765
X75.403 Z-1.77
X72.659
X72.637 Z-1.765
X72.615 Z-1.76
X72.592 Y42.561
X72.577 Y42.581
Y42.605
X72.592 Y42.625
X72.615 Y42.633
X72.638
X72.66 Z-1.765
X72.682 Z-1.77
X75.371
X75.393 Z-1.765
X75.415 Z-1.76
X75.439 Y42.641
X75.453 Y42.661
Y42.685
X75.439 Y42.705
X75.415 Y42.713
X75.383
X75.361 Z-1.765
X75.339 Z-1.77
X72.705
X72.683 Z-1.765
X72.661 Z-1.76
X72.638 Y42.721
X72.623 Y42.741
Y42.765
X72.638 Y42.785
X72.661 Y42.793
X72.683
X72.705 Z-1.765
X72.728 Z-1.77
X75.308
X75.33 Z-1.765
X75.352 Z-1.76
X75.375 Y42.801
X75.39 Y42.821
Y42.845
X75.375 Y42.865
X75.352 Y42.873
X75.32
X75.298 Z-1.765
X75.276 Z-1.77
X72.749
X72.727 Z-1.765
X72.705 Z-1.76
X72.682 Y42.881
X72.667 Y42.901
Y42.925
X72.682 Y42.945
X72.705 Y42.953
X72.727
X72.749 Z-1.765
X72.771 Z-1.77
X75.244
X75.266 Z-1.765
X75.288 Z-1.76
X75.312 Y42.961
X75.326 Y42.981
Y43.005
X75.312 Y43.025
X75.288 Y43.033
X75.257
X75.235 Z-1.765
X75.213 Z-1.77
X72.793
X72.771 Z-1.765
X72.749 Z-1.76
X72.726 Y43.041
X72.711 Y43.061
Y43.085
X72.726 Y43.105
X72.749 Y43.113
X72.771
X72.793 Z-1.765
X72.815 Z-1.77
X75.181
X75.203 Z-1.765
X75.225 Z-1.76
X75.248 Y43.121
X75.263 Y43.141
Y43.165
X75.248 Y43.185
X75.225 Y43.193
X75.193
X75.171 Z-1.765
X75.149 Z-1.77
X72.837
X72.815 Z-1.765
X72.793 Z-1.76
X72.77 Y43.201
X72.755 Y43.221
Y43.245
X72.77 Y43.265
X72.793 Y43.273
X72.814
X72.836 Z-1.765
X72.858 Z-1.77
X75.117
X75.139 Z-1.765
X75.161 Z-1.76
X75.185 Y43.281
X75.199 Y43.301
Y43.325
X75.185 Y43.345
X75.161 Y43.353
X75.13
X75.108 Z-1.765
X75.086 Z-1.77
X72.879
X72.857 Z-1.765
X72.835 Z-1.76
X72.812 Y43.361
X72.797 Y43.381
Y43.405
X72.812 Y43.425
X72.835 Y43.433
X72.856
X72.878 Z-1.765
X72.9 Z-1.77
X75.054
X75.076 Z-1.765
X75.098 Z-1.76
X75.121 Y43.441
X75.136 Y43.461
Y43.485
X75.121 Y43.505
X75.098 Y43.513
X75.066
X75.044 Z-1.765
X75.022 Z-1.77
X72.921
X72.899 Z-1.765
X72.877 Z-1.76
X72.854 Y43.521
X72.839 Y43.541
Y43.565
X72.854 Y43.585
X72.877 Y43.593
X72.898
X72.92 Z-1.765
X72.942 Z-1.77
X74.99
X75.012 Z-1.765
X75.034 Z-1.76
X75.058 Y43.601
X75.072 Y43.621
Y43.645
X75.058 Y43.665
X75.034 Y43.673
X75.003
X74.981 Z-1.765
X74.959 Z-1.77
X72.963
X72.941 Z-1.765
X72.919 Z-1.76
X72.895 Y43.681
X72.881 Y43.701
Y43.725
X72.895 Y43.745
X72.919 Y43.753
X72.939
X72.961 Z-1.765
X72.983 Z-1.77
X74.927
X74.949 Z-1.765
X74.971 Z-1.76
X74.994 Y43.761
X75.009 Y43.781
Y43.805
X74.994 Y43.825
X74.971 Y43.833
X74.939
X74.917 Z-1.765
X74.895 Z-1.77
X73.003
X72.981 Z-1.765
X72.959 Z-1.76
X72.936 Y43.841
X72.921 Y43.861
Y43.885
X72.936 Y43.905
X72.959 Y43.913
X72.979
X73.001 Z-1.765
X73.023 Z-1.77
X74.863
X74.885 Z-1.765
X74.907 Z-1.76
X74.931 Y43.921
X74.945 Y43.941
Y43.965
X74.931 Y43.985
X74.907 Y43.993
X74.876
X74.854 Z-1.765
X74.832 Z-1.77
X73.044
X73.021 Z-1.765
X72.999 Z-1.76
X72.976 Y44.001
X72.961 Y44.021
Y44.045
X72.976 Y44.065
X72.999 Y44.073
X73.019
X73.041 Z-1.765
X73.063 Z-1.77
X74.8
X74.822 Z-1.765
X74.844 Z-1.76
X74.867 Y44.081
X74.882 Y44.101
Y44.125
X74.867 Y44.145
X74.844 Y44.153
X74.812
X74.79 Z-1.765
X74.768 Z-1.77
X73.082
X73.06 Z-1.765
X73.038 Z-1.76
X73.015 Y44.161
X73. Y44.181
Y44.205
X73.015 Y44.225
X73.038 Y44.233
X73.058
X73.08 Z-1.765
X73.102 Z-1.77
X74.736
X74.758 Z-1.765
X74.78 Z-1.76
X74.804 Y44.241
X74.819 Y44.261
Y44.285
X74.804 Y44.305
X74.78 Y44.313
X74.749
X74.727 Z-1.765
X74.705 Z-1.77
X73.121
X73.099 Z-1.765
X73.077 Z-1.76
X73.054 Y44.321
X73.039 Y44.341
Y44.365
X73.054 Y44.385
X73.077 Y44.393
X73.096
X73.118 Z-1.765
X73.14 Z-1.77
X74.673
X74.695 Z-1.765
X74.717 Z-1.76
X74.74 Y44.401
X74.755 Y44.421
Y44.445
X74.74 Y44.465
X74.717 Y44.473
X74.685
X74.663 Z-1.765
X74.641 Z-1.77
X73.159
X73.137 Z-1.765
X73.115 Z-1.76
X73.091 Y44.481
X73.077 Y44.501
Y44.525
X73.091 Y44.545
X73.115 Y44.553
X73.134
X73.156 Z-1.765
X73.178 Z-1.77
X74.61
X74.632 Z-1.765
X74.654 Z-1.76
X74.677 Y44.561
X74.692 Y44.581
Y44.605
X74.677 Y44.625
X74.654 Y44.633
X74.622
X74.6 Z-1.765
X74.578 Z-1.77
X73.196
X73.174 Z-1.765
X73.152 Z-1.76
X73.129 Y44.641
X73.114 Y44.661
Y44.685
X73.129 Y44.705
X73.152 Y44.713
X73.171
X73.193 Z-1.765
X73.215 Z-1.77
X74.546
X74.568 Z-1.765
X74.59 Z-1.76
X74.614 Y44.721
X74.628 Y44.741
Y44.765
X74.614 Y44.785
X74.59 Y44.793
X74.558
X74.536 Z-1.765
X74.514 Z-1.77
X73.233
X73.211 Z-1.765
X73.189 Z-1.76
X73.165 Y44.801
X73.151 Y44.821
Y44.845
X73.165 Y44.865
X73.189 Y44.873
X73.206
X73.228 Z-1.765
X73.25 Z-1.77
X74.483
X74.505 Z-1.765
X74.527 Z-1.76
X74.55 Y44.881
X74.565 Y44.901
Y44.925
X74.55 Y44.945
X74.527 Y44.953
X74.495
X74.473 Z-1.765
X74.451 Z-1.77
X73.268
X73.246 Z-1.765
X73.224 Z-1.76
X73.201 Y44.961
X73.186 Y44.981
Y45.005
X73.201 Y45.025
X73.224 Y45.033
X73.242
X73.264 Z-1.765
X73.286 Z-1.77
X74.419
X74.441 Z-1.765
X74.463 Z-1.76
X74.487 Y45.041
X74.501 Y45.061
Y45.085
X74.487 Y45.105
X74.463 Y45.113
X74.431
X74.409 Z-1.765
X74.387 Z-1.77
X73.303
X73.281 Z-1.765
X73.259 Z-1.76
X73.235 Y45.121
X73.221 Y45.141
Y45.165
X73.235 Y45.185
X73.259 Y45.193
X73.276
X73.298 Z-1.765
X73.32 Z-1.77
X74.356
X74.378 Z-1.765
X74.4 Z-1.76
X74.423 Y45.201
X74.438 Y45.221
Y45.245
X74.423 Y45.265
X74.4 Y45.273
X74.368
X74.346 Z-1.765
X74.324 Z-1.77
X73.337
X73.315 Z-1.765
X73.293 Z-1.76
X73.27 Y45.281
X73.255 Y45.301
Y45.325
X73.27 Y45.345
X73.293 Y45.353
X73.31
X73.332 Z-1.765
X73.354 Z-1.77
X74.292
X74.314 Z-1.765
X74.336 Z-1.76
X74.36 Y45.361
X74.374 Y45.381
Y45.405
X74.36 Y45.425
X74.336 Y45.433
X74.304
X74.282 Z-1.765
X74.26 Z-1.77
X73.37
X73.348 Z-1.765
X73.326 Z-1.76
X73.302 Y45.441
X73.288 Y45.461
Y45.485
X73.302 Y45.505
X73.326 Y45.513
X73.342
X73.364 Z-1.765
X73.386 Z-1.77
X74.229
X74.251 Z-1.765
X74.273 Z-1.76
X74.296 Y45.521
X74.311 Y45.541
Y45.565
X74.296 Y45.585
X74.273 Y45.593
X74.241
X74.219 Z-1.765
X74.197 Z-1.77
X73.402
X73.38 Z-1.765
X73.358 Z-1.76
X73.334 Y45.601
X73.32 Y45.621
Y45.645
X73.334 Y45.665
X73.358 Y45.673
X73.373
X73.395 Z-1.765
X73.417 Z-1.77
X74.165
X74.187 Z-1.765
X74.209 Z-1.76
X74.233 Y45.681
X74.247 Y45.701
Y45.725
X74.233 Y45.745
X74.209 Y45.753
X74.178
X74.156 Z-1.765
X74.134 Z-1.77
X73.432
X73.41 Z-1.765
X73.388 Z-1.76
X73.364 Y45.761
X73.35 Y45.781
Y45.805
X73.364 Y45.825
X73.388 Y45.833
X73.402
X73.424 Z-1.765
X73.446 Z-1.77
X74.102
X74.124 Z-1.765
X74.146 Z-1.76
X74.169 Y45.841
X74.184 Y45.861
Y45.885
X74.169 Y45.905
X74.146 Y45.913
X74.114
X74.092 Z-1.765
X74.07 Z-1.77
X73.461
X73.439 Z-1.765
X73.417 Z-1.76
X73.393 Y45.921
X73.379 Y45.941
Y45.965
X73.393 Y45.985
X73.417 Y45.993
X73.431
X73.453 Z-1.765
X73.475 Z-1.77
X74.038
X74.06 Z-1.765
X74.082 Z-1.76
X74.106 Y46.001
X74.12 Y46.021
Y46.045
X74.106 Y46.065
X74.082 Y46.073
X74.051
X74.029 Z-1.765
X74.007 Z-1.77
X73.49
X73.468 Z-1.765
X73.446 Z-1.76
X73.422 Y46.081
X73.407 Y46.101
Y46.125
X73.422 Y46.145
X73.446 Y46.153
X73.46
X73.482 Z-1.765
X73.504 Z-1.77
X73.975
X73.997 Z-1.765
X74.019 Z-1.76
X74.042 Y46.161
X74.057 Y46.181
Y46.205
X74.042 Y46.225
X74.019 Y46.233
X73.987
X73.965 Z-1.765
X73.943 Z-1.77
X73.519
X73.497 Z-1.765
X73.475 Z-1.76
X73.451 Y46.241
X73.436 Y46.261
Y46.285
X73.451 Y46.305
X73.475 Y46.313
X73.489
X73.511 Z-1.765
X73.533 Z-1.77
X73.911
X73.933 Z-1.765
X73.955 Z-1.76
X73.979 Y46.321
X73.993 Y46.341
Y46.365
X73.979 Y46.385
X73.955 Y46.393
X73.924
X73.902 Z-1.765
X73.88 Z-1.77
X73.548
X73.526 Z-1.765
X73.504 Z-1.76
X73.48 Y46.401
X73.465 Y46.421
Y46.445
X73.48 Y46.465
X73.504 Y46.473
X73.518
X73.54 Z-1.765
X73.562 Z-1.77
X73.848
X73.87 Z-1.765
X73.892 Z-1.76
X73.915 Y46.481
X73.93 Y46.501
Y46.525
X73.915 Y46.545
X73.892 Y46.553
X73.86
X73.838 Z-1.765
X73.816 Z-1.77
X73.577
X73.555 Z-1.765
X73.533 Z-1.76
X73.509 Y46.561
X73.494 Y46.581
Y46.605
X73.509 Y46.625
X73.533 Y46.633
X73.547
X73.569 Z-1.765
X73.591 Z-1.77
X73.785
X73.807 Z-1.765
X73.829 Z-1.76
X73.852 Y46.641
X73.867 Y46.661
Y46.685
X73.852 Y46.705
X73.829 Y46.713
X73.797
X73.775 Z-1.765
X73.753 Z-1.77
X73.605
X73.583 Z-1.765
X73.561 Z-1.76
X73.538 Y46.721
X73.523 Y46.741
Y46.765
X73.538 Y46.785
X73.561 Y46.793
X73.576
X73.598 Z-1.765
X73.62 Z-1.77
X73.721
X73.743 Z-1.765
X73.765 Z-1.76
X73.789 Y46.801
X73.803 Y46.821
Y46.845
X73.789 Y46.865
X73.765 Y46.873
X73.733
X73.711 Z-1.765
X73.689 Z-1.77
X73.634
X73.588 Y46.866
X73.546 Y46.844
X73.513 Y46.811
X73.492 Y46.769
X73.484 Y46.723
Y42.303
X73.492 Y42.257
X73.513 Y42.215
X73.546 Y42.182
X73.588 Y42.16
X73.634 Y42.153
X76.598
X79.455
X79.477 Z-1.765
X79.499 Z-1.76
X79.522
X79.545 Y42.161
X79.56 Y42.181
Y42.206
X79.545 Y42.226
X79.522 Y42.233
X79.5 Z-1.765
X79.478 Z-1.77
X76.686
X76.664 Z-1.765
X76.642 Z-1.76
X76.618 Y42.241
X76.604 Y42.261
Y42.286
X76.618 Y42.306
X76.642 Y42.313
X76.73
X76.752 Z-1.765
X76.774 Z-1.77
X79.501
X79.523 Z-1.765
X79.545 Z-1.76
X79.568
X79.591 Y42.321
X79.606 Y42.341
Y42.366
X79.591 Y42.386
X79.568 Y42.393
X79.546 Z-1.765
X79.524 Z-1.77
X76.861
X76.839 Z-1.765
X76.817 Z-1.76
X76.794 Y42.401
X76.779 Y42.421
Y42.446
X76.794 Y42.465
X76.817 Y42.473
X76.905
X76.927 Z-1.765
X76.949 Z-1.77
X79.546
X79.568 Z-1.765
X79.59 Z-1.76
X79.613
X79.636 Y42.481
X79.651 Y42.501
Y42.525
X79.636 Y42.545
X79.613 Y42.553
X79.591 Z-1.765
X79.569 Z-1.77
X77.036
X77.014 Z-1.765
X76.992 Z-1.76
X76.969 Y42.561
X76.954 Y42.581
Y42.605
X76.969 Y42.625
X76.992 Y42.633
X77.08
X77.102 Z-1.765
X77.124 Z-1.77
X79.591
X79.613 Z-1.765
X79.635 Z-1.76
X79.657
X79.681 Y42.641
X79.695 Y42.661
Y42.685
X79.681 Y42.705
X79.657 Y42.713
X79.635 Z-1.765
X79.613 Z-1.77
X77.211
X77.189 Z-1.765
X77.167 Z-1.76
X77.144 Y42.721
X77.129 Y42.741
Y42.765
X77.144 Y42.785
X77.167 Y42.793
X77.255
X77.277 Z-1.765
X77.299 Z-1.77
X79.636
X79.658 Z-1.765
X79.68 Z-1.76
X79.702
X79.725 Y42.801
X79.74 Y42.821
Y42.845
X79.725 Y42.865
X79.702 Y42.873
X79.68 Z-1.765
X79.658 Z-1.77
X77.386
X77.364 Z-1.765
X77.342 Z-1.76
X77.319 Y42.881
X77.304 Y42.901
Y42.925
X77.319 Y42.945
X77.342 Y42.953
X77.43
X77.452 Z-1.765
X77.474 Z-1.77
X79.679
X79.701 Z-1.765
X79.723 Z-1.76
X79.745
X79.769 Y42.961
X79.783 Y42.981
Y43.005
X79.769 Y43.025
X79.745 Y43.033
X79.723 Z-1.765
X79.701 Z-1.77
X77.562
X77.54 Z-1.765
X77.518 Z-1.76
X77.494 Y43.041
X77.479 Y43.061
Y43.085
X77.494 Y43.105
X77.518 Y43.113
X77.605
X77.627 Z-1.765
X77.649 Z-1.77
X79.723
X79.745 Z-1.765
X79.767 Z-1.76
X79.789
X79.812 Y43.121
X79.827 Y43.141
Y43.165
X79.812 Y43.185
X79.789 Y43.193
X79.767 Z-1.765
X79.744 Z-1.77
X77.737
X77.715 Z-1.765
X77.693 Z-1.76
X77.669 Y43.201
X77.655 Y43.221
Y43.245
X77.669 Y43.265
X77.693 Y43.273
X77.78
X77.802 Z-1.765
X77.824 Z-1.77
X79.766
X79.788 Z-1.765
X79.81 Z-1.76
X79.831
X79.854 Y43.281
X79.869 Y43.301
Y43.325
X79.854 Y43.345
X79.831 Y43.353
X79.809 Z-1.765
X79.787 Z-1.77
X77.912
X77.89 Z-1.765
X77.868 Z-1.76
X77.844 Y43.361
X77.83 Y43.381
Y43.405
X77.844 Y43.425
X77.868 Y43.433
X77.955
X77.977 Z-1.765
X77.999 Z-1.77
X79.808
X79.83 Z-1.765
X79.852 Z-1.76
X79.873
X79.897 Y43.441
X79.911 Y43.461
Y43.485
X79.897 Y43.505
X79.873 Y43.513
X79.851 Z-1.765
X79.829 Z-1.77
X78.087
X78.065 Z-1.765
X78.043 Z-1.76
X78.019 Y43.521
X78.005 Y43.541
Y43.565
X78.019 Y43.585
X78.043 Y43.593
X78.13
X78.152 Z-1.765
X78.174 Z-1.77
X79.85
X79.872 Z-1.765
X79.894 Z-1.76
X79.915
X79.938 Y43.601
X79.953 Y43.621
Y43.645
X79.938 Y43.665
X79.915 Y43.673
X79.893 Z-1.765
X79.871 Z-1.77
X78.262
X78.24 Z-1.765
X78.218 Z-1.76
X78.194 Y43.681
X78.18 Y43.701
Y43.725
X78.194 Y43.745
X78.218 Y43.753
X78.306
X78.328 Z-1.765
X78.35 Z-1.77
X79.892
X79.914 Z-1.765
X79.936 Z-1.76
X79.956
X79.98 Y43.761
X79.994 Y43.781
Y43.805
X79.98 Y43.825
X79.956 Y43.833
X79.934 Z-1.765
X79.912 Z-1.77
X78.437
X78.415 Z-1.765
X78.393 Z-1.76
X78.37 Y43.841
X78.355 Y43.861
Y43.885
X78.37 Y43.905
X78.393 Y43.913
X78.481
X78.503 Z-1.765
X78.525 Z-1.77
X79.932
X79.954 Z-1.765
X79.976 Z-1.76
X79.997
X80.02 Y43.921
X80.035 Y43.941
Y43.965
X80.02 Y43.985
X79.997 Y43.993
X79.975 Z-1.765
X79.953 Z-1.77
X78.612
X78.59 Z-1.765
X78.568 Z-1.76
X78.545 Y44.001
X78.53 Y44.021
Y44.045
X78.545 Y44.065
X78.568 Y44.073
X78.656
X78.678 Z-1.765
X78.7 Z-1.77
X79.973
X79.995 Z-1.765
X80.017 Z-1.76
X80.036
X80.06 Y44.081
X80.074 Y44.101
Y44.125
X80.06 Y44.145
X80.036 Y44.153
X80.014 Z-1.765
X79.992 Z-1.77
X78.787
X78.765 Z-1.765
X78.743 Z-1.76
X78.72 Y44.161
X78.705 Y44.181
Y44.205
X78.72 Y44.225
X78.743 Y44.233
X78.831
X78.853 Z-1.765
X78.875 Z-1.77
X80.012
X80.034 Z-1.765
X80.056 Z-1.76
X80.075
X80.099 Y44.241
X80.113 Y44.261
Y44.285
X80.099 Y44.305
X80.075 Y44.313
X80.053 Z-1.765
X80.031 Z-1.77
X78.962
X78.94 Z-1.765
X78.918 Z-1.76
X78.895 Y44.321
X78.88 Y44.341
Y44.365
X78.895 Y44.385
X78.918 Y44.393
X79.006
X79.028 Z-1.765
X79.05 Z-1.77
X80.05
X80.072 Z-1.765
X80.094 Z-1.76
X80.113
X80.137 Y44.401
X80.151 Y44.421
Y44.445
X80.137 Y44.465
X80.113 Y44.473
X80.091 Z-1.765
X80.069 Z-1.77
X79.137
X79.115 Z-1.765
X79.093 Z-1.76
X79.07 Y44.481
X79.055 Y44.501
Y44.525
X79.07 Y44.545
X79.093 Y44.553
X79.181
X79.203 Z-1.765
X79.225 Z-1.77
X80.088
X80.11 Z-1.765
X80.132 Z-1.76
X80.15
X80.174 Y44.561
X80.188 Y44.581
Y44.605
X80.174 Y44.625
X80.15 Y44.633
X80.128 Z-1.765
X80.106 Z-1.77
X79.313
X79.291 Z-1.765
X79.269 Z-1.76
X79.245 Y44.641
X79.23 Y44.661
Y44.685
X79.245 Y44.705
X79.269 Y44.713
X79.356
X79.378 Z-1.765
X79.4 Z-1.77
X80.125
X80.147 Z-1.765
X80.169 Z-1.76
X80.188
X80.211 Y44.721
X80.226 Y44.741
Y44.765
X80.211 Y44.785
X80.188 Y44.793
X80.166 Z-1.765
X80.144 Z-1.77
X79.488
X79.466 Z-1.765
X79.444 Z-1.76
X79.42 Y44.801
X79.406 Y44.821
Y44.845
X79.42 Y44.865
X79.444 Y44.873
X79.531
X79.553 Z-1.765
X79.575 Z-1.77
X80.162
X80.184 Z-1.765
X80.206 Z-1.76
X80.225
X80.248 Y44.881
X80.263 Y44.901
Y44.925
X80.248 Y44.945
X80.225 Y44.953
X80.203 Z-1.765
X80.181 Z-1.77
X79.663
X79.641 Z-1.765
X79.619 Z-1.76
X79.595 Y44.961
X79.581 Y44.981
Y45.005
X79.595 Y45.025
X79.619 Y45.033
X79.706
X79.728 Z-1.765
X79.75 Z-1.77
X80.2
X80.222 Z-1.765
X80.244 Z-1.76
X80.262
X80.286 Y45.041
X80.3 Y45.061
Y45.085
X80.286 Y45.105
X80.262 Y45.113
X80.24 Z-1.765
X80.218 Z-1.77
X79.838
X79.816 Z-1.765
X79.794 Z-1.76
X79.77 Y45.121
X79.756 Y45.141
Y45.165
X79.77 Y45.185
X79.794 Y45.193
X79.881
X79.903 Z-1.765
X79.925 Z-1.77
X80.237
X80.259 Z-1.765
X80.281 Z-1.76
X80.299
X80.323 Y45.201
X80.337 Y45.221
Y45.245
X80.323 Y45.265
X80.299 Y45.273
X80.277 Z-1.765
X80.255 Z-1.77
X80.013
X79.991 Z-1.765
X79.969 Z-1.76
X79.945 Y45.281
X79.931 Y45.301
Y45.325
X79.945 Y45.345
X79.969 Y45.353
X80.056
X80.078 Z-1.765
X80.1 Z-1.77
X80.274
X80.296 Z-1.765
X80.318 Z-1.76
X80.337
X80.36 Y45.361
X80.375 Y45.381
Y45.405
X80.36 Y45.425
X80.337 Y45.433
X80.315 Z-1.765
X80.293 Z-1.77
X80.188
G3 X79.688 Z-1.27 I0. K0.5
G0 Z5.
X33.219 Y32.154
Z4.348
G1 Z-1.27 F200.
G3 X32.719 Z-1.77 I-0.5 K0.
G1 X32.56
X32.554 Z-1.76
Z-1.759
X32.55 Y32.159 Z-1.734
X32.538 Y32.174 Z-1.716
X32.523 Y32.194 Z-1.709
X32.508 Y32.214 Z-1.716
X32.497 Y32.228 Z-1.734
X32.493 Y32.234 Z-1.759
X32.5 Z-1.77
X32.815
X32.837 Z-1.765
X32.859 Z-1.76
X32.955
X32.978 Y32.241
X32.993 Y32.261
Y32.286
X32.978 Y32.306
X32.955 Y32.314
X32.933 Z-1.765
X32.911 Z-1.77
X32.439
X32.432 Z-1.76
Z-1.759
X32.428 Y32.319 Z-1.734
X32.417 Y32.334 Z-1.715
X32.402 Y32.354 Z-1.709
X32.387 Y32.374 Z-1.715
X32.376 Y32.388 Z-1.734
X32.372 Y32.394 Z-1.759
X32.379 Z-1.77
X33.005
X33.027 Z-1.765
X33.049 Z-1.76
X33.143
X33.167 Y32.401
X33.181 Y32.421
Y32.446
X33.167 Y32.466
X33.143 Y32.474
X33.121 Z-1.765
X33.099 Z-1.77
X32.318
X32.311 Z-1.759
X32.307 Y32.479 Z-1.734
X32.296 Y32.494 Z-1.716
X32.281 Y32.514 Z-1.709
X32.266 Y32.534 Z-1.716
X32.255 Y32.548 Z-1.734
X32.251 Y32.554 Z-1.759
X32.257 Z-1.77
X33.192
X33.214 Z-1.765
X33.236 Z-1.76
X33.329
X33.352 Y32.561
X33.367 Y32.581
Y32.606
X33.352 Y32.626
X33.329 Y32.634
X33.307 Z-1.765
X33.285 Z-1.77
X32.197
X32.19 Z-1.759
Z-1.758
Z-1.756
X32.186 Y32.639 Z-1.731
X32.175 Y32.654 Z-1.713
X32.16 Y32.674 Z-1.706
X32.145 Y32.694 Z-1.714
X32.134 Y32.709 Z-1.733
X32.13 Y32.714 Z-1.758
Z-1.759
Z-1.76
X32.136 Z-1.77
X33.376
X33.398 Z-1.765
X33.42 Z-1.76
X33.511
X33.535 Y32.721
X33.549 Y32.741
Y32.766
X33.535 Y32.786
X33.511 Y32.794
X33.489 Z-1.765
X33.467 Z-1.77
X32.078
X32.071 Z-1.759
Z-1.756
Z-1.753
X32.067 Y32.799 Z-1.728
X32.055 Y32.814 Z-1.71
X32.04 Y32.835 Z-1.703
X32.025 Y32.855 Z-1.711
X32.014 Y32.869 Z-1.731
X32.011 Y32.874 Z-1.756
Z-1.759
Z-1.76
X32.018 Z-1.77
X33.557
X33.579 Z-1.765
X33.601 Z-1.76
X33.691
X33.714 Y32.881
X33.729 Y32.901
Y32.926
X33.714 Y32.946
X33.691 Y32.954
X33.669 Z-1.765
X33.647 Z-1.77
X31.958
X31.952 Z-1.76
Z-1.759
Z-1.756
Z-1.754
X31.948 Y32.959 Z-1.728
X31.936 Y32.974 Z-1.71
X31.921 Y32.995 Z-1.704
X31.906 Y33.015 Z-1.711
X31.896 Y33.029 Z-1.731
X31.892 Y33.034 Z-1.756
Z-1.759
X31.899 Z-1.77
X33.736
X33.758 Z-1.765
X33.78 Z-1.76
X33.865
X33.889 Y33.041
X33.903 Y33.061
Y33.086
X33.889 Y33.106
X33.865 Y33.114
X33.843 Z-1.765
X33.821 Z-1.77
X31.839
X31.833 Z-1.76
Z-1.757
Y33.113 Z-1.754
X31.829 Y33.119 Z-1.729
X31.818 Y33.134 Z-1.71
X31.802 Y33.155 Z-1.704
X31.787 Y33.175 Z-1.712
X31.777 Y33.189 Z-1.731
X31.773 Y33.194 Z-1.757
Z-1.76
X31.78 Z-1.77
X33.861
X33.883 Z-1.765
X33.905 Z-1.76
X33.92
X33.944 Y33.201
X33.958 Y33.221
Y33.246
X33.944 Y33.266
X33.92 Y33.274
X33.898 Z-1.765
X33.876 Z-1.77
X31.724
X31.718 Z-1.76
Z-1.748
Y33.273 Z-1.743
X31.715 Y33.278 Z-1.717
X31.704 Y33.293 Z-1.697
X31.688 Y33.314 Z-1.689
X31.673 Y33.335 Z-1.697
X31.662 Y33.35 Z-1.717
X31.659 Y33.354 Z-1.743
Z-1.748
X31.661 Z-1.76
X31.668 Z-1.77
X33.876
X33.898 Z-1.765
X33.92 Z-1.76
X33.944 Y33.361
X33.958 Y33.381
Y33.406
X33.944 Y33.426
X33.92 Y33.434
X33.907
X33.885 Z-1.765
X33.863 Z-1.77
X31.613
X31.607 Z-1.76
Y33.433 Z-1.752
X31.606 Y33.435 Z-1.727
X31.598 Y33.446 Z-1.707
X31.586 Y33.464 Z-1.695
X31.572 Y33.484
X31.56 Y33.501 Z-1.707
X31.552 Y33.512 Z-1.727
X31.551 Y33.514 Z-1.752
Z-1.76
X31.558 Z-1.77
X33.831
X33.853 Z-1.765
X33.875 Z-1.76
X33.898 Y33.521
X33.913 Y33.541
Y33.566
X33.898 Y33.586
X33.875 Y33.594
X33.809
X33.787 Z-1.765
X33.765 Z-1.77
X31.502
X31.496 Z-1.76
Y33.593 Z-1.752
X31.495 Y33.595 Z-1.727
X31.487 Y33.606 Z-1.707
X31.475 Y33.624 Z-1.695
X31.461 Y33.644
X31.449 Y33.661 Z-1.707
X31.441 Y33.672 Z-1.727
X31.44 Y33.674 Z-1.752
X31.441 Z-1.76
X31.447 Z-1.77
X33.687
X33.709 Z-1.765
X33.731 Z-1.76
X33.755 Y33.681
X33.769 Y33.701
Y33.726
X33.755 Y33.746
X33.731 Y33.754
X33.654
X33.632 Z-1.765
X33.61 Z-1.77
X31.392
X31.385 Z-1.76
X31.383 Z-1.748
Y33.752 Z-1.735
Z-1.709
X31.377 Y33.763 Z-1.687
X31.365 Y33.783 Z-1.674
X31.352 Y33.805
X31.34 Y33.824 Z-1.687
X31.333 Y33.835 Z-1.709
Z-1.735
X31.334 Y33.834 Z-1.748
Z-1.76
X31.341 Z-1.77
X33.535
X33.557 Z-1.765
X33.579 Z-1.76
X33.603 Y33.841
X33.617 Y33.861
Y33.886
X33.603 Y33.906
X33.579 Y33.914
X33.506
X33.484 Z-1.765
X33.462 Z-1.77
X31.289
X31.282 Z-1.759
X31.279 Z-1.747
X31.28 Y33.913 Z-1.736
X31.279 Z-1.711
X31.272 Y33.924 Z-1.689
X31.26 Y33.943 Z-1.677
X31.247 Y33.964
X31.235 Y33.983 Z-1.689
X31.228 Y33.994 Z-1.711
X31.227 Y33.995 Z-1.736
X31.228 Y33.994 Z-1.747
X31.23 Z-1.759
X31.237 Z-1.77
X33.39
X33.412 Z-1.765
X33.434 Z-1.76
X33.457 Y34.001
X33.472 Y34.021
Y34.046
X33.457 Y34.066
X33.434 Y34.074
X33.365
X33.343 Z-1.765
X33.321 Z-1.77
X31.186
X31.18 Z-1.76
Z-1.747
Y34.073 Z-1.738
X31.179 Y34.074 Z-1.713
X31.172 Y34.085 Z-1.693
X31.16 Y34.103 Z-1.681
X31.146 Y34.124
X31.133 Y34.142 Z-1.693
X31.126 Y34.153 Z-1.713
X31.125 Y34.154 Z-1.738
Z-1.747
X31.128 Z-1.759
X31.135 Z-1.77
X33.252
X33.274 Z-1.765
X33.296 Z-1.76
X33.32 Y34.161
X33.334 Y34.181
Y34.206
X33.32 Y34.226
X33.296 Y34.234
X33.229
X33.207 Z-1.765
X33.185 Z-1.77
X31.083
X31.077 Z-1.759
X31.074 Z-1.747
X31.075 Y34.232 Z-1.736
Y34.233 Z-1.71
X31.068 Y34.244 Z-1.688
X31.056 Y34.263 Z-1.676
X31.042 Y34.284
X31.03 Y34.303 Z-1.688
X31.023 Y34.314 Z-1.71
Y34.315 Z-1.736
X31.024 Y34.314 Z-1.747
Z-1.748
X31.026 Z-1.76
X31.033 Z-1.77
X33.12
X33.142 Z-1.765
X33.164 Z-1.76
X33.187 Y34.321
X33.202 Y34.341
Y34.366
X33.187 Y34.386
X33.164 Y34.394
X33.099
X33.077 Z-1.765
X33.055 Z-1.77
X30.985
X30.979 Z-1.76
X30.976 Z-1.748
X30.977 Y34.392 Z-1.734
X30.978 Y34.391 Z-1.707
X30.972 Y34.402 Z-1.684
X30.961 Y34.422 Z-1.671
X30.948 Y34.445
X30.937 Y34.465 Z-1.684
X30.931 Y34.476 Z-1.707
Y34.475 Z-1.734
X30.932 Y34.474 Z-1.748
Z-1.76
X30.938 Z-1.77
X32.992
X33.014 Z-1.765
X33.036 Z-1.76
X33.059 Y34.481
X33.074 Y34.501
Y34.526
X33.059 Y34.546
X33.036 Y34.554
X32.974
X32.952 Z-1.765
X32.93 Z-1.77
X30.89
X30.884 Z-1.76
X30.882 Z-1.749
Z-1.747
Y34.552 Z-1.734
X30.883 Z-1.708
X30.876 Y34.563 Z-1.685
X30.865 Y34.582 Z-1.672
X30.851 Y34.605
X30.84 Y34.624 Z-1.685
X30.834 Y34.635 Z-1.708
Z-1.734
X30.835 Y34.634 Z-1.747
X30.837 Z-1.759
X30.844 Z-1.77
X32.868
X32.89 Z-1.765
X32.912 Z-1.76
X32.936 Y34.641
X32.95 Y34.661
Y34.686
X32.936 Y34.706
X32.912 Y34.714
X32.853
X32.831 Z-1.765
X32.809 Z-1.77
X30.797
X30.79 Z-1.76
X30.788 Z-1.748
X30.789 Y34.712 Z-1.734
Z-1.709
X30.782 Y34.723 Z-1.686
X30.771 Y34.742 Z-1.673
X30.758 Y34.765
X30.746 Y34.784 Z-1.686
X30.74 Y34.795 Z-1.709
Z-1.734
X30.741 Y34.794 Z-1.748
X30.743 Z-1.76
X30.75 Z-1.77
X32.75
X32.772 Z-1.765
X32.794 Z-1.76
X32.818 Y34.801
X32.832 Y34.821
Y34.846
X32.818 Y34.866
X32.794 Y34.874
X32.736
X32.714 Z-1.765
X32.692 Z-1.77
X30.703
X30.696 Z-1.76
X30.694 Z-1.747
X30.695 Y34.872 Z-1.733
Y34.871 Z-1.707
X30.689 Y34.882 Z-1.684
X30.678 Y34.902 Z-1.67
X30.665 Y34.925
X30.654 Y34.945 Z-1.684
X30.648 Y34.956 Z-1.707
Y34.955 Z-1.733
X30.649 Y34.954 Z-1.747
Z-1.749
X30.652 Z-1.76
X30.658 Z-1.77
X32.635
X32.657 Z-1.765
X32.679 Z-1.76
X32.703 Y34.961
X32.717 Y34.981
Y35.006
X32.703 Y35.026
X32.679 Y35.034
X32.623
X32.601 Z-1.765
X32.579 Z-1.77
X30.615
X30.608 Z-1.759
X30.605 Z-1.747
X30.606 Y35.032 Z-1.733
X30.607 Y35.031 Z-1.706
X30.601 Y35.042 Z-1.683
X30.59 Y35.062 Z-1.67
X30.577 Y35.085
X30.566 Y35.105 Z-1.683
X30.56 Y35.116 Z-1.706
X30.561 Y35.115 Z-1.733
X30.562 Y35.114 Z-1.747
Z-1.748
X30.564 Z-1.76
X30.571 Z-1.77
X32.523
X32.545 Z-1.765
X32.567 Z-1.76
X32.591 Y35.121
X32.605 Y35.141
Y35.166
X32.591 Y35.186
X32.567 Y35.194
X32.514
X32.492 Z-1.765
X32.47 Z-1.77
X30.528
X30.522 Z-1.76
X30.519 Z-1.748
X30.52 Y35.191 Z-1.733
X30.521 Y35.19 Z-1.706
X30.515 Y35.202 Z-1.683
X30.504 Y35.222 Z-1.669
X30.492 Y35.245
X30.481 Y35.265 Z-1.683
X30.476 Y35.277 Z-1.706
Y35.276 Z-1.733
X30.477 Y35.274 Z-1.748
Z-1.749
X30.479 Z-1.76
X30.486 Z-1.77
X32.416
X32.438 Z-1.765
X32.46 Z-1.76
X32.484 Y35.281
X32.498 Y35.301
Y35.326
X32.484 Y35.346
X32.46 Y35.354
X32.407
X32.385 Z-1.765
X32.363 Z-1.77
X30.444
X30.438 Z-1.76
X30.436 Z-1.749
Z-1.748
X30.437 Y35.351 Z-1.732
Y35.35 Z-1.706
X30.432 Y35.361 Z-1.682
X30.421 Y35.382 Z-1.668
X30.409 Y35.405
X30.399 Y35.426 Z-1.682
X30.393 Y35.437 Z-1.706
X30.394 Y35.436 Z-1.732
X30.395 Y35.434 Z-1.748
X30.397 Z-1.76
X30.404 Z-1.77
X32.311
X32.333 Z-1.765
X32.355 Z-1.76
X32.379 Y35.441
X32.393 Y35.461
Y35.486
X32.379 Y35.506
X32.355 Y35.514
X32.304
X32.282 Z-1.765
X32.26 Z-1.77
X30.364
X30.357 Z-1.76
X30.355 Z-1.749
Z-1.748
X30.356 Y35.511 Z-1.732
X30.357 Y35.51 Z-1.705
X30.351 Y35.521 Z-1.681
X30.341 Y35.541 Z-1.667
X30.329 Y35.566
X30.319 Y35.586 Z-1.681
X30.314 Y35.597 Z-1.705
Y35.596 Z-1.732
X30.316 Y35.593 Z-1.748
X30.318 Z-1.76
X30.325 Z-1.77
X32.209
X32.231 Z-1.765
X32.253 Z-1.76
X32.276 Y35.601
X32.291 Y35.621
Y35.646
X32.276 Y35.666
X32.253 Y35.673
X32.203
X32.181 Z-1.765
X32.159 Z-1.77
X30.286
X30.279 Z-1.761
X30.277 Z-1.75
Z-1.749
X30.278 Y35.671 Z-1.732
X30.279 Y35.669 Z-1.705
X30.274 Y35.68 Z-1.681
X30.264 Y35.701 Z-1.667
X30.253 Y35.726
X30.243 Y35.747 Z-1.681
X30.237 Y35.758 Z-1.705
X30.238 Y35.756 Z-1.732
X30.239 Y35.753 Z-1.749
X30.242 Z-1.76
X30.248 Z-1.77
X32.11
X32.132 Z-1.765
X32.154 Z-1.76
X32.178 Y35.761
X32.192 Y35.781
Y35.806
X32.178 Y35.826
X32.154 Y35.833
X32.105
X32.083 Z-1.765
X32.061 Z-1.77
X30.21
X30.204 Z-1.761
X30.202 Z-1.75
Z-1.749
X30.203 Y35.831 Z-1.732
X30.204 Y35.829 Z-1.705
X30.199 Y35.84 Z-1.681
X30.19 Y35.861 Z-1.667
X30.179 Y35.886
X30.169 Y35.907 Z-1.681
X30.164 Y35.918 Z-1.705
X30.165 Y35.916 Z-1.732
X30.166 Y35.913 Z-1.749
X30.168 Z-1.76
X30.175 Z-1.77
X32.014
X32.036 Z-1.765
X32.058 Z-1.76
X32.081 Y35.921
X32.096 Y35.941
Y35.966
X32.081 Y35.986
X32.058 Y35.993
X32.01
X31.988 Z-1.765
X31.966 Z-1.77
X30.139
X30.133 Z-1.76
X30.131 Z-1.749
X30.132 Y35.99 Z-1.731
X30.133 Y35.988 Z-1.704
X30.128 Y36. Z-1.68
X30.119 Y36.021 Z-1.665
X30.108 Y36.046
X30.099 Y36.067 Z-1.679
X30.094 Y36.079 Z-1.704
X30.095 Y36.076 Z-1.731
X30.096 Y36.073 Z-1.749
Z-1.75
X30.099 Z-1.76
X30.105 Z-1.77
X31.919
X31.941 Z-1.765
X31.963 Z-1.76
X31.987 Y36.081
X32.001 Y36.101
Y36.126
X31.987 Y36.146
X31.963 Y36.153
X31.917
X31.895 Z-1.765
X31.873 Z-1.77
X30.071
X30.065 Z-1.76
X30.063 Z-1.75
X30.064 Y36.15 Z-1.731
X30.065 Y36.148 Z-1.704
X30.06 Y36.159 Z-1.679
X30.052 Y36.181 Z-1.665
X30.042 Y36.206
X30.033 Y36.228 Z-1.679
X30.029 Y36.239 Z-1.704
Y36.237 Z-1.731
X30.031 Y36.233 Z-1.75
X30.033 Z-1.761
X30.039 Z-1.77
X31.828
X31.85 Z-1.765
X31.872 Z-1.76
X31.895 Y36.241
X31.91 Y36.261
Y36.286
X31.895 Y36.306
X31.872 Y36.313
X31.826
X31.804 Z-1.765
X31.782 Z-1.77
X30.008
X30.002 Z-1.761
X30. Z-1.75
X30.001 Y36.31 Z-1.731
X30.002 Y36.307 Z-1.704
X29.998 Y36.319 Z-1.679
X29.99 Y36.341 Z-1.664
X29.98 Y36.366
X29.972 Y36.388 Z-1.679
X29.968 Y36.4 Z-1.704
X29.969 Y36.397 Z-1.731
X29.97 Y36.393 Z-1.75
X29.972 Z-1.761
X29.978 Z-1.77
X31.738
X31.76 Z-1.765
X31.782 Z-1.76
X31.805 Y36.401
X31.82 Y36.421
Y36.446
X31.805 Y36.466
X31.782 Y36.473
X31.738
X31.716 Z-1.765
X31.694 Z-1.77
X29.949
X29.943 Z-1.761
X29.941 Z-1.751
X29.942 Y36.47 Z-1.732
X29.943 Y36.467 Z-1.704
X29.939 Y36.479 Z-1.679
X29.931 Y36.5 Z-1.665
X29.921 Y36.526
X29.913 Y36.548 Z-1.679
X29.909 Y36.56 Z-1.704
X29.91 Y36.557 Z-1.732
X29.912 Y36.553 Z-1.751
X29.914 Z-1.761
X29.919 Z-1.77
X31.65
X31.672 Z-1.765
X31.694 Z-1.76
X31.717 Y36.561
X31.732 Y36.581
Y36.606
X31.717 Y36.626
X31.694 Y36.633
X31.651
X31.629 Z-1.765
X31.607 Z-1.77
X29.89
X29.884 Z-1.761
X29.882 Z-1.75
Z-1.749
X29.884 Y36.63 Z-1.73
X29.885 Y36.627 Z-1.703
X29.88 Y36.639 Z-1.678
X29.872 Y36.66 Z-1.663
X29.863 Y36.686
X29.855 Y36.708 Z-1.678
X29.851 Y36.72 Z-1.703
X29.852 Y36.717 Z-1.73
X29.853 Y36.713 Z-1.749
X29.855 Z-1.76
X29.861 Z-1.77
X31.565
X31.587 Z-1.765
X31.609 Z-1.76
X31.632 Y36.721
X31.647 Y36.741
Y36.766
X31.632 Y36.786
X31.609 Y36.793
X31.566
X31.544 Z-1.765
X31.522 Z-1.77
X29.832
X29.826 Z-1.761
X29.824 Z-1.75
X29.825 Y36.79 Z-1.731
X29.826 Y36.787 Z-1.704
X29.822 Y36.799 Z-1.679
X29.814 Y36.82 Z-1.664
X29.804 Y36.846
X29.796 Y36.868 Z-1.679
X29.792 Y36.88 Z-1.704
X29.793 Y36.877 Z-1.731
X29.794 Y36.873 Z-1.75
X29.796 Z-1.761
X29.802 Z-1.77
X31.481
X31.503 Z-1.765
X31.525 Z-1.76
X31.548 Y36.881
X31.563 Y36.901
Y36.926
X31.548 Y36.946
X31.525 Y36.953
X31.484
X31.462 Z-1.765
X31.439 Z-1.77
X29.773
X29.767 Z-1.761
X29.765 Z-1.75
X29.766 Y36.95 Z-1.731
X29.767 Y36.947 Z-1.704
X29.763 Y36.958 Z-1.679
X29.755 Y36.98 Z-1.664
X29.746 Y37.006
X29.738 Y37.028 Z-1.679
X29.733 Y37.04 Z-1.704
X29.734 Y37.037 Z-1.731
X29.736 Y37.033 Z-1.75
X29.738 Z-1.761
X29.744 Z-1.77
X31.398
X31.42 Z-1.765
X31.442 Z-1.76
X31.466 Y37.041
X31.48 Y37.061
Y37.086
X31.466 Y37.106
X31.442 Y37.113
X31.402
X31.38 Z-1.765
X31.358 Z-1.77
X29.714
X29.708 Z-1.761
X29.706 Z-1.751
Z-1.748
X29.708 Y37.111 Z-1.732
Y37.109 Z-1.705
X29.703 Y37.121 Z-1.681
X29.693 Y37.141 Z-1.667
X29.681 Y37.166
X29.671 Y37.186 Z-1.681
X29.666 Y37.198 Z-1.705
X29.667 Y37.196 Z-1.732
X29.668 Y37.193 Z-1.748
X29.67 Z-1.76
X29.677 Z-1.77
X31.318
G2 X31.818 Z-1.27 I0. K0.5
G0 Z5.
X25.294 Y34.874
Z4.334
G1 Z-1.73 F200.
X25.29 Z-1.752
X25.278 Z-1.77
X25.17
X25.148 Z-1.765
X25.126 Z-1.76
X25.088
X25.065 Y34.881
X25.05 Y34.901
Y34.926
X25.065 Y34.946
X25.088 Y34.954
X25.11 Z-1.765
X25.132 Z-1.77
X25.408
X25.418 Z-1.762
X25.421 Z-1.75
X25.428 Y34.957 Z-1.717
X25.446 Y34.969 Z-1.69
X25.472 Y34.985 Z-1.676
X25.501 Y35.002
X25.527 Y35.018 Z-1.69
X25.545 Y35.03 Z-1.717
X25.551 Y35.034 Z-1.75
X25.548 Z-1.762
X25.538 Z-1.77
X25.095
X25.073 Z-1.765
X25.051 Z-1.76
X25.014
X24.991 Y35.041
X24.976 Y35.061
Y35.086
X24.991 Y35.106
X25.014 Y35.114
X25.036 Z-1.765
X25.058 Z-1.77
X25.668
X25.678 Z-1.762
X25.681 Z-1.75
X25.688 Y35.117 Z-1.717
X25.706 Y35.129 Z-1.691
X25.732 Y35.145 Z-1.676
X25.76 Y35.162
X25.786 Y35.178 Z-1.691
X25.804 Y35.19 Z-1.717
X25.811 Y35.194 Z-1.75
Z-1.751
X25.807 Z-1.762
X25.798 Z-1.77
X25.021
X24.999 Z-1.765
X24.977 Z-1.76
X24.94
X24.916 Y35.201
X24.902 Y35.221
Y35.246
X24.916 Y35.266
X24.94 Y35.274
X24.962 Z-1.765
X24.984 Z-1.77
X25.919
X25.929 Z-1.762
X25.932 Z-1.75
X25.938 Y35.277 Z-1.719
X25.955 Y35.289 Z-1.694
X25.979 Y35.305 Z-1.68
X26.006 Y35.322
X26.031 Y35.338 Z-1.694
X26.047 Y35.35 Z-1.719
X26.053 Y35.354 Z-1.75
Z-1.751
X26.05 Z-1.762
X26.041 Z-1.77
X24.947
X24.925 Z-1.765
X24.903 Z-1.76
X24.867
X24.844 Y35.361
X24.829 Y35.381
Y35.406
X24.844 Y35.426
X24.867 Y35.434
X24.889 Z-1.765
X24.911 Z-1.77
X26.162
X26.171 Z-1.762
X26.175 Z-1.751
X26.181 Y35.437 Z-1.72
X26.198 Y35.449 Z-1.694
X26.222 Y35.465 Z-1.68
X26.249 Y35.482
X26.273 Y35.498 Z-1.694
X26.29 Y35.51 Z-1.72
X26.296 Y35.514 Z-1.751
X26.293 Z-1.762
X26.284 Z-1.77
X24.876
X24.854 Z-1.765
X24.832 Z-1.76
X24.796
X24.773 Y35.521
X24.758 Y35.541
Y35.566
X24.773 Y35.586
X24.796 Y35.593
X24.818 Z-1.765
X24.84 Z-1.77
X26.405
X26.414 Z-1.762
X26.417 Z-1.751
X26.423 Y35.597 Z-1.72
X26.44 Y35.609 Z-1.695
X26.464 Y35.625 Z-1.681
X26.491 Y35.642
X26.516 Y35.658 Z-1.695
X26.532 Y35.67 Z-1.72
X26.538 Y35.673 Z-1.751
X26.535 Z-1.762
X26.526 Z-1.77
X24.805
X24.783 Z-1.765
X24.761 Z-1.76
X24.725
X24.702 Y35.681
X24.687 Y35.701
Y35.726
X24.702 Y35.746
X24.725 Y35.753
X24.747 Z-1.765
X24.769 Z-1.77
X26.645
X26.653 Z-1.763
X26.657 Z-1.752
Z-1.751
X26.662 Y35.757 Z-1.72
X26.679 Y35.769 Z-1.696
X26.702 Y35.785 Z-1.682
X26.728 Y35.802
X26.752 Y35.818 Z-1.696
X26.768 Y35.83 Z-1.72
X26.774 Y35.833 Z-1.751
X26.771 Z-1.762
X26.762 Z-1.77
X24.734
X24.712 Z-1.765
X24.69 Z-1.76
X24.655
X24.632 Y35.841
X24.617 Y35.861
Y35.886
X24.632 Y35.906
X24.655 Y35.913
X24.677 Z-1.765
X24.699 Z-1.77
X26.879
X26.888 Z-1.762
X26.891 Z-1.751
X26.897 Y35.917 Z-1.72
X26.914 Y35.929 Z-1.696
X26.937 Y35.945 Z-1.682
X26.963 Y35.962
X26.987 Y35.978 Z-1.696
X27.003 Y35.99 Z-1.72
X27.009 Y35.993 Z-1.751
Z-1.752
X27.006 Z-1.763
X26.997 Z-1.77
X24.665
X24.643 Z-1.765
X24.621 Z-1.76
X24.587
X24.564 Y36.001
X24.549 Y36.021
Y36.046
X24.564 Y36.066
X24.587 Y36.073
X24.609 Z-1.765
X24.631 Z-1.77
X27.115
X27.123 Z-1.763
X27.126 Z-1.752
Z-1.751
X27.132 Y36.077 Z-1.72
X27.148 Y36.089 Z-1.695
X27.172 Y36.105 Z-1.682
X27.198 Y36.122
X27.222 Y36.138 Z-1.695
X27.238 Y36.15 Z-1.72
X27.244 Y36.153 Z-1.751
X27.24 Z-1.762
X27.231 Z-1.77
X24.597
X24.575 Z-1.765
X24.553 Z-1.76
X24.519
X24.496 Y36.161
X24.481 Y36.181
Y36.206
X24.496 Y36.226
X24.519 Y36.233
X24.541 Z-1.765
X24.563 Z-1.77
X27.347
X27.356 Z-1.763
X27.359 Z-1.752
X27.365 Y36.237 Z-1.722
X27.38 Y36.249 Z-1.697
X27.403 Y36.265 Z-1.684
X27.429 Y36.282
X27.451 Y36.298 Z-1.697
X27.467 Y36.31 Z-1.722
X27.473 Y36.313 Z-1.752
X27.469 Z-1.763
X27.461 Z-1.77
X24.529
X24.507 Z-1.765
X24.485 Z-1.76
X24.451
X24.428 Y36.321
X24.413 Y36.341
Y36.366
X24.428 Y36.386
X24.451 Y36.393
X24.473 Z-1.765
X24.495 Z-1.77
X27.574
X27.583 Z-1.763
X27.586 Z-1.752
Z-1.751
X27.592 Y36.397 Z-1.721
X27.608 Y36.409 Z-1.697
X27.63 Y36.425 Z-1.683
X27.656 Y36.442
X27.679 Y36.458 Z-1.697
X27.694 Y36.469 Z-1.721
X27.7 Y36.473 Z-1.751
X27.697 Z-1.762
X27.687 Z-1.77
X24.463
X24.441 Z-1.765
X24.419 Z-1.76
X24.386
X24.362 Y36.481
X24.348 Y36.501
Y36.526
X24.362 Y36.546
X24.386 Y36.553
X24.408 Z-1.765
X24.43 Z-1.77
X27.802
X27.81 Z-1.763
X27.814 Z-1.753
Z-1.752
X27.819 Y36.557 Z-1.722
X27.835 Y36.569 Z-1.697
X27.858 Y36.585 Z-1.684
X27.883 Y36.602
X27.906 Y36.618 Z-1.697
X27.922 Y36.629 Z-1.722
X27.927 Y36.633 Z-1.752
X27.924 Z-1.763
X27.915 Z-1.77
X24.397
X24.375 Z-1.765
X24.353 Z-1.76
X24.32
X24.297 Y36.641
X24.282 Y36.661
Y36.686
X24.297 Y36.706
X24.32 Y36.713
X24.342 Z-1.765
X24.364 Z-1.77
X28.029
X28.037 Z-1.763
X28.04 Z-1.753
Z-1.752
X28.046 Y36.717 Z-1.723
X28.061 Y36.728 Z-1.699
X28.083 Y36.745 Z-1.685
X28.108 Y36.762
X28.131 Y36.778 Z-1.699
X28.146 Y36.789 Z-1.723
X28.151 Y36.793 Z-1.752
X28.148 Z-1.763
X28.14 Z-1.77
X24.332
X24.31 Z-1.765
X24.288 Z-1.76
X24.255
X24.231 Y36.801
X24.217 Y36.821
Y36.846
X24.231 Y36.866
X24.255 Y36.873
X24.277 Z-1.765
X24.299 Z-1.77
X28.25
X28.259 Z-1.763
X28.262 Z-1.752
X28.267 Y36.877 Z-1.723
X28.283 Y36.888 Z-1.699
X28.305 Y36.905 Z-1.686
X28.329 Y36.922
X28.351 Y36.938 Z-1.699
X28.366 Y36.949 Z-1.723
X28.372 Y36.953 Z-1.752
Z-1.753
X28.369 Z-1.763
X28.361 Z-1.77
X24.267
X24.245 Z-1.765
X24.223 Z-1.76
X24.192
X24.168 Y36.961
X24.154 Y36.981
Y37.006
X24.168 Y37.026
X24.192 Y37.033
X24.214 Z-1.765
X24.236 Z-1.77
X28.47
X28.478 Z-1.763
X28.481 Z-1.754
X28.486 Y37.039 Z-1.724
X28.502 Y37.053 Z-1.703
X28.523 Y37.073 Z-1.695
X28.544 Y37.093 Z-1.703
X28.56 Y37.108 Z-1.724
X28.566 Y37.113 Z-1.754
Z-1.757
X28.563 Z-1.765
X28.557 Z-1.77
X24.204
X24.182 Z-1.765
X24.16 Z-1.76
X24.129
X24.105 Y37.121
X24.09 Y37.141
Y37.166
X24.105 Y37.186
X24.129 Y37.193
X24.151 Z-1.765
X24.173 Z-1.77
X28.652
X28.66 Z-1.764
X28.662 Z-1.754
X28.668 Y37.197 Z-1.725
X28.683 Y37.208 Z-1.702
X28.705 Y37.225 Z-1.689
X28.729 Y37.242
X28.751 Y37.258 Z-1.702
X28.766 Y37.269 Z-1.725
X28.771 Y37.273 Z-1.754
Z-1.759
X28.768 Z-1.767
X28.761 Z-1.77
X24.141
G3 X23.641 Z-1.27 I0. K0.5
G0 Z5.
X29.62
Z4.219
G1 Z-1.77 F200.
X31.278
X31.3 Z-1.765
X31.322 Z-1.76
X31.346 Y37.281
X31.361 Y37.301
Y37.326
X31.346 Y37.346
X31.322 Y37.353
X31.284
X31.262 Z-1.765
X31.24 Z-1.77
X29.531
X29.52 Z-1.753
X29.516 Z-1.733
G0 Z5.
X28.924
Z4.219
G1 Z-1.718 F200.
X28.918 Z-1.746
X28.902 Z-1.77
X24.109
X24.087 Z-1.765
X24.065 Z-1.76
X24.034
X24.011 Y37.361
X23.996 Y37.381
Y37.406
X24.011 Y37.426
X24.034 Y37.433
X24.056 Z-1.765
X24.078 Z-1.77
X29.114
X29.14 Z-1.753
X29.156 Z-1.727
X29.162 Z-1.697
G0 Z5.
X29.308
Z4.219
G1 Z-1.698 F200.
X29.314 Z-1.728
X29.331 Z-1.753
X29.356 Z-1.77
X31.201
X31.223 Z-1.765
X31.245 Z-1.76
X31.268 Y37.441
X31.283 Y37.461
Y37.486
X31.268 Y37.506
X31.245 Y37.513
X31.206
X31.184 Z-1.765
X31.162 Z-1.77
X24.048
X24.026 Z-1.765
X24.004 Z-1.76
X23.973
X23.95 Y37.521
X23.935 Y37.541
Y37.566
X23.95 Y37.586
X23.973 Y37.593
X23.995 Z-1.765
X24.017 Z-1.77
X31.124
X31.146 Z-1.765
X31.168 Z-1.76
X31.192 Y37.601
X31.206 Y37.621
Y37.646
X31.192 Y37.666
X31.168 Y37.673
X31.131
X31.109 Z-1.765
X31.087 Z-1.77
X23.987
X23.965 Z-1.765
X23.943 Z-1.76
X23.913
X23.889 Y37.681
X23.875 Y37.701
Y37.726
X23.889 Y37.746
X23.913 Y37.753
X23.935 Z-1.765
X23.957 Z-1.77
X31.049
X31.071 Z-1.765
X31.093 Z-1.76
X31.117 Y37.761
X31.132 Y37.781
Y37.806
X31.117 Y37.826
X31.093 Y37.833
X31.057
X31.035 Z-1.765
X31.013 Z-1.77
X23.926
X23.904 Z-1.765
X23.882 Z-1.76
X23.852
X23.828 Y37.841
X23.814 Y37.861
Y37.886
X23.828 Y37.906
X23.852 Y37.913
X23.874 Z-1.765
X23.896 Z-1.77
X30.976
X30.998 Z-1.765
X31.02 Z-1.76
X31.044 Y37.921
X31.058 Y37.941
Y37.966
X31.044 Y37.986
X31.02 Y37.993
X30.984
X30.962 Z-1.765
X30.94 Z-1.77
X23.866
X23.844 Z-1.765
X23.822 Z-1.76
X23.793
X23.769 Y38.001
X23.755 Y38.021
Y38.046
X23.769 Y38.066
X23.793 Y38.073
X23.815 Z-1.765
X23.837 Z-1.77
X30.904
X30.926 Z-1.765
X30.948 Z-1.76
X30.971 Y38.081
X30.986 Y38.101
Y38.126
X30.971 Y38.146
X30.948 Y38.153
X30.912
X30.89 Z-1.765
X30.868 Z-1.77
X23.808
X23.786 Z-1.765
X23.764 Z-1.76
X23.734
X23.711 Y38.161
X23.696 Y38.181
Y38.206
X23.711 Y38.226
X23.734 Y38.233
X23.756 Z-1.765
X23.778 Z-1.77
X30.833
X30.855 Z-1.765
X30.877 Z-1.76
X30.901 Y38.241
X30.915 Y38.261
Y38.286
X30.901 Y38.306
X30.877 Y38.313
X30.842
X30.82 Z-1.765
X30.798 Z-1.77
X23.749
X23.727 Z-1.765
X23.705 Z-1.76
X23.676
X23.652 Y38.321
X23.638 Y38.341
Y38.366
X23.652 Y38.386
X23.676 Y38.393
X23.698 Z-1.765
X23.72 Z-1.77
X30.764
X30.786 Z-1.765
X30.808 Z-1.76
X30.831 Y38.401
X30.846 Y38.421
Y38.446
X30.831 Y38.466
X30.808 Y38.473
X30.773
X30.751 Z-1.765
X30.729 Z-1.77
X23.69
X23.668 Z-1.765
X23.646 Z-1.76
X23.618
X23.594 Y38.481
X23.58 Y38.501
Y38.526
X23.594 Y38.546
X23.618 Y38.553
X23.64 Z-1.765
X23.662 Z-1.77
X30.695
X30.717 Z-1.765
X30.739 Z-1.76
X30.763 Y38.561
X30.777 Y38.581
Y38.606
X30.763 Y38.626
X30.739 Y38.633
X30.706
X30.684 Z-1.765
X30.662 Z-1.77
X23.634
X23.612 Z-1.765
X23.59 Z-1.76
X23.561
X23.538 Y38.641
X23.523 Y38.661
Y38.686
X23.538 Y38.706
X23.561 Y38.713
X23.583 Z-1.765
X23.605 Z-1.77
X30.628
X30.65 Z-1.765
X30.672 Z-1.76
X30.696 Y38.721
X30.71 Y38.741
Y38.766
X30.696 Y38.786
X30.672 Y38.793
X30.639
X30.617 Z-1.765
X30.595 Z-1.77
X23.577
X23.555 Z-1.765
X23.533 Z-1.76
X23.505
X23.481 Y38.801
X23.467 Y38.821
Y38.846
X23.481 Y38.866
X23.505 Y38.873
X23.527 Z-1.765
X23.549 Z-1.77
X30.562
X30.584 Z-1.765
X30.606 Z-1.76
X30.63 Y38.881
X30.644 Y38.901
Y38.926
X30.63 Y38.946
X30.606 Y38.953
X30.574
X30.552 Z-1.765
X30.53 Z-1.77
X23.52
X23.498 Z-1.765
X23.476 Z-1.76
X23.448
X23.425 Y38.961
X23.41 Y38.981
Y39.006
X23.425 Y39.026
X23.448 Y39.033
X23.47 Z-1.765
X23.492 Z-1.77
X30.497
X30.519 Z-1.765
X30.541 Z-1.76
X30.565 Y39.041
X30.579 Y39.061
Y39.086
X30.565 Y39.106
X30.541 Y39.113
X30.509
X30.487 Z-1.765
X30.465 Z-1.77
X23.465
X23.443 Z-1.765
X23.421 Z-1.76
X23.394
X23.37 Y39.121
X23.355 Y39.141
Y39.166
X23.37 Y39.186
X23.394 Y39.193
X23.416 Z-1.765
X23.438 Z-1.77
X30.434
X30.456 Z-1.765
X30.478 Z-1.76
X30.501 Y39.201
X30.516 Y39.221
Y39.246
X30.501 Y39.266
X30.478 Y39.273
X30.446
X30.424 Z-1.765
X30.402 Z-1.77
X23.41
X23.388 Z-1.765
X23.366 Z-1.76
X23.339
X23.315 Y39.281
X23.301 Y39.301
Y39.326
X23.315 Y39.346
X23.339 Y39.353
X23.361 Z-1.765
X23.383 Z-1.77
X30.371
X30.393 Z-1.765
X30.415 Z-1.76
X30.438 Y39.361
X30.453 Y39.381
Y39.406
X30.438 Y39.426
X30.415 Y39.433
X30.384
X30.362 Z-1.765
X30.34 Z-1.77
X23.355
X23.333 Z-1.765
X23.311 Z-1.76
X23.284
X23.26 Y39.441
X23.246 Y39.461
Y39.486
X23.26 Y39.506
X23.284 Y39.513
X23.306 Z-1.765
X23.328 Z-1.77
X30.309
X30.331 Z-1.765
X30.353 Z-1.76
X30.377 Y39.521
X30.391 Y39.541
Y39.566
X30.377 Y39.586
X30.353 Y39.593
X30.323
X30.301 Z-1.765
X30.279 Z-1.77
X23.301
X23.279 Z-1.765
X23.257 Z-1.76
X23.231
X23.207 Y39.601
X23.193 Y39.621
Y39.646
X23.207 Y39.666
X23.231 Y39.673
X23.253 Z-1.765
X23.275 Z-1.77
X30.248
X30.27 Z-1.765
X30.292 Z-1.76
X30.316 Y39.681
X30.33 Y39.701
Y39.726
X30.316 Y39.746
X30.292 Y39.753
X30.263
X30.241 Z-1.765
X30.219 Z-1.77
X23.248
X23.226 Z-1.765
X23.204 Z-1.76
X23.178
X23.154 Y39.761
X23.14 Y39.781
Y39.806
X23.154 Y39.826
X23.178 Y39.833
X23.2 Z-1.765
X23.222 Z-1.77
X30.189
X30.211 Z-1.765
X30.233 Z-1.76
X30.256 Y39.841
X30.271 Y39.861
Y39.886
X30.256 Y39.906
X30.233 Y39.913
X30.203
X30.181 Z-1.765
X30.159 Z-1.77
X23.195
X23.173 Z-1.765
X23.151 Z-1.76
X23.125
X23.101 Y39.921
X23.086 Y39.941
Y39.966
X23.101 Y39.986
X23.125 Y39.993
X23.147 Z-1.765
X23.169 Z-1.77
X30.13
X30.152 Z-1.765
X30.174 Z-1.76
X30.197 Y40.001
X30.212 Y40.021
Y40.046
X30.197 Y40.066
X30.174 Y40.073
X30.145
X30.123 Z-1.765
X30.101 Z-1.77
X23.142
X23.12 Z-1.765
X23.098 Z-1.76
X23.073
X23.049 Y40.081
X23.035 Y40.101
Y40.126
X23.049 Y40.146
X23.073 Y40.153
X23.095 Z-1.765
X23.117 Z-1.77
X30.072
X30.094 Z-1.765
X30.116 Z-1.76
X30.139 Y40.161
X30.154 Y40.181
Y40.206
X30.139 Y40.226
X30.116 Y40.233
X30.088
X30.066 Z-1.765
X30.044 Z-1.77
X23.091
X23.069 Z-1.765
X23.047 Z-1.76
X23.021
X22.998 Y40.241
X22.983 Y40.261
Y40.286
X22.998 Y40.306
X23.021 Y40.313
X23.043 Z-1.765
X23.065 Z-1.77
X30.015
X30.037 Z-1.765
X30.059 Z-1.76
X30.083 Y40.321
X30.097 Y40.341
Y40.366
X30.083 Y40.386
X30.059 Y40.393
X30.031
X30.009 Z-1.765
X29.987 Z-1.77
X23.039
X23.017 Z-1.765
X22.995 Z-1.76
X22.97
X22.946 Y40.401
X22.932 Y40.421
Y40.446
X22.946 Y40.466
X22.97 Y40.473
X22.992 Z-1.765
X23.014 Z-1.77
X29.959
X29.981 Z-1.765
X30.003 Z-1.76
X30.027 Y40.481
X30.041 Y40.501
Y40.526
X30.027 Y40.546
X30.003 Y40.553
X29.975
X29.953 Z-1.765
X29.931 Z-1.77
X22.988
X22.966 Z-1.765
X22.944 Z-1.76
X22.919
X22.895 Y40.561
X22.881 Y40.581
Y40.606
X22.895 Y40.626
X22.919 Y40.633
X22.941 Z-1.765
X22.963 Z-1.77
X29.904
X29.926 Z-1.765
X29.948 Z-1.76
X29.971 Y40.641
X29.986 Y40.661
Y40.686
X29.971 Y40.706
X29.948 Y40.713
X29.92
X29.898 Z-1.765
X29.876 Z-1.77
X22.938
X22.916 Z-1.765
X22.894 Z-1.76
X22.869
X22.845 Y40.721
X22.831 Y40.741
Y40.766
X22.845 Y40.786
X22.869 Y40.793
X22.891 Z-1.765
X22.913 Z-1.77
X29.849
X29.871 Z-1.765
X29.893 Z-1.76
X29.917 Y40.801
X29.932 Y40.821
Y40.846
X29.917 Y40.866
X29.893 Y40.873
X29.867
X29.845 Z-1.765
X29.823 Z-1.77
X22.888
X22.866 Z-1.765
X22.844 Z-1.76
X22.819
X22.795 Y40.881
X22.781 Y40.901
Y40.926
X22.795 Y40.946
X22.819 Y40.953
X22.841 Z-1.765
X22.863 Z-1.77
X29.796
X29.818 Z-1.765
X29.84 Z-1.76
X29.863 Y40.961
X29.878 Y40.981
Y41.006
X29.863 Y41.026
X29.84 Y41.033
X29.813
X29.791 Z-1.765
X29.769 Z-1.77
X22.838
X22.816 Z-1.765
X22.794 Z-1.76
X22.77
X22.746 Y41.041
X22.732 Y41.061
Y41.086
X22.746 Y41.106
X22.77 Y41.113
X22.792 Z-1.765
X22.814 Z-1.77
X29.743
X29.765 Z-1.765
X29.787 Z-1.76
X29.811 Y41.121
X29.825 Y41.141
Y41.166
X29.811 Y41.186
X29.787 Y41.193
X29.761
X29.739 Z-1.765
X29.717 Z-1.77
X22.789
X22.767 Z-1.765
X22.745 Z-1.76
X22.721
X22.698 Y41.201
X22.683 Y41.221
Y41.246
X22.698 Y41.266
X22.721 Y41.273
X22.743 Z-1.765
X22.765 Z-1.77
X29.691
X29.713 Z-1.765
X29.735 Z-1.76
X29.759 Y41.281
X29.773 Y41.301
Y41.326
X29.759 Y41.346
X29.735 Y41.353
X29.71
X29.688 Z-1.765
X29.666 Z-1.77
X22.741
X22.719 Z-1.765
X22.697 Z-1.76
X22.673
X22.649 Y41.361
X22.635 Y41.381
Y41.406
X22.649 Y41.426
X22.673 Y41.433
X22.695 Z-1.765
X22.717 Z-1.77
X29.64
X29.662 Z-1.765
X29.684 Z-1.76
X29.707 Y41.441
X29.722 Y41.461
Y41.486
X29.707 Y41.506
X29.684 Y41.513
X29.659
X29.637 Z-1.765
X29.615 Z-1.77
X26.147
X26.065
X22.692
X22.67 Z-1.765
X22.648 Z-1.76
X22.625
X22.601 Y41.521
X22.587 Y41.541
Y41.566
X22.601 Y41.586
X22.625 Y41.593
X22.647 Z-1.765
X22.669 Z-1.77
X25.977
X26.179
X29.59
X29.612 Z-1.765
X29.634 Z-1.76
X29.657 Y41.601
X29.672 Y41.621
Y41.646
X29.657 Y41.666
X29.634 Y41.673
X29.609
X29.587 Z-1.765
X29.565 Z-1.77
X26.211
X25.89
X22.645
X22.623 Z-1.765
X22.601 Z-1.76
X22.578
X22.554 Y41.681
X22.54 Y41.701
Y41.726
X22.554 Y41.746
X22.578 Y41.753
X22.6 Z-1.765
X22.622 Z-1.77
X25.802
X26.242
X29.54
X29.562 Z-1.765
X29.584 Z-1.76
X29.607 Y41.761
X29.622 Y41.781
Y41.806
X29.607 Y41.826
X29.584 Y41.833
X29.559
X29.537 Z-1.765
X29.515 Z-1.77
X26.274
X25.715
X22.598
X22.576 Z-1.765
X22.554 Z-1.76
X22.53
X22.507 Y41.841
X22.492 Y41.861
Y41.886
X22.507 Y41.906
X22.53 Y41.913
X22.552 Z-1.765
X22.574 Z-1.77
X25.627
X26.306
X29.491
X29.513 Z-1.765
X29.535 Z-1.76
X29.559 Y41.921
X29.573 Y41.941
Y41.966
X29.559 Y41.986
X29.535 Y41.993
X29.511
X29.489 Z-1.765
X29.467 Z-1.77
X26.338
X25.539
X22.551
X22.529 Z-1.765
X22.507 Z-1.76
X22.484
X22.461 Y42.001
X22.446 Y42.021
Y42.046
X22.461 Y42.066
X22.484 Y42.073
X22.506 Z-1.765
X22.528 Z-1.77
X25.452
X26.369
X29.443
X29.465 Z-1.765
X29.487 Z-1.76
X29.51 Y42.081
X29.525 Y42.101
Y42.126
X29.51 Y42.146
X29.487 Y42.153
X29.463
X29.441 Z-1.765
X29.419 Z-1.77
X26.401
X26.379 Z-1.765
X26.357 Z-1.76
X26.333 Y42.161
X26.319 Y42.181
Y42.206
X26.333 Y42.226
X26.357 Y42.233
X26.389
X26.411 Z-1.765
X26.433 Z-1.77
X29.395
X29.417 Z-1.765
X29.439 Z-1.76
X29.463 Y42.241
X29.477 Y42.261
Y42.286
X29.463 Y42.306
X29.439 Y42.313
X29.416
X29.394 Z-1.765
X29.372 Z-1.77
X26.464
X26.442 Z-1.765
X26.42 Z-1.76
X26.397 Y42.321
X26.382 Y42.341
Y42.366
X26.397 Y42.386
X26.42 Y42.393
X26.452
X26.474 Z-1.765
X26.496 Z-1.77
X29.349
X29.371 Z-1.765
X29.393 Z-1.76
X29.416 Y42.401
X29.431 Y42.421
Y42.446
X29.416 Y42.465
X29.393 Y42.473
X29.369
X29.347 Z-1.765
X29.325 Z-1.77
X26.528
X26.506 Z-1.765
X26.484 Z-1.76
X26.46 Y42.481
X26.446 Y42.501
Y42.525
X26.46 Y42.545
X26.484 Y42.553
X26.516
X26.538 Z-1.765
X26.56 Z-1.77
X29.302
X29.324 Z-1.765
X29.347 Z-1.76
X29.37 Y42.561
X29.385 Y42.581
Y42.605
X29.37 Y42.625
X29.347 Y42.633
X29.324
X29.302 Z-1.765
X29.28 Z-1.77
X26.591
X26.569 Z-1.765
X26.547 Z-1.76
X26.524 Y42.641
X26.509 Y42.661
Y42.685
X26.524 Y42.705
X26.547 Y42.713
X26.579
X26.601 Z-1.765
X26.623 Z-1.77
X29.257
X29.279 Z-1.765
X29.301 Z-1.76
X29.325 Y42.721
X29.339 Y42.741
Y42.765
X29.325 Y42.785
X29.301 Y42.793
X29.279
X29.257 Z-1.765
X29.235 Z-1.77
X26.655
X26.633 Z-1.765
X26.611 Z-1.76
X26.587 Y42.801
X26.573 Y42.821
Y42.845
X26.587 Y42.865
X26.611 Y42.873
X26.642
X26.664 Z-1.765
X26.686 Z-1.77
X29.213
X29.235 Z-1.765
X29.257 Z-1.76
X29.28 Y42.881
X29.295 Y42.901
Y42.925
X29.28 Y42.945
X29.257 Y42.953
X29.235
X29.213 Z-1.765
X29.191 Z-1.77
X26.718
X26.696 Z-1.765
X26.674 Z-1.76
X26.651 Y42.961
X26.636 Y42.981
Y43.005
X26.651 Y43.025
X26.674 Y43.033
X26.706
X26.728 Z-1.765
X26.75 Z-1.77
X29.169
X29.191 Z-1.765
X29.213 Z-1.76
X29.236 Y43.041
X29.251 Y43.061
Y43.085
X29.236 Y43.105
X29.213 Y43.113
X29.191
X29.169 Z-1.765
X29.147 Z-1.77
X26.782
X26.76 Z-1.765
X26.738 Z-1.76
X26.714 Y43.121
X26.7 Y43.141
Y43.165
X26.714 Y43.185
X26.738 Y43.193
X26.769
X26.791 Z-1.765
X26.813 Z-1.77
X29.125
X29.147 Z-1.765
X29.169 Z-1.76
X29.193 Y43.201
X29.207 Y43.221
Y43.245
X29.193 Y43.265
X29.169 Y43.273
X29.148
X29.126 Z-1.765
X29.104 Z-1.77
X26.845
X26.823 Z-1.765
X26.801 Z-1.76
X26.778 Y43.281
X26.763 Y43.301
Y43.325
X26.778 Y43.345
X26.801 Y43.353
X26.833
X26.855 Z-1.765
X26.877 Z-1.77
X29.083
X29.105 Z-1.765
X29.127 Z-1.76
X29.15 Y43.361
X29.165 Y43.381
Y43.405
X29.15 Y43.425
X29.127 Y43.433
X29.106
X29.084 Z-1.765
X29.062 Z-1.77
X26.908
X26.886 Z-1.765
X26.864 Z-1.76
X26.841 Y43.441
X26.826 Y43.461
Y43.485
X26.841 Y43.505
X26.864 Y43.513
X26.896
X26.918 Z-1.765
X26.94 Z-1.77
X29.041
X29.063 Z-1.765
X29.085 Z-1.76
X29.108 Y43.521
X29.123 Y43.541
Y43.565
X29.108 Y43.585
X29.085 Y43.593
X29.064
X29.042 Z-1.765
X29.02 Z-1.77
X26.972
X26.95 Z-1.765
X26.928 Z-1.76
X26.904 Y43.601
X26.89 Y43.621
Y43.645
X26.904 Y43.665
X26.928 Y43.673
X26.96
X26.982 Z-1.765
X27.004 Z-1.77
X28.999
X29.021 Z-1.765
X29.043 Z-1.76
X29.067 Y43.681
X29.082 Y43.701
Y43.725
X29.067 Y43.745
X29.043 Y43.753
X29.023
X29.001 Z-1.765
X28.979 Z-1.77
X27.035
X27.013 Z-1.765
X26.991 Z-1.76
X26.968 Y43.761
X26.953 Y43.781
Y43.805
X26.968 Y43.825
X26.991 Y43.833
X27.023
X27.045 Z-1.765
X27.067 Z-1.77
X28.959
X28.981 Z-1.765
X29.003 Z-1.76
X29.026 Y43.841
X29.041 Y43.861
Y43.885
X29.026 Y43.905
X29.003 Y43.913
X28.983
X28.961 Z-1.765
X28.939 Z-1.77
X27.099
X27.077 Z-1.765
X27.055 Z-1.76
X27.031 Y43.921
X27.017 Y43.941
Y43.965
X27.031 Y43.985
X27.055 Y43.993
X27.086
X27.108 Z-1.765
X27.13 Z-1.77
X28.919
X28.941 Z-1.765
X28.963 Z-1.76
X28.986 Y44.001
X29.001 Y44.021
Y44.045
X28.986 Y44.065
X28.963 Y44.073
X28.943
X28.921 Z-1.765
X28.899 Z-1.77
X27.162
X27.14 Z-1.765
X27.118 Z-1.76
X27.095 Y44.081
X27.08 Y44.101
Y44.125
X27.095 Y44.145
X27.118 Y44.153
X27.15
X27.172 Z-1.765
X27.194 Z-1.77
X28.88
X28.902 Z-1.765
X28.924 Z-1.76
X28.947 Y44.161
X28.962 Y44.181
Y44.205
X28.947 Y44.225
X28.924 Y44.233
X28.904
X28.882 Z-1.765
X28.86 Z-1.77
X27.226
X27.204 Z-1.765
X27.182 Z-1.76
X27.158 Y44.241
X27.144 Y44.261
Y44.285
X27.158 Y44.305
X27.182 Y44.313
X27.213
X27.235 Z-1.765
X27.257 Z-1.77
X28.841
X28.863 Z-1.765
X28.885 Z-1.76
X28.909 Y44.321
X28.923 Y44.341
Y44.365
X28.909 Y44.385
X28.885 Y44.393
X28.866
X28.844 Z-1.765
X28.822 Z-1.77
X27.289
X27.267 Z-1.765
X27.245 Z-1.76
X27.222 Y44.401
X27.207 Y44.421
Y44.445
X27.222 Y44.465
X27.245 Y44.473
X27.277
X27.299 Z-1.765
X27.321 Z-1.77
X28.803
X28.825 Z-1.765
X28.847 Z-1.76
X28.871 Y44.481
X28.885 Y44.501
Y44.525
X28.871 Y44.545
X28.847 Y44.553
X28.829
X28.807 Z-1.765
X28.785 Z-1.77
X27.353
X27.33 Z-1.765
X27.308 Z-1.76
X27.285 Y44.561
X27.27 Y44.581
Y44.605
X27.285 Y44.625
X27.308 Y44.633
X27.34
X27.362 Z-1.765
X27.384 Z-1.77
X28.766
X28.788 Z-1.765
X28.81 Z-1.76
X28.834 Y44.641
X28.848 Y44.661
Y44.685
X28.834 Y44.705
X28.81 Y44.713
X28.792
X28.77 Z-1.765
X28.748 Z-1.77
X27.416
X27.394 Z-1.765
X27.372 Z-1.76
X27.348 Y44.721
X27.334 Y44.741
Y44.765
X27.348 Y44.785
X27.372 Y44.793
X27.404
X27.426 Z-1.765
X27.448 Z-1.77
X28.73
X28.752 Z-1.765
X28.774 Z-1.76
X28.797 Y44.801
X28.812 Y44.821
Y44.845
X28.797 Y44.865
X28.774 Y44.873
X28.756
X28.734 Z-1.765
X28.712 Z-1.77
X27.479
X27.457 Z-1.765
X27.435 Z-1.76
X27.412 Y44.881
X27.397 Y44.901
Y44.925
X27.412 Y44.945
X27.435 Y44.953
X27.467
X27.489 Z-1.765
X27.511 Z-1.77
X28.694
X28.716 Z-1.765
X28.738 Z-1.76
X28.762 Y44.961
X28.776 Y44.981
Y45.005
X28.762 Y45.025
X28.738 Y45.033
X28.721
X28.699 Z-1.765
X28.677 Z-1.77
X27.543
X27.521 Z-1.765
X27.499 Z-1.76
X27.475 Y45.041
X27.461 Y45.061
Y45.085
X27.475 Y45.105
X27.499 Y45.113
X27.531
X27.553 Z-1.765
X27.575 Z-1.77
X28.659
X28.681 Z-1.765
X28.703 Z-1.76
X28.727 Y45.121
X28.741 Y45.141
Y45.165
X28.727 Y45.185
X28.703 Y45.193
X28.686
X28.664 Z-1.765
X28.642 Z-1.77
X27.606
X27.584 Z-1.765
X27.562 Z-1.76
X27.539 Y45.201
X27.524 Y45.221
Y45.245
X27.539 Y45.265
X27.562 Y45.273
X27.594
X27.616 Z-1.765
X27.638 Z-1.77
X28.625
X28.647 Z-1.765
X28.669 Z-1.76
X28.693 Y45.281
X28.707 Y45.301
Y45.325
X28.693 Y45.345
X28.669 Y45.353
X28.653
X28.631 Z-1.765
X28.609 Z-1.77
X27.67
X27.648 Z-1.765
X27.626 Z-1.76
X27.602 Y45.361
X27.588 Y45.381
Y45.405
X27.602 Y45.425
X27.626 Y45.433
X27.657
X27.679 Z-1.765
X27.701 Z-1.77
X28.592
X28.614 Z-1.765
X28.636 Z-1.76
X28.66 Y45.441
X28.674 Y45.461
Y45.485
X28.66 Y45.505
X28.636 Y45.513
X28.62
X28.598 Z-1.765
X28.576 Z-1.77
X27.733
X27.711 Z-1.765
X27.689 Z-1.76
X27.666 Y45.521
X27.651 Y45.541
Y45.565
X27.666 Y45.585
X27.689 Y45.593
X27.721
X27.743 Z-1.765
X27.765 Z-1.77
X28.561
X28.583 Z-1.765
X28.605 Z-1.76
X28.628 Y45.601
X28.643 Y45.621
Y45.645
X28.628 Y45.665
X28.605 Y45.673
X28.589
X28.567 Z-1.765
X28.545 Z-1.77
X27.797
X27.775 Z-1.765
X27.753 Z-1.76
X27.729 Y45.681
X27.714 Y45.701
Y45.725
X27.729 Y45.745
X27.753 Y45.753
X27.784
X27.806 Z-1.765
X27.828 Z-1.77
X28.53
X28.552 Z-1.765
X28.574 Z-1.76
X28.598 Y45.761
X28.612 Y45.781
Y45.805
X28.598 Y45.825
X28.574 Y45.833
X28.56
X28.538 Z-1.765
X28.516 Z-1.77
X27.86
X27.838 Z-1.765
X27.816 Z-1.76
X27.792 Y45.841
X27.778 Y45.861
Y45.885
X27.792 Y45.905
X27.816 Y45.913
X27.847
X27.869 Z-1.765
X27.891 Z-1.77
X28.501
X28.523 Z-1.765
X28.545 Z-1.76
X28.569 Y45.921
X28.583 Y45.941
Y45.965
X28.569 Y45.985
X28.545 Y45.993
X28.531
X28.509 Z-1.765
X28.487 Z-1.77
X27.923
X27.901 Z-1.765
X27.879 Z-1.76
X27.856 Y46.001
X27.841 Y46.021
Y46.045
X27.856 Y46.065
X27.879 Y46.073
X27.911
X27.933 Z-1.765
X27.955 Z-1.77
X28.472
X28.494 Z-1.765
X28.516 Z-1.76
X28.54 Y46.081
X28.554 Y46.101
Y46.125
X28.54 Y46.145
X28.516 Y46.153
X28.501
X28.479 Z-1.765
X28.457 Z-1.77
X27.986
X27.964 Z-1.765
X27.942 Z-1.76
X27.919 Y46.161
X27.904 Y46.181
Y46.205
X27.919 Y46.225
X27.942 Y46.233
X27.974
X27.996 Z-1.765
X28.018 Z-1.77
X28.443
X28.465 Z-1.765
X28.487 Z-1.76
X28.51 Y46.241
X28.525 Y46.261
Y46.285
X28.51 Y46.305
X28.487 Y46.313
X28.472
X28.45 Z-1.765
X28.428 Z-1.77
X28.05
X28.028 Z-1.765
X28.006 Z-1.76
X27.982 Y46.321
X27.967 Y46.341
Y46.365
X27.982 Y46.385
X28.006 Y46.393
X28.037
X28.059 Z-1.765
X28.081 Z-1.77
X28.414
X28.436 Z-1.765
X28.458 Z-1.76
X28.481 Y46.401
X28.496 Y46.421
Y46.445
X28.481 Y46.465
X28.458 Y46.473
X28.443
X28.421 Z-1.765
X28.399 Z-1.77
X28.113
X28.091 Z-1.765
X28.069 Z-1.76
X28.045 Y46.481
X28.031 Y46.501
Y46.525
X28.045 Y46.545
X28.069 Y46.553
X28.1
X28.122 Z-1.765
X28.144 Z-1.77
X28.385
X28.407 Z-1.765
X28.429 Z-1.76
X28.452 Y46.561
X28.467 Y46.581
Y46.605
X28.452 Y46.625
X28.429 Y46.633
X28.414
X28.392 Z-1.765
X28.37 Z-1.77
X28.176
X28.154 Z-1.765
X28.132 Z-1.76
X28.108 Y46.641
X28.094 Y46.661
Y46.685
X28.108 Y46.705
X28.132 Y46.713
X28.164
X28.186 Z-1.765
X28.208 Z-1.77
X28.356
X28.378 Z-1.765
X28.4 Z-1.76
X28.423 Y46.721
X28.438 Y46.741
Y46.765
X28.423 Y46.785
X28.4 Y46.793
X28.385
X28.363 Z-1.765
X28.341 Z-1.77
X28.239
X28.217 Z-1.765
X28.195 Z-1.76
X28.172 Y46.801
X28.157 Y46.821
Y46.845
X28.172 Y46.865
X28.195 Y46.873
X28.227
X28.249 Z-1.765
X28.271 Z-1.77
X28.326
X28.373 Y46.866
X28.415 Y46.844
X28.448 Y46.811
X28.469 Y46.769
X28.476 Y46.723
Y42.303
X28.469 Y42.257
X28.448 Y42.215
X28.415 Y42.182
X28.373 Y42.16
X28.326 Y42.153
X25.364
X22.505
X22.483 Z-1.765
X22.461 Z-1.76
X22.438
X22.415 Y42.161
X22.4 Y42.181
Y42.206
X22.415 Y42.226
X22.438 Y42.233
X22.46 Z-1.765
X22.482 Z-1.77
X25.276
X25.298 Z-1.765
X25.32 Z-1.76
X25.344 Y42.241
X25.358 Y42.261
Y42.286
X25.344 Y42.306
X25.32 Y42.313
X25.233
X25.211 Z-1.765
X25.189 Z-1.77
X22.459
X22.437 Z-1.765
X22.415 Z-1.76
X22.392
X22.369 Y42.321
X22.354 Y42.341
Y42.366
X22.369 Y42.386
X22.392 Y42.393
X22.414 Z-1.765
X22.436 Z-1.77
X25.101
X25.123 Z-1.765
X25.145 Z-1.76
X25.169 Y42.401
X25.183 Y42.421
Y42.446
X25.169 Y42.465
X25.145 Y42.473
X25.058
X25.036 Z-1.765
X25.014 Z-1.77
X22.414
X22.392 Z-1.765
X22.37 Z-1.76
X22.347
X22.324 Y42.481
X22.309 Y42.501
Y42.525
X22.324 Y42.545
X22.347 Y42.553
X22.369 Z-1.765
X22.391 Z-1.77
X24.926
X24.948 Z-1.765
X24.97 Z-1.76
X24.994 Y42.561
X25.008 Y42.581
Y42.605
X24.994 Y42.625
X24.97 Y42.633
X24.882
X24.86 Z-1.765
X24.838 Z-1.77
X22.369
X22.347 Z-1.765
X22.325 Z-1.76
X22.303
X22.279 Y42.641
X22.265 Y42.661
Y42.685
X22.279 Y42.705
X22.303 Y42.713
X22.325 Z-1.765
X22.347 Z-1.77
X24.751
X24.773 Z-1.765
X24.795 Z-1.76
X24.818 Y42.721
X24.833 Y42.741
Y42.765
X24.818 Y42.785
X24.795 Y42.793
X24.707
X24.685 Z-1.765
X24.663 Z-1.77
X22.324
X22.302 Z-1.765
X22.28 Z-1.76
X22.259
X22.235 Y42.801
X22.221 Y42.821
Y42.845
X22.235 Y42.865
X22.259 Y42.873
X22.281 Z-1.765
X22.303 Z-1.77
X24.576
X24.598 Z-1.765
X24.62 Z-1.76
X24.643 Y42.881
X24.658 Y42.901
Y42.925
X24.643 Y42.945
X24.62 Y42.953
X24.532
X24.51 Z-1.765
X24.488 Z-1.77
X22.281
X22.259 Z-1.765
X22.237 Z-1.76
X22.215
X22.191 Y42.961
X22.177 Y42.981
Y43.005
X22.191 Y43.025
X22.215 Y43.033
X22.237 Z-1.765
X22.259 Z-1.77
X24.4
X24.422 Z-1.765
X24.444 Z-1.76
X24.468 Y43.041
X24.482 Y43.061
Y43.085
X24.468 Y43.105
X24.444 Y43.113
X24.357
X24.335 Z-1.765
X24.313 Z-1.77
X22.237
X22.215 Z-1.765
X22.193 Z-1.76
X22.172
X22.148 Y43.121
X22.134 Y43.141
Y43.165
X22.148 Y43.185
X22.172 Y43.193
X22.194 Z-1.765
X22.216 Z-1.77
X24.225
X24.247 Z-1.765
X24.269 Z-1.76
X24.293 Y43.201
X24.307 Y43.221
Y43.245
X24.293 Y43.265
X24.269 Y43.273
X24.182
X24.16 Z-1.765
X24.138 Z-1.77
X22.194
X22.172 Z-1.765
X22.15 Z-1.76
X22.129
X22.106 Y43.281
X22.091 Y43.301
Y43.325
X22.106 Y43.345
X22.129 Y43.353
X22.151 Z-1.765
X22.173 Z-1.77
X24.05
X24.072 Z-1.765
X24.094 Z-1.76
X24.118 Y43.361
X24.132 Y43.381
Y43.405
X24.118 Y43.425
X24.094 Y43.433
X24.006
X23.984 Z-1.765
X23.962 Z-1.77
X22.152
X22.13 Z-1.765
X22.108 Z-1.76
X22.087
X22.063 Y43.441
X22.049 Y43.461
Y43.485
X22.063 Y43.505
X22.087 Y43.513
X22.109 Z-1.765
X22.131 Z-1.77
X23.875
X23.897 Z-1.765
X23.919 Z-1.76
X23.942 Y43.521
X23.957 Y43.541
Y43.565
X23.942 Y43.585
X23.919 Y43.593
X23.831
X23.809 Z-1.765
X23.787 Z-1.77
X22.11
X22.088 Z-1.765
X22.066 Z-1.76
X22.045
X22.022 Y43.601
X22.007 Y43.621
Y43.645
X22.022 Y43.665
X22.045 Y43.673
X22.067 Z-1.765
X22.089 Z-1.77
X23.7
X23.722 Z-1.765
X23.744 Z-1.76
X23.767 Y43.681
X23.782 Y43.701
Y43.725
X23.767 Y43.745
X23.744 Y43.753
X23.656
X23.634 Z-1.765
X23.612 Z-1.77
X22.069
X22.047 Z-1.765
X22.025 Z-1.76
X22.004
X21.981 Y43.761
X21.966 Y43.781
Y43.805
X21.981 Y43.825
X22.004 Y43.833
X22.026 Z-1.765
X22.048 Z-1.77
X23.524
X23.546 Z-1.765
X23.568 Z-1.76
X23.592 Y43.841
X23.606 Y43.861
Y43.885
X23.592 Y43.905
X23.568 Y43.913
X23.481
X23.459 Z-1.765
X23.437 Z-1.77
X22.028
X22.006 Z-1.765
X21.984 Z-1.76
X21.964
X21.94 Y43.921
X21.926 Y43.941
Y43.965
X21.94 Y43.985
X21.964 Y43.993
X21.986 Z-1.765
X22.008 Z-1.77
X23.349
X23.371 Z-1.765
X23.393 Z-1.76
X23.417 Y44.001
X23.431 Y44.021
Y44.045
X23.417 Y44.065
X23.393 Y44.073
X23.306
X23.284 Z-1.765
X23.262 Z-1.77
X21.988
X21.966 Z-1.765
X21.944 Z-1.76
X21.924
X21.9 Y44.081
X21.886 Y44.101
Y44.125
X21.9 Y44.145
X21.924 Y44.153
X21.946 Z-1.765
X21.968 Z-1.77
X23.174
X23.196 Z-1.765
X23.218 Z-1.76
X23.242 Y44.161
X23.256 Y44.181
Y44.205
X23.242 Y44.225
X23.218 Y44.233
X23.13
X23.108 Z-1.765
X23.086 Z-1.77
X21.948
X21.926 Z-1.765
X21.904 Z-1.76
X21.885
X21.862 Y44.241
X21.847 Y44.261
Y44.285
X21.862 Y44.305
X21.885 Y44.313
X21.907 Z-1.765
X21.929 Z-1.77
X22.999
X23.021 Z-1.765
X23.043 Z-1.76
X23.066 Y44.321
X23.081 Y44.341
Y44.365
X23.066 Y44.385
X23.043 Y44.393
X22.955
X22.933 Z-1.765
X22.911 Z-1.77
X21.91
X21.888 Z-1.765
X21.866 Z-1.76
X21.848
X21.824 Y44.401
X21.809 Y44.421
Y44.445
X21.824 Y44.465
X21.848 Y44.473
X21.87 Z-1.765
X21.892 Z-1.77
X22.824
X22.846 Z-1.765
X22.868 Z-1.76
X22.891 Y44.481
X22.906 Y44.501
Y44.525
X22.891 Y44.545
X22.868 Y44.553
X22.78
X22.758 Z-1.765
X22.736 Z-1.77
X21.873
X21.851 Z-1.765
X21.829 Z-1.76
X21.81
X21.787 Y44.561
X21.772 Y44.581
Y44.605
X21.787 Y44.625
X21.81 Y44.633
X21.832 Z-1.765
X21.854 Z-1.77
X22.649
X22.671 Z-1.765
X22.693 Z-1.76
X22.716 Y44.641
X22.731 Y44.661
Y44.685
X22.716 Y44.705
X22.693 Y44.713
X22.605
X22.583 Z-1.765
X22.561 Z-1.77
X21.836
X21.814 Z-1.765
X21.792 Z-1.76
X21.773
X21.749 Y44.721
X21.735 Y44.741
Y44.765
X21.749 Y44.785
X21.773 Y44.793
X21.795 Z-1.765
X21.817 Z-1.77
X22.473
X22.495 Z-1.765
X22.517 Z-1.76
X22.541 Y44.801
X22.555 Y44.821
Y44.845
X22.541 Y44.865
X22.517 Y44.873
X22.43
X22.408 Z-1.765
X22.386 Z-1.77
X21.798
X21.776 Z-1.765
X21.754 Z-1.76
X21.736
X21.712 Y44.881
X21.698 Y44.901
Y44.925
X21.712 Y44.945
X21.736 Y44.953
X21.758 Z-1.765
X21.78 Z-1.77
X22.298
X22.32 Z-1.765
X22.342 Z-1.76
X22.366 Y44.961
X22.38 Y44.981
Y45.005
X22.366 Y45.025
X22.342 Y45.033
X22.255
X22.233 Z-1.765
X22.211 Z-1.77
X21.761
X21.739 Z-1.765
X21.717 Z-1.76
X21.698
X21.675 Y45.041
X21.66 Y45.061
Y45.085
X21.675 Y45.105
X21.698 Y45.113
X21.72 Z-1.765
X21.742 Z-1.77
X22.123
X22.145 Z-1.765
X22.167 Z-1.76
X22.19 Y45.121
X22.205 Y45.141
Y45.165
X22.19 Y45.185
X22.167 Y45.193
X22.079
X22.057 Z-1.765
X22.035 Z-1.77
X21.724
X21.702 Z-1.765
X21.68 Z-1.76
X21.661
X21.638 Y45.201
X21.623 Y45.221
Y45.245
X21.638 Y45.265
X21.661 Y45.273
X21.683 Z-1.765
X21.705 Z-1.77
X21.948
X21.97 Z-1.765
X21.992 Z-1.76
X22.015 Y45.281
X22.03 Y45.301
Y45.325
X22.015 Y45.345
X21.992 Y45.353
X21.904
X21.882 Z-1.765
X21.86 Z-1.77
X21.686
X21.664 Z-1.765
X21.642 Z-1.76
X21.624
X21.6 Y45.361
X21.586 Y45.381
Y45.405
X21.6 Y45.425
X21.624 Y45.433
X21.646 Z-1.765
X21.668 Z-1.77
X21.773
G2 X22.273 Z-1.27 I0. K0.5
G0 Z15.
G17

G53 G0 Z0.
M30
