(1001)
(T1  D=1. CR=0. - ZMIN=-2.928 - FLAT END MILL)
G0 G90 G94 G17
G21
G53 G0 Z0.

(1MM  FLATEND  PARALLEL)
M5
M9
T1
S16000 M3
G4 P4.
G55
G0 X51.137 Y21.893
Z15.
Z1.799
G1 Z-1.51 F200.
X51.136 Z-1.52
X50.884
Z-1.51
X50.818 Y21.919
X50.618 Y21.993
Z-1.52
X50.738
X50.739 Z-1.02
X51.227
X51.229 Z-1.52
X51.4
X51.403 Z-1.51
X51.53 Y22.042
X51.656 Y22.093
X51.654 Z-1.52
X51.496
X51.495 Z-1.02
X50.471
Z-1.52
X50.366
Z-1.51
X50.249 Y22.143
X50.132 Y22.193
Z-1.52
X50.227
Z-1.02
X51.739
X51.74 Z-1.52
X51.886
X51.889 Z-1.51
X52.003 Y22.243
X52.116 Y22.293
Z-1.52
X51.972
Z-1.02
X49.994
Z-1.52
X49.906
Z-1.51
X49.797 Y22.343
X49.688 Y22.393
Z-1.52
X49.769
X49.77 Z-1.02
X52.197
X52.198 Z-1.52
X52.333
Z-1.51
X52.442 Y22.443
X52.55 Y22.493
Z-1.52
X52.417
X52.416 Z-1.02
X49.553
X49.547 Z-1.52
X49.471
Z-1.51
X49.365 Y22.542
X49.26 Y22.593
Z-1.52
X49.335
X49.338 Z-1.02
X52.63
Z-1.52
X52.76
X52.762 Z-1.51
X52.864 Y22.643
X52.966 Y22.693
Z-1.52
X52.839
Z-1.02
X51.298
Z-1.01
X51.219 Y22.663
X51.14 Y22.633
X51.061 Y22.613
X50.982 Y22.607
X50.903 Y22.613
X50.824 Y22.633
X50.746 Y22.662
X50.667 Y22.693
Z-1.02
X49.128
Z-1.52
X49.056
Z-1.51
X48.954 Y22.743
X48.852 Y22.793
Z-1.52
X48.92
X48.925 Z-1.02
X50.424
Z-1.01
X50.308 Y22.843
X50.192 Y22.893
Z-1.02
X48.722
X48.719 Z-1.52
X48.652
Z-1.51
X48.459 Y22.993
Z-1.52
X48.524
Z-1.02
X49.968
Z-1.01
X49.859 Y23.043
X49.75 Y23.093
Z-1.02
X48.332
X48.328 Z-1.52
X48.266
Z-1.51
X48.168 Y23.144
X48.069 Y23.193
Z-1.52
X48.134
X48.139 Z-1.02
X49.537
Z-1.01
X49.433 Y23.243
X49.329 Y23.293
Z-1.02
X47.95
X47.948 Z-1.52
X47.845
Z-1.51
X47.751 Y23.321
X47.466 Y23.393
Z-1.52
X47.761
X47.764 Z-1.02
X49.125
Z-1.01
X49.025 Y23.443
X48.925 Y23.493
Z-1.02
X47.583
X47.577 Z-1.52
X47.069
Z-1.51
X46.673 Y23.593
Z-1.52
X47.4
Z-1.02
X48.728
Z-1.01
X48.631 Y23.643
X48.534 Y23.693
Z-1.02
X47.224
X47.223 Z-1.52
X46.308
Z-1.51
X46.042 Y23.767
X45.954 Y23.793
Z-1.52
X47.042
X47.047 Z-1.02
X48.344
Z-1.01
X48.25 Y23.843
X48.156 Y23.893
Z-1.02
X46.872
X46.871 Z-1.52
X45.617
Z-1.51
X45.535 Y23.918
X45.453 Y23.942
X45.372 Y23.968
X45.29 Y23.993
Z-1.52
X46.699
X46.7 Z-1.02
X47.971
X47.972 Z-1.01
X47.88 Y24.043
X47.789 Y24.093
X47.788 Z-1.02
X46.532
X46.53 Z-1.52
X44.974
Z-1.51
X44.897 Y24.117
X44.821 Y24.143
X44.745 Y24.168
X44.669 Y24.193
Z-1.52
X46.363
X46.364 Z-1.02
X47.61
Z-1.01
X47.521 Y24.243
X47.432 Y24.293
Z-1.02
X46.198
Z-1.52
X44.371
Z-1.51
G0 Z5.
X44.088 Y24.393
Z1.119
G1 Z-2.928 F200.
X44.105
Z-1.52
X46.035
Z-1.02
X47.256
X47.257 Z-1.01
X47.085 Y24.493
X47.083 Z-1.02
X45.871
Z-1.52
X43.957
Z-2.928
X43.939
X43.914 Z-2.922
X43.896 Z-2.903
X43.889 Z-2.878
X43.884 Y24.497 Z-2.845
X43.868 Y24.508 Z-2.816
X43.844 Y24.524 Z-2.797
X43.816 Y24.543 Z-2.79
X43.788 Y24.562 Z-2.797
X43.765 Y24.579 Z-2.816
X43.749 Y24.589 Z-2.845
X43.743 Y24.593 Z-2.878
X43.75 Z-2.903
X43.768 Z-2.922
X43.793 Z-2.928
X43.81
Z-1.52
X45.711
X45.712 Z-1.02
X46.913
Z-1.01
X46.829 Y24.643
X46.745 Y24.693
Z-1.02
X45.555
X45.553 Z-1.52
X43.666
X43.665 Z-2.928
X43.649
X43.626 Z-2.923
X43.604 Z-2.918
X43.46
X43.435 Y24.7
X43.417 Y24.718
X43.41 Y24.743
X43.417 Y24.768
X43.435 Y24.787
X43.46 Y24.793
X43.482 Z-2.923
X43.504 Z-2.928
X43.521
X43.522 Z-1.52
X45.395
X45.396 Z-1.02
X46.575
X46.577 Z-1.01
X46.495 Y24.843
X46.413 Y24.893
Z-1.02
X45.241
X45.237 Z-1.52
X43.378
Z-2.928
X43.362
X43.34 Z-2.923
X43.318 Z-2.918
X43.177
X43.152 Y24.9
X43.134 Y24.918
X43.127 Y24.943
X43.134 Y24.968
X43.152 Y24.987
X43.177 Y24.993
X43.199 Z-2.923
X43.221 Z-2.928
X43.238
Z-1.52
X45.085
X45.088 Z-1.02
X46.25
Z-1.01
X46.169 Y25.043
X46.089 Y25.093
X46.088 Z-1.02
X44.937
X44.932 Z-1.52
X43.098
X43.097 Z-2.928
X43.081
X43.059 Z-2.923
X43.037 Z-2.918
X42.897
X42.872 Y25.1
X42.854 Y25.118
X42.847 Y25.143
X42.854 Y25.168
X42.872 Y25.187
X42.897 Y25.193
X42.919 Z-2.923
X42.941 Z-2.928
X42.958
Z-1.52
X44.781
X44.785 Z-1.02
X45.93
Z-1.01
X45.851 Y25.243
X45.772 Y25.293
Z-1.02
X44.636
X44.63 Z-1.52
X42.822
X42.821 Z-2.928
X42.806
X42.784 Z-2.923
X42.762 Z-2.918
X42.625
X42.6 Y25.3
X42.581 Y25.318
X42.575 Y25.343
X42.581 Y25.368
X42.6 Y25.387
X42.625 Y25.393
X42.647 Z-2.923
X42.669 Z-2.928
X42.684
X42.686 Z-1.52
X44.488
X44.49 Z-1.02
X45.616
Z-1.01
X45.539 Y25.443
X45.462 Y25.493
Z-1.02
X44.343
X44.341 Z-1.52
X42.549
Z-2.928
X42.533
X42.511 Z-2.923
X42.489 Z-2.918
X42.356
X42.331 Y25.5
X42.312 Y25.518
X42.306 Y25.543
X42.312 Y25.568
X42.331 Y25.587
X42.356 Y25.593
X42.378 Z-2.923
X42.4 Z-2.928
X42.416
Z-1.52
X44.193
X44.197 Z-1.02
X45.309
Z-1.01
X45.234 Y25.643
X45.158 Y25.693
Z-1.02
X44.054
X44.051 Z-1.52
X42.284
X42.282 Z-2.928
X42.268
X42.246 Z-2.923
X42.224 Z-2.918
X42.091
X42.066 Y25.7
X42.048 Y25.718
X42.041 Y25.743
X42.048 Y25.768
X42.066 Y25.787
X42.091 Y25.793
X42.113 Z-2.923
X42.135 Z-2.928
X42.15
X42.152 Z-1.52
X43.913
Z-1.02
X45.009
Z-1.01
X44.935 Y25.843
X44.861 Y25.893
Z-1.02
X43.772
Z-1.52
X42.021
X42.02 Z-2.928
X42.005
X41.983 Z-2.923
X41.961 Z-2.918
X41.832
X41.807 Y25.9
X41.789 Y25.918
X41.782 Y25.943
X41.789 Y25.968
X41.807 Y25.987
X41.832 Y25.993
X41.854 Z-2.923
X41.876 Z-2.928
X41.891
X41.892 Z-1.52
X43.631
Z-1.02
X44.714
X44.715 Z-1.01
X44.642 Y26.043
X44.569 Y26.093
Z-1.02
X43.495
X43.494 Z-1.52
X41.764
X41.763 Z-2.928
X41.748
X41.726 Z-2.923
X41.704 Z-2.918
X41.576
X41.551 Y26.1
X41.532 Y26.118
X41.526 Y26.143
X41.532 Y26.168
X41.551 Y26.187
X41.576 Y26.193
X41.598 Z-2.923
X41.62 Z-2.928
X41.632
X41.635 Z-1.52
X43.358
Z-1.02
X44.425
X44.426 Z-1.01
X44.355 Y26.243
X44.284 Y26.293
Z-1.02
X43.221
Z-1.52
X41.51
X41.509 Z-2.928
X41.494
X41.472 Z-2.923
X41.45 Z-2.918
X41.326
X41.301 Y26.3
X41.282 Y26.318
X41.276 Y26.343
X41.282 Y26.368
X41.301 Y26.387
X41.326 Y26.393
X41.348 Z-2.923
X41.37 Z-2.928
X41.384
X41.385 Z-1.52
X43.086
X43.087 Z-1.02
X44.141
X44.142 Z-1.01
X44.072 Y26.443
X44.003 Y26.493
Z-1.02
X42.954
X42.953 Z-1.52
X41.26
X41.259 Z-2.928
X41.245
X41.223 Z-2.923
X41.201 Z-2.918
X41.078
X41.053 Y26.5
X41.035 Y26.518
X41.028 Y26.543
X41.035 Y26.568
X41.053 Y26.587
X41.078 Y26.593
X41.1 Z-2.923
X41.122 Z-2.928
X41.136
X41.137 Z-1.52
X42.818
X42.823 Z-1.02
X43.865
Z-1.01
X43.797 Y26.643
X43.728 Y26.693
Z-1.02
X42.69
Z-1.52
X41.016
X41.015 Z-2.928
X41.001
X40.979 Z-2.923
X40.957 Z-2.918
X40.835
X40.81 Y26.7
X40.792 Y26.718
X40.785 Y26.743
X40.792 Y26.768
X40.81 Y26.787
X40.835 Y26.793
X40.857 Z-2.923
X40.879 Z-2.928
X40.894
X40.895 Z-1.52
X42.56
X42.561 Z-1.02
X43.591
Z-1.01
X43.524 Y26.843
X43.458 Y26.893
Z-1.02
X42.433
X42.432 Z-1.52
X40.773
Z-2.928
X40.758
X40.736 Z-2.923
X40.714 Z-2.918
X40.595
X40.57 Y26.9
X40.552 Y26.918
X40.545 Y26.943
X40.552 Y26.968
X40.57 Y26.987
X40.595 Y26.993
X40.617 Z-2.923
X40.639 Z-2.928
X40.654
Z-1.52
X42.303
X42.306 Z-1.02
X43.325
Z-1.01
X43.259 Y27.043
X43.192 Y27.093
Z-1.02
X42.179
X42.173 Z-1.52
X40.537
X40.536 Z-2.928
X40.522
X40.5 Z-2.923
X40.478 Z-2.918
X40.361
X40.336 Y27.1
X40.317 Y27.118
X40.311 Y27.143
X40.317 Y27.168
X40.336 Y27.187
X40.361 Y27.193
X40.383 Z-2.923
X40.405 Z-2.928
X40.418
X40.419 Z-1.52
X42.049
X42.053 Z-1.02
X43.057
X43.061 Z-1.01
X42.996 Y27.243
X42.932 Y27.293
Z-1.02
X41.929
X41.927 Z-1.52
X40.302
X40.301 Z-2.928
X40.287
X40.265 Z-2.923
X40.243 Z-2.918
X40.128
X40.103 Y27.3
X40.085 Y27.318
X40.078 Y27.343
X40.085 Y27.368
X40.103 Y27.387
X40.128 Y27.393
X40.15 Z-2.923
X40.172 Z-2.928
X40.187
Z-1.52
X41.804
X41.806 Z-1.02
X42.804
Z-1.01
X42.74 Y27.443
X42.676 Y27.493
Z-1.02
X41.684
X41.679 Z-1.52
X40.073
X40.072 Z-2.928
X40.058
X40.036 Z-2.923
X40.014 Z-2.918
X39.9
X39.875 Y27.5
X39.857 Y27.518
X39.85 Y27.543
X39.857 Y27.568
X39.875 Y27.587
X39.9 Y27.593
X39.922 Z-2.923
X39.944 Z-2.928
X39.958
X39.959 Z-1.52
X41.562
Z-1.02
X42.549
Z-1.01
X42.487 Y27.643
X42.425 Y27.693
X42.423 Z-1.02
X41.443
X41.44 Z-1.52
X39.845
Z-2.928
X39.83
X39.808 Z-2.923
X39.786 Z-2.918
X39.675
X39.65 Y27.7
X39.632 Y27.718
X39.625 Y27.743
X39.632 Y27.768
X39.65 Y27.787
X39.675 Y27.793
X39.697 Z-2.923
X39.719 Z-2.928
X39.734
Z-1.52
X41.32
X41.323 Z-1.02
X42.301
Z-1.01
X42.177 Y27.893
X42.174 Z-1.02
X41.204
X41.199 Z-1.52
X39.624
X39.623 Z-2.928
X39.609
X39.587 Z-2.923
X39.565 Z-2.918
X39.455
X39.43 Y27.9
X39.412 Y27.918
X39.405 Y27.943
X39.412 Y27.968
X39.43 Y27.987
X39.455 Y27.993
X39.477 Z-2.923
X39.499 Z-2.928
X39.51
X39.513 Z-1.52
X41.082
X41.087 Z-1.02
X42.054
Z-1.01
X41.934 Y28.093
Z-1.02
X40.972
X40.968 Z-1.52
X39.403
X39.402 Z-2.928
X39.388
X39.366 Z-2.923
X39.344 Z-2.918
X39.236
X39.211 Y28.1
X39.193 Y28.118
X39.186 Y28.143
X39.193 Y28.168
X39.211 Y28.187
X39.236 Y28.193
X39.258 Z-2.923
X39.28 Z-2.928
X39.294
X39.295 Z-1.52
X40.855
X40.857 Z-1.02
X41.814
Z-1.01
X41.754 Y28.243
X41.694 Y28.293
Z-1.02
X40.74
X40.736 Z-1.52
X39.188
X39.186 Z-2.928
X39.173
X39.151 Z-2.923
X39.129 Z-2.918
X39.022
X38.997 Y28.3
X38.979 Y28.318
X38.972 Y28.343
X38.979 Y28.368
X38.997 Y28.387
X39.022 Y28.393
X39.044 Z-2.923
X39.066 Z-2.928
X39.079
X39.081 Z-1.52
X40.626
X40.627 Z-1.02
X41.575
Z-1.01
X41.517 Y28.443
X41.459 Y28.493
Z-1.02
X40.515
X40.513 Z-1.52
X38.974
X38.973 Z-2.928
X38.96
X38.938 Z-2.923
X38.916 Z-2.918
X38.81
X38.785 Y28.5
X38.767 Y28.518
X38.76 Y28.543
X38.767 Y28.568
X38.785 Y28.587
X38.81 Y28.593
X38.832 Z-2.923
X38.854 Z-2.928
X38.868
Z-1.52
X40.4
X40.404 Z-1.02
X41.344
Z-1.01
X41.286 Y28.643
X41.228 Y28.693
Z-1.02
X40.292
X40.289 Z-1.52
X38.765
X38.763 Z-2.928
X38.751
X38.729 Z-2.923
X38.707 Z-2.918
X38.604
X38.579 Y28.7
X38.56 Y28.718
X38.554 Y28.743
X38.56 Y28.768
X38.579 Y28.787
X38.604 Y28.793
X38.626 Z-2.923
X38.648 Z-2.928
X38.66
X38.662 Z-1.52
X40.18
X40.182 Z-1.02
X41.113
Z-1.01
X41.056 Y28.843
X41. Y28.893
Z-1.02
X40.073
Z-1.52
X38.558
X38.557 Z-2.928
X38.545
X38.523 Z-2.923
X38.501 Z-2.918
X38.397
X38.372 Y28.9
X38.354 Y28.918
X38.347 Y28.943
X38.354 Y28.968
X38.372 Y28.987
X38.397 Y28.993
X38.419 Z-2.923
X38.441 Z-2.928
X38.455
X38.456 Z-1.52
X39.965
X39.966 Z-1.02
X40.888
Z-1.01
X40.833 Y29.043
X40.777 Y29.093
Z-1.02
X39.859
X39.856 Z-1.52
X38.355
X38.353 Z-2.928
X38.341
X38.319 Z-2.923
X38.297 Z-2.918
X38.197
X38.172 Y29.1
X38.153 Y29.118
X38.147 Y29.143
X38.153 Y29.168
X38.172 Y29.187
X38.197 Y29.193
X38.219 Z-2.923
X38.241 Z-2.928
X38.253
X38.255 Z-1.52
X39.747
X39.751 Z-1.02
X40.666
Z-1.01
X40.611 Y29.243
X40.556 Y29.293
Z-1.02
X39.645
Z-1.52
X38.155
X38.153 Z-2.928
X38.141
X38.119 Z-2.923
X38.097 Z-2.918
X37.997
X37.972 Y29.3
X37.953 Y29.318
X37.947 Y29.343
X37.953 Y29.368
X37.972 Y29.387
X37.997 Y29.393
X38.019 Z-2.923
X38.041 Z-2.928
X38.054
X38.055 Z-1.52
X39.541
Z-1.02
X40.447
Z-1.01
X40.394 Y29.443
X40.34 Y29.493
Z-1.02
X39.438
Z-1.52
X37.956
Z-2.928
X37.942
X37.92 Z-2.923
X37.898 Z-2.918
X37.802
X37.777 Y29.5
X37.758 Y29.518
X37.752 Y29.543
X37.758 Y29.568
X37.777 Y29.587
X37.802 Y29.593
X37.824 Z-2.923
X37.846 Z-2.928
X37.858
X37.859 Z-1.52
X39.334
Z-1.02
X40.233
Z-1.01
X40.18 Y29.643
X40.127 Y29.693
Z-1.02
X39.231
X39.23 Z-1.52
X37.763
X37.761 Z-2.928
X37.749
X37.727 Z-2.923
X37.705 Z-2.918
X37.609
X37.584 Y29.7
X37.566 Y29.718
X37.559 Y29.743
X37.566 Y29.768
X37.584 Y29.787
X37.609 Y29.793
X37.631 Z-2.923
X37.653 Z-2.928
X37.665
X37.666 Z-1.52
X39.129
X39.13 Z-1.02
X40.022
Z-1.01
X39.969 Y29.843
X39.917 Y29.893
Z-1.02
X39.03
Z-1.52
X37.57
X37.569 Z-2.928
X37.556
X37.534 Z-2.923
X37.512 Z-2.918
X37.419
X37.394 Y29.9
X37.376 Y29.918
X37.369 Y29.943
X37.376 Y29.968
X37.394 Y29.987
X37.419 Y29.993
X37.441 Z-2.923
X37.463 Z-2.928
X37.475
X37.476 Z-1.52
X38.93
Z-1.02
X39.814
Z-1.01
X39.762 Y30.043
X39.711 Y30.093
Z-1.02
X38.83
Z-1.52
X37.382
X37.381 Z-2.928
X37.369
X37.347 Z-2.923
X37.325 Z-2.918
X37.232
X37.207 Y30.1
X37.189 Y30.118
X37.182 Y30.143
X37.189 Y30.168
X37.207 Y30.186
X37.232 Y30.193
X37.254 Z-2.923
X37.276 Z-2.928
X37.288
X37.289 Z-1.52
X38.729
X38.73 Z-1.02
X39.609
Z-1.01
X39.559 Y30.243
X39.508 Y30.293
Z-1.02
X38.634
X38.633 Z-1.52
X37.196
X37.191 Z-2.928
X37.183
X37.161 Z-2.923
X37.139 Z-2.918
X37.046
X37.021 Y30.3
X37.003 Y30.318
X36.996 Y30.343
X37.003 Y30.368
X37.021 Y30.386
X37.046 Y30.393
X37.068 Z-2.923
X37.09 Z-2.928
X37.103
Z-1.52
X38.537
X38.538 Z-1.02
X39.407
Z-1.01
X39.308 Y30.493
Z-1.02
X38.441
X38.44 Z-1.52
X37.013
X37.012 Z-2.928
X37.
X36.978 Z-2.923
X36.956 Z-2.918
X36.865
X36.84 Y30.5
X36.822 Y30.518
X36.815 Y30.543
X36.822 Y30.568
X36.84 Y30.586
X36.865 Y30.593
X36.887 Z-2.923
X36.909 Z-2.928
X36.922
X36.923 Z-1.52
X38.345
Z-1.02
X39.209
Z-1.01
X39.111 Y30.693
Z-1.02
X38.249
Z-1.52
X36.833
X36.831 Z-2.928
X36.819
X36.797 Z-2.923
X36.775 Z-2.918
X36.686
X36.661 Y30.7
X36.643 Y30.718
X36.636 Y30.743
X36.643 Y30.768
X36.661 Y30.786
X36.686 Y30.793
X36.708 Z-2.923
X36.73 Z-2.928
X36.741
X36.743 Z-1.52
X38.156
Z-1.02
X39.014
X39.015 Z-1.01
X38.918 Y30.893
Z-1.02
X38.064
X38.063 Z-1.52
X36.653
Z-2.928
X36.64
X36.618 Z-2.923
X36.596 Z-2.918
X36.51
X36.485 Y30.9
X36.467 Y30.918
X36.46 Y30.943
X36.467 Y30.968
X36.485 Y30.986
X36.51 Y30.993
X36.532 Z-2.923
X36.554 Z-2.928
X36.566
Z-1.52
X37.97
X37.971 Z-1.02
X38.821
Z-1.01
X38.726 Y31.093
Z-1.02
X37.878
Z-1.52
X36.48
X36.479 Z-2.928
X36.467
X36.445 Z-2.923
X36.423 Z-2.918
X36.336
X36.311 Y31.1
X36.293 Y31.118
X36.286 Y31.143
X36.293 Y31.168
X36.311 Y31.186
X36.336 Y31.193
X36.358 Z-2.923
X36.38 Z-2.928
X36.392
X36.393 Z-1.52
X37.786
Z-1.02
X38.632
X38.633 Z-1.01
X38.54 Y31.293
Z-1.02
X37.696
Z-1.52
X36.306
X36.305 Z-2.928
X36.293
X36.271 Z-2.923
X36.249 Z-2.918
X36.163
X36.138 Y31.3
X36.12 Y31.318
X36.113 Y31.343
X36.12 Y31.368
X36.138 Y31.386
X36.163 Y31.393
X36.185 Z-2.923
X36.207 Z-2.928
X36.22
Z-1.522
X37.607 Z-1.52
Z-1.02
X38.447
Z-1.01
X38.354 Y31.493
Z-1.02
X37.518
X37.517 Z-1.52
X36.136
X36.135 Z-2.928
X36.124
X36.102 Z-2.923
X36.08 Z-2.918
X35.996
X35.971 Y31.5
X35.953 Y31.518
X35.946 Y31.543
X35.953 Y31.568
X35.971 Y31.586
X35.996 Y31.593
X36.018 Z-2.923
X36.04 Z-2.928
X36.052
X36.053 Z-1.52
X37.428
Z-1.02
X38.262
Z-1.01
X38.172 Y31.693
Z-1.02
X37.341
X37.336 Z-1.52
X35.969
X35.967 Z-2.928
X35.956
X35.934 Z-2.923
X35.912 Z-2.918
X35.829
X35.804 Y31.7
X35.786 Y31.718
X35.779 Y31.743
X35.786 Y31.768
X35.804 Y31.786
X35.829 Y31.793
X35.851 Z-2.923
X35.873 Z-2.928
X35.884
X35.885 Z-1.52
X37.249
X37.254 Z-1.02
X38.083
Z-1.01
X37.994 Y31.893
Z-1.02
X37.168
X37.167 Z-1.52
X35.802
Z-2.928
X35.79
X35.768 Z-2.923
X35.746 Z-2.918
X35.665
X35.64 Y31.9
X35.622 Y31.918
X35.615 Y31.943
X35.622 Y31.968
X35.64 Y31.986
X35.665 Y31.993
X35.687 Z-2.923
X35.709 Z-2.928
X35.721
X35.722 Z-1.52
X37.078
X37.082 Z-1.02
X37.905
Z-1.01
X37.816 Y32.093
Z-1.02
X36.996
Z-1.52
X35.641
X35.64 Z-2.928
X35.629
X35.607 Z-2.923
X35.585 Z-2.918
X35.504
X35.479 Y32.1
X35.461 Y32.118
X35.454 Y32.143
X35.461 Y32.168
X35.479 Y32.186
X35.504 Y32.193
X35.526 Z-2.923
X35.548 Z-2.928
X35.559
X35.56 Z-1.52
X36.907
X36.912 Z-1.02
X37.729
Z-1.01
X37.644 Y32.293
Z-1.02
X36.828
X36.825 Z-1.52
X35.48
X35.478 Z-2.928
X35.468
X35.446 Z-2.923
X35.424 Z-2.918
X35.343
X35.318 Y32.3
X35.3 Y32.318
X35.293 Y32.343
X35.3 Y32.368
X35.318 Y32.386
X35.343 Y32.393
X35.365 Z-2.923
X35.387 Z-2.928
X35.4
Z-1.52
X36.743
X36.745 Z-1.02
X37.559
Z-1.01
X37.474 Y32.493
X37.473 Z-1.02
X36.662
X36.66 Z-1.52
X35.322
Z-2.928
X35.31
X35.288 Z-2.923
X35.266 Z-2.918
X35.188
X35.163 Y32.5
X35.145 Y32.518
X35.138 Y32.543
X35.145 Y32.568
X35.163 Y32.586
X35.188 Y32.593
X35.21 Z-2.923
X35.232 Z-2.928
X35.242
X35.245 Z-1.52
X36.58
Z-1.02
X37.388
Z-1.01
X37.303 Y32.693
Z-1.02
X36.499
X36.497 Z-1.52
X35.167
X35.164 Z-2.928
X35.155
X35.133 Z-2.923
X35.111 Z-2.918
X35.033
X35.008 Y32.7
X34.99 Y32.718
X34.983 Y32.743
X34.99 Y32.768
X35.008 Y32.786
X35.033 Y32.793
X35.055 Z-2.923
X35.077 Z-2.928
X35.088
X35.089 Z-1.52
X36.416
X36.419 Z-1.02
X37.221
Z-1.01
X37.139 Y32.893
Z-1.02
X36.338
X36.333 Z-1.52
X35.012
Z-2.928
X34.999
X34.977 Z-2.923
X34.955 Z-2.918
X34.881
X34.856 Y32.9
X34.838 Y32.918
X34.831 Y32.943
X34.838 Y32.968
X34.856 Y32.986
X34.881 Y32.993
X34.903 Z-2.923
X34.925 Z-2.928
X34.937
Z-1.52
X36.257
X36.258 Z-1.02
X37.058
Z-1.01
X36.977 Y33.093
X36.976 Z-1.02
X36.179
Z-1.52
X34.862
X34.861 Z-2.928
X34.85
X34.828 Z-2.923
X34.806 Z-2.918
X34.731
X34.706 Y33.1
X34.688 Y33.118
X34.681 Y33.143
X34.688 Y33.168
X34.706 Y33.186
X34.731 Y33.193
X34.753 Z-2.923
X34.775 Z-2.928
X34.785
X34.788 Z-1.52
X36.101
X36.102 Z-1.02
X36.895
Z-1.01
X36.814 Y33.293
X36.813 Z-1.02
X36.025
X36.021 Z-1.52
X34.713
X34.712 Z-2.928
X34.701
X34.679 Z-2.923
X34.657 Z-2.918
X34.582
X34.557 Y33.3
X34.539 Y33.318
X34.532 Y33.343
X34.539 Y33.368
X34.557 Y33.386
X34.582 Y33.393
X34.604 Z-2.923
X34.626 Z-2.928
X34.638
Z-1.52
X35.944
X35.948 Z-1.02
X36.735
Z-1.01
X36.658 Y33.493
Z-1.02
X35.87
X35.868 Z-1.52
X34.566
Z-2.928
X34.555
X34.533 Z-2.923
X34.511 Z-2.918
X34.439
X34.414 Y33.5
X34.396 Y33.518
X34.389 Y33.543
X34.396 Y33.568
X34.414 Y33.586
X34.439 Y33.593
X34.461 Z-2.923
X34.483 Z-2.928
X34.493
X34.494 Z-1.52
X35.792
X35.794 Z-1.02
X36.58
Z-1.01
X36.502 Y33.693
Z-1.02
X35.719
X35.718 Z-1.52
X34.423
X34.42 Z-2.928
X34.411
X34.339
X34.314 Y33.7
X34.295 Y33.718
X34.289 Y33.743
X34.295 Y33.768
X34.314 Y33.786
X34.339 Y33.793
X34.349
X34.351 Z-1.52
X35.645
Z-1.02
X36.424
Z-1.01
X36.347 Y33.893
X36.346 Z-1.02
X35.571
X35.57 Z-1.52
X34.279
X34.278 Z-2.928
X34.267
X34.197
X34.172 Y33.9
X34.154 Y33.918
X34.147 Y33.943
X34.154 Y33.968
X34.172 Y33.986
X34.197 Y33.993
X34.209
Z-1.52
X35.496
X35.497 Z-1.02
X36.272
Z-1.01
X36.198 Y34.093
Z-1.02
X35.423
X35.422 Z-1.52
X34.14
X34.138 Z-2.928
X34.128
X34.106 Z-2.923
X34.084 Z-2.918
X34.015
X33.99 Y34.1
X33.972 Y34.118
X33.965 Y34.143
X33.972 Y34.168
X33.99 Y34.186
X34.015 Y34.193
X34.037 Z-2.923
X34.059 Z-2.928
X34.069
X34.071 Z-1.52
X35.35
Z-1.02
X36.124
Z-1.01
X36.05 Y34.293
X36.049 Z-1.02
X35.279
Z-1.52
X34.002
X34. Z-2.928
X33.99
X33.968 Z-2.923
X33.946 Z-2.918
X33.877
X33.852 Y34.3
X33.834 Y34.318
X33.827 Y34.343
X33.834 Y34.368
X33.852 Y34.386
X33.877 Y34.393
X33.899 Z-2.923
X33.921 Z-2.928
X33.932
X33.933 Z-1.52
X35.208
X35.209 Z-1.02
X35.975
Z-1.01
X35.901 Y34.493
Z-1.02
X35.138
X35.137 Z-1.52
X33.865
X33.864 Z-2.928
X33.853
X33.831 Z-2.923
X33.809 Z-2.918
X33.742
X33.717 Y34.5
X33.699 Y34.518
X33.692 Y34.543
X33.699 Y34.568
X33.717 Y34.586
X33.742 Y34.593
X33.764 Z-2.923
X33.786 Z-2.928
X33.797
X33.798 Z-1.52
X35.066
X35.067 Z-1.02
X35.829
X35.83 Z-1.01
X35.759 Y34.693
Z-1.02
X34.996
X34.995 Z-1.52
X33.732
X33.729 Z-2.928
X33.72
X33.698 Z-2.923
X33.676 Z-2.918
X33.61
X33.585 Y34.7
X33.567 Y34.718
X33.56 Y34.743
X33.567 Y34.768
X33.585 Y34.786
X33.61 Y34.793
X33.632 Z-2.923
X33.654 Z-2.928
X33.664
X33.666 Z-1.52
X34.923
X34.927 Z-1.02
X35.688
Z-1.01
X35.618 Y34.893
Z-1.02
X34.859
X34.857 Z-1.52
X33.599
X33.598 Z-2.928
X33.588
X33.566 Z-2.923
X33.544 Z-2.918
X33.478
X33.453 Y34.9
X33.435 Y34.918
X33.428 Y34.943
X33.435 Y34.968
X33.453 Y34.986
X33.478 Y34.993
X33.5 Z-2.923
X33.522 Z-2.928
X33.533
Z-1.52
X34.788
X34.792 Z-1.02
X35.547
Z-1.01
X35.476 Y35.093
Z-1.02
X34.723
Z-1.52
X33.469
Z-2.928
X33.458
X33.436 Z-2.923
X33.414 Z-2.918
X33.35
X33.325 Y35.1
X33.307 Y35.118
X33.3 Y35.143
X33.307 Y35.168
X33.325 Y35.186
X33.35 Y35.193
X33.372 Z-2.923
X33.394 Z-2.928
X33.404
X33.406 Z-1.52
X34.654
X34.656 Z-1.02
X35.407
Z-1.01
X35.34 Y35.293
Z-1.02
X34.59
X34.588 Z-1.52
X33.342
X33.34 Z-2.928
X33.331
X33.309 Z-2.923
X33.287 Z-2.918
X33.223
X33.198 Y35.3
X33.179 Y35.318
X33.173 Y35.343
X33.179 Y35.368
X33.198 Y35.386
X33.223 Y35.393
X33.245 Z-2.923
X33.267 Z-2.928
X33.277
X33.279 Z-1.52
X34.519
X34.524 Z-1.02
X35.273
Z-1.01
X35.206 Y35.493
Z-1.02
X34.458
X34.455 Z-1.52
X33.215
X33.214 Z-2.928
X33.204
X33.182 Z-2.923
X33.16 Z-2.918
X33.097
X33.072 Y35.5
X33.054 Y35.518
X33.047 Y35.543
X33.054 Y35.568
X33.072 Y35.586
X33.097 Y35.593
X33.119 Z-2.923
X33.141 Z-2.928
X33.153
Z-1.52
X34.391
X34.393 Z-1.02
X35.138
X35.139 Z-1.01
X35.072 Y35.693
Z-1.02
X34.328
X34.326 Z-1.52
X33.092
X33.09 Z-2.928
X33.08
X33.058 Z-2.923
X33.036 Z-2.918
X32.976
X32.951 Y35.7
X32.932 Y35.718
X32.926 Y35.743
X32.932 Y35.768
X32.951 Y35.786
X32.976 Y35.793
X32.998 Z-2.923
X33.02 Z-2.928
X33.029
X33.031 Z-1.52
X34.26
X34.265 Z-1.02
X35.005
Z-1.01
X34.941 Y35.893
X34.94 Z-1.02
X34.202
X34.2 Z-1.52
X32.97
X32.968 Z-2.928
X32.959
X32.937 Z-2.923
X32.915 Z-2.918
X32.854
X32.829 Y35.9
X32.811 Y35.918
X32.804 Y35.943
X32.811 Y35.968
X32.829 Y35.986
X32.854 Y35.993
X32.876 Z-2.923
X32.898 Z-2.928
X32.907
X32.909 Z-1.521
X34.135 Z-1.52
X34.139 Z-1.02
X34.877
Z-1.01
X34.813 Y36.093
Z-1.02
X34.077
X34.075 Z-1.52
X32.848
Z-2.928
X32.837
X32.815 Z-2.923
X32.793 Z-2.918
X32.735
X32.71 Y36.1
X32.691 Y36.118
X32.685 Y36.143
X32.691 Y36.168
X32.71 Y36.186
X32.735 Y36.193
X32.757 Z-2.923
X32.779 Z-2.928
X32.789
X32.79 Z-1.52
X34.011
X34.013 Z-1.02
X34.749
X34.75 Z-1.01
X34.686 Y36.293
X34.685 Z-1.02
X33.952
X33.951 Z-1.52
X32.731
X32.73 Z-2.928
X32.72
X32.698 Z-2.923
X32.676 Z-2.918
X32.618
X32.593 Y36.3
X32.574 Y36.318
X32.568 Y36.343
X32.574 Y36.368
X32.593 Y36.386
X32.618 Y36.393
X32.64 Z-2.923
X32.662 Z-2.928
X32.671
X32.673 Z-1.52
X33.89
X33.892 Z-1.02
X34.621
X34.622 Z-1.01
X34.56 Y36.493
Z-1.02
X33.832
Z-1.52
X32.615
X32.612 Z-2.928
X32.603
X32.581 Z-2.923
X32.559 Z-2.918
X32.501
X32.476 Y36.5
X32.458 Y36.518
X32.451 Y36.543
X32.458 Y36.568
X32.476 Y36.586
X32.501 Y36.593
X32.523 Z-2.923
X32.545 Z-2.928
X32.556
Z-1.52
X33.772
Z-1.02
X34.499
Z-1.01
X34.439 Y36.693
Z-1.02
X33.712
X33.711 Z-1.52
X32.499
Z-2.928
X32.488
X32.466 Z-2.923
X32.444 Z-2.918
X32.388
X32.363 Y36.7
X32.345 Y36.718
X32.338 Y36.743
X32.345 Y36.768
X32.363 Y36.786
X32.388 Y36.793
X32.41 Z-2.923
X32.432 Z-2.928
X32.443
Z-1.52
X33.652
Z-1.02
X34.378
X34.379 Z-1.01
X34.318 Y36.893
Z-1.02
X33.594
X33.592 Z-1.52
X32.387
X32.386 Z-2.928
X32.377
X32.355 Z-2.923
X32.333 Z-2.918
X32.277
X32.252 Y36.9
X32.233 Y36.918
X32.227 Y36.943
X32.233 Y36.968
X32.252 Y36.986
X32.277 Y36.993
X32.299 Z-2.923
X32.321 Z-2.928
X32.329
X32.332 Z-1.52
X33.536
Z-1.02
X34.258
Z-1.01
X34.198 Y37.093
X34.197 Z-1.02
X33.479
Z-1.52
X32.276
X32.275 Z-2.928
X32.265
X32.243 Z-2.923
X32.221 Z-2.918
X32.165
X32.14 Y37.1
X32.122 Y37.118
X32.115 Y37.143
X32.122 Y37.168
X32.14 Y37.186
X32.165 Y37.193
X32.187 Z-2.923
X32.209 Z-2.928
X32.219
X32.22 Z-1.52
X33.422
Z-1.02
X34.139
Z-1.01
X34.082 Y37.293
Z-1.02
X33.365
Z-1.52
X32.166
Z-2.928
X32.156
X32.134 Z-2.923
X32.112 Z-2.918
X32.058
X32.033 Y37.3
X32.015 Y37.318
X32.008 Y37.343
X32.015 Y37.368
X32.033 Y37.386
X32.058 Y37.393
X32.08 Z-2.923
X32.102 Z-2.928
X32.112
X32.113 Z-1.52
X33.308
Z-1.02
X34.025
Z-1.01
X33.968 Y37.493
Z-1.02
X33.253
X33.25 Z-1.52
X32.06
X32.058 Z-2.928
X32.049
X32.027 Z-2.923
X32.005 Z-2.918
X31.952
X31.927 Y37.5
X31.909 Y37.518
X31.902 Y37.543
X31.909 Y37.568
X31.927 Y37.586
X31.952 Y37.593
X31.974 Z-2.923
X31.996 Z-2.928
X32.004
X32.007 Z-1.52
X33.196
X33.197 Z-1.02
X33.911
Z-1.01
X33.854 Y37.693
Z-1.02
X33.143
X33.138 Z-1.52
X31.953
X31.952 Z-2.928
X31.943
X31.921 Z-2.923
X31.899 Z-2.918
X31.845
X31.82 Y37.7
X31.802 Y37.718
X31.795 Y37.743
X31.802 Y37.768
X31.82 Y37.786
X31.845 Y37.793
X31.867 Z-2.923
X31.889 Z-2.928
X31.9
Z-1.52
X33.086
X33.088 Z-1.02
X33.798
Z-1.01
X33.743 Y37.893
Z-1.02
X33.034
Z-1.52
X31.849
Z-2.928
X31.839
X31.817 Z-2.923
X31.795 Z-2.918
X31.744
X31.719 Y37.9
X31.7 Y37.918
X31.694 Y37.943
X31.7 Y37.968
X31.719 Y37.986
X31.744 Y37.993
X31.766 Z-2.923
X31.788 Z-2.928
X31.798
X31.799 Z-1.52
X32.979
X32.981 Z-1.02
X33.689
Z-1.01
X33.635 Y38.093
Z-1.02
X32.929
X32.924 Z-1.52
X31.748
X31.747 Z-2.928
X31.737
X31.715 Z-2.923
X31.693 Z-2.918
X31.642
X31.617 Y38.1
X31.599 Y38.118
X31.592 Y38.143
X31.599 Y38.168
X31.617 Y38.186
X31.642 Y38.193
X31.664 Z-2.923
X31.686 Z-2.928
X31.695
X31.697 Z-1.52
X32.873
X32.876 Z-1.02
X33.581
Z-1.01
X33.527 Y38.293
Z-1.02
X32.823
X32.822 Z-1.52
X31.646
X31.645 Z-2.928
X31.636
X31.614 Z-2.923
X31.592 Z-2.918
X31.542
X31.517 Y38.3
X31.498 Y38.318
X31.492 Y38.343
X31.498 Y38.368
X31.517 Y38.386
X31.542 Y38.393
X31.564 Z-2.923
X31.586 Z-2.928
X31.596
Z-1.52
X32.769
X32.772 Z-1.02
X33.473
Z-1.01
X33.421 Y38.493
Z-1.02
X32.72
Z-1.52
X31.548
X31.547 Z-2.928
X31.537
X31.515 Z-2.923
X31.493 Z-2.918
X31.445
X31.42 Y38.5
X31.401 Y38.518
X31.395 Y38.543
X31.401 Y38.568
X31.42 Y38.586
X31.445 Y38.593
X31.467 Z-2.923
X31.489 Z-2.928
X31.499
Z-1.52
X32.67
Z-1.02
X33.368
X33.369 Z-1.01
X33.318 Y38.693
Z-1.02
X32.62
Z-1.52
X31.451
X31.45 Z-2.928
X31.44
X31.418 Z-2.923
X31.396 Z-2.918
X31.348
X31.323 Y38.7
X31.304 Y38.718
X31.298 Y38.743
X31.304 Y38.768
X31.323 Y38.786
X31.348 Y38.793
X31.37 Z-2.923
X31.392 Z-2.928
X31.402
X31.403 Z-1.52
X32.57
X32.571 Z-1.02
X33.267
Z-1.01
X33.217 Y38.893
Z-1.02
X32.521
Z-1.52
X31.354
X31.353 Z-2.928
X31.344
X31.322 Z-2.923
X31.3 Z-2.918
X31.252
X31.227 Y38.9
X31.209 Y38.918
X31.202 Y38.943
X31.209 Y38.968
X31.227 Y38.986
X31.252 Y38.993
X31.274 Z-2.923
X31.296 Z-2.928
X31.307
Z-1.52
X32.471
Z-1.02
X33.166
Z-1.01
X33.116 Y39.093
X33.115 Z-1.02
X32.422
X32.421 Z-1.52
X31.261
Z-2.928
X31.25
X31.228 Z-2.923
X31.206 Z-2.918
X31.161
X31.136 Y39.1
X31.118 Y39.118
X31.111 Y39.143
X31.118 Y39.168
X31.136 Y39.186
X31.161 Y39.193
X31.183 Z-2.923
X31.205 Z-2.928
X31.214
X31.215 Z-1.52
X32.374
X32.375 Z-1.02
X33.065
X33.066 Z-1.01
X33.017 Y39.293
Z-1.02
X32.328
X32.327 Z-1.52
X31.169
Z-2.928
X31.159
X31.137 Z-2.923
X31.115 Z-2.918
X31.069
X31.044 Y39.3
X31.026 Y39.318
X31.019 Y39.343
X31.026 Y39.368
X31.044 Y39.386
X31.069 Y39.393
X31.091 Z-2.923
X31.113 Z-2.928
X31.123
Z-1.523
X32.279 Z-1.52
X32.28 Z-1.02
X32.969
Z-1.01
X32.922 Y39.493
Z-1.02
X32.233
Z-1.52
X31.077
Z-2.928
X31.067
X31.045 Z-2.923
X31.023 Z-2.918
X30.978
X30.953 Y39.5
X30.935 Y39.518
X30.928 Y39.543
X30.935 Y39.568
X30.953 Y39.586
X30.978 Y39.593
X31. Z-2.923
X31.022 Z-2.928
X31.032
X31.033 Z-1.52
X32.186
Z-1.02
X32.874
Z-1.01
X32.827 Y39.693
X32.826 Z-1.02
X32.139
X32.137 Z-1.52
X30.989
Z-2.928
X30.979
X30.957 Z-2.923
X30.935 Z-2.918
X30.891
X30.866 Y39.7
X30.847 Y39.718
X30.841 Y39.743
X30.847 Y39.768
X30.866 Y39.786
X30.891 Y39.793
X30.913 Z-2.923
X30.935 Z-2.928
X30.945
Z-1.52
X32.089
X32.094 Z-1.02
X32.778
X32.779 Z-1.01
X32.733 Y39.893
Z-1.02
X32.049
X32.046 Z-1.52
X30.902
X30.901 Z-2.928
X30.891
X30.869 Z-2.923
X30.847 Z-2.918
X30.804
X30.779 Y39.9
X30.761 Y39.918
X30.754 Y39.943
X30.761 Y39.968
X30.779 Y39.986
X30.804 Y39.993
X30.826 Z-2.923
X30.848 Z-2.928
X30.858
Z-1.52
X32.004
Z-1.02
X32.687
Z-1.01
X32.642 Y40.093
Z-1.02
X31.96
X31.958 Z-1.52
X30.815
X30.814 Z-2.928
X30.804
X30.782 Z-2.923
X30.76 Z-2.918
X30.718
X30.693 Y40.1
X30.674 Y40.118
X30.668 Y40.143
X30.674 Y40.168
X30.693 Y40.186
X30.718 Y40.193
X30.74 Z-2.923
X30.762 Z-2.928
X30.772
Z-1.52
X31.915
X31.916 Z-1.02
X32.597
Z-1.01
X32.553 Y40.293
Z-1.02
X31.872
X31.871 Z-1.52
X30.731
Z-2.928
X30.721
X30.699 Z-2.923
X30.677 Z-2.918
X30.636
X30.611 Y40.3
X30.592 Y40.318
X30.586 Y40.343
X30.592 Y40.368
X30.611 Y40.386
X30.636 Y40.393
X30.658 Z-2.923
X30.68 Z-2.928
X30.69
Z-1.52
X31.827
X31.829 Z-1.02
X32.508
Z-1.01
X32.464 Y40.493
Z-1.02
X31.787
X31.786 Z-1.52
X30.649
X30.648 Z-2.928
X30.638
X30.616 Z-2.923
X30.594 Z-2.918
X30.553
X30.528 Y40.5
X30.509 Y40.518
X30.503 Y40.543
X30.509 Y40.568
X30.528 Y40.586
X30.553 Y40.593
X30.575 Z-2.923
X30.597 Z-2.928
X30.607
X30.608 Z-1.52
X31.74
X31.744 Z-1.02
X32.421
Z-1.01
X32.378 Y40.693
X32.377 Z-1.02
X31.701
X31.698 Z-1.52
X30.566
X30.565 Z-2.928
X30.556
X30.534 Z-2.923
X30.512 Z-2.918
X30.472
X30.447 Y40.7
X30.429 Y40.718
X30.422 Y40.743
X30.429 Y40.768
X30.447 Y40.786
X30.472 Y40.793
X30.494 Z-2.923
X30.516 Z-2.928
X30.526
Z-1.52
X31.657
X31.66 Z-1.02
X32.335
X32.336 Z-1.01
X32.293 Y40.893
X32.29 Z-1.02
X31.619
X31.618 Z-1.52
X30.487
X30.486 Z-2.928
X30.477
X30.455 Z-2.923
X30.433 Z-2.918
X30.394
X30.369 Y40.9
X30.35 Y40.918
X30.344 Y40.943
X30.35 Y40.968
X30.369 Y40.986
X30.394 Y40.993
X30.416 Z-2.923
X30.438 Z-2.928
X30.448
Z-1.52
X31.578
X31.579 Z-1.02
X32.251
X32.252 Z-1.01
X32.21 Y41.093
Z-1.02
X31.539
Z-1.52
X30.409
Z-2.928
X30.399
X30.377 Z-2.923
X30.355 Z-2.918
X30.316
X30.291 Y41.1
X30.273 Y41.118
X30.266 Y41.143
X30.273 Y41.168
X30.291 Y41.186
X30.316 Y41.193
X30.338 Z-2.923
X30.36 Z-2.928
X30.37
Z-1.52
X31.499
Z-1.02
X32.169
Z-1.01
X32.129 Y41.293
Z-1.02
X31.459
Z-1.52
X30.331
Z-2.928
X30.321
X30.283
X30.258 Y41.3
X30.24 Y41.318
X30.233 Y41.343
X30.24 Y41.368
X30.258 Y41.386
X30.283 Y41.393
X30.293
Z-1.52
X31.418
X31.419 Z-1.02
X32.089
Z-1.01
X32.049 Y41.493
Z-1.02
X31.38
X31.379 Z-1.52
X30.257
X30.255 Z-2.928
X30.246
X30.21
X30.185 Y41.5
X30.166 Y41.518
X30.16 Y41.543
X30.166 Y41.568
X30.185 Y41.586
X30.21 Y41.593
X30.219
X30.22 Z-1.52
X31.34
X31.342 Z-1.02
X32.01
Z-1.01
X31.97 Y41.693
X31.967 Z-1.02
X31.304
Z-1.52
X30.183
X30.182 Z-2.928
X30.173
X30.137
X30.112 Y41.7
X30.094 Y41.718
X30.087 Y41.743
X30.094 Y41.768
X30.112 Y41.786
X30.137 Y41.793
X30.146
X30.147 Z-1.52
X31.266
X31.267 Z-1.02
X31.931
X31.932 Z-1.01
X31.893 Y41.893
Z-1.02
X31.229
X31.228 Z-1.52
X30.11
X30.109 Z-2.928
X30.099
X30.063
X30.038 Y41.9
X30.02 Y41.918
X30.013 Y41.943
X30.02 Y41.968
X30.038 Y41.986
X30.063 Y41.993
X30.074
Z-1.52
X31.19
X31.191 Z-1.02
X31.856
Z-1.01
X31.819 Y42.093
Z-1.02
X31.154
Z-1.52
X30.039
X30.038 Z-2.928
X30.029
X30.004 Z-2.922
X29.985 Z-2.903
X29.979 Z-2.878
X29.976 Y42.1 Z-2.852
X29.97 Y42.118 Z-2.833
X29.962 Y42.143 Z-2.826
X29.953 Y42.168 Z-2.833
X29.947 Y42.186 Z-2.852
X29.944 Y42.193 Z-2.878
X29.951 Z-2.903
X29.969 Z-2.922
X29.994 Z-2.928
X30.004
X30.005 Z-1.52
X31.115
X31.119 Z-1.02
X31.782
X31.783 Z-1.01
X31.746 Y42.293
Z-1.02
X31.082
X31.079 Z-1.52
X29.97
X29.969 Z-2.928
X29.96
X29.935 Z-2.922
X29.918 Z-2.904
X29.911 Z-2.88
X29.909 Y42.3 Z-2.854
X29.904 Y42.318 Z-2.835
X29.896 Y42.343 Z-2.828
X29.889 Y42.368 Z-2.835
X29.883 Y42.386 Z-2.854
X29.881 Y42.393 Z-2.88
Z-2.884
X29.887 Z-2.906
X29.903 Z-2.922
X29.926 Z-2.928
X29.935
X29.936 Z-1.52
X31.042
X31.048 Z-1.02
X31.709
Z-1.01
X31.672 Y42.493
Z-1.02
X31.012
X31.01 Z-1.52
X29.901
Z-2.928
X29.891
X29.872 Z-2.923
X29.857 Z-2.909
X29.852 Z-2.889
X29.85 Y42.5 Z-2.863
X29.844 Y42.518 Z-2.843
X29.837 Y42.543 Z-2.836
X29.829 Y42.568 Z-2.843
X29.824 Y42.586 Z-2.863
X29.822 Y42.593 Z-2.889
Z-2.893
X29.827 Z-2.911
X29.84 Z-2.924
X29.857 Z-2.928
X29.867
Z-1.52
X30.972
X30.977 Z-1.02
X31.637
Z-1.01
X31.602 Y42.693
Z-1.02
X30.942
Z-1.52
X29.835
X29.834 Z-2.928
X29.825
X29.809 Z-2.924
X29.797 Z-2.913
X29.793 Z-2.897
X29.791 Y42.7 Z-2.871
X29.786 Y42.718 Z-2.852
X29.779 Y42.743 Z-2.845
X29.772 Y42.768 Z-2.852
X29.767 Y42.786 Z-2.871
X29.765 Y42.793 Z-2.897
Z-2.901
X29.769 Z-2.915
X29.779 Z-2.925
X29.792 Z-2.928
X29.801
X29.802 Z-1.52
X30.907
X30.909 Z-1.02
X31.568
Z-1.01
X31.534 Y42.893
Z-1.02
X30.876
X30.871 Z-1.52
X29.77
X29.769 Z-2.928
X29.76
X29.744 Z-2.922
X29.738 Z-2.906
X29.736 Y42.9 Z-2.88
X29.731 Y42.918 Z-2.861
X29.724 Y42.943 Z-2.854
X29.717 Y42.968 Z-2.861
X29.712 Y42.986 Z-2.88
X29.71 Y42.993 Z-2.906
Z-2.91
X29.715 Z-2.923
X29.728 Z-2.928
X29.737
X29.738 Z-1.52
X30.841
X30.843 Z-1.02
X31.5
X31.501 Z-1.01
X31.467 Y43.093
Z-1.02
X30.81
X30.807 Z-1.52
X29.706
X29.705 Z-2.928
X29.696
X29.686 Z-2.925
X29.683 Z-2.915
Z-2.91
X29.68 Y43.1 Z-2.884
X29.675 Y43.118 Z-2.865
X29.667 Y43.143 Z-2.858
X29.659 Y43.168 Z-2.865
X29.653 Y43.186 Z-2.884
X29.651 Y43.193 Z-2.91
X29.654 Z-2.921
X29.663 Z-2.928
X29.673
Z-1.52
X30.773
X30.777 Z-1.02
X31.433
Z-1.01
X31.399 Y43.293
Z-1.02
X30.744
X30.743 Z-1.52
X29.643
Z-2.928
X29.633
X29.626 Z-2.923
X29.624 Z-2.915
X29.622 Y43.3 Z-2.889
X29.617 Y43.318 Z-2.87
X29.61 Y43.343 Z-2.863
X29.603 Y43.368 Z-2.87
X29.598 Y43.386 Z-2.889
X29.596 Y43.393 Z-2.915
Z-2.919
X29.603 Z-2.928
X29.612
X29.613 Z-1.52
X30.713
Z-1.02
X31.366
Z-1.01
X31.335 Y43.493
X31.334 Z-1.02
X30.682
X30.68 Z-1.52
X29.583
X29.581 Z-2.928
X29.573
X29.566 Z-2.912
G0 Z5.
X29.542 Y43.593
Z1.013
G1 Z-2.928 F200.
X29.551
X29.552 Z-1.52
X30.651
Z-1.02
X31.303
X31.304 Z-1.01
X31.273 Y43.693
Z-1.02
X30.62
X30.619 Z-1.52
X29.522
X29.521 Z-2.928
X29.512
Z-1.77
Z-1.72
X29.508 Y43.698 Z-1.692
X29.497 Y43.712 Z-1.67
X29.481 Y43.732 Z-1.657
X29.464 Y43.754
X29.448 Y43.774 Z-1.67
X29.437 Y43.788 Z-1.692
X29.433 Y43.793 Z-1.72
X29.439 Z-1.745
X29.458 Z-1.763
X29.483 Z-1.77
X29.484
X29.487 Z-2.928
X29.491
X29.492 Z-1.52
X30.587
X30.589 Z-1.02
X31.242
Z-1.01
X31.211 Y43.893
Z-1.02
X30.558
X30.557 Z-1.52
X29.463
Z-2.928
X29.461
Z-1.77
X29.453
X29.431 Z-1.765
X29.409 Z-1.76
X29.381
X29.356 Y43.9
X29.338 Y43.918
X29.331 Y43.943
X29.338 Y43.968
X29.356 Y43.986
X29.381 Y43.993
X29.403 Z-1.765
X29.425 Z-1.77
X29.435
X29.436 Z-1.52
X30.523
X30.528 Z-1.02
X31.18
Z-1.01
X31.149 Y44.093
Z-1.02
X30.499
Z-1.52
X29.407
X29.405 Z-1.77
X29.397
X29.375 Z-1.765
X29.353 Z-1.76
X29.325
X29.3 Y44.1
X29.282 Y44.118
X29.275 Y44.143
X29.282 Y44.168
X29.3 Y44.186
X29.325 Y44.193
X29.347 Z-1.765
X29.369 Z-1.77
X29.378
X29.379 Z-1.52
X30.467
X30.471 Z-1.02
X31.118
X31.119 Z-1.01
X31.09 Y44.293
Z-1.02
X30.442
X30.438 Z-1.52
X29.351
X29.35 Z-1.77
X29.341
X29.319 Z-1.765
X29.297 Z-1.76
X29.269
X29.244 Y44.3
X29.225 Y44.318
X29.219 Y44.343
X29.225 Y44.368
X29.244 Y44.386
X29.269 Y44.393
X29.291 Z-1.765
X29.313 Z-1.77
X29.321
X29.323 Z-1.52
X30.413
Z-1.02
X31.062
Z-1.01
X31.034 Y44.493
Z-1.02
X30.385
Z-1.52
X29.296
X29.295 Z-1.77
X29.286
X29.264 Z-1.765
X29.242 Z-1.76
X29.216
X29.191 Y44.5
X29.173 Y44.518
X29.166 Y44.543
X29.173 Y44.568
X29.191 Y44.586
X29.216 Y44.593
X29.238 Z-1.765
X29.26 Z-1.77
X29.269
X29.27 Z-1.52
X30.357
Z-1.02
X31.005
Z-1.01
X30.977 Y44.693
Z-1.02
X30.331
X30.329 Z-1.52
X29.244
X29.243 Z-1.77
X29.234
X29.212 Z-1.765
X29.19 Z-1.76
X29.164
X29.139 Y44.7
X29.12 Y44.718
X29.114 Y44.743
X29.12 Y44.768
X29.139 Y44.786
X29.164 Y44.793
X29.186 Z-1.765
X29.208 Z-1.77
X29.216
X29.217 Z-1.52
X30.3
X30.304 Z-1.02
X30.949
Z-1.01
X30.921 Y44.893
Z-1.02
X30.277
X30.276 Z-1.52
X29.191
Z-1.77
X29.181
X29.159 Z-1.765
X29.137 Z-1.76
X29.111
X29.086 Y44.9
X29.068 Y44.918
X29.061 Y44.943
X29.068 Y44.968
X29.086 Y44.986
X29.111 Y44.993
X29.133 Z-1.765
X29.155 Z-1.77
X29.165
Z-1.52
X30.248
X30.25 Z-1.02
X30.894
Z-1.01
X30.868 Y45.093
X30.867 Z-1.02
X30.224
X30.223 Z-1.52
X29.14
Z-1.77
X29.13
X29.108 Z-1.765
X29.086 Z-1.76
X29.062
X29.037 Y45.1
X29.018 Y45.118
X29.012 Y45.143
X29.018 Y45.168
X29.037 Y45.186
X29.062 Y45.193
X29.084 Z-1.765
X29.106 Z-1.77
X29.115
X29.116 Z-1.52
X30.198
X30.199 Z-1.02
X30.842
Z-1.01
X30.816 Y45.293
X30.815 Z-1.02
X30.174
Z-1.52
X29.092
X29.091 Z-1.77
X29.082
X29.06 Z-1.765
X29.038 Z-1.76
X29.014
X28.989 Y45.3
X28.971 Y45.318
X28.964 Y45.343
X28.971 Y45.368
X28.989 Y45.386
X29.014 Y45.393
X29.036 Z-1.765
X29.058 Z-1.77
X29.067
X29.068 Z-1.52
X30.149
Z-1.02
X30.791
Z-1.01
X30.766 Y45.493
Z-1.02
X30.125
X30.124 Z-1.52
X29.044
X29.043 Z-1.77
X29.033
X29.011 Z-1.765
X28.989 Z-1.76
X28.965
X28.941 Y45.5
X28.922 Y45.518
X28.916 Y45.543
X28.922 Y45.568
X28.941 Y45.586
X28.965 Y45.593
X28.988 Z-1.765
X29.01 Z-1.77
X29.019
X29.02 Z-1.52
X30.099
X30.1 Z-1.02
X30.74
Z-1.01
X30.716 Y45.693
X30.715 Z-1.02
X30.075
X30.074 Z-1.52
X28.996
X28.995 Z-1.77
X28.986
X28.964 Z-1.765
X28.942 Z-1.76
X28.919
X28.894 Y45.7
X28.876 Y45.718
X28.869 Y45.743
X28.876 Y45.768
X28.894 Y45.786
X28.919 Y45.793
X28.941 Z-1.765
X28.963 Z-1.77
X28.973
Z-1.52
X30.051
Z-1.02
X30.692
Z-1.01
X30.668 Y45.893
Z-1.02
X30.028
Z-1.52
X28.951
Z-1.77
X28.941
X28.919 Z-1.765
X28.897 Z-1.76
X28.875
X28.85 Y45.9
X28.832 Y45.918
X28.825 Y45.943
X28.832 Y45.968
X28.85 Y45.986
X28.875 Y45.993
X28.897 Z-1.765
X28.919 Z-1.77
X28.929
Z-1.52
X30.005
Z-1.02
X30.644
Z-1.01
X30.621 Y46.093
Z-1.02
X29.983
Z-1.52
X28.907
Z-1.77
X28.897
X28.875 Z-1.765
X28.853 Z-1.76
X28.832
X28.807 Y46.1
X28.788 Y46.118
X28.782 Y46.143
X28.788 Y46.168
X28.807 Y46.186
X28.832 Y46.193
X28.854 Z-1.765
X28.876 Z-1.77
X28.885
Z-1.52
X29.96
X29.961 Z-1.02
X30.597
X30.598 Z-1.01
X30.576 Y46.293
Z-1.02
X29.938
Z-1.52
X28.863
Z-1.77
X28.853
X28.831 Z-1.765
X28.809 Z-1.76
X28.789
X28.764 Y46.3
X28.745 Y46.318
X28.739 Y46.343
X28.745 Y46.368
X28.764 Y46.386
X28.789 Y46.393
X28.811 Z-1.765
X28.833 Z-1.77
X28.841
X28.842 Z-1.52
X29.915
X29.916 Z-1.02
X30.553
Z-1.01
X30.532 Y46.493
X30.53 Z-1.02
X29.895
X29.893 Z-1.52
X28.822
Z-1.77
X28.813
X28.791 Z-1.765
X28.769 Z-1.76
X28.749
X28.724 Y46.5
X28.705 Y46.518
X28.699 Y46.543
X28.705 Y46.568
X28.724 Y46.586
X28.749 Y46.593
X28.771 Z-1.765
X28.793 Z-1.77
X28.802
Z-1.52
X29.872
X29.875 Z-1.02
X30.511
Z-1.01
X30.49 Y46.693
Z-1.02
X29.853
Z-1.52
X28.782
X28.781 Z-1.77
X28.772
X28.75 Z-1.765
X28.728 Z-1.76
X28.708
X28.683 Y46.7
X28.665 Y46.718
X28.658 Y46.743
X28.665 Y46.768
X28.683 Y46.786
X28.708 Y46.793
X28.73 Z-1.765
X28.752 Z-1.77
X28.761
X28.762 Z-1.521
X29.827 Z-1.52
X29.832 Z-1.02
X30.468
X30.469 Z-1.01
X30.447 Y46.893
Z-1.02
X29.813
X29.809 Z-1.52
X28.742
X28.739 Z-1.77
X28.732
X28.71 Z-1.765
X28.688 Z-1.76
X28.668
X28.643 Y46.9
X28.625 Y46.918
X28.618 Y46.943
X28.625 Y46.968
X28.643 Y46.986
X28.668 Y46.993
X28.69 Z-1.765
X28.712 Z-1.77
X28.722
Z-1.52
X29.789
X29.792 Z-1.02
X30.427
Z-1.01
X30.407 Y47.093
Z-1.02
X29.773
Z-1.52
X28.704
Z-1.77
X28.695
X28.673 Z-1.765
X28.651 Z-1.76
X28.632
X28.607 Y47.1
X28.589 Y47.118
X28.582 Y47.143
X28.589 Y47.168
X28.607 Y47.186
X28.632 Y47.193
X28.654 Z-1.765
X28.676 Z-1.77
X28.685
X28.686 Z-1.52
X29.754
Z-1.02
X30.384
X30.388 Z-1.01
X30.369 Y47.293
Z-1.02
X29.736
Z-1.52
X28.668
X28.667 Z-1.77
X28.658
X28.633 Z-1.763
X28.615 Z-1.745
X28.608 Z-1.72
X28.607 Y47.3 Z-1.694
X28.603 Y47.318 Z-1.676
X28.599 Y47.343 Z-1.669
X28.594 Y47.368 Z-1.676
X28.591 Y47.386 Z-1.694
X28.589 Y47.393 Z-1.72
Z-2.878
X28.596 Z-2.903
X28.614 Z-2.922
X28.639 Z-2.928
X28.648
X28.649 Z-1.52
X29.717
Z-1.02
X30.351
Z-1.01
X30.332 Y47.493
Z-1.02
X29.698
Z-1.52
X28.631
X28.63 Z-2.928
X28.622
X28.6 Z-2.923
X28.578 Z-2.918
X28.559
X28.534 Y47.5
X28.516 Y47.518
X28.509 Y47.543
X28.516 Y47.568
X28.534 Y47.586
X28.559 Y47.593
X28.581 Z-2.923
X28.603 Z-2.928
X28.613
Z-1.52
X29.679
X29.68 Z-1.02
X30.314
Z-1.01
X30.295 Y47.693
Z-1.02
X29.662
X29.661 Z-1.52
X28.596
Z-2.928
X28.587
X28.565 Z-2.923
X28.543 Z-2.918
X28.526
X28.501 Y47.7
X28.483 Y47.718
X28.476 Y47.743
X28.483 Y47.768
X28.501 Y47.786
X28.526 Y47.793
X28.548 Z-2.923
X28.57 Z-2.928
X28.58
Z-1.52
X29.641
X29.644 Z-1.02
X30.277
Z-1.01
X30.259 Y47.893
X30.257 Z-1.02
X29.628
X29.623 Z-1.52
X28.564
X28.563 Z-2.928
X28.554
X28.532 Z-2.923
X28.51 Z-2.918
X28.494
X28.469 Y47.9
X28.45 Y47.918
X28.444 Y47.943
X28.45 Y47.968
X28.469 Y47.986
X28.494 Y47.993
X28.516 Z-2.923
X28.538 Z-2.928
X28.546
X28.547 Z-1.52
X29.61
X29.612 Z-1.02
X30.242
X30.243 Z-1.01
X30.226 Y48.093
Z-1.02
X29.595
X29.594 Z-1.52
X28.531
X28.528 Z-2.928
X28.521
X28.499 Z-2.923
X28.477 Z-2.918
X28.461
X28.436 Y48.1
X28.417 Y48.118
X28.411 Y48.143
X28.417 Y48.168
X28.436 Y48.186
X28.461 Y48.193
X28.483 Z-2.923
X28.505 Z-2.928
X28.514
X28.515 Z-1.52
X29.578
Z-1.02
X30.21
Z-1.01
X30.194 Y48.293
Z-1.02
X29.562
Z-1.52
X28.5
X28.499 Z-2.928
X28.49
X28.468 Z-2.923
X28.446 Z-2.918
X28.432
X28.407 Y48.3
X28.388 Y48.318
X28.382 Y48.343
X28.388 Y48.368
X28.407 Y48.386
X28.432 Y48.393
X28.454 Z-2.923
X28.476 Z-2.928
X28.485
Z-1.52
X29.547
Z-1.02
X30.178
Z-1.01
X30.162 Y48.493
Z-1.02
X29.532
Z-1.52
X28.471
X28.47 Z-2.928
X28.461
X28.439 Z-2.923
X28.417 Z-2.918
X28.402
X28.377 Y48.5
X28.359 Y48.518
X28.352 Y48.543
X28.359 Y48.568
X28.377 Y48.586
X28.402 Y48.593
X28.424 Z-2.923
X28.446 Z-2.928
X28.456
Z-1.52
X29.517
Z-1.02
X30.146
Z-1.01
X30.13 Y48.693
Z-1.02
X29.502
Z-1.52
X28.441
Z-2.928
X28.432
X28.41 Z-2.923
X28.388 Z-2.918
X28.373
X28.348 Y48.7
X28.33 Y48.718
X28.323 Y48.743
X28.33 Y48.768
X28.348 Y48.786
X28.373 Y48.793
X28.395 Z-2.923
X28.417 Z-2.928
X28.427
Z-1.52
X29.487
Z-1.02
X30.116
Z-1.01
X30.101 Y48.893
Z-1.02
X29.473
Z-1.52
X28.413
Z-2.928
X28.404
X28.382 Z-2.923
X28.36 Z-2.918
X28.347
X28.322 Y48.9
X28.303 Y48.918
X28.297 Y48.943
X28.303 Y48.968
X28.322 Y48.986
X28.347 Y48.993
X28.369 Z-2.923
X28.391 Z-2.928
X28.4
Z-1.52
X29.459
X29.46 Z-1.02
X30.088
Z-1.01
X30.074 Y49.093
Z-1.02
X29.447
X29.445 Z-1.52
X28.388
X28.387 Z-2.928
X28.378
X28.356 Z-2.923
X28.334 Z-2.918
X28.321
X28.296 Y49.1
X28.278 Y49.118
X28.271 Y49.143
X28.278 Y49.168
X28.296 Y49.186
X28.321 Y49.193
X28.343 Z-2.923
X28.365 Z-2.928
X28.375
Z-1.52
X29.434
Z-1.02
X30.061
Z-1.01
X30.047 Y49.293
Z-1.02
X29.421
X29.419 Z-1.52
X28.362
Z-2.928
X28.353
X28.331 Z-2.923
X28.308 Z-2.918
X28.295
X28.27 Y49.3
X28.252 Y49.318
X28.245 Y49.343
X28.252 Y49.368
X28.27 Y49.386
X28.295 Y49.393
X28.317 Z-2.923
X28.339 Z-2.928
X28.349
Z-1.52
X29.406
X29.408 Z-1.02
X30.034
Z-1.01
X30.022 Y49.493
X30.021 Z-1.02
X29.395
X29.394 Z-1.52
X28.337
Z-2.928
X28.327
X28.305 Z-2.923
X28.283 Z-2.918
X28.272
X28.247 Y49.5
X28.229 Y49.518
X28.222 Y49.543
X28.229 Y49.568
X28.247 Y49.586
X28.272 Y49.593
X28.294 Z-2.923
X28.316 Z-2.928
X28.325
X28.326 Z-1.52
X29.382
X29.383 Z-1.02
X30.01
Z-1.01
X29.998 Y49.693
X29.997 Z-1.02
X29.371
X29.369 Z-1.52
X28.315
X28.313 Z-2.928
X28.305
X28.283 Z-2.923
X28.261 Z-2.918
X28.25
X28.225 Y49.7
X28.207 Y49.718
X28.2 Y49.743
X28.207 Y49.768
X28.225 Y49.786
X28.25 Y49.793
X28.272 Z-2.923
X28.294 Z-2.928
X28.302
X28.304 Z-1.52
X29.356
X29.359 Z-1.02
X29.986
Z-1.01
X29.974 Y49.893
Z-1.02
X29.349
X29.344 Z-1.52
X28.293
X28.292 Z-2.928
X28.283
X28.261 Z-2.923
X28.239 Z-2.918
X28.228
X28.203 Y49.9
X28.185 Y49.918
X28.178 Y49.943
X28.185 Y49.968
X28.203 Y49.986
X28.228 Y49.993
X28.25 Z-2.923
X28.272 Z-2.928
X28.281
X28.282 Z-1.52
X29.333
X29.338 Z-1.02
X29.963
Z-1.01
X29.952 Y50.093
Z-1.02
X29.327
X29.323 Z-1.52
X28.271
Z-2.928
X28.261
X28.239 Z-2.923
X28.217 Z-2.918
X28.207
X28.182 Y50.1
X28.164 Y50.118
X28.157 Y50.143
X28.164 Y50.168
X28.182 Y50.186
X28.207 Y50.193
X28.229 Z-2.923
X28.251 Z-2.928
X28.261
Z-1.52
X29.315
X29.316 Z-1.02
X29.941
Z-1.01
X29.932 Y50.293
Z-1.02
X29.307
X29.306 Z-1.52
X28.252
X28.251 Z-2.928
X28.242
X28.22 Z-2.923
X28.198 Z-2.918
X28.189
X28.164 Y50.3
X28.146 Y50.318
X28.139 Y50.343
X28.146 Y50.368
X28.164 Y50.386
X28.189 Y50.393
X28.211 Z-2.923
X28.233 Z-2.928
X28.242
X28.243 Z-1.52
X29.296
X29.297 Z-1.02
X29.922
Z-1.01
X29.913 Y50.493
Z-1.02
X29.288
X29.287 Z-1.52
X28.233
X28.232 Z-2.928
X28.224
X28.202 Z-2.923
X28.18 Z-2.918
X28.17
X28.145 Y50.5
X28.127 Y50.518
X28.12 Y50.543
X28.127 Y50.568
X28.145 Y50.586
X28.17 Y50.593
X28.193 Z-2.923
X28.215 Z-2.928
X28.223
X28.224 Z-1.52
X29.278
Z-1.02
X29.903
Z-1.01
X29.894 Y50.693
X29.893 Z-1.02
X29.269
X29.268 Z-1.52
X28.215
X28.214 Z-2.928
X28.205
X28.183 Z-2.923
X28.161 Z-2.918
X28.153
X28.128 Y50.7
X28.109 Y50.718
X28.103 Y50.743
X28.109 Y50.768
X28.128 Y50.786
X28.153 Y50.793
X28.175 Z-2.923
X28.197 Z-2.928
X28.206
Z-1.52
X29.259
X29.26 Z-1.02
X29.884
Z-1.01
X29.875 Y50.893
Z-1.02
X29.252
Z-1.52
X28.199
Z-2.928
X28.189
X28.167 Z-2.923
X28.145 Z-2.918
X28.137
X28.112 Y50.9
X28.094 Y50.918
X28.087 Y50.943
X28.094 Y50.968
X28.112 Y50.986
X28.137 Y50.993
X28.159 Z-2.923
X28.181 Z-2.928
X28.191
Z-1.52
X29.243
X29.244 Z-1.02
X29.867
Z-1.01
X29.86 Y51.093
Z-1.02
X29.237
X29.235 Z-1.52
X28.184
Z-2.928
X28.174
X28.152 Z-2.923
X28.13 Z-2.918
X28.123
X28.098 Y51.1
X28.079 Y51.118
X28.073 Y51.143
X28.079 Y51.168
X28.098 Y51.186
X28.123 Y51.193
X28.145 Z-2.923
X28.167 Z-2.928
X28.176
Z-1.52
X29.229
Z-1.02
X29.853
Z-1.01
X29.846 Y51.293
Z-1.02
X29.221
X29.22 Z-1.52
X28.169
Z-2.928
X28.159
X28.137 Z-2.923
X28.115 Z-2.918
X28.107
X28.082 Y51.3
X28.064 Y51.318
X28.057 Y51.343
X28.064 Y51.368
X28.082 Y51.386
X28.107 Y51.393
X28.13 Z-2.923
X28.152 Z-2.928
X28.161
Z-1.52
X29.212
X29.214 Z-1.02
X29.838
X29.839 Z-1.01
X29.831 Y51.493
Z-1.02
X29.207
X29.202 Z-1.52
X28.155
Z-2.928
X28.146
X28.124 Z-2.923
X28.102 Z-2.918
X28.095
X28.07 Y51.5
X28.052 Y51.518
X28.045 Y51.543
X28.052 Y51.568
X28.07 Y51.586
X28.095 Y51.593
X28.117 Z-2.923
X28.139 Z-2.928
X28.149
Z-1.52
X29.199
X29.201 Z-1.02
X29.824
Z-1.01
X29.817 Y51.693
Z-1.02
X29.195
X29.194 Z-1.52
X28.143
Z-2.928
X28.134
X28.112 Z-2.923
X28.09 Z-2.918
X28.084
X28.059 Y51.7
X28.041 Y51.718
X28.034 Y51.743
X28.041 Y51.768
X28.059 Y51.786
X28.084 Y51.793
X28.106 Z-2.923
X28.128 Z-2.928
X28.138
Z-1.52
X29.185
X29.189 Z-1.02
X29.811
Z-1.01
X29.805 Y51.893
X29.804 Z-1.02
X29.183
X29.179 Z-1.52
X28.132
Z-2.928
X28.122
X28.1 Z-2.923
X28.078 Z-2.918
X28.073
X28.048 Y51.9
X28.03 Y51.918
X28.023 Y51.943
X28.03 Y51.968
X28.048 Y51.986
X28.073 Y51.993
X28.095 Z-2.923
X28.117 Z-2.928
X28.126
Z-1.52
X29.176
X29.177 Z-1.02
X29.8
Z-1.01
X29.795 Y52.093
Z-1.02
X29.172
X29.17 Z-1.52
X28.121
Z-2.928
X28.111
X28.089 Z-2.923
X28.067 Z-2.918
X28.063
X28.038 Y52.1
X28.02 Y52.118
X28.013 Y52.143
X28.02 Y52.168
X28.038 Y52.186
X28.063 Y52.193
X28.085 Z-2.923
X28.107 Z-2.928
X28.116
X28.117 Z-1.52
X29.167
Z-1.02
X29.79
Z-1.01
X29.786 Y52.293
X29.785 Z-1.02
X29.163
X29.162 Z-1.52
X28.113
X28.11 Z-2.928
X28.103
X28.081 Z-2.923
X28.059 Z-2.918
X28.055
X28.03 Y52.3
X28.011 Y52.318
X28.005 Y52.343
X28.011 Y52.368
X28.03 Y52.386
X28.055 Y52.393
X28.077 Z-2.923
X28.099 Z-2.928
X28.107
X28.108 Z-1.52
X29.158
X29.159 Z-1.02
X29.781
Z-1.01
X29.776 Y52.493
Z-1.02
X29.155
X29.154 Z-1.52
X28.104
X28.103 Z-2.928
X28.094
X28.072 Z-2.923
X28.05 Z-2.918
X28.047
X28.022 Y52.5
X28.004 Y52.518
X27.997 Y52.543
X28.004 Y52.568
X28.022 Y52.586
X28.047 Y52.593
X28.069 Z-2.923
X28.091 Z-2.928
X28.1
Z-1.52
X29.151
Z-1.02
X29.772
Z-1.01
X29.769 Y52.693
Z-1.02
X29.147
X29.146 Z-1.52
X28.096
Z-2.928
X28.087
X28.065 Z-2.923
X28.043 Z-2.918
X28.04
X28.015 Y52.7
X27.996 Y52.718
X27.99 Y52.743
X27.996 Y52.768
X28.015 Y52.786
X28.04 Y52.793
X28.062 Z-2.923
X28.084 Z-2.928
X28.093
Z-1.52
X29.14
X29.143 Z-1.02
X29.766
Z-1.01
X29.762 Y52.893
Z-1.02
X29.141
X29.138 Z-1.52
X28.091
X28.09 Z-2.928
X28.081
X28.059 Z-2.923
X28.037 Z-2.918
X28.035
X28.01 Y52.9
X27.992 Y52.918
X27.985 Y52.943
X27.992 Y52.968
X28.01 Y52.986
X28.035 Y52.993
X28.057 Z-2.923
X28.079 Z-2.928
X28.088
Z-1.52
X29.137
X29.138 Z-1.02
X29.759
Z-1.01
X29.757 Y53.093
Z-1.02
X29.135
X29.13 Z-1.52
X28.086
X28.085 Z-2.928
X28.077
X28.055 Z-2.923
X28.033 Z-2.918
X28.03
X28.005 Y53.1
X27.987 Y53.118
X27.98 Y53.143
X27.987 Y53.168
X28.005 Y53.186
X28.03 Y53.193
X28.052 Z-2.923
X28.074 Z-2.928
X28.083
X28.084 Z-1.52
X29.131
X29.133 Z-1.02
X29.754
Z-1.01
X29.752 Y53.293
Z-1.02
X29.131
X29.127 Z-1.52
X28.081
Z-2.928
X28.071
X28.049 Z-2.923
X28.027 Z-2.918
X28.025
X28. Y53.3
X27.982 Y53.318
X27.975 Y53.343
X27.982 Y53.368
X28. Y53.386
X28.025 Y53.393
X28.047 Z-2.923
X28.069 Z-2.928
X28.076
X28.079 Z-1.52
X29.128
X29.129 Z-1.02
X29.751
Z-1.01
Y53.493
X29.75 Z-1.02
X29.128
Z-1.52
X28.078
X28.075 Z-2.928
X28.068
X28.046 Z-2.923
X28.024 Z-2.918
X27.999 Y53.5
X27.981 Y53.518
X27.974 Y53.543
X27.981 Y53.568
X27.999 Y53.586
X28.024 Y53.593
X28.046 Z-2.923
X28.068 Z-2.928
X28.077
Z-1.52
X29.127
Z-1.02
X29.749
Z-1.01
X29.748 Y53.693
Z-1.02
X29.126
Z-1.52
X28.077
X28.072 Z-2.928
X28.067
X28.045 Z-2.923
X28.023 Z-2.918
X27.998 Y53.7
X27.979 Y53.718
X27.973 Y53.743
X27.979 Y53.768
X27.998 Y53.786
X28.023 Y53.793
X28.045 Z-2.923
X28.067 Z-2.928
X28.073
X28.076 Z-1.52
X29.125
Z-1.02
X29.747
Z-1.01
Y53.893
X29.746 Z-1.02
X29.125
X29.124 Z-1.52
X28.075
X28.072 Z-2.928
X28.066
X28.044 Z-2.923
X28.022 Z-2.918
X28.021
X27.996 Y53.9
X27.978 Y53.918
X27.971 Y53.943
X27.978 Y53.968
X27.996 Y53.986
X28.021 Y53.993
X28.043 Z-2.923
X28.065 Z-2.928
X28.071
X28.074 Z-1.52
X29.124
Z-1.02
X29.745
Z-1.01
Y54.093
Z-1.02
X29.123
Z-1.52
X28.074
Z-2.928
X28.065
X28.043 Z-2.923
X28.021 Z-2.918
X27.996 Y54.1
X27.977 Y54.118
X27.971 Y54.143
X27.977 Y54.168
X27.996 Y54.186
X28.021 Y54.193
X28.043 Z-2.923
X28.065 Z-2.928
X28.074
Z-1.52
X29.123
Z-1.02
X29.745
Z-1.01
Y54.293
Z-1.02
X29.123
Z-1.52
X28.074
Z-2.928
X28.065
X28.043 Z-2.923
X28.021 Z-2.918
X27.996 Y54.3
X27.977 Y54.318
X27.971 Y54.343
X27.977 Y54.368
X27.996 Y54.386
X28.021 Y54.393
X28.043 Z-2.923
X28.065 Z-2.928
X28.071
X28.074 Z-1.52
X29.123
Z-1.02
X29.745
Z-1.01
Y54.493
Z-1.02
X29.123
Z-1.52
X28.074
Z-2.928
X28.065
X28.043 Z-2.923
X28.021 Z-2.918
X27.996 Y54.5
X27.977 Y54.518
X27.971 Y54.543
X27.977 Y54.568
X27.996 Y54.586
X28.021 Y54.593
X28.043 Z-2.923
X28.065 Z-2.928
X28.071
X28.074 Z-1.52
X29.123
Z-1.02
X29.745
Z-1.01
Y54.693
Z-1.02
X29.123
Z-1.52
X28.074
Z-2.928
X28.065
X28.043 Z-2.923
X28.021 Z-2.918
X27.996 Y54.7
X27.977 Y54.718
X27.971 Y54.743
X27.977 Y54.768
X27.996 Y54.786
X28.021 Y54.793
X28.043 Z-2.923
X28.065 Z-2.928
X28.071
X28.074 Z-1.52
X29.123
Z-1.02
X29.745
Z-1.01
Y54.893
Z-1.02
X29.123
Z-1.52
X28.074
Z-2.928
X28.065
X28.043 Z-2.923
X28.021 Z-2.918
X27.996 Y54.9
X27.977 Y54.918
X27.971 Y54.943
X27.977 Y54.968
X27.996 Y54.986
X28.021 Y54.993
X28.043 Z-2.923
X28.065 Z-2.928
X28.071
X28.074 Z-1.52
X29.123
Z-1.02
X29.745
Z-1.01
Y55.093
Z-1.02
X29.123
Z-1.52
X28.074
Z-2.928
X28.065
X28.043 Z-2.923
X28.021 Z-2.918
X27.996 Y55.1
X27.977 Y55.118
X27.971 Y55.143
X27.977 Y55.168
X27.996 Y55.186
X28.021 Y55.193
X28.043 Z-2.923
X28.065 Z-2.928
X28.071
X28.074 Z-1.52
X29.123
Z-1.02
X29.745
Z-1.01
Y55.293
Z-1.02
X29.123
Z-1.52
X28.074
Z-2.928
X28.065
X28.043 Z-2.923
X28.021 Z-2.918
X27.996 Y55.3
X27.977 Y55.318
X27.971 Y55.343
X27.977 Y55.368
X27.996 Y55.386
X28.021 Y55.393
X28.043 Z-2.923
X28.065 Z-2.928
X28.071
X28.074 Z-1.52
X29.123
Z-1.02
X29.745
Z-1.01
Y55.493
Z-1.02
X29.123
Z-1.52
X28.074
X28.071 Z-2.928
X28.065
X28.043 Z-2.923
X28.021 Z-2.918
X27.996 Y55.5
X27.977 Y55.518
X27.971 Y55.543
X27.977 Y55.568
X27.996 Y55.586
X28.021 Y55.593
X28.043 Z-2.923
X28.065 Z-2.928
X28.074
Z-1.52
X29.123
Z-1.02
X29.745
Z-1.01
Y55.693
Z-1.02
X29.123
Z-1.52
X28.074
Z-2.928
X28.065
X28.043 Z-2.923
X28.021 Z-2.918
X27.996 Y55.7
X27.977 Y55.718
X27.971 Y55.743
X27.977 Y55.768
X27.996 Y55.786
X28.021 Y55.793
X28.043 Z-2.923
X28.065 Z-2.928
X28.074
Z-1.52
X29.123
Z-1.02
X29.745
Z-1.01
Y55.893
Z-1.02
X29.123
Z-1.52
X28.074
Z-2.928
X28.065
X28.043 Z-2.923
X28.021 Z-2.918
X27.996 Y55.9
X27.977 Y55.918
X27.971 Y55.943
X27.977 Y55.968
X27.996 Y55.986
X28.021 Y55.993
X28.043 Z-2.923
X28.065 Z-2.928
X28.071
X28.074 Z-1.52
X29.123
Z-1.02
X29.745
Z-1.01
Y56.093
Z-1.02
X29.123
Z-1.52
X28.074
X28.071 Z-2.928
X28.065
X28.043 Z-2.923
X28.021 Z-2.918
X27.996 Y56.1
X27.977 Y56.118
X27.971 Y56.143
X27.977 Y56.168
X27.996 Y56.186
X28.021 Y56.193
X28.043 Z-2.923
X28.065 Z-2.928
X28.071
X28.074 Z-1.52
X29.123
Z-1.02
X29.745
Z-1.01
Y56.293
Z-1.02
X29.123
Z-1.52
X28.074
Z-2.928
X28.065
X28.043 Z-2.923
X28.021 Z-2.918
X27.996 Y56.3
X27.977 Y56.318
X27.971 Y56.343
X27.977 Y56.368
X27.996 Y56.386
X28.021 Y56.393
X28.043 Z-2.923
X28.065 Z-2.928
X28.074
Z-1.52
X29.123
Z-1.02
X29.745
Z-1.01
Y56.493
Z-1.02
X29.123
Z-1.52
X28.074
X28.071 Z-2.928
X28.065
X28.043 Z-2.923
X28.021 Z-2.918
X27.996 Y56.5
X27.977 Y56.518
X27.971 Y56.543
X27.977 Y56.568
X27.996 Y56.586
X28.021 Y56.593
X28.043 Z-2.923
X28.065 Z-2.928
X28.074
Z-1.52
X29.123
Z-1.02
X29.745
Z-1.01
Y56.693
Z-1.02
X29.123
Z-1.52
X28.074
X28.071 Z-2.928
X28.065
X28.043 Z-2.923
X28.021 Z-2.918
X27.996 Y56.7
X27.977 Y56.718
X27.971 Y56.743
X27.977 Y56.768
X27.996 Y56.786
X28.021 Y56.793
X28.043 Z-2.923
X28.065 Z-2.928
X28.071
X28.074 Z-1.52
X29.123
Z-1.02
X29.745
Z-1.01
Y56.893
Z-1.02
X29.123
Z-1.52
X28.074
Z-2.928
X28.065
X28.043 Z-2.923
X28.021 Z-2.918
X27.996 Y56.9
X27.977 Y56.918
X27.971 Y56.943
X27.977 Y56.968
X27.996 Y56.986
X28.021 Y56.993
X28.043 Z-2.923
X28.065 Z-2.928
X28.071
X28.074 Z-1.52
X29.123
Z-1.02
X29.745
Z-1.01
Y57.093
Z-1.02
X29.123
Z-1.52
X28.074
X28.071 Z-2.928
X28.065
X28.043 Z-2.923
X28.021 Z-2.918
X27.996 Y57.1
X27.977 Y57.118
X27.971 Y57.143
X27.977 Y57.168
X27.996 Y57.186
X28.021 Y57.193
X28.043 Z-2.923
X28.065 Z-2.928
X28.071
X28.074 Z-1.52
X29.123
Z-1.02
X29.745
Z-1.01
Y57.293
Z-1.02
X29.123
Z-1.52
X28.074
Z-2.928
X28.065
X28.043 Z-2.923
X28.021 Z-2.918
X27.996 Y57.3
X27.977 Y57.318
X27.971 Y57.343
X27.977 Y57.368
X27.996 Y57.386
X28.021 Y57.393
X28.043 Z-2.923
X28.065 Z-2.928
X28.074
Z-1.52
X29.123
Z-1.02
X29.745
Z-1.01
Y57.493
Z-1.02
X29.123
Z-1.52
X28.074
Z-2.928
X28.065
X28.043 Z-2.923
X28.021 Z-2.918
X27.996 Y57.5
X27.977 Y57.518
X27.971 Y57.543
X27.977 Y57.568
X27.996 Y57.586
X28.021 Y57.593
X28.043 Z-2.923
X28.065 Z-2.928
X28.071
X28.074 Z-1.52
X29.123
Z-1.02
X29.745
Z-1.01
Y57.693
Z-1.02
X29.123
Z-1.52
X28.074
Z-2.928
X28.065
X28.043 Z-2.923
X28.021 Z-2.918
X27.996 Y57.7
X27.977 Y57.718
X27.971 Y57.743
X27.977 Y57.768
X27.996 Y57.786
X28.021 Y57.793
X28.043 Z-2.923
X28.065 Z-2.928
X28.071
X28.074 Z-1.52
X29.123
Z-1.02
X29.745
Z-1.01
Y57.893
Z-1.02
X29.123
Z-1.52
X28.074
Z-2.928
X28.065
X28.043 Z-2.923
X28.021 Z-2.918
X27.996 Y57.9
X27.977 Y57.918
X27.971 Y57.943
X27.977 Y57.968
X27.996 Y57.986
X28.021 Y57.993
X28.043 Z-2.923
X28.065 Z-2.928
X28.071
X28.074 Z-1.52
X29.123
Z-1.02
X29.745
Z-1.01
Y58.093
Z-1.02
X29.123
Z-1.52
X28.074
Z-2.928
X28.065
X28.043 Z-2.923
X28.021 Z-2.918
X27.996 Y58.1
X27.977 Y58.118
X27.971 Y58.143
X27.977 Y58.168
X27.996 Y58.186
X28.021 Y58.193
X28.043 Z-2.923
X28.065 Z-2.928
X28.071
X28.074 Z-1.52
X29.123
Z-1.02
X29.745
Z-1.01
Y58.293
Z-1.02
X29.123
Z-1.52
X28.074
Z-2.928
X28.065
X28.043 Z-2.923
X28.021 Z-2.918
X27.996 Y58.3
X27.977 Y58.318
X27.971 Y58.343
X27.977 Y58.368
X27.996 Y58.386
X28.021 Y58.393
X28.043 Z-2.923
X28.065 Z-2.928
X28.071
X28.074 Z-1.52
X29.123
Z-1.02
X29.745
Z-1.01
Y58.493
Z-1.02
X29.123
Z-1.52
X28.074
Z-2.928
X28.065
X28.043 Z-2.923
X28.021 Z-2.918
X27.996 Y58.5
X27.977 Y58.518
X27.971 Y58.543
X27.977 Y58.568
X27.996 Y58.586
X28.021 Y58.593
X28.043 Z-2.923
X28.065 Z-2.928
X28.071
X28.074 Z-1.52
X29.123
Z-1.02
X29.745
Z-1.01
Y58.693
Z-1.02
X29.123
Z-1.52
X28.074
X28.071 Z-2.928
X28.065
X28.043 Z-2.923
X28.021 Z-2.918
X27.996 Y58.7
X27.977 Y58.718
X27.971 Y58.743
X27.977 Y58.768
X27.996 Y58.786
X28.021 Y58.793
X28.043 Z-2.923
X28.065 Z-2.928
X28.074
Z-1.52
X29.123
Z-1.02
X29.745
Z-1.01
Y58.893
Z-1.02
X29.123
Z-1.52
X28.074
X28.071 Z-2.928
X28.065
X28.043 Z-2.923
X28.021 Z-2.918
X27.996 Y58.9
X27.977 Y58.918
X27.971 Y58.943
X27.977 Y58.968
X27.996 Y58.986
X28.021 Y58.993
X28.043 Z-2.923
X28.065 Z-2.928
X28.071
X28.074 Z-1.52
X29.123
Z-1.02
X29.745
Z-1.01
Y59.093
Z-1.02
X29.123
Z-1.52
X28.074
Z-2.928
X28.065
X28.043 Z-2.923
X28.021 Z-2.918
X27.996 Y59.1
X27.977 Y59.118
X27.971 Y59.143
X27.977 Y59.168
X27.996 Y59.186
X28.021 Y59.193
X28.043 Z-2.923
X28.065 Z-2.928
X28.071
X28.074 Z-1.52
X29.123
Z-1.02
X29.745
Z-1.01
Y59.293
Z-1.02
X29.123
Z-1.52
X28.074
X28.071 Z-2.928
X28.065
X28.043 Z-2.923
X28.021 Z-2.918
X27.996 Y59.3
X27.977 Y59.318
X27.971 Y59.343
X27.977 Y59.368
X27.996 Y59.386
X28.021 Y59.393
X28.043 Z-2.923
X28.065 Z-2.928
X28.074
Z-1.52
X29.123
Z-1.02
X29.745
Z-1.01
Y59.493
Z-1.02
X29.123
Z-1.52
X28.074
X28.071 Z-2.928
X28.065
X28.043 Z-2.923
X28.021 Z-2.918
X27.996 Y59.5
X27.977 Y59.518
X27.971 Y59.543
X27.977 Y59.568
X27.996 Y59.586
X28.021 Y59.593
X28.043 Z-2.923
X28.065 Z-2.928
X28.074
Z-1.52
X29.123
Z-1.02
X29.745
Z-1.01
Y59.693
Z-1.02
X29.123
Z-1.52
X28.074
X28.071 Z-2.928
X28.065
X28.043 Z-2.923
X28.021 Z-2.918
X27.996 Y59.7
X27.977 Y59.718
X27.971 Y59.743
X27.977 Y59.768
X27.996 Y59.786
X28.021 Y59.793
X28.043 Z-2.923
X28.065 Z-2.928
X28.071
X28.074 Z-1.52
X29.123
Z-1.02
X29.745
Z-1.01
Y59.893
Z-1.02
X29.123
Z-1.52
X28.074
Z-2.928
X28.065
X28.043 Z-2.923
X28.021 Z-2.918
X27.996 Y59.9
X27.977 Y59.918
X27.971 Y59.943
X27.977 Y59.968
X27.996 Y59.986
X28.021 Y59.993
X28.043 Z-2.923
X28.065 Z-2.928
X28.071
X28.074 Z-1.52
X29.123
Z-1.02
X29.745
Z-1.01
Y60.093
Z-1.02
X29.123
Z-1.52
X28.074
X28.071 Z-2.928
X28.065
X28.043 Z-2.923
X28.021 Z-2.918
X27.996 Y60.1
X27.977 Y60.118
X27.971 Y60.143
X27.977 Y60.168
X27.996 Y60.186
X28.021 Y60.193
X28.043 Z-2.923
X28.065 Z-2.928
X28.074
Z-1.52
X29.123
Z-1.02
X29.745
Z-1.01
Y60.293
Z-1.02
X29.123
Z-1.52
X28.074
Z-2.928
X28.065
X28.043 Z-2.923
X28.021 Z-2.918
X27.996 Y60.3
X27.977 Y60.318
X27.971 Y60.343
X27.977 Y60.368
X27.996 Y60.386
X28.021 Y60.393
X28.043 Z-2.923
X28.065 Z-2.928
X28.074
Z-1.52
X29.123
Z-1.02
X29.745
Z-1.01
Y60.493
Z-1.02
X29.123
Z-1.52
X28.074
X28.071 Z-2.928
X28.065
X28.043 Z-2.923
X28.021 Z-2.918
X27.996 Y60.5
X27.977 Y60.518
X27.971 Y60.543
X27.977 Y60.568
X27.996 Y60.586
X28.021 Y60.593
X28.043 Z-2.923
X28.065 Z-2.928
X28.074
Z-1.52
X29.123
Z-1.02
X29.745
Z-1.01
Y60.693
Z-1.02
X29.123
Z-1.52
X28.074
X28.071 Z-2.928
X28.065
X28.043 Z-2.923
X28.021 Z-2.918
X27.996 Y60.7
X27.977 Y60.718
X27.971 Y60.743
X27.977 Y60.768
X27.996 Y60.786
X28.021 Y60.793
X28.043 Z-2.923
X28.065 Z-2.928
X28.071
X28.074 Z-1.52
X29.123
Z-1.02
X29.745
Z-1.01
Y60.893
Z-1.02
X29.123
Z-1.52
X28.074
X28.071 Z-2.928
X28.065
X28.043 Z-2.923
X28.021 Z-2.918
X27.996 Y60.9
X27.977 Y60.918
X27.971 Y60.943
X27.977 Y60.968
X27.996 Y60.986
X28.021 Y60.993
X28.043 Z-2.923
X28.065 Z-2.928
X28.074
Z-1.52
X29.123
Z-1.02
X29.745
Z-1.01
Y61.093
Z-1.02
X29.123
Z-1.52
X28.074
X28.071 Z-2.928
X28.065
X28.043 Z-2.923
X28.021 Z-2.918
X27.996 Y61.1
X27.977 Y61.118
X27.971 Y61.143
X27.977 Y61.168
X27.996 Y61.186
X28.021 Y61.193
X28.043 Z-2.923
X28.065 Z-2.928
X28.071
X28.074 Z-1.52
X29.123
Z-1.02
X29.745
Z-1.01
Y61.293
Z-1.02
X29.123
Z-1.52
X28.074
Z-2.928
X28.065
X28.043 Z-2.923
X28.021 Z-2.918
X27.996 Y61.3
X27.977 Y61.318
X27.971 Y61.343
X27.977 Y61.368
X27.996 Y61.386
X28.021 Y61.393
X28.043 Z-2.923
X28.065 Z-2.928
X28.071
X28.074 Z-1.52
X29.123
Z-1.02
X29.745
Z-1.01
Y61.493
Z-1.02
X29.123
Z-1.52
X28.074
Z-2.928
X28.065
X28.043 Z-2.923
X28.021 Z-2.918
X27.996 Y61.5
X27.977 Y61.518
X27.971 Y61.543
X27.977 Y61.568
X27.996 Y61.586
X28.021 Y61.593
X28.043 Z-2.923
X28.065 Z-2.928
X28.071
X28.074 Z-1.52
X29.123
Z-1.02
X29.745
Z-1.01
Y61.693
Z-1.02
X29.123
Z-1.52
X28.074
Z-2.928
X28.065
X28.043 Z-2.923
X28.021 Z-2.918
X27.996 Y61.7
X27.977 Y61.718
X27.971 Y61.743
X27.977 Y61.768
X27.996 Y61.786
X28.021 Y61.793
X28.043 Z-2.923
X28.065 Z-2.928
X28.071
X28.074 Z-1.52
X29.123
Z-1.02
X29.745
Z-1.01
Y61.893
Z-1.02
X29.123
Z-1.52
X28.074
X28.071 Z-2.928
X28.065
X28.043 Z-2.923
X28.021 Z-2.918
X27.996 Y61.9
X27.977 Y61.918
X27.971 Y61.943
X27.977 Y61.968
X27.996 Y61.986
X28.021 Y61.993
X28.043 Z-2.923
X28.065 Z-2.928
X28.071
X28.074 Z-1.52
X29.123
Z-1.02
X29.745
Z-1.01
Y62.093
Z-1.02
X29.123
Z-1.52
X28.074
Z-2.928
X28.065
X28.043 Z-2.923
X28.021 Z-2.918
X27.996 Y62.1
X27.977 Y62.118
X27.971 Y62.143
X27.977 Y62.168
X27.996 Y62.186
X28.021 Y62.193
X28.043 Z-2.923
X28.065 Z-2.928
X28.074
Z-1.52
X29.123
Z-1.02
X29.745
Z-1.01
Y62.293
Z-1.02
X29.123
Z-1.52
X28.074
X28.071 Z-2.928
X28.065
X28.043 Z-2.923
X28.021 Z-2.918
X27.996 Y62.3
X27.977 Y62.318
X27.971 Y62.343
X27.977 Y62.368
X27.996 Y62.386
X28.021 Y62.393
X28.043 Z-2.923
X28.065 Z-2.928
X28.071
X28.074 Z-1.52
X29.123
Z-1.02
X29.745
Z-1.01
Y62.493
Z-1.02
X29.123
Z-1.52
X28.074
X28.071 Z-2.928
X28.065
X28.043 Z-2.923
X28.021 Z-2.918
X27.996 Y62.5
X27.977 Y62.518
X27.971 Y62.543
X27.977 Y62.568
X27.996 Y62.586
X28.021 Y62.593
X28.043 Z-2.923
X28.065 Z-2.928
X28.074
Z-1.52
X29.123
Z-1.02
X29.745
Z-1.01
Y62.693
Z-1.02
X29.123
Z-1.52
X28.074
Z-2.928
X28.065
X28.043 Z-2.923
X28.021 Z-2.918
X27.996 Y62.7
X27.977 Y62.718
X27.971 Y62.743
X27.977 Y62.768
X27.996 Y62.786
X28.021 Y62.793
X28.043 Z-2.923
X28.065 Z-2.928
X28.074
Z-1.52
X29.123
Z-1.02
X29.745
Z-1.01
Y62.893
Z-1.02
X29.123
Z-1.52
X28.074
Z-2.928
X28.065
X28.043 Z-2.923
X28.021 Z-2.918
X27.996 Y62.9
X27.977 Y62.918
X27.971 Y62.943
X27.977 Y62.968
X27.996 Y62.986
X28.021 Y62.993
X28.043 Z-2.923
X28.065 Z-2.928
X28.074
Z-1.52
X29.123
Z-1.02
X29.745
Z-1.01
Y63.093
Z-1.02
X29.123
Z-1.52
X28.074
X28.071 Z-2.928
X28.065
X28.043 Z-2.923
X28.021 Z-2.918
X27.996 Y63.1
X27.977 Y63.118
X27.971 Y63.143
X27.977 Y63.168
X27.996 Y63.186
X28.021 Y63.193
X28.043 Z-2.923
X28.065 Z-2.928
X28.071
X28.074 Z-1.52
X29.123
Z-1.02
X29.745
Z-1.01
Y63.293
Z-1.02
X29.123
Z-1.52
X28.074
X28.071 Z-2.928
X28.065
X28.043 Z-2.923
X28.021 Z-2.918
X27.996 Y63.3
X27.977 Y63.318
X27.971 Y63.343
X27.977 Y63.368
X27.996 Y63.386
X28.021 Y63.393
X28.043 Z-2.923
X28.065 Z-2.928
X28.074
Z-1.52
X29.123
Z-1.02
X29.745
Z-1.01
Y63.493
Z-1.02
X29.123
Z-1.52
X28.074
Z-2.928
X28.065
X28.043 Z-2.923
X28.021 Z-2.918
X27.996 Y63.5
X27.977 Y63.518
X27.971 Y63.543
X27.977 Y63.568
X27.996 Y63.586
X28.021 Y63.593
X28.043 Z-2.923
X28.065 Z-2.928
X28.071
X28.074 Z-1.52
X29.123
Z-1.02
X29.745
Z-1.01
Y63.693
Z-1.02
X29.123
Z-1.52
X28.074
Z-2.928
X28.065
X28.043 Z-2.923
X28.021 Z-2.918
X27.996 Y63.7
X27.977 Y63.718
X27.971 Y63.743
X27.977 Y63.768
X27.996 Y63.786
X28.021 Y63.793
X28.043 Z-2.923
X28.065 Z-2.928
X28.074
Z-1.52
X29.123
Z-1.02
X29.745
Z-1.01
Y63.893
Z-1.02
X29.123
Z-1.52
X28.074
X28.071 Z-2.928
X28.065
X28.043 Z-2.923
X28.021 Z-2.918
X27.996 Y63.9
X27.977 Y63.918
X27.971 Y63.943
X27.977 Y63.968
X27.996 Y63.986
X28.021 Y63.993
X28.043 Z-2.923
X28.065 Z-2.928
X28.074
Z-1.52
X29.123
Z-1.02
X29.745
Z-1.01
Y64.093
Z-1.02
X29.123
Z-1.52
X28.074
Z-2.928
X28.065
X28.043 Z-2.923
X28.021 Z-2.918
X27.996 Y64.1
X27.977 Y64.118
X27.971 Y64.143
X27.977 Y64.168
X27.996 Y64.186
X28.021 Y64.193
X28.043 Z-2.923
X28.065 Z-2.928
X28.074
Z-1.52
X29.123
Z-1.02
X29.745
Z-1.01
Y64.293
Z-1.02
X29.123
Z-1.52
X28.074
X28.071 Z-2.928
X28.065
X28.043 Z-2.923
X28.021 Z-2.918
X27.996 Y64.3
X27.977 Y64.318
X27.971 Y64.343
X27.977 Y64.368
X27.996 Y64.386
X28.021 Y64.393
X28.043 Z-2.923
X28.065 Z-2.928
X28.074
Z-1.52
X29.123
Z-1.02
X29.745
Z-1.01
Y64.493
Z-1.02
X29.123
Z-1.52
X28.074
Z-2.928
X28.065
X28.043 Z-2.923
X28.021 Z-2.918
X27.996 Y64.5
X27.977 Y64.518
X27.971 Y64.543
X27.977 Y64.568
X27.996 Y64.586
X28.021 Y64.593
X28.043 Z-2.923
X28.065 Z-2.928
X28.071
X28.074 Z-1.52
X29.123
Z-1.02
X29.745
Z-1.01
Y64.693
Z-1.02
X29.123
Z-1.52
X28.074
X28.071 Z-2.928
X28.065
X28.043 Z-2.923
X28.021 Z-2.918
X27.996 Y64.7
X27.977 Y64.718
X27.971 Y64.743
X27.977 Y64.768
X27.996 Y64.786
X28.021 Y64.793
X28.043 Z-2.923
X28.065 Z-2.928
X28.074
Z-1.52
X29.123
Z-1.02
X29.745
Z-1.01
Y64.893
Z-1.02
X29.123
Z-1.52
X28.074
X28.071 Z-2.928
X28.065
X28.043 Z-2.923
X28.021 Z-2.918
X27.996 Y64.9
X27.977 Y64.918
X27.971 Y64.943
X27.977 Y64.968
X27.996 Y64.986
X28.021 Y64.993
X28.043 Z-2.923
X28.065 Z-2.928
X28.074
Z-1.52
X29.123
Z-1.02
X29.745
Z-1.01
Y65.093
Z-1.02
X29.123
Z-1.52
X28.074
Z-2.928
X28.065
X28.043 Z-2.923
X28.021 Z-2.918
X27.996 Y65.1
X27.977 Y65.118
X27.971 Y65.143
X27.977 Y65.168
X27.996 Y65.186
X28.021 Y65.193
X28.043 Z-2.923
X28.065 Z-2.928
X28.074
Z-1.52
X29.123
Z-1.02
X29.745
Z-1.01
Y65.293
Z-1.02
X29.123
Z-1.52
X28.074
Z-2.928
X28.065
X28.043 Z-2.923
X28.021 Z-2.918
X27.996 Y65.3
X27.977 Y65.318
X27.971 Y65.343
X27.977 Y65.368
X27.996 Y65.386
X28.021 Y65.393
X28.043 Z-2.923
X28.065 Z-2.928
X28.074
Z-1.52
X29.123
Z-1.02
X29.745
Z-1.01
Y65.493
Z-1.02
X29.123
Z-1.52
X28.074
Z-2.928
X28.065
X28.043 Z-2.923
X28.021 Z-2.918
X27.996 Y65.5
X27.977 Y65.518
X27.971 Y65.543
X27.977 Y65.568
X27.996 Y65.586
X28.021 Y65.593
X28.043 Z-2.923
X28.065 Z-2.928
X28.071
X28.074 Z-1.52
X29.123
Z-1.02
X29.745
Z-1.01
Y65.693
Z-1.02
X29.123
Z-1.52
X28.074
Z-2.928
X28.065
X28.043 Z-2.923
X28.021 Z-2.918
X27.996 Y65.7
X27.977 Y65.718
X27.971 Y65.743
X27.977 Y65.768
X27.996 Y65.786
X28.021 Y65.793
X28.043 Z-2.923
X28.065 Z-2.928
X28.074
Z-1.52
X29.123
Z-1.02
X29.745
Z-1.01
Y65.893
Z-1.02
X29.123
Z-1.52
X28.074
Z-2.928
X28.065
X28.043 Z-2.923
X28.021 Z-2.918
X27.996 Y65.9
X27.977 Y65.918
X27.971 Y65.943
X27.977 Y65.968
X27.996 Y65.986
X28.021 Y65.993
X28.043 Z-2.923
X28.065 Z-2.928
X28.071
X28.074 Z-1.52
X29.123
Z-1.02
X29.745
Z-1.01
Y66.093
Z-1.02
X29.123
Z-1.52
X28.074
X28.071 Z-2.928
X28.065
X28.043 Z-2.923
X28.021 Z-2.918
X27.996 Y66.1
X27.977 Y66.118
X27.971 Y66.143
X27.977 Y66.168
X27.996 Y66.186
X28.021 Y66.193
X28.043 Z-2.923
X28.065 Z-2.928
X28.071
X28.074 Z-1.52
X29.123
Z-1.02
X29.745
Z-1.01
Y66.293
Z-1.02
X29.123
Z-1.52
X28.074
Z-2.928
X28.065
X28.043 Z-2.923
X28.021 Z-2.918
X27.996 Y66.3
X27.977 Y66.318
X27.971 Y66.343
X27.977 Y66.368
X27.996 Y66.386
X28.021 Y66.393
X28.043 Z-2.923
X28.065 Z-2.928
X28.074
Z-1.52
X29.123
Z-1.02
X29.745
Z-1.01
Y66.493
Z-1.02
X29.123
Z-1.52
X28.074
X28.071 Z-2.928
X28.065
X28.043 Z-2.923
X28.021 Z-2.918
X27.996 Y66.5
X27.977 Y66.518
X27.971 Y66.543
X27.977 Y66.568
X27.996 Y66.586
X28.021 Y66.593
X28.043 Z-2.923
X28.065 Z-2.928
X28.074
Z-1.52
X29.123
Z-1.02
X29.745
Z-1.01
Y66.693
Z-1.02
X29.123
Z-1.52
X28.074
Z-2.928
X28.065
X28.043 Z-2.923
X28.021 Z-2.918
X27.996 Y66.7
X27.977 Y66.718
X27.971 Y66.743
X27.977 Y66.768
X27.996 Y66.786
X28.021 Y66.793
X28.043 Z-2.923
X28.065 Z-2.928
X28.074
Z-1.52
X29.123
Z-1.02
X29.745
Z-1.01
Y66.893
Z-1.02
X29.123
Z-1.52
X28.074
Z-2.928
X28.065
X28.043 Z-2.923
X28.021 Z-2.918
X27.996 Y66.9
X27.977 Y66.918
X27.971 Y66.943
X27.977 Y66.968
X27.996 Y66.986
X28.021 Y66.993
X28.043 Z-2.923
X28.065 Z-2.928
X28.074
Z-1.52
X29.123
Z-1.02
X29.745
Z-1.01
Y67.093
Z-1.02
X29.123
Z-1.52
X28.074
Z-2.928
X28.065
X28.043 Z-2.923
X28.021 Z-2.918
X27.996 Y67.1
X27.977 Y67.118
X27.971 Y67.143
X27.977 Y67.168
X27.996 Y67.186
X28.021 Y67.193
X28.043 Z-2.923
X28.065 Z-2.928
X28.074
Z-1.52
X29.123
Z-1.02
X29.745
Z-1.01
Y67.293
X29.744 Z-1.02
X29.123
Z-1.52
X28.074
X28.071 Z-2.928
X28.065
X28.043 Z-2.923
X28.021 Z-2.918
X27.996 Y67.3
X27.977 Y67.318
X27.971 Y67.343
X27.977 Y67.368
X27.996 Y67.386
X28.021 Y67.393
X28.043 Z-2.923
X28.065 Z-2.928
X28.074
Z-1.52
X29.123
Z-1.02
X29.754
X29.757 Z-1.01
X29.79 Y67.493
X29.789 Z-1.02
X29.123
Z-1.52
X28.074
X28.071 Z-2.928
X28.065
X28.043 Z-2.923
X28.021 Z-2.918
X27.996 Y67.5
X27.977 Y67.518
X27.971 Y67.543
X27.977 Y67.568
X27.996 Y67.586
X28.021 Y67.593
X28.043 Z-2.923
X28.065 Z-2.928
X28.074
Z-1.52
X29.123
Z-1.02
X29.848
X29.85 Z-1.01
X29.898 Y67.647
X29.954 Y67.693
X29.953 Z-1.02
X29.123
Z-1.52
X28.074
Z-2.928
X28.065
X28.026 Z-2.921
X27.994 Z-2.899
X27.972 Z-2.867
X27.965 Z-2.828
G0 Z5.
X42.418 Y79.693
Z0.638
G1 Z-1.51 F200.
Z-1.52
X42.635
Z-1.51
Y79.793
Z-1.52
X42.418
Z-1.51
Y79.893
Z-1.52
X42.635
Z-1.51
Y79.993
Z-1.52
X42.418
Z-1.51
X42.417 Y80.093
Z-1.52
X42.632
X42.635 Z-1.51
X42.65 Y80.193
X42.649 Z-1.52
X42.403
Z-1.51
X42.366 Y80.293
Z-1.52
X42.685
X42.686 Z-1.51
X42.751 Y80.393
X42.75 Z-1.52
X42.302
Z-1.51
X42.249 Y80.447
X42.188 Y80.493
Z-1.52
X42.863
X42.864 Z-1.51
G0 Z5.
X44.847 Y79.693
Z0.638
G1 Z-1.51 F200.
Z-1.52
X45.063
Z-1.51
Y79.793
X45.062 Z-1.52
X44.847
Z-1.51
Y79.893
Z-1.52
X45.063
Z-1.51
Y79.993
X45.062 Z-1.52
X44.847
Z-1.51
Y80.093
Z-1.52
X45.063
Z-1.51
X45.078 Y80.193
X45.077 Z-1.52
X44.833
Z-1.51
X44.796 Y80.293
Z-1.52
X45.114
Z-1.51
X45.179 Y80.393
Z-1.52
X44.731
Z-1.51
X44.678 Y80.447
X44.618 Y80.493
Z-1.52
X45.292
Z-1.51
G0 Z5.
X56.875 Y79.693
Z0.638
G1 Z-1.51 F200.
Z-1.52
X57.093
X57.094 Z-1.51
Y79.793
X57.093 Z-1.52
X56.875
Z-1.51
Y79.893
Z-1.52
X57.093
X57.094 Z-1.51
Y79.993
X57.093 Z-1.52
X56.875
Z-1.51
Y80.093
Z-1.52
X57.093
X57.094 Z-1.51
X57.108 Y80.193
X57.105 Z-1.52
X56.86
Z-1.51
X56.824 Y80.293
Z-1.52
X57.144
X57.145 Z-1.51
X57.21 Y80.393
X57.209 Z-1.52
X56.759
Z-1.51
X56.706 Y80.447
X56.646 Y80.493
Z-1.52
X57.323
Z-1.51
Z-1.507
G0 Z5.
X59.307 Y79.693
Z0.638
G1 Z-1.51 F200.
Z-1.52
X59.52
Z-1.51
Y79.793
Z-1.52
X59.307
Z-1.51
Y79.893
Z-1.52
X59.52
Z-1.51
Y79.993
Z-1.52
X59.307
Z-1.51
Y80.093
Z-1.52
X59.52
X59.521 Z-1.51
X59.535 Y80.193
X59.533 Z-1.52
X59.292
Z-1.51
X59.256 Y80.293
Z-1.52
X59.571
X59.572 Z-1.51
X59.637 Y80.393
X59.636 Z-1.52
X59.191
Z-1.51
X59.138 Y80.447
X59.078 Y80.493
Z-1.52
X59.749
X59.75 Z-1.51
G0 Z5.
X53.171 Y22.793
Z1.814
G1 Z-1.51 F200.
X53.168 Z-1.52
X53.044
Z-1.02
X51.541
Z-1.01
X51.657 Y22.843
X51.772 Y22.893
Z-1.02
X53.244
X53.246 Z-1.52
X53.37
X53.371 Z-1.51
X53.468 Y22.943
X53.565 Y22.993
X53.564 Z-1.52
X53.443
X53.441 Z-1.02
X51.997
Z-1.01
X52.106 Y23.043
X52.215 Y23.093
Z-1.02
X53.637
Z-1.52
X53.756
X53.758 Z-1.51
X53.851 Y23.141
X53.942 Y23.193
X53.941 Z-1.52
X53.829
X53.828 Z-1.02
X52.427
Z-1.01
X52.531 Y23.243
X52.635 Y23.293
Z-1.02
X54.017
X54.018 Z-1.52
X54.113
X54.117 Z-1.51
X54.211 Y23.321
X54.496 Y23.393
X54.495 Z-1.52
X54.204
X54.203 Z-1.02
X52.839
Z-1.01
X52.94 Y23.443
X53.04 Y23.493
Z-1.02
X54.386
X54.387 Z-1.52
X54.893
Z-1.51
X55.289 Y23.593
Z-1.52
X54.568
X54.567 Z-1.02
X53.237
Z-1.01
X53.333 Y23.643
X53.43 Y23.693
Z-1.02
X54.746
Z-1.52
X55.643
X55.644 Z-1.51
X55.993 Y23.793
X55.992 Z-1.52
X54.922
Z-1.02
X53.622
Z-1.01
X53.808 Y23.893
Z-1.02
X55.096
Z-1.52
X56.34
X56.341 Z-1.51
X56.424 Y23.917
X56.507 Y23.942
X56.589 Y23.967
X56.671 Y23.993
Z-1.52
X55.268
X55.267 Z-1.02
X53.993
Z-1.01
X54.084 Y24.043
X54.175 Y24.093
Z-1.02
X55.436
X55.437 Z-1.52
X56.987
X56.988 Z-1.51
X57.064 Y24.117
X57.14 Y24.143
X57.216 Y24.168
X57.292 Y24.193
Z-1.52
X55.605
Z-1.02
X54.355
Z-1.01
X54.444 Y24.243
X54.533 Y24.293
Z-1.02
X55.769
X55.77 Z-1.52
X57.589
X57.59 Z-1.51
G0 Z5.
X57.875 Y24.393
Z1.119
G1 Z-2.928 F200.
X57.858
X57.856 Z-1.52
X55.934
Z-1.02
X54.707
Z-1.01
X54.88 Y24.493
Z-1.02
X56.096
X56.097 Z-1.52
X58.005
Z-2.928
X58.022
X58.047 Z-2.922
X58.066 Z-2.903
X58.072 Z-2.878
X58.078 Y24.497 Z-2.844
X58.094 Y24.508 Z-2.816
X58.118 Y24.524 Z-2.796
X58.146 Y24.543 Z-2.79
X58.174 Y24.562 Z-2.796
X58.197 Y24.579 Z-2.816
X58.213 Y24.589 Z-2.844
X58.219 Y24.593 Z-2.878
X58.212 Z-2.903
X58.194 Z-2.922
X58.169 Z-2.928
X58.152
X58.147 Z-1.52
X56.256
X56.255 Z-1.02
X55.051
Z-1.01
X55.135 Y24.643
X55.22 Y24.693
Z-1.02
X56.415
Z-1.52
X58.296
X58.298 Z-2.928
X58.315
X58.337 Z-2.923
X58.359 Z-2.918
X58.501
X58.526 Y24.7
X58.544 Y24.718
X58.551 Y24.743
X58.544 Y24.768
X58.526 Y24.787
X58.501 Y24.793
X58.479 Z-2.923
X58.457 Z-2.928
X58.441
X58.437 Z-1.52
X56.572
X56.571 Z-1.02
X55.387
Z-1.01
X55.469 Y24.843
X55.551 Y24.893
Z-1.02
X56.725
X56.726 Z-1.52
X58.582
X58.584 Z-2.928
X58.599
X58.622 Z-2.923
X58.644 Z-2.918
X58.786
X58.811 Y24.9
X58.829 Y24.918
X58.836 Y24.943
X58.829 Y24.968
X58.811 Y24.987
X58.786 Y24.993
X58.764 Z-2.923
X58.742 Z-2.928
X58.725
X58.721 Z-1.52
X56.88
Z-1.02
X55.714
Z-1.01
X55.795 Y25.043
X55.875 Y25.093
Z-1.02
X57.031
X57.033 Z-1.52
X58.864
X58.865 Z-2.928
X58.881
X58.903 Z-2.923
X58.925 Z-2.918
X59.063
X59.088 Y25.1
X59.106 Y25.118
X59.113 Y25.143
X59.106 Y25.168
X59.088 Y25.187
X59.063 Y25.193
X59.041 Z-2.923
X59.019 Z-2.928
X59.003
Z-1.52
X57.183
X57.182 Z-1.02
X56.034
Z-1.01
X56.192 Y25.293
Z-1.02
X57.332
Z-1.52
X59.137
X59.142 Z-2.928
X59.157
X59.179 Z-2.923
X59.201 Z-2.918
X59.338
X59.363 Y25.3
X59.381 Y25.318
X59.388 Y25.343
X59.381 Y25.368
X59.363 Y25.387
X59.338 Y25.393
X59.316 Z-2.923
X59.294 Z-2.928
X59.278
X59.272 Z-1.52
X57.481
X57.48 Z-1.02
X56.347
Z-1.01
X56.424 Y25.443
X56.502 Y25.493
Z-1.02
X57.625
X57.626 Z-1.52
X59.411
X59.412 Z-2.928
X59.428
X59.45 Z-2.923
X59.472 Z-2.918
X59.606
X59.631 Y25.5
X59.65 Y25.518
X59.656 Y25.543
X59.65 Y25.568
X59.631 Y25.587
X59.606 Y25.593
X59.584 Z-2.923
X59.562 Z-2.928
X59.547
X59.545 Z-1.52
X57.771
X57.77 Z-1.02
X56.656
Z-1.01
X56.73 Y25.643
X56.805 Y25.693
Z-1.02
X57.914
X57.915 Z-1.52
X59.679
Z-2.928
X59.695
X59.717 Z-2.923
X59.739 Z-2.918
X59.87
X59.895 Y25.7
X59.913 Y25.718
X59.92 Y25.743
X59.913 Y25.768
X59.895 Y25.787
X59.87 Y25.793
X59.848 Z-2.923
X59.826 Z-2.928
X59.81
X59.809 Z-1.52
X58.058
X58.056 Z-1.02
X56.955
Z-1.01
X57.029 Y25.843
X57.104 Y25.893
Z-1.02
X58.196
X58.198 Z-1.52
X59.941
Z-2.928
X59.957
X59.979 Z-2.923
X60.001 Z-2.918
X60.131
X60.156 Y25.9
X60.174 Y25.918
X60.181 Y25.943
X60.174 Y25.968
X60.156 Y25.987
X60.131 Y25.993
X60.109 Z-2.923
X60.087 Z-2.928
X60.071
X60.067 Z-1.52
X58.338
X58.336 Z-1.02
X57.249
Z-1.01
X57.322 Y26.043
X57.394 Y26.093
Z-1.02
X58.474
X58.476 Z-1.52
X60.198
X60.199 Z-2.928
X60.214
X60.236 Z-2.923
X60.258 Z-2.918
X60.386
X60.411 Y26.1
X60.429 Y26.118
X60.436 Y26.143
X60.429 Y26.168
X60.411 Y26.187
X60.386 Y26.193
X60.364 Z-2.923
X60.342 Z-2.928
X60.326
X60.324 Z-1.52
X58.612
X58.61 Z-1.02
X57.539
Z-1.01
X57.61 Y26.243
X57.681 Y26.293
Z-1.02
X58.746
X58.748 Z-1.52
X60.449
X60.453 Z-2.928
X60.469
X60.491 Z-2.923
X60.513 Z-2.918
X60.637
X60.662 Y26.3
X60.68 Y26.318
X60.687 Y26.343
X60.68 Y26.368
X60.662 Y26.387
X60.637 Y26.393
X60.615 Z-2.923
X60.593 Z-2.928
X60.578
X60.574 Z-1.52
X58.882
X58.88 Z-1.02
X57.821
Z-1.01
X57.892 Y26.443
X57.962 Y26.493
Z-1.02
X59.015
X59.016 Z-1.52
X60.698
X60.701 Z-2.928
X60.717
X60.739 Z-2.923
X60.761 Z-2.918
X60.884
X60.909 Y26.5
X60.927 Y26.518
X60.934 Y26.543
X60.927 Y26.568
X60.909 Y26.587
X60.884 Y26.593
X60.862 Z-2.923
X60.84 Z-2.928
X60.825
X60.824 Z-1.52
X59.148
X59.146 Z-1.02
X58.1
Z-1.01
X58.168 Y26.643
X58.236 Y26.693
Z-1.02
X59.278
Z-1.52
X60.946
X60.948 Z-2.928
X60.963
X60.985 Z-2.923
X61.007 Z-2.918
X61.127
X61.152 Y26.7
X61.17 Y26.718
X61.177 Y26.743
X61.17 Y26.768
X61.152 Y26.787
X61.127 Y26.793
X61.105 Z-2.923
X61.083 Z-2.928
X61.068
X61.067 Z-1.52
X59.408
X59.406 Z-1.02
X58.372
Z-1.01
X58.44 Y26.843
X58.508 Y26.893
Z-1.02
X59.537
Z-1.52
X61.187
X61.189 Z-2.928
X61.203
X61.225 Z-2.923
X61.247 Z-2.918
X61.367
X61.392 Y26.9
X61.411 Y26.918
X61.417 Y26.943
X61.411 Y26.968
X61.392 Y26.987
X61.367 Y26.993
X61.345 Z-2.923
X61.323 Z-2.928
X61.308
Z-1.52
X59.665
X59.663 Z-1.02
X58.64
Z-1.01
X58.706 Y27.043
X58.772 Y27.093
Z-1.02
X59.789
X59.792 Z-1.52
X61.425
X61.426 Z-2.928
X61.441
X61.463 Z-2.923
X61.485 Z-2.918
X61.602
X61.627 Y27.1
X61.645 Y27.118
X61.652 Y27.143
X61.645 Y27.168
X61.627 Y27.187
X61.602 Y27.193
X61.58 Z-2.923
X61.558 Z-2.928
X61.543
Z-1.52
X59.917
X59.914 Z-1.02
X58.904
Z-1.01
X58.969 Y27.243
X59.033 Y27.293
Z-1.02
X60.04
Z-1.52
X61.659
X61.66 Z-2.928
X61.674
X61.696 Z-2.923
X61.718 Z-2.918
X61.834
X61.859 Y27.3
X61.877 Y27.318
X61.884 Y27.343
X61.877 Y27.368
X61.859 Y27.387
X61.834 Y27.393
X61.812 Z-2.923
X61.79 Z-2.928
X61.776
X61.775 Z-1.52
X60.164
X60.163 Z-1.02
X59.161
Z-1.01
X59.225 Y27.443
X59.289 Y27.493
Z-1.02
X60.284
X60.287 Z-1.52
X61.886
X61.89 Z-2.928
X61.904
X61.926 Z-2.923
X61.948 Z-2.918
X62.062
X62.087 Y27.5
X62.105 Y27.518
X62.112 Y27.543
X62.105 Y27.568
X62.087 Y27.587
X62.062 Y27.593
X62.04 Z-2.923
X62.018 Z-2.928
X62.004
X62.001 Z-1.52
X60.406
X60.405 Z-1.02
X59.417
Z-1.01
X59.479 Y27.643
X59.541 Y27.693
Z-1.02
X60.526
X60.528 Z-1.52
X62.116
X62.117 Z-2.928
X62.13
X62.152 Z-2.923
X62.174 Z-2.918
X62.288
X62.313 Y27.7
X62.331 Y27.718
X62.338 Y27.743
X62.331 Y27.768
X62.313 Y27.787
X62.288 Y27.793
X62.266 Z-2.923
X62.244 Z-2.928
X62.229
X62.225 Z-1.52
X60.647
X60.645 Z-1.02
X59.664
Z-1.01
X59.726 Y27.843
X59.788 Y27.893
Z-1.02
X60.763
X60.766 Z-1.52
X62.338
X62.34 Z-2.928
X62.354
X62.376 Z-2.923
X62.398 Z-2.918
X62.507
X62.532 Y27.9
X62.55 Y27.918
X62.557 Y27.943
X62.55 Y27.968
X62.532 Y27.987
X62.507 Y27.993
X62.485 Z-2.923
X62.463 Z-2.928
X62.45
X62.447 Z-1.52
X60.882
X60.88 Z-1.02
X59.911
Z-1.01
X59.971 Y28.043
X60.031 Y28.093
Z-1.02
X60.996
X60.998 Z-1.52
X62.558
X62.559 Z-2.928
X62.573
X62.595 Z-2.923
X62.617 Z-2.918
X62.727
X62.752 Y28.1
X62.77 Y28.118
X62.777 Y28.143
X62.77 Y28.168
X62.752 Y28.187
X62.727 Y28.193
X62.705 Z-2.923
X62.683 Z-2.928
X62.668
Z-1.52
X61.113
X61.112 Z-1.02
X60.151
Z-1.01
X60.21 Y28.243
X60.27 Y28.293
Z-1.02
X61.228
Z-1.52
X62.775
X62.776 Z-2.928
X62.789
X62.811 Z-2.923
X62.833 Z-2.918
X62.94
X62.965 Y28.3
X62.983 Y28.318
X62.99 Y28.343
X62.983 Y28.368
X62.965 Y28.387
X62.94 Y28.393
X62.918 Z-2.923
X62.896 Z-2.928
X62.882
X62.881 Z-1.52
X61.34
Z-1.02
X60.389
Z-1.01
X60.447 Y28.443
X60.505 Y28.493
Z-1.02
X61.452
Z-1.52
X62.987
X62.988 Z-2.928
X63.001
X63.023 Z-2.923
X63.045 Z-2.918
X63.151
X63.176 Y28.5
X63.195 Y28.518
X63.201 Y28.543
X63.195 Y28.568
X63.176 Y28.587
X63.151 Y28.593
X63.129 Z-2.923
X63.107 Z-2.928
X63.094
X63.093 Z-1.52
X61.564
Z-1.02
X60.621
Z-1.01
X60.678 Y28.643
X60.736 Y28.693
Z-1.02
X61.675
X61.676 Z-1.52
X63.197
X63.198 Z-2.928
X63.212
X63.234 Z-2.923
X63.256 Z-2.918
X63.359
X63.384 Y28.7
X63.402 Y28.718
X63.409 Y28.743
X63.402 Y28.768
X63.384 Y28.787
X63.359 Y28.793
X63.337 Z-2.923
X63.315 Z-2.928
X63.302
X63.296 Z-1.52
X61.786
Z-1.02
X60.852
Z-1.01
X60.908 Y28.843
X60.964 Y28.893
Z-1.02
X61.894
Z-1.52
X63.402
X63.404 Z-2.928
X63.417
X63.439 Z-2.923
X63.461 Z-2.918
X63.564
X63.589 Y28.9
X63.607 Y28.918
X63.614 Y28.943
X63.607 Y28.968
X63.589 Y28.987
X63.564 Y28.993
X63.542 Z-2.923
X63.52 Z-2.928
X63.507
X63.505 Z-1.52
X62.002
X62.001 Z-1.02
X61.075
Z-1.01
X61.131 Y29.043
X61.187 Y29.093
Z-1.02
X62.109
X62.11 Z-1.52
X63.607
X63.609 Z-2.928
X63.622
X63.644 Z-2.923
X63.666 Z-2.918
X63.765
X63.79 Y29.1
X63.808 Y29.118
X63.815 Y29.143
X63.808 Y29.168
X63.79 Y29.187
X63.765 Y29.193
X63.743 Z-2.923
X63.721 Z-2.928
X63.709
X63.706 Z-1.52
X62.218
X62.217 Z-1.02
X61.298
Z-1.01
X61.353 Y29.243
X61.408 Y29.293
Z-1.02
X62.323
Z-1.52
X63.807
X63.808 Z-2.928
X63.821
X63.843 Z-2.923
X63.865 Z-2.918
X63.964
X63.989 Y29.3
X64.008 Y29.318
X64.014 Y29.343
X64.008 Y29.368
X63.989 Y29.387
X63.964 Y29.393
X63.942 Z-2.923
X63.92 Z-2.928
X63.907
X63.906 Z-1.52
X62.427
X62.426 Z-1.02
X61.515
Z-1.01
X61.569 Y29.443
X61.623 Y29.493
Z-1.02
X62.53
X62.532 Z-1.52
X64.003
X64.006 Z-2.928
X64.019
X64.041 Z-2.923
X64.063 Z-2.918
X64.16
X64.185 Y29.5
X64.204 Y29.518
X64.21 Y29.543
X64.204 Y29.568
X64.185 Y29.587
X64.16 Y29.593
X64.138 Z-2.923
X64.116 Z-2.928
X64.103
Z-1.52
X62.635
X62.633 Z-1.02
X61.731
Z-1.01
X61.784 Y29.643
X61.838 Y29.693
Z-1.02
X62.738
X62.739 Z-1.52
X64.195
X64.2 Z-2.928
X64.213
X64.235 Z-2.923
X64.257 Z-2.918
X64.353
X64.378 Y29.7
X64.396 Y29.718
X64.403 Y29.743
X64.396 Y29.768
X64.378 Y29.787
X64.353 Y29.793
X64.331 Z-2.923
X64.309 Z-2.928
X64.296
X64.295 Z-1.52
X62.84
Z-1.02
X61.942
Z-1.01
X61.994 Y29.843
X62.046 Y29.893
Z-1.02
X62.939
X62.94 Z-1.52
X64.39
X64.392 Z-2.928
X64.405
X64.427 Z-2.923
X64.449 Z-2.918
X64.544
X64.569 Y29.9
X64.587 Y29.918
X64.594 Y29.943
X64.587 Y29.968
X64.569 Y29.987
X64.544 Y29.993
X64.522 Z-2.923
X64.5 Z-2.928
X64.487
X64.486 Z-1.52
X63.04
X63.038 Z-1.02
X62.15
Z-1.01
X62.201 Y30.043
X62.253 Y30.093
Z-1.02
X63.137
X63.14 Z-1.52
X64.58
Z-2.928
X64.593
X64.615 Z-2.923
X64.637 Z-2.918
X64.73
X64.755 Y30.1
X64.773 Y30.118
X64.78 Y30.143
X64.773 Y30.168
X64.755 Y30.186
X64.73 Y30.193
X64.708 Z-2.923
X64.686 Z-2.928
X64.673
X64.672 Z-1.52
X63.24
X63.238 Z-1.02
X62.355
Z-1.01
X62.405 Y30.243
X62.455 Y30.293
Z-1.02
X63.334
X63.337 Z-1.52
X64.765
X64.766 Z-2.928
X64.779
X64.801 Z-2.923
X64.823 Z-2.918
X64.915
X64.94 Y30.3
X64.959 Y30.318
X64.965 Y30.343
X64.959 Y30.368
X64.94 Y30.386
X64.915 Y30.393
X64.893 Z-2.923
X64.871 Z-2.928
X64.859
X64.858 Z-1.52
X63.433
X63.432 Z-1.02
X62.555
Z-1.01
X62.605 Y30.443
X62.656 Y30.493
Z-1.02
X63.527
X63.53 Z-1.52
X64.946
X64.95 Z-2.928
X64.963
X64.985 Z-2.923
X65.007 Z-2.918
X65.096
X65.121 Y30.5
X65.14 Y30.518
X65.146 Y30.543
X65.14 Y30.568
X65.121 Y30.586
X65.096 Y30.593
X65.074 Z-2.923
X65.052 Z-2.928
X65.04
X65.039 Z-1.52
X63.625
X63.622 Z-1.02
X62.756
Z-1.01
X62.853 Y30.693
Z-1.02
X63.719
X63.72 Z-1.52
X65.129
X65.13 Z-2.928
X65.142
X65.164 Z-2.923
X65.186 Z-2.918
X65.275
X65.3 Y30.7
X65.319 Y30.718
X65.325 Y30.743
X65.319 Y30.768
X65.3 Y30.786
X65.275 Y30.793
X65.253 Z-2.923
X65.231 Z-2.928
X65.22
X65.216 Z-1.52
X63.814
X63.812 Z-1.02
X62.949
Z-1.01
X63.045 Y30.893
Z-1.02
X63.907
Z-1.52
X65.304
X65.309 Z-2.928
X65.32
X65.342 Z-2.923
X65.364 Z-2.918
X65.453
X65.478 Y30.9
X65.496 Y30.918
X65.503 Y30.943
X65.496 Y30.968
X65.478 Y30.986
X65.453 Y30.993
X65.431 Z-2.923
X65.409 Z-2.928
X65.396
X65.395 Z-1.52
X64.
X63.998 Z-1.02
X63.142
Z-1.01
X63.238 Y31.093
Z-1.02
X64.089
X64.092 Z-1.52
X65.481
X65.483 Z-2.928
X65.495
X65.517 Z-2.923
X65.539 Z-2.918
X65.626
X65.651 Y31.1
X65.669 Y31.118
X65.676 Y31.143
X65.669 Y31.168
X65.651 Y31.186
X65.626 Y31.193
X65.604 Z-2.923
X65.582 Z-2.928
X65.57
X65.568 Z-1.52
X64.183
X64.18 Z-1.02
X63.331
Z-1.01
X63.424 Y31.293
Z-1.02
X64.271
X64.274 Z-1.52
X65.654
X65.657 Z-2.928
X65.668
X65.69 Z-2.923
X65.712 Z-2.918
X65.798
X65.823 Y31.3
X65.841 Y31.318
X65.848 Y31.343
X65.841 Y31.368
X65.823 Y31.386
X65.798 Y31.393
X65.776 Z-2.923
X65.754 Z-2.928
X65.742
X65.74 Z-1.52
X64.364
X64.361 Z-1.02
X63.517
Z-1.01
X63.609 Y31.493
Z-1.02
X64.451
X64.452 Z-1.52
X65.825
X65.826 Z-2.928
X65.838
X65.86 Z-2.923
X65.882 Z-2.918
X65.966
X65.991 Y31.5
X66.009 Y31.518
X66.016 Y31.543
X66.009 Y31.568
X65.991 Y31.586
X65.966 Y31.593
X65.944 Z-2.923
X65.922 Z-2.928
X65.91
X65.909 Z-1.52
X64.541
X64.539 Z-1.02
X63.702
Z-1.01
X63.792 Y31.693
Z-1.02
X64.626
X64.628 Z-1.52
X65.991
X65.994 Z-2.928
X66.005
X66.027 Z-2.923
X66.049 Z-2.918
X66.132
X66.157 Y31.7
X66.176 Y31.718
X66.182 Y31.743
X66.176 Y31.768
X66.157 Y31.786
X66.132 Y31.793
X66.11 Z-2.923
X66.088 Z-2.928
X66.077
X66.076 Z-1.52
X64.717
X64.713 Z-1.02
X63.881
Z-1.01
X63.97 Y31.893
Z-1.02
X64.799
X64.802 Z-1.52
X66.158
X66.16 Z-2.928
X66.171
X66.193 Z-2.923
X66.215 Z-2.918
X66.297
X66.322 Y31.9
X66.341 Y31.918
X66.347 Y31.943
X66.341 Y31.968
X66.322 Y31.986
X66.297 Y31.993
X66.275 Z-2.923
X66.253 Z-2.928
X66.241
X66.24 Z-1.52
X64.889
X64.886 Z-1.02
X64.059
Z-1.01
X64.148 Y32.093
Z-1.02
X64.971
X64.973 Z-1.52
X66.319
X66.322 Z-2.928
X66.333
X66.355 Z-2.923
X66.377 Z-2.918
X66.458
X66.483 Y32.1
X66.501 Y32.118
X66.508 Y32.143
X66.501 Y32.168
X66.483 Y32.186
X66.458 Y32.193
X66.436 Z-2.923
X66.414 Z-2.928
X66.403
X66.4 Z-1.52
X65.058
X65.056 Z-1.02
X64.235
Z-1.01
X64.32 Y32.293
Z-1.02
X65.139
X65.142 Z-1.52
X66.48
X66.483 Z-2.928
X66.493
X66.515 Z-2.923
X66.537 Z-2.918
X66.617
X66.642 Y32.3
X66.66 Y32.318
X66.667 Y32.343
X66.66 Y32.368
X66.642 Y32.386
X66.617 Y32.393
X66.595 Z-2.923
X66.573 Z-2.928
X66.562
X66.56 Z-1.52
X65.226
X65.222 Z-1.02
X64.406
Z-1.01
X64.491 Y32.493
Z-1.02
X65.305
X65.307 Z-1.52
X66.639
X66.641 Z-2.928
X66.653
X66.675 Z-2.923
X66.697 Z-2.918
X66.774
X66.799 Y32.5
X66.818 Y32.518
X66.824 Y32.543
X66.818 Y32.568
X66.799 Y32.586
X66.774 Y32.593
X66.752 Z-2.923
X66.73 Z-2.928
X66.718
Z-1.52
X65.389
X65.388 Z-1.02
X64.577
Z-1.01
X64.661 Y32.693
Z-1.02
X65.47
Z-1.52
X66.792
X66.797 Z-2.928
X66.807
X66.829 Z-2.923
X66.851 Z-2.918
X66.927
X66.952 Y32.7
X66.971 Y32.718
X66.977 Y32.743
X66.971 Y32.768
X66.952 Y32.786
X66.927 Y32.793
X66.905 Z-2.923
X66.883 Z-2.928
X66.873
X66.871 Z-1.52
X65.552
X65.549 Z-1.02
X64.743
Z-1.01
X64.825 Y32.893
Z-1.02
X65.629
X65.632 Z-1.52
X66.947
X66.95 Z-2.928
X66.96
X66.982 Z-2.923
X67.004 Z-2.918
X67.081
X67.106 Y32.9
X67.125 Y32.918
X67.131 Y32.943
X67.125 Y32.968
X67.106 Y32.986
X67.081 Y32.993
X67.059 Z-2.923
X67.037 Z-2.928
X67.026
X67.024 Z-1.52
X65.712
X65.708 Z-1.02
X64.907
Z-1.01
X64.989 Y33.093
Z-1.02
X65.787
X65.79 Z-1.52
X67.095
X67.1 Z-2.928
X67.112
X67.134 Z-2.923
X67.156 Z-2.918
X67.23
X67.255 Y33.1
X67.273 Y33.118
X67.28 Y33.143
X67.273 Y33.168
X67.255 Y33.186
X67.23 Y33.193
X67.208 Z-2.923
X67.186 Z-2.928
X67.176
X67.174 Z-1.52
X65.867
Z-1.02
X65.07
Z-1.01
X65.15 Y33.293
Z-1.02
X65.945
Z-1.52
X67.244
X67.249 Z-2.928
X67.26
X67.282 Z-2.923
X67.304 Z-2.918
X67.377
X67.402 Y33.3
X67.421 Y33.318
X67.427 Y33.343
X67.421 Y33.368
X67.402 Y33.386
X67.377 Y33.393
X67.355 Z-2.923
X67.333 Z-2.928
X67.323
X67.318 Z-1.52
X66.023
X66.021 Z-1.02
X65.229
Z-1.01
X65.307 Y33.493
Z-1.02
X66.097
X66.1 Z-1.52
X67.393
X67.396 Z-2.928
X67.408
X67.43 Z-2.923
X67.452 Z-2.918
X67.524
X67.549 Y33.5
X67.568 Y33.518
X67.574 Y33.543
X67.568 Y33.568
X67.549 Y33.586
X67.524 Y33.593
X67.502 Z-2.923
X67.48 Z-2.928
X67.469
X67.464 Z-1.52
X66.175
X66.172 Z-1.02
X65.386
Z-1.01
X65.464 Y33.693
Z-1.02
X66.247
X66.25 Z-1.52
X67.538
X67.541 Z-2.928
X67.551
X67.622
X67.647 Y33.7
X67.665 Y33.718
X67.672 Y33.743
X67.665 Y33.768
X67.647 Y33.786
X67.622 Y33.793
X67.612
X67.609 Z-1.52
X66.325
X66.323 Z-1.02
X65.541
Z-1.01
X65.617 Y33.893
Z-1.02
X66.398
X66.399 Z-1.52
X67.681
X67.683 Z-2.928
X67.693
X67.764
X67.789 Y33.9
X67.807 Y33.918
X67.814 Y33.943
X67.807 Y33.968
X67.789 Y33.986
X67.764 Y33.993
X67.753
X67.752 Z-1.52
X66.474
X66.471 Z-1.02
X65.693
Z-1.01
X65.768 Y34.093
Z-1.02
X66.543
X66.547 Z-1.52
X67.823
Z-2.928
X67.834
X67.856 Z-2.923
X67.878 Z-2.918
X67.947
X67.972 Y34.1
X67.991 Y34.118
X67.997 Y34.143
X67.991 Y34.168
X67.972 Y34.186
X67.947 Y34.193
X67.925 Z-2.923
X67.903 Z-2.928
X67.893
X67.888 Z-1.52
X66.62
X66.616 Z-1.02
X65.843
Z-1.01
X65.916 Y34.293
Z-1.02
X66.689
X66.691 Z-1.52
X67.959
X67.961 Z-2.928
X67.971
X67.993 Z-2.923
X68.015 Z-2.918
X68.084
X68.109 Y34.3
X68.127 Y34.318
X68.134 Y34.343
X68.127 Y34.368
X68.109 Y34.386
X68.084 Y34.393
X68.062 Z-2.923
X68.04 Z-2.928
X68.029
X68.025 Z-1.52
X66.761
X66.76 Z-1.02
X65.99
Z-1.01
X66.063 Y34.493
Z-1.02
X66.832
X66.833 Z-1.52
X68.095
X68.097 Z-2.928
X68.108
X68.13 Z-2.923
X68.152 Z-2.918
X68.219
X68.244 Y34.5
X68.263 Y34.518
X68.269 Y34.543
X68.263 Y34.568
X68.244 Y34.586
X68.219 Y34.593
X68.197 Z-2.923
X68.175 Z-2.928
X68.165
X68.164 Z-1.52
X66.904
X66.901 Z-1.02
X66.135
Z-1.01
X66.207 Y34.693
Z-1.02
X66.97
X66.974 Z-1.52
X68.228
X68.231 Z-2.928
X68.242
X68.264 Z-2.923
X68.286 Z-2.918
X68.352
X68.377 Y34.7
X68.395 Y34.718
X68.402 Y34.743
X68.395 Y34.768
X68.377 Y34.786
X68.352 Y34.793
X68.33 Z-2.923
X68.308 Z-2.928
X68.297
X68.296 Z-1.52
X67.043
X67.042 Z-1.02
X66.278
Z-1.01
X66.348 Y34.893
Z-1.02
X67.108
X67.111 Z-1.52
X68.359
X68.363 Z-2.928
X68.373
X68.395 Z-2.923
X68.417 Z-2.918
X68.482
X68.507 Y34.9
X68.526 Y34.918
X68.532 Y34.943
X68.526 Y34.968
X68.507 Y34.986
X68.482 Y34.993
X68.46 Z-2.923
X68.438 Z-2.928
X68.428
X68.426 Z-1.52
X67.179
X67.176 Z-1.02
X66.418
Z-1.01
X66.488 Y35.093
Z-1.02
X67.245
X67.247 Z-1.52
X68.492
X68.493 Z-2.928
X68.504
X68.526 Z-2.923
X68.548 Z-2.918
X68.613
X68.638 Y35.1
X68.656 Y35.118
X68.663 Y35.143
X68.656 Y35.168
X68.638 Y35.186
X68.613 Y35.193
X68.591 Z-2.923
X68.569 Z-2.928
X68.557
X68.556 Z-1.52
X67.313
X67.312 Z-1.02
X66.557
Z-1.01
X66.625 Y35.293
Z-1.02
X67.378
X67.381 Z-1.52
X68.619
X68.621 Z-2.928
X68.631
X68.653 Z-2.923
X68.675 Z-2.918
X68.738
X68.763 Y35.3
X68.781 Y35.318
X68.788 Y35.343
X68.781 Y35.368
X68.763 Y35.386
X68.738 Y35.393
X68.716 Z-2.923
X68.694 Z-2.928
X68.684
X68.68 Z-1.52
X67.447
X67.444 Z-1.02
X66.693
Z-1.01
X66.759 Y35.493
Z-1.02
X67.51
X67.512 Z-1.52
X68.744
X68.746 Z-2.928
X68.757
X68.779 Z-2.923
X68.801 Z-2.918
X68.863
X68.888 Y35.5
X68.907 Y35.518
X68.913 Y35.543
X68.907 Y35.568
X68.888 Y35.586
X68.863 Y35.593
X68.841 Z-2.923
X68.819 Z-2.928
X68.809
X68.808 Z-1.52
X67.577
X67.575 Z-1.02
X66.826
Z-1.01
X66.892 Y35.693
Z-1.02
X67.64
X67.641 Z-1.52
X68.869
X68.871 Z-2.928
X68.882
X68.904 Z-2.923
X68.926 Z-2.918
X68.987
X69.012 Y35.7
X69.03 Y35.718
X69.037 Y35.743
X69.03 Y35.768
X69.012 Y35.786
X68.987 Y35.793
X68.965 Z-2.923
X68.943 Z-2.928
X68.932
X68.927 Z-1.52
X67.705
X67.704 Z-1.02
X66.959
Z-1.01
X67.024 Y35.893
Z-1.02
X67.766
X67.768 Z-1.52
X68.99
X68.993 Z-2.928
X69.002
X69.024 Z-2.923
X69.046 Z-2.918
X69.107
X69.132 Y35.9
X69.15 Y35.918
X69.157 Y35.943
X69.15 Y35.968
X69.132 Y35.986
X69.107 Y35.993
X69.085 Z-2.923
X69.063 Z-2.928
X69.053
X69.051 Z-1.52
X67.831
X67.829 Z-1.02
X67.088
Z-1.01
X67.151 Y36.093
Z-1.02
X67.891
X67.894 Z-1.52
X69.111
X69.113 Z-2.928
X69.122
X69.144 Z-2.923
X69.166 Z-2.918
X69.227
X69.252 Y36.1
X69.27 Y36.118
X69.277 Y36.143
X69.27 Y36.168
X69.252 Y36.186
X69.227 Y36.193
X69.205 Z-2.923
X69.183 Z-2.928
X69.172
X69.171 Z-1.52
X67.956
X67.955 Z-1.02
X67.214
Z-1.01
X67.278 Y36.293
Z-1.02
X68.015
X68.017 Z-1.52
X69.23
X69.232 Z-2.928
X69.243
X69.265 Z-2.923
X69.287 Z-2.918
X69.344
X69.369 Y36.3
X69.388 Y36.318
X69.394 Y36.343
X69.388 Y36.368
X69.369 Y36.386
X69.344 Y36.393
X69.322 Z-2.923
X69.3 Z-2.928
X69.29
X69.288 Z-1.52
X68.078
Z-1.02
X67.341
Z-1.01
X67.404 Y36.493
Z-1.02
X68.137
X68.139 Z-1.52
X69.345
X69.348 Z-2.928
X69.357
X69.379 Z-2.923
X69.401 Z-2.918
X69.459
X69.484 Y36.5
X69.502 Y36.518
X69.509 Y36.543
X69.502 Y36.568
X69.484 Y36.586
X69.459 Y36.593
X69.437 Z-2.923
X69.415 Z-2.928
X69.405
X69.4 Z-1.52
X68.199
X68.196 Z-1.02
X67.465
Z-1.01
X67.525 Y36.693
Z-1.02
X68.255
X68.257 Z-1.52
X69.461
X69.462 Z-2.928
X69.472
X69.494 Z-2.923
X69.516 Z-2.918
X69.574
X69.599 Y36.7
X69.617 Y36.718
X69.624 Y36.743
X69.617 Y36.768
X69.599 Y36.786
X69.574 Y36.793
X69.552 Z-2.923
X69.53 Z-2.928
X69.519
X69.515 Z-1.52
X68.318
X68.315 Z-1.02
X67.585
Z-1.01
X67.646 Y36.893
Z-1.02
X68.373
X68.376 Z-1.52
X69.573
X69.575 Z-2.928
X69.586
X69.608 Z-2.923
X69.63 Z-2.918
X69.685
X69.71 Y36.9
X69.729 Y36.918
X69.735 Y36.943
X69.729 Y36.968
X69.71 Y36.986
X69.685 Y36.993
X69.663 Z-2.923
X69.641 Z-2.928
X69.631
X69.628 Z-1.52
X68.434
X68.432 Z-1.02
X67.706
Z-1.01
X67.766 Y37.093
Z-1.02
X68.491
Z-1.52
X69.683
X69.686 Z-2.928
X69.695
X69.717 Z-2.923
X69.739 Z-2.918
X69.794
X69.819 Y37.1
X69.837 Y37.118
X69.844 Y37.143
X69.837 Y37.168
X69.819 Y37.186
X69.794 Y37.193
X69.772 Z-2.923
X69.75 Z-2.928
X69.741
X69.738 Z-1.52
X68.547
Z-1.02
X67.824
Z-1.01
X67.882 Y37.293
Z-1.02
X68.603
X68.604 Z-1.52
X69.791
X69.795 Z-2.928
X69.805
X69.827 Z-2.923
X69.849 Z-2.918
X69.904
X69.929 Y37.3
X69.947 Y37.318
X69.954 Y37.343
X69.947 Y37.368
X69.929 Y37.386
X69.904 Y37.393
X69.882 Z-2.923
X69.86 Z-2.928
X69.85
X69.845 Z-1.52
X68.661
X68.658 Z-1.02
X67.939
Z-1.01
X67.996 Y37.493
Z-1.02
X68.714
X68.717 Z-1.52
X69.901
X69.903 Z-2.928
X69.914
X69.936 Z-2.923
X69.958 Z-2.918
X70.01
X70.035 Y37.5
X70.053 Y37.518
X70.06 Y37.543
X70.053 Y37.568
X70.035 Y37.586
X70.01 Y37.593
X69.988 Z-2.923
X69.966 Z-2.928
X69.956
X69.952 Z-1.52
X68.773
X68.77 Z-1.02
X68.053
Z-1.01
X68.11 Y37.693
Z-1.02
X68.826
X68.827 Z-1.52
X70.007
X70.008 Z-2.928
X70.017
X70.039 Z-2.923
X70.061 Z-2.918
X70.114
X70.139 Y37.7
X70.158 Y37.718
X70.164 Y37.743
X70.158 Y37.768
X70.139 Y37.786
X70.114 Y37.793
X70.092 Z-2.923
X70.07 Z-2.928
X70.06
X70.058 Z-1.52
X68.882
X68.88 Z-1.02
X68.166
Z-1.01
X68.221 Y37.893
Z-1.02
X68.933
X68.934 Z-1.52
X70.108
X70.112 Z-2.928
X70.122
X70.144 Z-2.923
X70.166 Z-2.918
X70.219
X70.244 Y37.9
X70.262 Y37.918
X70.269 Y37.943
X70.262 Y37.968
X70.244 Y37.986
X70.219 Y37.993
X70.197 Z-2.923
X70.175 Z-2.928
X70.164
Z-1.52
X68.988
X68.986 Z-1.02
X68.275
Z-1.01
X68.329 Y38.093
Z-1.02
X69.038
X69.041 Z-1.52
X70.211
X70.215 Z-2.928
X70.225
X70.247 Z-2.923
X70.269 Z-2.918
X70.319
X70.344 Y38.1
X70.362 Y38.118
X70.369 Y38.143
X70.362 Y38.168
X70.344 Y38.186
X70.319 Y38.193
X70.297 Z-2.923
X70.275 Z-2.928
X70.266
X70.264 Z-1.52
X69.093
X69.092 Z-1.02
X68.384
Z-1.01
X68.437 Y38.293
Z-1.02
X69.146
X69.148 Z-1.52
X70.311
X70.315 Z-2.928
X70.324
X70.346 Z-2.923
X70.368 Z-2.918
X70.418
X70.443 Y38.3
X70.462 Y38.318
X70.468 Y38.343
X70.462 Y38.368
X70.443 Y38.386
X70.418 Y38.393
X70.396 Z-2.923
X70.374 Z-2.928
X70.365
X70.363 Z-1.52
X69.198
X69.197 Z-1.02
X68.49
Z-1.01
X68.542 Y38.493
Z-1.02
X69.248
Z-1.52
X70.412
X70.414 Z-2.928
X70.424
X70.446 Z-2.923
X70.468 Z-2.918
X70.517
X70.542 Y38.5
X70.561 Y38.518
X70.567 Y38.543
X70.561 Y38.568
X70.542 Y38.586
X70.517 Y38.593
X70.495 Z-2.923
X70.473 Z-2.928
X70.463
X70.462 Z-1.52
X69.298
Z-1.02
X68.595
Z-1.01
X68.646 Y38.693
Z-1.02
X69.347
X69.348 Z-1.52
X70.511
Z-2.928
X70.522
X70.544 Z-2.923
X70.566 Z-2.918
X70.613
X70.638 Y38.7
X70.656 Y38.718
X70.663 Y38.743
X70.656 Y38.768
X70.638 Y38.786
X70.613 Y38.793
X70.591 Z-2.923
X70.569 Z-2.928
X70.56
X70.557 Z-1.52
X69.398
X69.397 Z-1.02
X68.697
Z-1.01
X68.748 Y38.893
Z-1.02
X69.447
X69.448 Z-1.52
X70.605
X70.607 Z-2.928
X70.616
X70.638 Z-2.923
X70.66 Z-2.918
X70.708
X70.733 Y38.9
X70.751 Y38.918
X70.758 Y38.943
X70.751 Y38.968
X70.733 Y38.986
X70.708 Y38.993
X70.686 Z-2.923
X70.664 Z-2.928
X70.654
X70.652 Z-1.52
X69.498
X69.497 Z-1.02
X68.797
Z-1.01
X68.847 Y39.093
Z-1.02
X69.547
Z-1.52
X70.698
X70.701 Z-2.928
X70.71
X70.732 Z-2.923
X70.754 Z-2.918
X70.801
X70.826 Y39.1
X70.845 Y39.118
X70.851 Y39.143
X70.845 Y39.168
X70.826 Y39.186
X70.801 Y39.193
X70.779 Z-2.923
X70.757 Z-2.928
X70.748
X70.746 Z-1.52
X69.594
X69.591 Z-1.02
X68.897
Z-1.01
X68.946 Y39.293
Z-1.02
X69.64
X69.641 Z-1.52
X70.791
X70.793 Z-2.928
X70.803
X70.825 Z-2.923
X70.847 Z-2.918
X70.892
X70.917 Y39.3
X70.936 Y39.318
X70.942 Y39.343
X70.936 Y39.368
X70.917 Y39.386
X70.892 Y39.393
X70.87 Z-2.923
X70.848 Z-2.928
X70.839
X70.836 Z-1.52
X69.688
Z-1.02
X68.995
Z-1.01
X69.043 Y39.493
Z-1.02
X69.733
X69.735 Z-1.52
X70.881
X70.884 Z-2.928
X70.893
X70.915 Z-2.923
X70.937 Z-2.918
X70.981
X71.006 Y39.5
X71.025 Y39.518
X71.031 Y39.543
X71.025 Y39.568
X71.006 Y39.586
X70.981 Y39.593
X70.959 Z-2.923
X70.937 Z-2.928
X70.928
X70.926 Z-1.52
X69.781
X69.78 Z-1.02
X69.089
Z-1.01
X69.136 Y39.693
Z-1.02
X69.827
X69.828 Z-1.52
X70.968
X70.973 Z-2.928
X70.983
X71.005 Z-2.923
X71.027 Z-2.918
X71.071
X71.096 Y39.7
X71.114 Y39.718
X71.121 Y39.743
X71.114 Y39.768
X71.096 Y39.786
X71.071 Y39.793
X71.049 Z-2.923
X71.027 Z-2.928
X71.017
X71.016 Z-1.52
X69.875
X69.874 Z-1.02
X69.182
Z-1.01
X69.229 Y39.893
Z-1.02
X69.919
X69.92 Z-1.52
X71.06
Z-2.928
X71.07
X71.092 Z-2.923
X71.114 Z-2.918
X71.157
X71.182 Y39.9
X71.2 Y39.918
X71.207 Y39.943
X71.2 Y39.968
X71.182 Y39.986
X71.157 Y39.993
X71.135 Z-2.923
X71.113 Z-2.928
X71.103
X71.102 Z-1.52
X69.964
X69.962 Z-1.02
X69.275
Z-1.01
X69.322 Y40.093
Z-1.02
X70.007
X70.008 Z-1.52
X71.144
X71.147 Z-2.928
X71.155
X71.177 Z-2.923
X71.199 Z-2.918
X71.242
X71.267 Y40.1
X71.285 Y40.118
X71.292 Y40.143
X71.285 Y40.168
X71.267 Y40.186
X71.242 Y40.193
X71.22 Z-2.923
X71.198 Z-2.928
X71.189
X71.186 Z-1.52
X70.052
X70.051 Z-1.02
X69.366
Z-1.01
X69.41 Y40.293
Z-1.02
X70.095
Z-1.52
X71.229
X71.231 Z-2.928
X71.24
X71.262 Z-2.923
X71.284 Z-2.918
X71.327
X71.352 Y40.3
X71.37 Y40.318
X71.377 Y40.343
X71.37 Y40.368
X71.352 Y40.386
X71.327 Y40.393
X71.305 Z-2.923
X71.283 Z-2.928
X71.273
X71.271 Z-1.52
X70.139
X70.138 Z-1.02
X69.454
Z-1.01
X69.498 Y40.493
Z-1.02
X70.182
X70.183 Z-1.52
X71.312
X71.313 Z-2.928
X71.324
X71.346 Z-2.923
X71.368 Z-2.918
X71.408
X71.433 Y40.5
