(1001)
(T1  D=3.175 CR=0. - ZMIN=-3.271 - FLAT END MILL)
G0 G90 G94 G17
G21
G53 G0 Z0.

(3.175MM  FLATEND  POCKET)
M5
M9
T1
S12000 M3
G4 P4.
G55
G0 X53.1 Y80.189
Z15.
Z-1.228
G1 Z-1.901 F17.
X53.098 Y80.19 Z-1.936
X53.094 Y80.194 Z-1.97
X53.087 Y80.2 Z-2.004
X53.076 Y80.209 Z-2.037
X53.063 Y80.219 Z-2.068
X53.048 Y80.232 Z-2.096
X53.029 Y80.246 Z-2.123
X53.009 Y80.262 Z-2.147
X52.985 Y80.278 Z-2.167
X52.96 Y80.296 Z-2.185
X52.933 Y80.313 Z-2.199
X52.905 Y80.331 Z-2.209
X52.875 Y80.349 Z-2.215
X52.845 Y80.366 Z-2.218
G3 X51.388 Y77.725 Z-2.318 I-0.729 J-1.32
X52.845 Y80.366 Z-2.418 I0.729 J1.32
X51.388 Y77.725 Z-2.518 I-0.729 J-1.32
X53.623 Y79.117 Z-2.586 I0.729 J1.32
X50.729 Y78.98 I-1.447 J-0.069
G2 X50.674 Y77.841 I-5.967 J-0.283 F200.
G3 X50.954 Y77.52 I0.277 J-0.04
G1 X51.
G3 X51.282 Y77.808 I0.002 J0.28
G1 X51.281 Y77.844
X51.278 Y77.879
G2 X51.223 Y79.096 I6.166 J0.887
G1 X51.285 Y80.278
G3 X51.005 Y80.573 I-0.28 J0.015
G1 X50.94
G3 X50.66 Y80.278 I0. J-0.28
G1 X50.727 Y79.013
X50.729 Y78.98
G2 X50.568 Y78.721 I-0.269 J-0.013
G3 X50.395 Y78.469 I0.116 J-0.265
G2 X50.337 Y77.856 I-6.353 J0.298
G3 X50.929 Y77.184 I0.582 J-0.084
G1 X50.979
G3 X51.617 Y77.839 I0. J0.639
G1 X51.609 Y77.961
X51.591 Y78.083
X51.574 Y78.204
X51.569 Y78.327
G2 X51.579 Y79.317 I46.8 J0.
X51.624 Y80.305 I20.658 J-0.437
G3 X51.06 Y80.909 I-0.563 J0.039
G1 X50.885
G3 X50.322 Y80.305 I0. J-0.565
G2 X50.395 Y79.081 I-61.889 J-4.279
Y78.469 I-6.352 J-0.313
G1 X50.388 Y78.42
X50.369 Y78.373
X50.341 Y78.331
X50.305 Y78.296
X50.262 Y78.27
X50.218 Y78.244
X50.182 Y78.21
X50.153 Y78.169
X50.133 Y78.123
X50.123 Y78.074
X50.11 Y77.959
G2 X50.041 Y77.574 I-6.204 J0.899
G3 X49.973 Y77.188 I6.136 J-1.284
X50.357 Y76.843 I0.307 J-0.045
G2 X51.611 Y76.841 I0.625 J-2.464
G3 X51.963 Y77.183 I0.071 J0.278
G2 X51.768 Y78.943 I7.708 J1.745
X51.941 Y80.706 I9.27 J-0.018
G3 X51.556 Y81.173 I-0.384 J0.075
G1 X50.39
G3 X50.005 Y80.706 I0. J-0.392
G2 X50.096 Y79.864 I-4.882 J-0.956
X50.1 Y79.017 I-23.418 J-0.535
G3 X50.122 Y78.488 I4.846 J-0.065
G2 X50.123 Y78.074 I-2.202 J-0.212
X49.935 Y77.849 I-0.256 J0.024
G3 X49.738 Y77.633 I0.073 J-0.264
G2 X49.578 Y76.919 I-8.043 J1.427
G3 X50.144 Y76.419 I0.406 J-0.11
G2 X51.815 Y76.421 I0.837 J-2.041
G3 X52.38 Y76.918 I0.159 J0.389
G2 X52.136 Y78.654 I7.056 J1.879
X52.221 Y80.405 I12.89 J0.253
G1 X52.237 Y80.514
X52.261 Y80.623
X52.315 Y80.837
G3 X51.795 Y81.509 I-0.52 J0.134
G1 X50.186
G3 X49.639 Y80.803 I0. J-0.565
G2 X49.861 Y78.857 I-6.87 J-1.77
X49.738 Y77.633 I-8.166 J0.203
G1 X49.725 Y77.588
X49.702 Y77.549
X49.67 Y77.515
X49.632 Y77.49
X49.588 Y77.474
X49.535 Y77.454
X49.489 Y77.42
X49.454 Y77.374
X49.433 Y77.321
G2 X49.228 Y76.717 I-3.602 J0.886
G3 X49.448 Y76.144 I0.399 J-0.175
G1 X49.534 Y76.103
X49.607 Y76.073
X49.684 Y76.054
X49.763 Y76.048
X49.858
X49.938 Y76.054
X50.016 Y76.073
X50.09 Y76.104
G2 X51.872 I0.891 J-1.725
G1 X51.946 Y76.073
X52.024 Y76.054
X52.104 Y76.048
X52.189
X52.269 Y76.054
X52.347 Y76.073
X52.421 Y76.104
X52.504 Y76.144
G3 X52.727 Y76.721 I-0.184 J0.402
G2 X52.377 Y78.488 I3.983 J1.707
X52.454 Y80.288 I31.16 J-0.432
X52.569 Y80.832 I2.041 J-0.147
X52.792 Y81.34 I3.779 J-1.353
G3 X52.53 Y81.773 I-0.262 J0.137
G1 X49.416
G3 X49.153 Y81.341 I0. J-0.296
G2 X49.376 Y80.832 I-3.9 J-2.009
X49.492 Y80.288 I-1.891 J-0.688
X49.484 Y79.638 I-3.91 J-0.281
G3 X49.447 Y78.988 I8.718 J-0.827
X49.472 Y78.72 I1.207 J-0.024
G2 X49.505 Y77.699 I-2.948 J-0.608
X49.433 Y77.321 I-3.675 J0.508
X49.214 Y77.126 I-0.251 J0.062
G3 X48.977 Y76.952 I0.037 J-0.298
G2 X48.792 Y76.615 I-2.243 J1.015
G3 X49.057 Y75.927 I0.379 J-0.249
G2 X49.393 Y75.797 I-0.406 J-1.554
G3 X49.743 Y75.712 I0.35 J0.671
G1 X49.879
G3 X50.232 Y75.799 I0. J0.757
G2 X51.73 I0.749 J-1.42
G3 X52.083 Y75.712 I0.353 J0.669
G1 X52.21
G3 X52.563 Y75.799 I0. J0.757
G2 X52.91 Y75.933 I0.749 J-1.421
G3 X53.169 Y76.605 I-0.111 J0.429
G2 X52.674 Y78.403 I2.538 J1.666
X52.782 Y80.265 I66.56 J-2.911
X52.945 Y80.918 I1.948 J-0.14
X53.286 Y81.498 I2.74 J-1.217
G3 X52.98 Y82.109 I-0.305 J0.229
G1 X48.964
G3 X48.66 Y81.499 I0. J-0.381
G2 X49.025 Y80.821 I-2.073 J-1.555
X49.162 Y80.063 I-2.196 J-0.79
X49.141 Y79.542 I-4.802 J-0.066
G3 X49.112 Y79.021 I6.815 J-0.649
X49.145 Y78.637 I1.81 J-0.034
G2 X49.167 Y77.592 I-2.969 J-0.585
X48.977 Y76.952 I-2.433 J0.375
G1 X48.951 Y76.909
X48.915 Y76.873
X48.872 Y76.847
X48.824 Y76.832
X48.773 Y76.829
X48.723 Y76.827
X48.675 Y76.814
X48.631 Y76.792
X48.592 Y76.762
X48.56 Y76.723
X48.503 Y76.644
X48.443 Y76.567
G2 X48.237 Y76.344 I-2.005 J1.64
G3 X48.021 Y76.132 I18.513 J-19.163
X48.287 Y75.667 I0.195 J-0.197
G2 X48.797 Y75.707 I0.361 J-1.351
X49.286 Y75.555 I-0.142 J-1.326
G3 X49.713 Y75.448 I0.428 J0.796
G1 X49.908
G3 X50.34 Y75.557 I0. J0.903
G2 X51.622 I0.641 J-1.179
G3 X52.054 Y75.448 I0.432 J0.793
G1 X52.239
G3 X52.671 Y75.557 I0. J0.903
G2 X53.668 Y75.672 I0.641 J-1.179
G3 X53.944 Y76.136 I0.074 J0.27
G2 X53.48 Y76.632 I23.964 J22.942
X53.152 Y77.227 I1.051 J0.966
X52.933 Y78.811 I6.189 J1.664
X53.052 Y80.406 I9.216 J0.114
X53.377 Y81.207 I1.919 J-0.313
X53.987 Y81.819 I2.044 J-1.427
G3 X54.106 Y82.049 I-0.161 J0.229
G1 Y82.092
G3 X53.826 Y82.373 I-0.28 J0.
G1 X48.133
G3 X47.853 Y82.092 I0. J-0.28
G1 Y82.039
G3 X47.972 Y81.809 I0.28 J0.
G2 X48.612 Y81.132 I-1.328 J-1.894
X48.898 Y80.246 I-1.659 J-1.026
X48.887 Y79.611 I-3.543 J-0.255
G3 X48.847 Y78.978 I7.254 J-0.781
X48.882 Y78.608 I1.612 J-0.033
G2 X48.895 Y77.537 I-2.653 J-0.568
X48.56 Y76.723 I-2.131 J0.402
X48.26 Y76.605 I-0.237 J0.16
G3 X47.95 Y76.518 I-0.074 J-0.331
G1 X47.835 Y76.413
X47.693 Y76.281
G3 X47.527 Y75.795 I0.393 J-0.405
G1 X47.535 Y75.743
G3 X48.273 Y75.31 I0.542 J0.078
G2 X48.699 Y75.378 I0.376 J-0.978
X49.116 Y75.265 I-0.049 J-1.006
G3 X49.742 Y75.112 I0.627 J1.201
G1 X49.879
G3 X50.512 Y75.268 I0. J1.355
G2 X51.451 I0.469 J-0.889
G3 X52.083 Y75.112 I0.632 J1.198
G1 X52.21
G3 X52.842 Y75.268 I0. J1.355
G2 X53.676 Y75.316 I0.469 J-0.89
G3 X54.421 Y75.735 I0.2 J0.515
G1 X54.429 Y75.782
G3 X54.281 Y76.27 I-0.556 J0.098
G2 X53.797 Y76.788 I21.395 J20.483
X53.447 Y77.403 I1.187 J1.084
X53.237 Y78.916 I4.664 J1.42
X53.409 Y80.433 I8.146 J-0.155
X53.692 Y81.07 I1.618 J-0.339
X54.195 Y81.554 I1.648 J-1.206
G3 X54.442 Y82.022 I-0.317 J0.467
G1 Y82.144
G3 X53.878 Y82.709 I-0.565 J0.
G1 X48.081
G3 X47.517 Y82.144 I0. J-0.565
G1 Y82.012
G3 X47.757 Y81.55 I0.565 J0.
G2 X48.309 Y80.976 I-1.189 J-1.696
X48.561 Y80.222 I-1.349 J-0.87
X48.55 Y79.627 I-3.282 J-0.236
G3 X48.512 Y79.033 I6.511 J-0.715
X48.557 Y78.521 I2.418 J-0.045
G2 X48.516 Y77.46 I-2.257 J-0.444
X47.977 Y76.544 I-1.991 J0.555
G1 X47.95 Y76.518
X47.907 Y76.487
X47.857 Y76.47
X47.804 Y76.468
X47.753 Y76.481
X47.702 Y76.494
X47.649 Y76.492
X47.599 Y76.474
X47.556 Y76.443
X47.297 Y76.192
X47.293 Y76.188
X47.262 Y76.159
X47.276 Y76.051
X47.398 Y75.207
Y75.203
X47.417 Y75.065
X47.438 Y74.927
X47.439 Y74.92
X47.442 Y74.9
X48.008
X48.041
X48.042 Y74.901
X48.045 Y74.904
X48.05 Y74.909
G2 X48.52 Y75.157 I0.584 J-0.538
G1 X48.537 Y75.159
G2 X49.228 Y74.919 I0.114 J-0.786
G1 X49.246 Y74.9
X49.852
X50.272
X50.378
X50.382 Y74.904
X50.387 Y74.909
X50.444 Y74.963
X50.461 Y74.979
G2 X51.564 Y74.918 I0.52 J-0.6
G1 X51.58 Y74.9
X51.97
X52.672
X52.713
X52.729 Y74.918
G2 X53.749 Y75.04 I0.582 J-0.539
G1 X53.767 Y75.029
X53.841 Y74.973
X53.908 Y74.909
X53.913 Y74.904
X53.916 Y74.901
X53.918 Y74.9
X53.953
X54.494
X54.502 Y74.945
X54.504 Y74.954
X54.528 Y75.086
X54.548 Y75.217
X54.55 Y75.226
X54.621 Y75.65
X54.622 Y75.656
X54.697 Y76.08
X54.7 Y76.096
X54.708 Y76.136
X54.612 Y76.233
X54.608 Y76.237
X54.471 Y76.379
X54.467 Y76.383
X54.332 Y76.524
X54.325 Y76.531
X54.193 Y76.672
X54.178 Y76.689
X54.053 Y76.83
X54.036 Y76.85
G2 X53.737 Y77.314 I0.476 J0.635
G1 X53.734 Y77.325
X53.725 Y77.378
X53.714 Y77.407
X53.702 Y77.442
X53.692 Y77.478
X53.682 Y77.513
X53.673 Y77.548
X53.665 Y77.584
X53.657 Y77.619
X53.651 Y77.654
X53.645 Y77.69
X53.641 Y77.725
X53.636 Y77.76
X53.633 Y77.796
X53.631 Y77.831
X53.629 Y77.866
X53.628 Y77.902
Y77.924
X53.629 Y78.044
X53.604 Y78.214
G2 X53.628 Y78.551 I0.786 J0.113
G1 Y79.051
Y79.062
X53.63 Y79.192
X53.628 Y79.323
Y79.334
Y80.041
Y80.052
X53.629 Y80.122
X53.631 Y80.168
X53.633 Y80.204
X53.637 Y80.239
X53.641 Y80.274
X53.646 Y80.31
X53.652 Y80.345
X53.658 Y80.38
X53.666 Y80.416
X53.674 Y80.451
X53.683 Y80.486
X53.693 Y80.522
X53.704 Y80.557
X53.72 Y80.604
X53.742 Y80.662
X53.766 Y80.72
X53.794 Y80.778
X53.815 Y80.82
X53.829 Y80.845
X53.846 Y80.875
X53.867 Y80.91
X53.89 Y80.946
X53.914 Y80.981
X53.939 Y81.017
X53.966 Y81.052
X53.995 Y81.087
X54.025 Y81.123
X54.053 Y81.153
X54.078 Y81.18
X54.108 Y81.209
X54.143 Y81.243
X54.179 Y81.274
X54.214 Y81.304
X54.249 Y81.332
X54.285 Y81.358
X54.322 Y81.384
X54.361 Y81.41
X54.398 Y81.433
X54.432 Y81.453
X54.467 Y81.472
X54.501 Y81.49
X54.535 Y81.507
X54.57 Y81.522
X54.604 Y81.537
X54.638 Y81.551
X54.654 Y81.557
Y82.92
X54.636 Y82.921
X47.316
X47.305
Y82.92
Y81.552
X47.306
X47.354 Y81.532
X47.414 Y81.505
X47.475 Y81.474
X47.535 Y81.44
X47.575 Y81.416
X47.596 Y81.403
X47.624 Y81.384
X47.659 Y81.36
X47.694 Y81.333
X47.73 Y81.306
X47.765 Y81.276
X47.8 Y81.245
X47.84 Y81.207
X47.884 Y81.163
X47.921 Y81.123
X47.951 Y81.087
X47.979 Y81.052
X48.006 Y81.017
X48.032 Y80.981
X48.056 Y80.946
X48.078 Y80.91
X48.1 Y80.875
X48.126 Y80.828
X48.156 Y80.769
X48.18 Y80.719
X48.198 Y80.678
X48.214 Y80.637
X48.229 Y80.595
X48.242 Y80.557
X48.253 Y80.522
X48.263 Y80.486
X48.272 Y80.451
X48.28 Y80.416
X48.288 Y80.38
X48.294 Y80.345
X48.3 Y80.31
X48.305 Y80.274
X48.309 Y80.239
X48.312 Y80.204
X48.315 Y80.168
X48.317 Y80.122
X48.318 Y80.052
Y80.039
X48.317 Y79.898
Y79.883
X48.304 Y79.247
X48.303 Y79.21
X48.301 Y79.183
Y79.147
X48.3 Y79.041
Y79.035
X48.292 Y78.659
X48.302 Y78.634
X48.309 Y78.616
G2 X48.355 Y78.213 I-0.739 J-0.289
G1 X48.235 Y77.383
G2 X48.003 Y76.928 I-0.786 J0.114
G1 X47.992 Y76.911
X47.968 Y76.877
X47.943 Y76.844
X47.919 Y76.815
X47.896 Y76.787
X47.873 Y76.76
X47.848 Y76.733
X47.82 Y76.704
X47.585 Y76.472
X47.58 Y76.466
X47.556 Y76.443
G3 X47.773 Y76.212 I0.111 J-0.114
G1 X50.165 Y78.387
G2 X50.385 Y78.158 I0.107 J-0.117
G3 X52.543 Y76.051 Z-2.751 I1.079 J-1.054 F17.
X52.962 Y76.928 Z-2.786 I-1.079 J1.054
X50.733 Y77.191 I-1.115 J0.132
G1 X50.728 Y77.154 F200.
G3 X50.938 Y76.92 I0.207 J-0.025
G1 X51.009
G3 X51.218 Y77.154 I0.002 J0.208
G2 X51.194 Y80.034 I12.682 J1.547
X51.252 Y80.448 I6.651 J-0.72
G3 X51.31 Y80.862 I-6.593 J1.133
X51.031 Y81.173 I-0.279 J0.03
G1 X50.926
G3 X50.647 Y80.865 I0. J-0.28
X50.735 Y80.243 I7.198 J0.707
G2 X50.793 Y79.617 I-3.349 J-0.626
G3 X50.798 Y78.384 I156.605 J0.005
G2 X50.733 Y77.191 I-9.537 J-0.075
G1 X50.722 Y77.142
X50.701 Y77.097
X50.671 Y77.057
X50.633 Y77.023
X50.59 Y76.999
X50.551 Y76.974
X50.521 Y76.938
X50.505 Y76.894
X50.503 Y76.848
X50.515 Y76.803
X50.541 Y76.764
G3 X50.958 Y76.584 I0.411 J0.379
G1 X50.987
G3 X51.549 Y77.213 I0.002 J0.564
G2 X51.484 Y78.414 I9.867 J1.136
G3 X51.488 Y79.617 I-186.746 J1.235
G2 X51.552 Y80.252 I3.205 J-0.001
G3 X51.65 Y80.883 I-6.809 J1.378
X51.089 Y81.509 I-0.561 J0.061
G1 X50.869
G3 X50.307 Y80.889 I0. J-0.565
X50.398 Y80.255 I7.098 J0.697
G2 X50.458 Y79.617 I-3.359 J-0.638
G3 X50.462 Y78.411 I189.374 J0.006
G2 X50.396 Y77.208 I-9.914 J-0.063
G3 X50.541 Y76.764 I0.555 J-0.064
G2 X50.786 Y76.485 I-5.457 J-5.038
G3 X51.117 Y76.316 I0.364 J0.304
G2 X51.749 Y76.162 I-0.136 J-1.937
G3 X52.032 Y76.449 I0.086 J0.198
G2 X51.67 Y78.701 I4.051 J1.806
X51.914 Y80.969 I177.369 J-17.909
G1 X51.94 Y81.14
X51.973 Y81.311
G3 X51.596 Y81.773 I-0.377 J0.077
G1 X50.363
G3 X49.986 Y81.311 I0. J-0.385
G2 X50.16 Y77.24 I-12.711 J-2.585
X50.065 Y76.829 I-1.831 J0.208
X49.908 Y76.437 I-5.142 J1.833
G3 X50.192 Y76.153 I0.197 J-0.088
G2 X51.117 Y76.316 I0.789 J-1.774
X51.367 Y76.11 I-0.02 J-0.279
G3 X51.582 Y75.868 I0.352 J0.096
G1 X51.686 Y75.822
X51.786 Y75.768
X51.853 Y75.737
X51.924 Y75.718
X51.997 Y75.712
X52.102
G3 X52.462 Y76.349 I0. J0.42
G2 X51.935 Y78.761 I3.304 J1.986
X52.287 Y81.206 I38.065 J-4.24
G1 X52.317 Y81.328
X52.353 Y81.448
G3 X51.86 Y82.109 I-0.494 J0.145
G1 X50.1
G3 X49.606 Y81.448 I0. J-0.515
G2 X49.789 Y77.062 I-8.698 J-2.56
X49.666 Y76.692 I-1.648 J0.34
X49.484 Y76.348 I-3.393 J1.577
G3 X49.845 Y75.712 I0.361 J-0.216
G1 X49.966
X50.039 Y75.718
X50.11 Y75.737
X50.176 Y75.768
G2 X51.582 Y75.868 I0.805 J-1.389
G1 X51.627 Y75.842
X51.664 Y75.806
X51.691 Y75.762
X51.705 Y75.712
X51.706 Y75.661
X51.707 Y75.608
X51.724 Y75.558
X51.754 Y75.516
X51.796 Y75.483
X51.845 Y75.464
X51.919 Y75.452
X51.994 Y75.448
X52.346
G3 X52.61 Y75.522 I0. J0.505
G2 X52.842 Y75.635 I0.701 J-1.144
G3 X52.959 Y76.121 I-0.105 J0.282
G2 X52.259 Y77.866 I1.956 J1.797
X52.326 Y79.745 I17.066 J0.331
X52.464 Y80.885 I19.655 J-1.79
X52.88 Y81.956 I2.583 J-0.388
G3 X52.658 Y82.373 I-0.222 J0.149
G1 X49.301
G3 X49.079 Y81.956 I0. J-0.267
G2 X49.302 Y81.561 I-2.375 J-1.599
X49.438 Y81.128 I-1.597 J-0.74
X49.664 Y79.174 I-16.073 J-2.848
X49.562 Y77.209 I-9.252 J-0.507
X49.358 Y76.622 I-1.74 J0.277
X48.989 Y76.122 I-2.204 J1.24
G3 X49.105 Y75.636 I0.217 J-0.205
G2 X49.347 Y75.521 I-0.454 J-1.263
G3 X49.608 Y75.448 I0.262 J0.431
G1 X49.968
G3 X50.307 Y75.539 I0. J0.675
G2 X51.655 I0.674 J-1.16
G1 X51.747 Y75.494
X51.845 Y75.464
G2 X52.049 Y75.276 I-0.062 J-0.271
G3 X52.273 Y75.112 I0.224 J0.07
G1 X52.37
G3 X52.774 Y75.229 I0. J0.757
G2 X53.412 Y75.379 I0.537 J-0.85
G3 X53.657 Y75.897 I0.03 J0.303
G2 X53.072 Y76.502 I15.752 J15.819
X52.702 Y77.258 I1.059 J0.986
X52.568 Y79.317 I10.82 J1.741
X52.919 Y81.35 I7.28 J-0.211
X53.156 Y81.791 I1.341 J-0.434
X53.504 Y82.151 I1.999 J-1.585
G3 X53.299 Y82.709 I-0.205 J0.241
G1 X48.66
G3 X48.455 Y82.152 I0. J-0.316
G2 X49.121 Y81.01 I-1.291 J-1.519
X49.298 Y79.701 I-11.459 J-2.211
X49.33 Y77.869 I-15.383 J-1.191
X48.601 Y76.187 I-2.547 J0.106
G1 X48.523 Y76.111
X48.441 Y76.037
X48.281 Y75.887
G3 X48.531 Y75.372 I0.214 J-0.214
G2 X49.184 Y75.227 I0.12 J-0.999
G3 X49.584 Y75.112 I0.401 J0.642
G1 X49.968
G3 X50.476 Y75.249 I0. J1.013
G2 X51.486 I0.505 J-0.87
G3 X51.995 Y75.112 I0.509 J0.876
G1 X52.273
X52.323 Y75.104
X52.368 Y75.083
X52.406 Y75.049
X52.432 Y75.006
X52.458 Y74.962
X52.495 Y74.929
X52.541 Y74.907
X52.591 Y74.9
X52.672
X52.713
X52.729 Y74.918
G2 X53.749 Y75.04 I0.582 J-0.539
G1 X53.767 Y75.029
X53.841 Y74.973
X53.908 Y74.909
X53.913 Y74.904
X53.916 Y74.901
X53.918 Y74.9
X53.953
X54.231
X54.316 Y75.473
X54.179 Y75.676
X53.483 Y76.369
X53.481 Y76.371
X53.384 Y76.468
X53.347 Y76.509
X53.308 Y76.553
X53.276 Y76.593
X53.249 Y76.629
X53.224 Y76.664
X53.2 Y76.699
X53.178 Y76.735
X53.156 Y76.77
X53.136 Y76.805
X53.117 Y76.841
X53.102 Y76.871
X53.09 Y76.896
X53.071 Y76.938
X53.048 Y76.996
X53.026 Y77.054
X53.008 Y77.112
X52.994 Y77.159
X52.985 Y77.194
X52.977 Y77.229
X52.97 Y77.265
X52.963 Y77.3
X52.957 Y77.335
X52.952 Y77.371
X52.948 Y77.406
X52.945 Y77.441
X52.943 Y77.477
X52.941 Y77.512
X52.94 Y77.547
Y77.568
Y79.617
X52.943 Y79.689
X52.956 Y79.83
X52.958 Y79.844
X53.065 Y80.833
Y80.837
X53.081 Y80.979
X53.088 Y81.027
X53.095 Y81.063
X53.102 Y81.098
X53.11 Y81.133
X53.118 Y81.169
X53.128 Y81.204
X53.139 Y81.239
X53.15 Y81.275
X53.165 Y81.317
X53.184 Y81.366
X53.205 Y81.414
X53.227 Y81.463
X53.251 Y81.509
X53.275 Y81.553
X53.298 Y81.593
X53.32 Y81.628
X53.344 Y81.664
X53.369 Y81.699
X53.395 Y81.734
X53.423 Y81.77
X53.458 Y81.811
X53.5 Y81.857
X53.539 Y81.897
X53.574 Y81.931
X53.61 Y81.963
X53.645 Y81.993
X53.68 Y82.021
X53.716 Y82.048
X53.751 Y82.073
X53.786 Y82.097
X53.817 Y82.117
X53.843 Y82.133
X53.885 Y82.156
X53.942 Y82.187
X54. Y82.214
X54.058 Y82.239
X54.104 Y82.257
X54.14 Y82.27
X54.175 Y82.281
X54.21 Y82.292
X54.245 Y82.302
X54.281 Y82.311
X54.316 Y82.319
X54.351 Y82.326
X54.387 Y82.333
X54.422 Y82.338
X54.457 Y82.343
X54.493 Y82.347
X54.528 Y82.35
X54.563 Y82.353
X54.599 Y82.354
X54.634 Y82.355
X54.653 Y82.356
X54.654
Y82.92
X54.636 Y82.921
X47.316
X47.305
Y82.92
Y82.356
X47.309
X47.332 Y82.355
X47.367 Y82.354
X47.402 Y82.352
X47.438 Y82.35
X47.473 Y82.347
X47.508 Y82.342
X47.544 Y82.337
X47.579 Y82.332
X47.614 Y82.325
X47.65 Y82.318
X47.685 Y82.309
X47.72 Y82.3
X47.755 Y82.29
X47.791 Y82.279
X47.826 Y82.267
X47.861 Y82.255
X47.907 Y82.236
X47.963 Y82.212
X48.019 Y82.185
X48.075 Y82.156
X48.118 Y82.131
X48.147 Y82.114
X48.179 Y82.093
X48.215 Y82.069
X48.25 Y82.043
X48.285 Y82.016
X48.321 Y81.988
X48.356 Y81.957
X48.395 Y81.921
X48.438 Y81.879
X48.475 Y81.84
X48.506 Y81.805
X48.536 Y81.769
X48.564 Y81.734
X48.59 Y81.699
X48.615 Y81.663
X48.639 Y81.628
X48.661 Y81.593
X48.686 Y81.55
X48.713 Y81.5
X48.737 Y81.452
X48.758 Y81.406
X48.777 Y81.361
X48.795 Y81.315
X48.809 Y81.275
X48.82 Y81.239
X48.831 Y81.204
X48.841 Y81.169
X48.849 Y81.133
X48.857 Y81.098
X48.864 Y81.063
X48.871 Y81.027
X48.878 Y80.973
X48.893 Y80.832
X48.894 Y80.825
X48.991 Y79.836
X48.993 Y79.819
X49.004 Y79.678
X49.006 Y79.617
Y77.567
Y77.549
X49.005 Y77.513
X49.003 Y77.478
X49.001 Y77.443
X48.998 Y77.407
X48.994 Y77.372
X48.989 Y77.337
X48.983 Y77.301
X48.977 Y77.266
X48.969 Y77.231
X48.961 Y77.195
X48.952 Y77.16
X48.942 Y77.123
X48.93 Y77.083
X48.917 Y77.044
X48.902 Y77.005
X48.882 Y76.953
X48.854 Y76.891
X48.83 Y76.842
X48.811 Y76.807
X48.791 Y76.771
X48.77 Y76.736
X48.747 Y76.7
X48.724 Y76.665
X48.698 Y76.63
X48.672 Y76.594
X48.647 Y76.563
X48.624 Y76.536
X48.581 Y76.489
X48.44 Y76.345
X48.435 Y76.34
X47.776 Y75.683
X47.642 Y75.478
X47.68 Y75.203
Y75.198
X47.718 Y74.915
X47.719 Y74.908
X47.72 Y74.9
X48.008
X48.041
X48.042 Y74.901
X48.045 Y74.904
X48.05 Y74.909
G2 X48.52 Y75.157 I0.584 J-0.538
G1 X48.537 Y75.159
G2 X49.228 Y74.919 I0.114 J-0.786
G1 X49.246 Y74.9
X49.852
X50.272
X50.378
X50.382 Y74.904
X50.387 Y74.909
X50.444 Y74.963
X50.461 Y74.979
G2 X51.564 Y74.918 I0.52 J-0.6
G1 X51.58 Y74.9
X51.97
X52.591
G3 X52.6 Y75.217 I0. J0.159
G1 X51.471 Y75.28
G2 X51.479 Y75.597 I0.009 J0.159
G3 X52.962 Y76.928 Z-2.862 I-0.015 J1.508 F17.
X50.733 Y77.191 I-1.115 J0.132
G1 X50.728 Y77.154 F200.
G3 X50.938 Y76.92 I0.207 J-0.025
G1 X51.009
G3 X51.218 Y77.154 I0.002 J0.208
G2 X51.194 Y80.034 I12.682 J1.547
X51.252 Y80.448 I6.651 J-0.72
G3 X51.31 Y80.862 I-6.593 J1.133
X51.031 Y81.173 I-0.279 J0.03
G1 X50.926
G3 X50.647 Y80.865 I0. J-0.28
X50.735 Y80.243 I7.198 J0.707
G2 X50.793 Y79.617 I-3.349 J-0.626
G3 X50.798 Y78.384 I156.605 J0.005
G2 X50.733 Y77.191 I-9.537 J-0.075
G1 X50.722 Y77.142
X50.701 Y77.097
X50.671 Y77.057
X50.633 Y77.023
X50.59 Y76.999
X50.551 Y76.974
X50.521 Y76.938
X50.505 Y76.894
X50.503 Y76.848
X50.515 Y76.803
X50.541 Y76.764
G3 X50.958 Y76.584 I0.411 J0.379
G1 X50.987
G3 X51.549 Y77.213 I0.002 J0.564
G2 X51.484 Y78.414 I9.867 J1.136
G3 X51.488 Y79.617 I-186.746 J1.235
G2 X51.552 Y80.252 I3.205 J-0.001
G3 X51.65 Y80.883 I-6.809 J1.378
X51.089 Y81.509 I-0.561 J0.061
G1 X50.869
G3 X50.307 Y80.889 I0. J-0.565
X50.398 Y80.255 I7.098 J0.697
G2 X50.458 Y79.617 I-3.359 J-0.638
G3 X50.462 Y78.411 I189.374 J0.006
G2 X50.396 Y77.208 I-9.914 J-0.063
G3 X50.541 Y76.764 I0.555 J-0.064
G2 X50.786 Y76.485 I-5.457 J-5.038
G3 X51.117 Y76.316 I0.364 J0.304
G2 X51.749 Y76.162 I-0.136 J-1.937
G3 X52.032 Y76.449 I0.086 J0.198
G2 X51.67 Y78.701 I4.051 J1.806
X51.914 Y80.969 I177.369 J-17.909
G1 X51.94 Y81.14
X51.973 Y81.311
G3 X51.596 Y81.773 I-0.377 J0.077
G1 X50.363
G3 X49.986 Y81.311 I0. J-0.385
G2 X50.16 Y77.24 I-12.711 J-2.585
X50.065 Y76.829 I-1.831 J0.208
X49.908 Y76.437 I-5.142 J1.833
G3 X50.192 Y76.153 I0.197 J-0.088
G2 X51.117 Y76.316 I0.789 J-1.774
X51.367 Y76.11 I-0.02 J-0.279
G3 X51.582 Y75.868 I0.352 J0.096
G1 X51.686 Y75.822
X51.786 Y75.768
X51.853 Y75.737
X51.924 Y75.718
X51.997 Y75.712
X52.102
G3 X52.462 Y76.349 I0. J0.42
G2 X51.935 Y78.761 I3.304 J1.986
X52.287 Y81.206 I38.065 J-4.24
G1 X52.317 Y81.328
X52.353 Y81.448
G3 X51.86 Y82.109 I-0.494 J0.145
G1 X50.1
G3 X49.606 Y81.448 I0. J-0.515
G2 X49.789 Y77.062 I-8.698 J-2.56
X49.666 Y76.692 I-1.648 J0.34
X49.484 Y76.348 I-3.393 J1.577
G3 X49.845 Y75.712 I0.361 J-0.216
G1 X49.966
X50.039 Y75.718
X50.11 Y75.737
X50.176 Y75.768
G2 X51.582 Y75.868 I0.805 J-1.389
G1 X51.627 Y75.842
X51.664 Y75.806
X51.691 Y75.762
X51.705 Y75.712
X51.706 Y75.661
X51.707 Y75.608
X51.724 Y75.558
X51.754 Y75.516
X51.796 Y75.483
X51.845 Y75.464
X51.919 Y75.452
X51.994 Y75.448
X52.346
G3 X52.61 Y75.522 I0. J0.505
G2 X52.842 Y75.635 I0.701 J-1.144
G3 X52.959 Y76.121 I-0.105 J0.282
G2 X52.259 Y77.866 I1.956 J1.797
X52.326 Y79.745 I17.066 J0.331
X52.464 Y80.885 I19.655 J-1.79
X52.88 Y81.956 I2.583 J-0.388
G3 X52.658 Y82.373 I-0.222 J0.149
G1 X49.301
G3 X49.079 Y81.956 I0. J-0.267
G2 X49.302 Y81.561 I-2.375 J-1.599
X49.438 Y81.128 I-1.597 J-0.74
X49.664 Y79.174 I-16.073 J-2.848
X49.562 Y77.209 I-9.252 J-0.507
X49.358 Y76.622 I-1.74 J0.277
X48.989 Y76.122 I-2.204 J1.24
G3 X49.105 Y75.636 I0.217 J-0.205
G2 X49.347 Y75.521 I-0.454 J-1.263
G3 X49.608 Y75.448 I0.262 J0.431
G1 X49.968
G3 X50.307 Y75.539 I0. J0.675
G2 X51.655 I0.674 J-1.16
G1 X51.747 Y75.494
X51.845 Y75.464
G2 X52.049 Y75.276 I-0.062 J-0.271
G3 X52.273 Y75.112 I0.224 J0.07
G1 X52.37
G3 X52.774 Y75.229 I0. J0.757
G2 X53.412 Y75.379 I0.537 J-0.85
G3 X53.657 Y75.897 I0.03 J0.303
G2 X53.072 Y76.502 I15.752 J15.819
X52.702 Y77.258 I1.059 J0.986
X52.568 Y79.317 I10.82 J1.741
X52.919 Y81.35 I7.28 J-0.211
X53.156 Y81.791 I1.341 J-0.434
X53.504 Y82.151 I1.999 J-1.585
G3 X53.299 Y82.709 I-0.205 J0.241
G1 X48.66
G3 X48.455 Y82.152 I0. J-0.316
G2 X49.121 Y81.01 I-1.291 J-1.519
X49.298 Y79.701 I-11.459 J-2.211
X49.33 Y77.869 I-15.383 J-1.191
X48.601 Y76.187 I-2.547 J0.106
G1 X48.523 Y76.111
X48.441 Y76.037
X48.281 Y75.887
G3 X48.531 Y75.372 I0.214 J-0.214
G2 X49.184 Y75.227 I0.12 J-0.999
G3 X49.584 Y75.112 I0.401 J0.642
G1 X49.968
G3 X50.476 Y75.249 I0. J1.013
G2 X51.486 I0.505 J-0.87
G3 X51.995 Y75.112 I0.509 J0.876
G1 X52.273
X52.323 Y75.104
X52.368 Y75.083
X52.406 Y75.049
X52.432 Y75.006
X52.458 Y74.962
X52.495 Y74.929
X52.541 Y74.907
X52.591 Y74.9
X52.672
X52.713
X52.729 Y74.918
G2 X53.749 Y75.04 I0.582 J-0.539
G1 X53.767 Y75.029
X53.841 Y74.973
X53.908 Y74.909
X53.913 Y74.904
X53.916 Y74.901
X53.918 Y74.9
X53.953
X54.231
X54.316 Y75.473
X54.179 Y75.676
X53.483 Y76.369
X53.481 Y76.371
X53.384 Y76.468
X53.347 Y76.509
X53.308 Y76.553
X53.276 Y76.593
X53.249 Y76.629
X53.224 Y76.664
X53.2 Y76.699
X53.178 Y76.735
X53.156 Y76.77
X53.136 Y76.805
X53.117 Y76.841
X53.102 Y76.871
X53.09 Y76.896
X53.071 Y76.938
X53.048 Y76.996
X53.026 Y77.054
X53.008 Y77.112
X52.994 Y77.159
X52.985 Y77.194
X52.977 Y77.229
X52.97 Y77.265
X52.963 Y77.3
X52.957 Y77.335
X52.952 Y77.371
X52.948 Y77.406
X52.945 Y77.441
X52.943 Y77.477
X52.941 Y77.512
X52.94 Y77.547
Y77.568
Y79.617
X52.943 Y79.689
X52.956 Y79.83
X52.958 Y79.844
X53.065 Y80.833
Y80.837
X53.081 Y80.979
X53.088 Y81.027
X53.095 Y81.063
X53.102 Y81.098
X53.11 Y81.133
X53.118 Y81.169
X53.128 Y81.204
X53.139 Y81.239
X53.15 Y81.275
X53.165 Y81.317
X53.184 Y81.366
X53.205 Y81.414
X53.227 Y81.463
X53.251 Y81.509
X53.275 Y81.553
X53.298 Y81.593
X53.32 Y81.628
X53.344 Y81.664
X53.369 Y81.699
X53.395 Y81.734
X53.423 Y81.77
X53.458 Y81.811
X53.5 Y81.857
X53.539 Y81.897
X53.574 Y81.931
X53.61 Y81.963
X53.645 Y81.993
X53.68 Y82.021
X53.716 Y82.048
X53.751 Y82.073
X53.786 Y82.097
X53.817 Y82.117
X53.843 Y82.133
X53.885 Y82.156
X53.942 Y82.187
X54. Y82.214
X54.058 Y82.239
X54.104 Y82.257
X54.14 Y82.27
X54.175 Y82.281
X54.21 Y82.292
X54.245 Y82.302
X54.281 Y82.311
X54.316 Y82.319
X54.351 Y82.326
X54.387 Y82.333
X54.422 Y82.338
X54.457 Y82.343
X54.493 Y82.347
X54.528 Y82.35
X54.563 Y82.353
X54.599 Y82.354
X54.634 Y82.355
X54.653 Y82.356
X54.654
Y82.92
X54.636 Y82.921
X47.316
X47.305
Y82.92
Y82.356
X47.309
X47.332 Y82.355
X47.367 Y82.354
X47.402 Y82.352
X47.438 Y82.35
X47.473 Y82.347
X47.508 Y82.342
X47.544 Y82.337
X47.579 Y82.332
X47.614 Y82.325
X47.65 Y82.318
X47.685 Y82.309
X47.72 Y82.3
X47.755 Y82.29
X47.791 Y82.279
X47.826 Y82.267
X47.861 Y82.255
X47.907 Y82.236
X47.963 Y82.212
X48.019 Y82.185
X48.075 Y82.156
X48.118 Y82.131
X48.147 Y82.114
X48.179 Y82.093
X48.215 Y82.069
X48.25 Y82.043
X48.285 Y82.016
X48.321 Y81.988
X48.356 Y81.957
X48.395 Y81.921
X48.438 Y81.879
X48.475 Y81.84
X48.506 Y81.805
X48.536 Y81.769
X48.564 Y81.734
X48.59 Y81.699
X48.615 Y81.663
X48.639 Y81.628
X48.661 Y81.593
X48.686 Y81.55
X48.713 Y81.5
X48.737 Y81.452
X48.758 Y81.406
X48.777 Y81.361
X48.795 Y81.315
X48.809 Y81.275
X48.82 Y81.239
X48.831 Y81.204
X48.841 Y81.169
X48.849 Y81.133
X48.857 Y81.098
X48.864 Y81.063
X48.871 Y81.027
X48.878 Y80.973
X48.893 Y80.832
X48.894 Y80.825
X48.991 Y79.836
X48.993 Y79.819
X49.004 Y79.678
X49.006 Y79.617
Y77.567
Y77.549
X49.005 Y77.513
X49.003 Y77.478
X49.001 Y77.443
X48.998 Y77.407
X48.994 Y77.372
X48.989 Y77.337
X48.983 Y77.301
X48.977 Y77.266
X48.969 Y77.231
X48.961 Y77.195
X48.952 Y77.16
X48.942 Y77.123
X48.93 Y77.083
X48.917 Y77.044
X48.902 Y77.005
X48.882 Y76.953
X48.854 Y76.891
X48.83 Y76.842
X48.811 Y76.807
X48.791 Y76.771
X48.77 Y76.736
X48.747 Y76.7
X48.724 Y76.665
X48.698 Y76.63
X48.672 Y76.594
X48.647 Y76.563
X48.624 Y76.536
X48.581 Y76.489
X48.44 Y76.345
X48.435 Y76.34
X47.776 Y75.683
X47.642 Y75.478
X47.68 Y75.203
Y75.198
X47.718 Y74.915
X47.719 Y74.908
X47.72 Y74.9
X48.008
X48.041
X48.042 Y74.901
X48.045 Y74.904
X48.05 Y74.909
G2 X48.52 Y75.157 I0.584 J-0.538
G1 X48.537 Y75.159
G2 X49.228 Y74.919 I0.114 J-0.786
G1 X49.246 Y74.9
X49.852
X50.272
X50.378
X50.382 Y74.904
X50.387 Y74.909
X50.444 Y74.963
X50.461 Y74.979
G2 X51.564 Y74.918 I0.52 J-0.6
G1 X51.58 Y74.9
X51.97
X52.591
X52.617 Y74.906
X52.637 Y74.925
X52.646 Y74.95
X52.642 Y74.977
X52.537 Y75.219
X52.536 Y75.223
X50.399 Y81.341
X50.391 Y81.377
X50.303 Y82.253
X50.293 Y82.295
X50.271 Y82.333
X50.24 Y82.364
X50.201 Y82.385
X50.159 Y82.395
X50.115 Y82.393
G3 X48.903 Y81.087 Z-2.928 I0.286 J-1.481 F17.
X51.303 Y80.807 I1.2 J-0.14
G1 X51.31 Y80.862 F200.
G3 X51.031 Y81.173 I-0.279 J0.03
G1 X50.926
G3 X50.647 Y80.865 I0. J-0.28
X50.735 Y80.243 I7.198 J0.707
G2 X50.793 Y79.617 I-3.349 J-0.626
X50.773 Y78.833 I-15.722 J-0.001
G3 X50.754 Y78.049 I15.702 J-0.784
X51.192 I0.219 J0.
X51.166 Y79.042 I-19.029 J0.003
G2 X51.194 Y80.034 I6.214 J0.324
X51.252 Y80.448 I6.651 J-0.72
G3 X51.303 Y80.807 I-6.593 J1.133
G2 X51.472 Y81.007 I0.236 J-0.028
G3 X51.562 Y81.252 I-0.047 J0.156
X51.089 Y81.509 I-0.473 J-0.308
G1 X50.869
G3 X50.307 Y80.889 I0. J-0.565
X50.398 Y80.255 I7.098 J0.697
G2 X50.458 Y79.617 I-3.359 J-0.638
X50.438 Y78.817 I-16.058 J-0.001
G3 X50.418 Y78.017 I16.039 J-0.799
X51.528 I0.555 J0.
X51.5 Y79.008 I-17.712 J0.003
G2 X51.526 Y79.998 I6.057 J0.338
X51.588 Y80.441 I7.109 J-0.769
G3 X51.65 Y80.883 I-7.047 J1.212
X51.562 Y81.252 I-0.561 J0.061
G2 X51.527 Y81.538 I0.274 J0.178
G3 X51.36 Y81.773 I-0.167 J0.058
G1 X50.363
G3 X49.986 Y81.311 I0. J-0.385
G2 X50.176 Y79.412 I-9.311 J-1.894
X50.153 Y77.504 I-82.554 J0.048
G3 X50.599 Y77.079 I0.416 J-0.01
G2 X51.345 Y77.08 I0.382 J-5.308
G3 X51.793 Y77.507 I0.03 J0.417
X51.743 Y78.739 I-39.826 J-1.007
G2 X51.774 Y79.972 I7.515 J0.423
X51.858 Y80.644 I20.296 J-2.196
X51.973 Y81.311 I11.236 J-1.594
G3 X51.596 Y81.773 I-0.377 J0.077
G1 X51.36
G2 X51.108 Y81.941 I0. J0.273
G3 X50.856 Y82.109 I-0.252 J-0.105
G1 X50.1
G3 X49.606 Y81.448 I0. J-0.515
G2 X49.912 Y79.381 I-7.227 J-2.127
X49.802 Y77.295 I-17.289 J-0.137
G3 X50.377 Y76.719 I0.517 J-0.059
G2 X51.567 Y76.721 I0.603 J-5.337
G3 X52.143 Y77.301 I0.057 J0.52
G2 X52.04 Y79.385 I15.963 J1.837
X52.353 Y81.448 I7.725 J-0.119
G3 X51.86 Y82.109 I-0.494 J0.145
G1 X50.856
X50.806 Y82.115
X50.759 Y82.132
X50.717 Y82.16
X50.683 Y82.197
X50.658 Y82.241
X50.634 Y82.285
X50.599 Y82.321
X50.557 Y82.349
X50.51 Y82.367
X50.46 Y82.373
X49.301
G3 X49.079 Y81.956 I0. J-0.267
G2 X49.302 Y81.561 I-2.375 J-1.599
X49.438 Y81.128 I-1.597 J-0.74
X49.655 Y79.174 I-14.932 J-2.645
X49.544 Y77.212 I-9.662 J-0.441
X49.457 Y76.897 I-1.444 J0.23
X49.322 Y76.601 I-3.245 J1.302
G3 X49.592 Y76.28 I0.202 J-0.104
G2 X50.971 Y76.489 I1.365 J-4.363
X52.352 Y76.286 I-0.015 J-4.904
G3 X52.621 Y76.608 I0.065 J0.219
G2 X52.453 Y77.01 I2.623 J1.328
X52.369 Y77.437 I1.652 J0.548
X52.309 Y79.404 I24.976 J1.748
X52.579 Y81.354 I7.652 J-0.067
X52.705 Y81.667 I1.419 J-0.388
X52.88 Y81.956 I3.102 J-1.681
G3 X52.658 Y82.373 I-0.222 J0.149
G1 X50.46
G2 X50.208 Y82.541 I0. J0.273
G3 X49.956 Y82.709 I-0.252 J-0.105
G1 X48.66
G3 X48.455 Y82.152 I0. J-0.316
G2 X49.121 Y81.01 I-1.291 J-1.519
X49.298 Y79.701 I-11.459 J-2.211
X49.334 Y77.866 I-15.862 J-1.228
X48.607 Y76.182 I-2.539 J0.097
X48.36 Y75.951 I-2.928 J2.878
G3 X48.113 Y75.719 I3.589 J-4.078
X48.343 Y75.334 I0.163 J-0.164
G1 X48.459 Y75.362
X48.501 Y75.374
X48.541 Y75.393
G2 X49.446 Y75.898 I5.36 J-8.547
X50.442 Y76.188 I1.318 J-2.679
X51.871 Y76.088 I0.437 J-4.014
X53.198 Y75.548 I-1.28 J-5.048
G1 X53.252 Y75.513
X53.304 Y75.474
X53.354 Y75.435
X53.408 Y75.399
X53.447 Y75.38
X53.488 Y75.368
X53.598 Y75.342
G3 X53.827 Y75.728 I0.066 J0.222
X53.14 Y76.403 I-50.497 J-50.712
G2 X52.695 Y77.257 I1.063 J1.097
X52.542 Y79.347 I11.996 J1.93
X52.94 Y81.404 I5.91 J-0.078
X53.175 Y81.813 I1.449 J-0.561
X53.504 Y82.151 I1.913 J-1.529
G3 X53.299 Y82.709 I-0.205 J0.241
G1 X49.956
X49.906 Y82.716
X49.861 Y82.738
X49.823 Y82.771
X49.797 Y82.815
X49.771 Y82.858
X49.734 Y82.892
X49.688 Y82.913
X49.638 Y82.921
X47.316
X47.305
Y82.92
Y82.356
X47.309
X47.332 Y82.355
X47.367 Y82.354
X47.402 Y82.352
X47.438 Y82.35
X47.473 Y82.347
X47.508 Y82.342
X47.544 Y82.337
X47.579 Y82.332
X47.614 Y82.325
X47.65 Y82.318
X47.685 Y82.309
X47.72 Y82.3
X47.755 Y82.29
X47.791 Y82.279
X47.826 Y82.267
X47.861 Y82.255
X47.907 Y82.236
X47.963 Y82.212
X48.019 Y82.185
X48.075 Y82.156
X48.118 Y82.131
X48.147 Y82.114
X48.179 Y82.093
X48.215 Y82.069
X48.25 Y82.043
X48.285 Y82.016
X48.321 Y81.988
X48.356 Y81.957
X48.395 Y81.921
X48.438 Y81.879
X48.475 Y81.84
X48.506 Y81.805
X48.536 Y81.769
X48.564 Y81.734
X48.59 Y81.699
X48.615 Y81.663
X48.639 Y81.628
X48.661 Y81.593
X48.686 Y81.55
X48.713 Y81.5
X48.737 Y81.452
X48.758 Y81.406
X48.777 Y81.361
X48.795 Y81.315
X48.809 Y81.275
X48.82 Y81.239
X48.831 Y81.204
X48.841 Y81.169
X48.849 Y81.133
X48.857 Y81.098
X48.864 Y81.063
X48.871 Y81.027
X48.878 Y80.973
X48.893 Y80.832
X48.894 Y80.825
X48.991 Y79.836
X48.993 Y79.819
X49.004 Y79.678
X49.006 Y79.617
Y77.567
Y77.549
X49.005 Y77.513
X49.003 Y77.478
X49.001 Y77.443
X48.998 Y77.407
X48.994 Y77.372
X48.989 Y77.337
X48.983 Y77.301
X48.977 Y77.266
X48.969 Y77.231
X48.961 Y77.195
X48.952 Y77.16
X48.942 Y77.123
X48.93 Y77.083
X48.917 Y77.044
X48.902 Y77.005
X48.882 Y76.953
X48.854 Y76.891
X48.83 Y76.842
X48.811 Y76.807
X48.791 Y76.771
X48.77 Y76.736
X48.747 Y76.7
X48.724 Y76.665
X48.698 Y76.63
X48.672 Y76.594
X48.647 Y76.563
X48.624 Y76.536
X48.581 Y76.489
X48.44 Y76.345
X48.435 Y76.34
X47.776 Y75.683
X47.642 Y75.478
X47.68 Y75.203
Y75.198
X47.718 Y74.915
X47.719 Y74.908
X47.72 Y74.9
X48.008
X48.041
X48.042 Y74.901
X48.045 Y74.904
X48.05 Y74.909
G2 X48.52 Y75.157 I0.584 J-0.538
G1 X48.537 Y75.159
X48.58 Y75.164
X48.585 Y75.168
X48.634 Y75.201
X48.679 Y75.229
X48.724 Y75.256
X48.725
X48.809 Y75.316
X48.873 Y75.358
X48.89 Y75.367
X48.913 Y75.38
X49.195 Y75.531
X49.219 Y75.543
X49.29 Y75.577
X49.334 Y75.597
X49.404 Y75.627
X49.417 Y75.632
X49.563 Y75.69
X49.599 Y75.703
X49.735 Y75.75
X49.775 Y75.763
X49.916 Y75.803
X49.944 Y75.81
X50.085 Y75.845
X50.116 Y75.852
X50.258 Y75.881
X50.303 Y75.889
X50.444 Y75.909
X50.472 Y75.913
X50.613 Y75.928
X50.642 Y75.931
X50.783 Y75.941
X50.873 Y75.942
X50.958 Y75.939
X50.966
X51.001 Y75.942
X51.037 Y75.943
X51.072 Y75.944
X51.107
X51.143 Y75.943
X51.179 Y75.941
X51.321 Y75.931
X51.35 Y75.928
X51.491 Y75.913
X51.518 Y75.909
X51.659 Y75.889
X51.704 Y75.881
X51.845 Y75.852
X51.877 Y75.845
X52.018 Y75.81
X52.046 Y75.803
X52.187 Y75.763
X52.228 Y75.75
X52.369 Y75.702
X52.406 Y75.688
X52.547 Y75.631
X52.577 Y75.619
X52.718 Y75.556
X52.749 Y75.541
X52.891 Y75.47
X52.932 Y75.447
X53.088 Y75.357
X53.107 Y75.346
X53.139 Y75.326
X53.17 Y75.306
X53.202 Y75.284
X53.234 Y75.261
X53.264 Y75.239
X53.275 Y75.232
X53.318 Y75.205
X53.367 Y75.172
X53.371 Y75.17
G2 X53.749 Y75.04 I-0.06 J-0.791
G1 X53.767 Y75.029
X53.841 Y74.973
X53.908 Y74.909
X53.913 Y74.904
X53.916 Y74.901
X53.918 Y74.9
X53.953
X54.231
X54.316 Y75.473
X54.179 Y75.676
X53.483 Y76.369
X53.481 Y76.371
X53.384 Y76.468
X53.347 Y76.509
X53.308 Y76.553
X53.276 Y76.593
X53.249 Y76.629
X53.224 Y76.664
X53.2 Y76.699
X53.178 Y76.735
X53.156 Y76.77
X53.136 Y76.805
X53.117 Y76.841
X53.102 Y76.871
X53.09 Y76.896
X53.071 Y76.938
X53.048 Y76.996
X53.026 Y77.054
X53.008 Y77.112
X52.994 Y77.159
X52.985 Y77.194
X52.977 Y77.229
X52.97 Y77.265
X52.963 Y77.3
X52.957 Y77.335
X52.952 Y77.371
X52.948 Y77.406
X52.945 Y77.441
X52.943 Y77.477
X52.941 Y77.512
X52.94 Y77.547
Y77.568
Y79.617
X52.943 Y79.689
X52.956 Y79.83
X52.958 Y79.844
X53.065 Y80.833
Y80.837
X53.081 Y80.979
X53.088 Y81.027
X53.095 Y81.063
X53.102 Y81.098
X53.11 Y81.133
X53.118 Y81.169
X53.128 Y81.204
X53.139 Y81.239
X53.15 Y81.275
X53.165 Y81.317
X53.184 Y81.366
X53.205 Y81.414
X53.227 Y81.463
X53.251 Y81.509
X53.275 Y81.553
X53.298 Y81.593
X53.32 Y81.628
X53.344 Y81.664
X53.369 Y81.699
X53.395 Y81.734
X53.423 Y81.77
X53.458 Y81.811
X53.5 Y81.857
X53.539 Y81.897
X53.574 Y81.931
X53.61 Y81.963
X53.645 Y81.993
X53.68 Y82.021
X53.716 Y82.048
X53.751 Y82.073
X53.786 Y82.097
X53.817 Y82.117
X53.843 Y82.133
X53.885 Y82.156
X53.942 Y82.187
X54. Y82.214
X54.058 Y82.239
X54.104 Y82.257
X54.14 Y82.27
X54.175 Y82.281
X54.21 Y82.292
X54.245 Y82.302
X54.281 Y82.311
X54.316 Y82.319
X54.351 Y82.326
X54.387 Y82.333
X54.422 Y82.338
X54.457 Y82.343
X54.493 Y82.347
X54.528 Y82.35
X54.563 Y82.353
X54.599 Y82.354
X54.634 Y82.355
X54.653 Y82.356
X54.654
Y82.92
X54.636 Y82.921
X49.638
G3 X49.488 Y82.71 I0. J-0.159
G1 X50.262 Y80.456
X50.27 Y80.418
X50.268 Y80.378
X50.257 Y80.341
X50.237 Y80.307
G3 X52.624 Y78.462 Z-3.094 I1.193 J-0.922 F17.
X52.939 Y79.385 Z-3.128 I-1.193 J0.922
X50.864 I-1.037 J0.
X51.12 I0.128 J0. F200.
X50.864 I-0.128 J0.
G2 X50.709 Y79.146 I-0.261 J0.
G3 X50.732 Y78.862 I0.061 J-0.138
G1 X50.785 Y78.852
X50.838 Y78.849
X51.108
G3 X51.528 Y79.269 I0. J0.42
G1 Y79.501
G3 X51.108 Y79.921 I-0.42 J0.
G1 X50.838
G3 X50.418 Y79.501 I0. J-0.42
G1 Y79.269
G3 X50.732 Y78.862 I0.42 J0.
G1 X50.787 Y78.841
X50.835 Y78.807
X50.874 Y78.764
X50.902 Y78.712
X50.925 Y78.67
X50.957 Y78.634
X50.997 Y78.607
X51.042 Y78.59
X51.09 Y78.585
X51.283
G3 X51.792 Y79.094 I0. J0.509
X51.79 Y79.399 I-19.08 J0.003
G2 X51.794 Y79.704 I5.028 J0.08
G3 X51.334 Y80.185 I-0.46 J0.021
G1 X50.617
G3 X50.152 Y79.7 I0. J-0.465
G2 X50.156 Y79.397 I-5.18 J-0.223
G3 X50.154 Y79.094 I19.48 J-0.303
X50.663 Y78.585 I0.509 J0.
G1 X51.09
G2 X51.33 Y78.413 I0. J-0.254
G3 X51.591 Y78.275 I0.204 J0.07
X52.128 Y78.979 I-0.193 J0.704
X52.123 Y79.38 I-16.292 J0.003
G2 X52.137 Y79.781 I3.483 J0.085
G3 X51.461 Y80.521 I-0.676 J0.062
G1 X50.494
G3 X49.81 Y79.782 I0. J-0.686
G2 X49.822 Y79.379 I-4.182 J-0.324
G3 X49.818 Y78.976 I21.357 J-0.402
X50.547 Y78.249 I0.727 J0.
G1 X51.398
X51.496 Y78.255
X51.591 Y78.275
G2 X51.848 Y78.118 I0.055 J-0.199
G3 X52.101 Y77.956 I0.206 J0.043
X52.392 Y78.323 I-0.086 J0.367
X52.375 Y79.113 I-18.42 J0.003
G2 X52.401 Y79.904 I5.253 J0.225
G1 X52.428 Y80.095
X52.454 Y80.287
G3 X52.007 Y80.785 I-0.447 J0.048
G1 X49.864
G3 X49.489 Y80.372 I0. J-0.376
X49.543 Y79.995 I4.384 J0.43
G2 X49.578 Y79.617 I-2.033 J-0.379
X49.566 Y78.969 I-17.753 J-0.001
G3 X49.554 Y78.321 I17.741 J-0.647
X49.998 Y77.951 I0.376 J0.
G2 X50.975 Y78.038 I0.959 J-5.241
X51.951 Y77.952 I-0.019 J-5.839
G1 X52.027 Y77.947
X52.101 Y77.956
X52.163 Y77.963
X52.224 Y77.954
X52.28 Y77.93
X52.329 Y77.892
X52.365 Y77.866
X52.406 Y77.85
X52.451 Y77.846
X52.494 Y77.855
X52.533 Y77.876
X52.565 Y77.907
G3 X52.728 Y78.375 I-0.594 J0.469
X52.71 Y79.122 I-14.986 J0.003
G2 X52.731 Y79.868 I4.743 J0.236
X52.766 Y80.118 I4.022 J-0.435
G3 X52.801 Y80.369 I-3.987 J0.685
X52.126 Y81.121 I-0.675 J0.073
G1 X49.701
G3 X49.139 Y80.501 I0. J-0.565
X49.203 Y80.06 I4.744 J0.466
G2 X49.246 Y79.617 I-2.29 J-0.444
X49.232 Y78.995 I-13.955 J0.
G3 X49.218 Y78.373 I13.941 J-0.621
X50.09 Y77.625 I0.757 J0.
G2 X50.971 Y77.695 I0.913 J-5.93
X51.852 Y77.628 I0.029 J-5.413
G3 X52.565 Y77.907 I0.119 J0.747
G2 X52.788 Y78.085 I0.497 J-0.392
G3 X52.94 Y78.327 I-0.116 J0.242
G1 Y79.617
X52.943 Y79.689
X52.956 Y79.83
X52.958 Y79.844
X53.067 Y80.854
Y81.333
X48.892
Y80.846
X48.991 Y79.836
X48.993 Y79.819
X49.004 Y79.678
X49.006 Y79.617
Y77.567
Y77.549
X49.005 Y77.513
X49.003 Y77.478
X49.001 Y77.443
X49. Y77.437
X49.145
X49.151
X49.292 Y77.436
X49.345 Y77.433
X49.38 Y77.431
X49.416 Y77.427
X49.451 Y77.423
X49.486 Y77.418
X49.522 Y77.412
X49.557 Y77.406
X49.592 Y77.398
X49.628 Y77.39
X49.663 Y77.381
X49.698 Y77.371
X49.734 Y77.36
X49.769 Y77.348
X49.804 Y77.335
X49.812 Y77.332
X49.836 Y77.341
X49.872 Y77.354
X49.907 Y77.365
X49.942 Y77.375
X49.978 Y77.385
X50.013 Y77.394
X50.048 Y77.402
X50.084 Y77.409
X50.119 Y77.415
X50.154 Y77.421
X50.189 Y77.425
X50.225 Y77.429
X50.26 Y77.432
X50.295 Y77.434
X50.343 Y77.436
X50.555 Y77.437
X50.557
X51.546
X51.556
X51.626 Y77.436
X51.671 Y77.434
X51.706 Y77.431
X51.742 Y77.428
X51.777 Y77.424
X51.812 Y77.419
X51.847 Y77.414
X51.883 Y77.407
X51.918 Y77.4
X51.953 Y77.392
X51.989 Y77.383
X52.024 Y77.373
X52.059 Y77.362
X52.095 Y77.351
X52.13 Y77.338
X52.146 Y77.332
X52.162 Y77.338
X52.197 Y77.351
X52.233 Y77.362
X52.268 Y77.373
X52.303 Y77.383
X52.339 Y77.392
X52.374 Y77.4
X52.409 Y77.407
X52.445 Y77.414
X52.48 Y77.419
X52.515 Y77.424
X52.551 Y77.428
X52.586 Y77.431
X52.621 Y77.434
X52.673 Y77.436
X52.946 Y77.437
X52.945 Y77.441
X52.943 Y77.477
X52.941 Y77.512
X52.94 Y77.547
Y77.568
Y78.327
X52.934 Y78.37
X52.916 Y78.41
X52.888 Y78.444
X52.852 Y78.468
X52.811 Y78.483
X50.236 Y78.974
G3 X50.062 Y78.752 I-0.03 J-0.156
X52.939 Y79.385 Z-3.271 I1.369 J0.633 F17.
X50.864 I-1.037 J0.
X51.12 I0.128 J0. F200.
X50.864 I-0.128 J0.
G2 X50.709 Y79.146 I-0.261 J0.
G3 X50.732 Y78.862 I0.061 J-0.138
G1 X50.785 Y78.852
X50.838 Y78.849
X51.108
G3 X51.528 Y79.269 I0. J0.42
G1 Y79.501
G3 X51.108 Y79.921 I-0.42 J0.
G1 X50.838
G3 X50.418 Y79.501 I0. J-0.42
G1 Y79.269
G3 X50.732 Y78.862 I0.42 J0.
G1 X50.787 Y78.841
X50.835 Y78.807
X50.874 Y78.764
X50.902 Y78.712
X50.925 Y78.67
X50.957 Y78.634
X50.997 Y78.607
X51.042 Y78.59
X51.09 Y78.585
X51.283
G3 X51.792 Y79.094 I0. J0.509
X51.79 Y79.399 I-19.08 J0.003
G2 X51.794 Y79.704 I5.028 J0.08
G3 X51.334 Y80.185 I-0.46 J0.021
G1 X50.617
G3 X50.152 Y79.7 I0. J-0.465
G2 X50.156 Y79.397 I-5.18 J-0.223
G3 X50.154 Y79.094 I19.48 J-0.303
X50.663 Y78.585 I0.509 J0.
G1 X51.09
G2 X51.33 Y78.413 I0. J-0.254
G3 X51.591 Y78.275 I0.204 J0.07
X52.128 Y78.979 I-0.193 J0.704
X52.123 Y79.38 I-16.292 J0.003
G2 X52.137 Y79.781 I3.483 J0.085
G3 X51.461 Y80.521 I-0.676 J0.062
G1 X50.494
G3 X49.81 Y79.782 I0. J-0.686
G2 X49.822 Y79.379 I-4.182 J-0.324
G3 X49.818 Y78.976 I21.357 J-0.402
X50.547 Y78.249 I0.727 J0.
G1 X51.398
X51.496 Y78.255
X51.591 Y78.275
G2 X51.848 Y78.118 I0.055 J-0.199
G3 X52.101 Y77.956 I0.206 J0.043
X52.392 Y78.323 I-0.086 J0.367
X52.375 Y79.113 I-18.42 J0.003
G2 X52.401 Y79.904 I5.253 J0.225
G1 X52.428 Y80.095
X52.454 Y80.287
G3 X52.007 Y80.785 I-0.447 J0.048
G1 X49.864
G3 X49.489 Y80.372 I0. J-0.376
X49.543 Y79.995 I4.384 J0.43
G2 X49.578 Y79.617 I-2.033 J-0.379
X49.566 Y78.969 I-17.753 J-0.001
G3 X49.554 Y78.321 I17.741 J-0.647
X49.998 Y77.951 I0.376 J0.
G2 X50.975 Y78.038 I0.959 J-5.241
X51.951 Y77.952 I-0.019 J-5.839
G1 X52.027 Y77.947
X52.101 Y77.956
X52.163 Y77.963
X52.224 Y77.954
X52.28 Y77.93
X52.329 Y77.892
X52.365 Y77.866
X52.406 Y77.85
X52.451 Y77.846
X52.494 Y77.855
X52.533 Y77.876
X52.565 Y77.907
G3 X52.728 Y78.375 I-0.594 J0.469
X52.71 Y79.122 I-14.986 J0.003
G2 X52.731 Y79.868 I4.743 J0.236
X52.766 Y80.118 I4.022 J-0.435
G3 X52.801 Y80.369 I-3.987 J0.685
X52.126 Y81.121 I-0.675 J0.073
G1 X49.701
G3 X49.139 Y80.501 I0. J-0.565
X49.203 Y80.06 I4.744 J0.466
G2 X49.246 Y79.617 I-2.29 J-0.444
X49.232 Y78.995 I-13.955 J0.
G3 X49.218 Y78.373 I13.941 J-0.621
X50.09 Y77.625 I0.757 J0.
G2 X50.971 Y77.695 I0.913 J-5.93
X51.852 Y77.628 I0.029 J-5.413
G3 X52.565 Y77.907 I0.119 J0.747
G2 X52.788 Y78.085 I0.497 J-0.392
G3 X52.94 Y78.327 I-0.116 J0.242
G1 Y79.617
X52.943 Y79.689
X52.956 Y79.83
X52.958 Y79.844
X53.067 Y80.854
Y81.333
X48.892
Y80.846
X48.991 Y79.836
X48.993 Y79.819
X49.004 Y79.678
X49.006 Y79.617
Y77.567
Y77.549
X49.005 Y77.513
X49.003 Y77.478
X49.001 Y77.443
X49. Y77.437
X49.145
X49.151
X49.292 Y77.436
X49.345 Y77.433
X49.38 Y77.431
X49.416 Y77.427
X49.451 Y77.423
X49.486 Y77.418
X49.522 Y77.412
X49.557 Y77.406
X49.592 Y77.398
X49.628 Y77.39
X49.663 Y77.381
X49.698 Y77.371
X49.734 Y77.36
X49.769 Y77.348
X49.804 Y77.335
X49.812 Y77.332
X49.836 Y77.341
X49.872 Y77.354
X49.907 Y77.365
X49.942 Y77.375
X49.978 Y77.385
X50.013 Y77.394
X50.048 Y77.402
X50.084 Y77.409
X50.119 Y77.415
X50.154 Y77.421
X50.189 Y77.425
X50.225 Y77.429
X50.26 Y77.432
X50.295 Y77.434
X50.343 Y77.436
X50.555 Y77.437
X50.557
X51.546
X51.556
X51.626 Y77.436
X51.671 Y77.434
X51.706 Y77.431
X51.742 Y77.428
X51.777 Y77.424
X51.812 Y77.419
X51.847 Y77.414
X51.883 Y77.407
X51.918 Y77.4
X51.953 Y77.392
X51.989 Y77.383
X52.024 Y77.373
X52.059 Y77.362
X52.095 Y77.351
X52.13 Y77.338
X52.146 Y77.332
X52.162 Y77.338
X52.197 Y77.351
X52.233 Y77.362
X52.268 Y77.373
X52.303 Y77.383
X52.339 Y77.392
X52.374 Y77.4
X52.409 Y77.407
X52.445 Y77.414
X52.48 Y77.419
X52.515 Y77.424
X52.551 Y77.428
X52.586 Y77.431
X52.621 Y77.434
X52.673 Y77.436
X52.946 Y77.437
X52.945 Y77.441
X52.943 Y77.477
X52.941 Y77.512
X52.94 Y77.547
Y77.568
Y78.327
X52.938 Y78.362 Z-3.269
X52.932 Y78.397 Z-3.263
X52.923 Y78.43 Z-3.253
X52.911 Y78.46 Z-3.24
X52.896 Y78.488 Z-3.222
X52.88 Y78.512 Z-3.202
X52.864 Y78.533 Z-3.178
X52.848 Y78.55 Z-3.152
X52.833 Y78.564 Z-3.122
X52.82 Y78.575 Z-3.091
X52.809 Y78.584 Z-3.058
X52.801 Y78.589 Z-3.024
X52.796 Y78.593 Z-2.989
X52.794 Y78.594 Z-2.954
G0 Z15.

G53 Z0.
M30
