(1001)
(T1  D=0.5 CR=0. - ZMIN=-4.179 - FLAT END MILL)
G0 G90 G94 G17
G21
G53 G0 Z0.

(POCKET10)
M5
M9
T1
S12000 M3
G4 P4.
G55
G0 X47.952 Y78.49
Z15.
Z-1.328
G1 Z-2.273 F17.
Y78.491 Z-2.286
X47.951 Y78.496 Z-2.298
Y78.504 Z-2.308
X47.949 Y78.514 Z-2.316
X47.947 Y78.525 Z-2.321
X47.944 Y78.537 Z-2.323
G3 X47.486 Y78.41 Z-2.349 I-0.229 J-0.064
X47.944 Y78.537 Z-2.375 I0.229 J0.064
X47.486 Y78.41 Z-2.401 I-0.229 J-0.064
X47.944 Y78.537 Z-2.427 I0.229 J0.064
X47.486 Y78.41 Z-2.453 I-0.229 J-0.064
X47.944 Y78.537 Z-2.479 I0.229 J0.064
X47.486 Y78.41 Z-2.506 I-0.229 J-0.064
X47.95 Y78.44 Z-2.528 I0.229 J0.064
G0 Z5.
Z-1.328
G1 Z-2.528 F17.
X47.948 Y78.462 F35.
X47.936 Y78.482
X47.914 Y78.504
X47.895 Y78.513
X47.874 Y78.511
X47.858 Y78.498
X47.852 Y78.478
Y78.141
X47.859 Y78.122
X47.877 Y78.113
X47.896 Y78.119
X47.906 Y78.137
X47.95 Y78.44
X47.945 Y78.458
X47.929 Y78.468
X47.911 Y78.464
X47.901 Y78.448
X47.681 Y77.224
X47.674 Y77.211
X47.66 Y77.197
X47.648 Y77.176
X47.651 Y77.151
X47.666 Y77.133
X47.689 Y77.126
X47.717
X47.74 Y77.131
X47.757 Y77.146
X47.766 Y77.168
X47.774 Y77.225
X47.77 Y77.247
X47.754 Y77.262
X47.732 Y77.264
X47.713 Y77.253
X47.684 Y77.221
X47.674 Y77.211
X47.643 Y77.191
X47.606 Y77.184
X47.57 Y77.192
X47.535 Y77.201
X47.498 Y77.195
X47.467 Y77.175
X47.402 Y77.111
X47.387 Y77.086
X47.384 Y77.057
X47.395 Y77.03
X47.418 Y77.011
X47.446 Y77.004
X47.725
X47.77 Y77.011
X47.812 Y77.03
X47.847 Y77.06
X47.872 Y77.099
X47.885 Y77.143
X48.073 Y78.441
X48.072 Y78.482
X48.059 Y78.521
X48.035 Y78.554
X47.824 Y78.764
X47.802 Y78.777
X47.777 Y78.779
X47.753 Y78.77
X47.737 Y78.75
X47.731 Y78.725
G3 X47.758 Y78.141 I6.226 J0.
G2 X47.743 Y77.557 I-2.453 J-0.231
X47.609 Y77.306 I-0.411 J0.06
G1 X47.467 Y77.175
X47.44 Y77.158
X47.409 Y77.152
X47.378 Y77.16
X47.347 Y77.167
X47.316 Y77.162
X47.289 Y77.145
G3 X47.103 Y76.967 I4.711 J-5.087
G1 X47.092 Y76.945
X47.094 Y76.921
X47.11 Y76.903
X47.133 Y76.896
X47.865
X47.903 Y76.903
X47.936 Y76.922
X47.96 Y76.952
X47.972 Y76.988
X48.18 Y78.422
X48.182 Y78.48
X48.17 Y78.536
X48.145 Y78.589
X48.109 Y78.634
X47.684 Y79.056
X47.665 Y79.066
X47.644 Y79.064
X47.628 Y79.051
X47.622 Y79.03
G3 X47.628 Y78.326 I39.37 J0.
G2 X47.634 Y77.622 I-39.364 J-0.704
G1 X47.628 Y77.554
X47.607 Y77.488
X47.574 Y77.428
X47.531 Y77.375
G2 X47.317 Y77.171 I-4.897 J4.909
G1 X47.289 Y77.145
X47.258 Y77.126
X47.223 Y77.121
X47.188 Y77.129
X47.153 Y77.138
X47.118 Y77.132
X47.087 Y77.113
G3 X46.846 Y76.881 I6.26 J-6.75
G1 X46.83 Y76.856
X46.828 Y76.827
X46.839 Y76.8
X46.861 Y76.781
X46.89 Y76.774
X47.924
X47.969 Y76.781
X48.011 Y76.8
X48.046 Y76.83
X48.071 Y76.869
X48.084 Y76.913
X48.3 Y78.404
G3 X48.194 Y78.721 I-0.368 J0.053
G1 X47.594 Y79.317
X47.572 Y79.33
X47.547 Y79.332
X47.523 Y79.322
X47.507 Y79.303
X47.501 Y79.278
X47.52 Y77.622
X47.515 Y77.576
X47.501 Y77.532
X47.479 Y77.492
X47.449 Y77.457
G2 X47.148 Y77.169 I-6.502 J6.517
G1 X47.087 Y77.113
X47.064 Y77.099
X47.037 Y77.094
X47.01 Y77.1
X46.983 Y77.105
X46.956 Y77.1
X46.933 Y77.084
X46.659 Y76.811
X46.54 Y76.693
X46.556 Y76.692
X48.133
X48.134 Y76.693
X48.136 Y76.699
X48.414 Y78.617
Y78.618
X48.413
X47.42 Y79.606
X47.419
Y79.603
X47.418 Y77.622
X47.413 Y77.584
X47.395 Y77.55
X47.392 Y77.544
X47.378 Y77.528
X46.933 Y77.084
X46.926 Y77.07
X46.929 Y77.055
X46.941 Y77.044
X46.957 Y77.042
X47.548 Y77.18
X47.559
X47.569 Y77.175
G3 X47.859 Y77.551 Z-2.554 I0.145 J0.188 F17.
X47.569 Y77.175 Z-2.58 I-0.145 J-0.188
X47.714 Y77.126 Z-2.586 I0.145 J0.188
G1 X47.717 F35.
X47.74 Y77.131
X47.757 Y77.146
X47.766 Y77.168
X47.774 Y77.225
X47.77 Y77.247
X47.754 Y77.262
X47.732 Y77.264
X47.713 Y77.253
X47.684 Y77.221
X47.66 Y77.197
X47.648 Y77.176
X47.651 Y77.151
X47.666 Y77.133
X47.689 Y77.126
X47.714
X47.722 Y77.129
X47.724 Y77.137
X47.719 Y77.181
Y77.184
X47.918 Y78.416
X47.924 Y78.423
X47.945 Y78.433
X47.95 Y78.44
X47.948 Y78.462
X47.936 Y78.482
X47.914 Y78.504
X47.895 Y78.513
X47.874 Y78.511
X47.858 Y78.498
X47.852 Y78.478
Y78.141
X47.859 Y78.122
X47.877 Y78.113
X47.896 Y78.119
X47.906 Y78.137
X47.95 Y78.44
X47.958 Y78.466
X47.974 Y78.488
X47.996 Y78.504
X48.013 Y78.519
X48.021 Y78.54
X48.019 Y78.563
X48.007 Y78.582
X47.824 Y78.764
X47.802 Y78.777
X47.777 Y78.779
X47.753 Y78.77
X47.737 Y78.75
X47.731 Y78.725
G3 X47.758 Y78.141 I6.226 J0.
G2 X47.743 Y77.557 I-2.453 J-0.231
X47.609 Y77.306 I-0.411 J0.06
G3 X47.402 Y77.111 I3.372 J-3.783
G1 X47.387 Y77.086
X47.384 Y77.057
X47.395 Y77.03
X47.418 Y77.011
X47.446 Y77.004
X47.725
X47.77 Y77.011
X47.812 Y77.03
X47.847 Y77.06
X47.872 Y77.099
X47.885 Y77.143
X48.073 Y78.441
X48.072 Y78.482
X48.059 Y78.521
X48.035 Y78.554
X48.007 Y78.582
X47.988 Y78.61
X47.981 Y78.644
X47.988 Y78.678
X47.994 Y78.712
X47.987 Y78.745
X47.968 Y78.774
X47.684 Y79.056
X47.665 Y79.066
X47.644 Y79.064
X47.628 Y79.051
X47.622 Y79.03
G3 X47.628 Y78.326 I39.37 J0.
G2 X47.634 Y77.622 I-39.364 J-0.704
G1 X47.628 Y77.554
X47.607 Y77.488
X47.574 Y77.428
X47.531 Y77.375
G2 X47.317 Y77.171 I-4.897 J4.909
G3 X47.103 Y76.967 I4.683 J-5.113
G1 X47.092 Y76.945
X47.094 Y76.921
X47.11 Y76.903
X47.133 Y76.896
X47.865
X47.903 Y76.903
X47.936 Y76.922
X47.96 Y76.952
X47.972 Y76.988
X48.18 Y78.422
X48.182 Y78.48
X48.17 Y78.536
X48.145 Y78.589
X48.109 Y78.634
X47.968 Y78.774
X47.947 Y78.806
X47.939 Y78.843
X47.946 Y78.881
X47.954 Y78.919
X47.946 Y78.956
X47.925 Y78.988
X47.594 Y79.317
X47.572 Y79.33
X47.547 Y79.332
X47.523 Y79.322
X47.507 Y79.303
X47.501 Y79.278
X47.52 Y77.622
X47.515 Y77.576
X47.501 Y77.532
X47.479 Y77.492
X47.449 Y77.457
G2 X47.148 Y77.169 I-6.502 J6.517
G3 X46.846 Y76.881 I6.2 J-6.805
G1 X46.83 Y76.856
X46.828 Y76.827
X46.839 Y76.8
X46.861 Y76.781
X46.89 Y76.774
X47.924
X47.969 Y76.781
X48.011 Y76.8
X48.046 Y76.83
X48.071 Y76.869
X48.084 Y76.913
X48.3 Y78.404
G3 X48.194 Y78.721 I-0.368 J0.053
G1 X47.925 Y78.988
X47.91 Y79.01
X47.905 Y79.035
X47.91 Y79.061
X47.915 Y79.086
X47.91 Y79.112
X47.895 Y79.133
X47.42 Y79.606
X47.419
Y79.603
X47.418 Y77.622
X47.413 Y77.584
X47.395 Y77.55
X47.392 Y77.544
X47.378 Y77.528
X46.659 Y76.811
X46.54 Y76.693
X46.556 Y76.692
X48.133
X48.134 Y76.693
X48.136 Y76.699
X48.414 Y78.617
Y78.618
X48.413
X47.895 Y79.133
X47.88 Y79.14
X47.863 Y79.136
X47.853 Y79.121
X47.685 Y78.438
X47.686 Y78.423
G3 X48.13 Y78.592 Z-2.612 I0.222 J0.085 F17.
X47.686 Y78.423 Z-2.638 I-0.222 J-0.085
X48.13 Y78.592 Z-2.664 I0.222 J0.085
X47.673 Y78.541 Z-2.686 I-0.222 J-0.085
X48.079 Y78.483 I0.203 J-0.029
G1 X48.08 Y78.487 F35.
X48.078 Y78.506
X48.068 Y78.522
X48.049 Y78.54
X48.029 Y78.551
X48.005 Y78.549
X47.987 Y78.534
X47.98 Y78.511
Y78.37
X47.988 Y78.347
X48.006 Y78.332
X48.031 Y78.331
X48.051 Y78.343
X48.062 Y78.365
X48.079 Y78.483
X48.074 Y78.501
X48.058 Y78.511
X48.04 Y78.507
X48.03 Y78.491
X47.764 Y77.126
X47.757 Y77.113
X47.756 Y77.111
X47.741 Y77.086
X47.738 Y77.057
X47.749 Y77.03
X47.772 Y77.011
X47.8 Y77.004
X47.817
X47.842 Y77.011
X47.862 Y77.027
X47.871 Y77.051
X47.877 Y77.09
X47.874 Y77.118
X47.858 Y77.14
X47.834 Y77.153
X47.806 Y77.152
X47.782 Y77.138
X47.757 Y77.113
X47.731 Y77.096
X47.701 Y77.091
X47.67 Y77.099
X47.641 Y77.107
X47.61 Y77.102
X47.583 Y77.087
X47.457 Y76.967
X47.446 Y76.946
X47.448 Y76.921
X47.464 Y76.903
X47.487 Y76.896
X47.865
X47.903 Y76.903
X47.936 Y76.922
X47.96 Y76.952
X47.972 Y76.988
X48.186 Y78.467
Y78.516
X48.17 Y78.562
X48.141 Y78.602
X47.943 Y78.799
X47.922 Y78.81
X47.897 Y78.808
X47.879 Y78.793
X47.872 Y78.769
X47.879 Y77.496
G2 X47.711 Y77.197 I-0.466 J0.064
G1 X47.583 Y77.087
X47.553 Y77.069
X47.518 Y77.064
X47.484 Y77.072
X47.451 Y77.081
X47.416 Y77.076
X47.386 Y77.058
G3 X47.2 Y76.881 I3.508 J-3.88
G1 X47.184 Y76.856
X47.182 Y76.827
X47.193 Y76.8
X47.215 Y76.781
X47.244 Y76.774
X47.924
X47.969 Y76.781
X48.011 Y76.8
X48.046 Y76.83
X48.071 Y76.869
X48.084 Y76.913
X48.31 Y78.471
X48.311 Y78.526
X48.3 Y78.58
X48.276 Y78.63
X48.242 Y78.673
X47.857 Y79.055
X47.832 Y79.07
X47.803 Y79.073
X47.776 Y79.061
X47.757 Y79.039
X47.75 Y79.011
X47.765 Y77.512
X47.754 Y77.462
X47.735 Y77.415
X47.71 Y77.371
X47.678 Y77.332
G2 X47.44 Y77.106 I-3.012 J2.928
G1 X47.386 Y77.058
X47.362 Y77.044
X47.336 Y77.039
X47.309 Y77.045
X47.282 Y77.05
X47.255 Y77.045
X47.232 Y77.03
X46.894 Y76.692
X48.133
X48.134 Y76.693
X48.136 Y76.699
X48.414 Y78.617
Y78.618
X48.413
X47.668 Y79.359
Y77.56
X47.667 Y77.543
X47.665 Y77.526
X47.661 Y77.508
X47.656 Y77.49
X47.648 Y77.47
X47.638 Y77.449
X47.628 Y77.432
X47.618 Y77.418
X47.605 Y77.403
X47.572 Y77.368
X47.57 Y77.367
X47.232 Y77.03
X47.23 Y77.017
X47.24 Y77.01
X47.292 Y77.008
X47.885 Y77.055
X47.891 Y77.053
X47.914 Y77.035
X47.923
G3 X47.692 Y77.449 Z-2.712 I-0.116 J0.207 F17.
X47.923 Y77.035 Z-2.738 I0.116 J-0.207
X47.692 Y77.449 Z-2.764 I-0.116 J0.207
X47.808 Y77.004 Z-2.786 I0.116 J-0.207
G1 X47.817 F35.
X47.842 Y77.011
X47.862 Y77.027
X47.871 Y77.051
X47.877 Y77.09
X47.874 Y77.118
X47.858 Y77.14
X47.834 Y77.153
X47.806 Y77.152
X47.782 Y77.138
X47.756 Y77.111
X47.741 Y77.086
X47.738 Y77.057
X47.749 Y77.03
X47.772 Y77.011
X47.8 Y77.004
X47.808
X47.817 Y77.009
X47.82 Y77.018
X47.814 Y77.074
Y77.078
X48.047 Y78.459
X48.052 Y78.466
X48.073 Y78.475
X48.079 Y78.483
X48.08 Y78.487
X48.078 Y78.506
X48.068 Y78.522
X48.049 Y78.54
X48.029 Y78.551
X48.005 Y78.549
X47.987 Y78.534
X47.98 Y78.511
Y78.37
X47.988 Y78.347
X48.006 Y78.332
X48.031 Y78.331
X48.051 Y78.343
X48.062 Y78.365
X48.079 Y78.483
X48.086 Y78.506
X48.1 Y78.527
X48.12 Y78.542
X48.136 Y78.555
X48.143 Y78.575
X48.141 Y78.595
X48.13 Y78.613
X47.943 Y78.799
X47.922 Y78.81
X47.897 Y78.808
X47.879 Y78.793
X47.872 Y78.769
X47.879 Y77.496
G2 X47.711 Y77.197 I-0.466 J0.064
G3 X47.457 Y76.967 I2.265 J-2.755
G1 X47.446 Y76.946
X47.448 Y76.921
X47.464 Y76.903
X47.487 Y76.896
X47.865
X47.903 Y76.903
X47.936 Y76.922
X47.96 Y76.952
X47.972 Y76.988
X48.186 Y78.467
Y78.516
X48.17 Y78.562
X48.141 Y78.602
X48.13 Y78.613
X48.109 Y78.645
X48.101 Y78.682
X48.109 Y78.72
X48.116 Y78.758
X48.108 Y78.795
X48.087 Y78.827
X47.857 Y79.055
X47.832 Y79.07
X47.803 Y79.073
X47.776 Y79.061
X47.757 Y79.039
X47.75 Y79.011
X47.765 Y77.512
X47.754 Y77.462
X47.735 Y77.415
X47.71 Y77.371
X47.678 Y77.332
G2 X47.44 Y77.106 I-3.012 J2.928
G3 X47.2 Y76.881 I3.455 J-3.928
G1 X47.184 Y76.856
X47.182 Y76.827
X47.193 Y76.8
X47.215 Y76.781
X47.244 Y76.774
X47.924
X47.969 Y76.781
X48.011 Y76.8
X48.046 Y76.83
X48.071 Y76.869
X48.084 Y76.913
X48.31 Y78.471
X48.311 Y78.526
X48.3 Y78.58
X48.276 Y78.63
X48.242 Y78.673
X48.087 Y78.827
X48.072 Y78.849
X48.067 Y78.874
X48.072 Y78.9
X48.077 Y78.925
X48.072 Y78.951
X48.057 Y78.972
X47.668 Y79.359
Y77.56
X47.667 Y77.543
X47.665 Y77.526
X47.661 Y77.508
X47.656 Y77.49
X47.648 Y77.47
X47.638 Y77.449
X47.628 Y77.432
X47.618 Y77.418
X47.605 Y77.403
X47.572 Y77.368
X47.57 Y77.367
X46.894 Y76.692
X48.133
X48.134 Y76.693
X48.136 Y76.699
X48.414 Y78.617
Y78.618
X48.413
X48.057 Y78.972
X48.044 Y78.979
X48.03 Y78.977
X48.019 Y78.968
X47.688 Y78.445
X47.684 Y78.434
X47.686 Y78.423
G3 X48.13 Y78.592 Z-2.812 I0.222 J0.085 F17.
X47.686 Y78.423 Z-2.838 I-0.222 J-0.085
X48.13 Y78.592 Z-2.864 I0.222 J0.085
X47.673 Y78.541 Z-2.886 I-0.222 J-0.085
X48.079 Y78.483 I0.203 J-0.029
G1 X48.08 Y78.487 F35.
X48.078 Y78.506
X48.068 Y78.522
X48.049 Y78.54
X48.029 Y78.551
X48.005 Y78.549
X47.987 Y78.534
X47.98 Y78.511
Y78.37
X47.988 Y78.347
X48.006 Y78.332
X48.031 Y78.331
X48.051 Y78.343
X48.062 Y78.365
X48.079 Y78.483
X48.074 Y78.501
X48.058 Y78.511
X48.04 Y78.507
X48.03 Y78.491
X47.764 Y77.126
X47.757 Y77.113
X47.756 Y77.111
X47.741 Y77.086
X47.738 Y77.057
X47.749 Y77.03
X47.772 Y77.011
X47.8 Y77.004
X47.817
X47.842 Y77.011
X47.862 Y77.027
X47.871 Y77.051
X47.877 Y77.09
X47.874 Y77.118
X47.858 Y77.14
X47.834 Y77.153
X47.806 Y77.152
X47.782 Y77.138
X47.757 Y77.113
X47.731 Y77.096
X47.701 Y77.091
X47.67 Y77.099
X47.641 Y77.107
X47.61 Y77.102
X47.583 Y77.087
X47.457 Y76.967
X47.446 Y76.946
X47.448 Y76.921
X47.464 Y76.903
X47.487 Y76.896
X47.865
X47.903 Y76.903
X47.936 Y76.922
X47.96 Y76.952
X47.972 Y76.988
X48.186 Y78.467
Y78.516
X48.17 Y78.562
X48.141 Y78.602
X47.943 Y78.799
X47.922 Y78.81
X47.897 Y78.808
X47.879 Y78.793
X47.872 Y78.769
X47.879 Y77.496
G2 X47.711 Y77.197 I-0.466 J0.064
G1 X47.583 Y77.087
X47.553 Y77.069
X47.518 Y77.064
X47.484 Y77.072
X47.451 Y77.081
X47.416 Y77.076
X47.386 Y77.058
G3 X47.2 Y76.881 I3.508 J-3.88
G1 X47.184 Y76.856
X47.182 Y76.827
X47.193 Y76.8
X47.215 Y76.781
X47.244 Y76.774
X47.924
X47.969 Y76.781
X48.011 Y76.8
X48.046 Y76.83
X48.071 Y76.869
X48.084 Y76.913
X48.31 Y78.471
X48.311 Y78.526
X48.3 Y78.58
X48.276 Y78.63
X48.242 Y78.673
X47.857 Y79.055
X47.832 Y79.07
X47.803 Y79.073
X47.776 Y79.061
X47.757 Y79.039
X47.75 Y79.011
X47.765 Y77.512
X47.754 Y77.462
X47.735 Y77.415
X47.71 Y77.371
X47.678 Y77.332
G2 X47.44 Y77.106 I-3.012 J2.928
G1 X47.386 Y77.058
X47.362 Y77.044
X47.336 Y77.039
X47.309 Y77.045
X47.282 Y77.05
X47.255 Y77.045
X47.232 Y77.03
X46.894 Y76.692
X48.133
X48.134 Y76.693
X48.136 Y76.699
X48.414 Y78.617
Y78.618
X48.413
X47.668 Y79.359
Y77.56
X47.667 Y77.543
X47.665 Y77.526
X47.661 Y77.508
X47.656 Y77.49
X47.648 Y77.47
X47.638 Y77.449
X47.628 Y77.432
X47.618 Y77.418
X47.605 Y77.403
X47.572 Y77.368
X47.57 Y77.367
X47.232 Y77.03
X47.225 Y77.014
X47.23 Y76.997
X47.244 Y76.988
X47.261 Y76.99
X47.766 Y77.25
X47.777 Y77.263
X47.778 Y77.28
X47.768 Y77.293
G3 X47.508 Y76.896 Z-2.912 I-0.13 J-0.199 F17.
X47.873 Y77.061 Z-2.928 I0.13 J0.199
G1 X47.877 Y77.09 F35.
X47.874 Y77.118
X47.858 Y77.14
X47.834 Y77.153
X47.806 Y77.152
X47.782 Y77.138
X47.756 Y77.111
X47.741 Y77.086
X47.738 Y77.057
X47.749 Y77.03
X47.772 Y77.011
X47.8 Y77.004
X47.817
X47.842 Y77.011
X47.862 Y77.027
X47.871 Y77.051
X47.873 Y77.061
X47.869 Y77.072
X47.846 Y77.091
X47.842 Y77.103
X48.048 Y78.46
X48.053 Y78.467
X48.074 Y78.476
X48.079 Y78.483
X48.08 Y78.487
X48.078 Y78.506
X48.068 Y78.522
X48.049 Y78.54
X48.029 Y78.551
X48.005 Y78.549
X47.987 Y78.534
X47.98 Y78.511
Y78.37
X47.988 Y78.347
X48.006 Y78.332
X48.031 Y78.331
X48.051 Y78.343
X48.062 Y78.365
X48.079 Y78.483
X48.086 Y78.507
X48.1 Y78.527
X48.12 Y78.542
X48.135 Y78.556
X48.143 Y78.575
X48.141 Y78.596
X48.13 Y78.613
X47.943 Y78.799
X47.922 Y78.81
X47.897 Y78.808
X47.879 Y78.793
X47.872 Y78.769
X47.879 Y77.496
G2 X47.711 Y77.197 I-0.466 J0.064
G3 X47.457 Y76.967 I2.265 J-2.755
G1 X47.446 Y76.946
X47.448 Y76.921
X47.464 Y76.903
X47.487 Y76.896
X47.865
X47.903 Y76.903
X47.936 Y76.922
X47.96 Y76.952
X47.972 Y76.988
X48.186 Y78.467
Y78.516
X48.17 Y78.562
X48.141 Y78.602
X48.13 Y78.613
X48.109 Y78.645
X48.101 Y78.683
X48.108 Y78.72
X48.116 Y78.758
X48.108 Y78.796
X48.087 Y78.827
X47.857 Y79.055
X47.832 Y79.07
X47.803 Y79.073
X47.776 Y79.061
X47.757 Y79.039
X47.75 Y79.011
X47.765 Y77.512
X47.754 Y77.462
X47.735 Y77.415
X47.71 Y77.371
X47.678 Y77.332
G2 X47.44 Y77.106 I-3.012 J2.928
G3 X47.2 Y76.881 I3.455 J-3.928
G1 X47.184 Y76.856
X47.182 Y76.827
X47.193 Y76.8
X47.215 Y76.781
X47.244 Y76.774
X47.924
X47.969 Y76.781
X48.011 Y76.8
X48.046 Y76.83
X48.071 Y76.869
X48.084 Y76.913
X48.31 Y78.471
X48.311 Y78.526
X48.3 Y78.58
X48.276 Y78.63
X48.242 Y78.673
X48.087 Y78.827
X48.072 Y78.849
X48.067 Y78.874
X48.072 Y78.9
X48.077 Y78.925
X48.072 Y78.951
X48.057 Y78.972
X47.668 Y79.359
Y77.56
X47.667 Y77.543
X47.665 Y77.526
X47.661 Y77.508
X47.656 Y77.49
X47.648 Y77.47
X47.638 Y77.449
X47.628 Y77.432
X47.618 Y77.418
X47.605 Y77.403
X47.572 Y77.368
X47.57 Y77.367
X46.894 Y76.692
X48.133
X48.134 Y76.693
X48.136 Y76.699
X48.414 Y78.617
Y78.618
X48.413
X48.057 Y78.972
X48.044 Y78.979
X48.03 Y78.978
X48.018 Y78.968
X47.688 Y78.445
X47.684 Y78.434
X47.686 Y78.423
G3 X48.13 Y78.592 Z-2.954 I0.222 J0.085 F17.
X47.686 Y78.423 Z-2.981 I-0.222 J-0.085
X48.13 Y78.592 Z-3.007 I0.222 J0.085
X47.673 Y78.541 Z-3.028 I-0.222 J-0.085
X48.079 Y78.483 I0.203 J-0.029
G1 X48.08 Y78.487 F35.
X48.078 Y78.506
X48.068 Y78.522
X48.049 Y78.54
X48.029 Y78.551
X48.005 Y78.549
X47.987 Y78.534
X47.98 Y78.511
Y78.37
X47.988 Y78.347
X48.006 Y78.332
X48.031 Y78.331
X48.051 Y78.343
X48.062 Y78.365
X48.079 Y78.483
X48.074 Y78.501
X48.058 Y78.511
X48.04 Y78.507
X48.03 Y78.491
X47.764 Y77.126
X47.757 Y77.113
X47.756 Y77.111
X47.741 Y77.086
X47.738 Y77.057
X47.749 Y77.03
X47.772 Y77.011
X47.8 Y77.004
X47.817
X47.842 Y77.011
X47.862 Y77.027
X47.871 Y77.051
X47.877 Y77.09
X47.874 Y77.118
X47.858 Y77.14
X47.834 Y77.153
X47.806 Y77.152
X47.782 Y77.138
X47.757 Y77.113
X47.731 Y77.096
X47.701 Y77.091
X47.67 Y77.099
X47.641 Y77.107
X47.61 Y77.102
X47.583 Y77.087
X47.457 Y76.967
X47.446 Y76.946
X47.448 Y76.921
X47.464 Y76.903
X47.487 Y76.896
X47.865
X47.903 Y76.903
X47.936 Y76.922
X47.96 Y76.952
X47.972 Y76.988
X48.186 Y78.467
Y78.516
X48.17 Y78.562
X48.141 Y78.602
X47.943 Y78.799
X47.922 Y78.81
X47.897 Y78.808
X47.879 Y78.793
X47.872 Y78.769
X47.879 Y77.496
G2 X47.711 Y77.197 I-0.466 J0.064
G1 X47.583 Y77.087
X47.553 Y77.069
X47.518 Y77.064
X47.484 Y77.072
X47.451 Y77.081
X47.416 Y77.076
X47.386 Y77.058
G3 X47.2 Y76.881 I3.508 J-3.88
G1 X47.184 Y76.856
X47.182 Y76.827
X47.193 Y76.8
X47.215 Y76.781
X47.244 Y76.774
X47.924
X47.969 Y76.781
X48.011 Y76.8
X48.046 Y76.83
X48.071 Y76.869
X48.084 Y76.913
X48.31 Y78.471
X48.311 Y78.526
X48.3 Y78.58
X48.276 Y78.63
X48.242 Y78.673
X47.857 Y79.055
X47.832 Y79.07
X47.803 Y79.073
X47.776 Y79.061
X47.757 Y79.039
X47.75 Y79.011
X47.765 Y77.512
X47.754 Y77.462
X47.735 Y77.415
X47.71 Y77.371
X47.678 Y77.332
G2 X47.44 Y77.106 I-3.012 J2.928
G1 X47.386 Y77.058
X47.362 Y77.044
X47.336 Y77.039
X47.309 Y77.045
X47.282 Y77.05
X47.255 Y77.045
X47.232 Y77.03
X46.894 Y76.692
X48.133
X48.134 Y76.693
X48.136 Y76.699
X48.414 Y78.617
Y78.618
X48.413
X47.668 Y79.359
Y77.56
X47.667 Y77.543
X47.665 Y77.526
X47.661 Y77.508
X47.656 Y77.49
X47.648 Y77.47
X47.638 Y77.449
X47.628 Y77.432
X47.618 Y77.418
X47.605 Y77.403
X47.572 Y77.368
X47.57 Y77.367
X47.232 Y77.03
X47.225 Y77.016
X47.228 Y77.001
X47.238 Y76.99
X47.253 Y76.987
X47.673 Y77.045
X47.689 Y77.042
X47.7 Y77.03
X47.701 Y77.014
G3 X48.158 Y76.883 Z-3.054 I0.228 J-0.065 F17.
X47.701 Y77.014 Z-3.081 I-0.228 J0.065
X48.158 Y76.883 Z-3.107 I0.228 J-0.065
X47.761 Y77.117 Z-3.128 I-0.228 J0.065
G1 X47.756 Y77.111 F35.
X47.741 Y77.086
X47.738 Y77.057
X47.749 Y77.03
X47.772 Y77.011
X47.8 Y77.004
X47.817
X47.842 Y77.011
X47.862 Y77.027
X47.871 Y77.051
X47.877 Y77.09
X47.874 Y77.118
X47.858 Y77.14
X47.834 Y77.153
X47.806 Y77.152
X47.782 Y77.138
X47.761 Y77.117
X47.758 Y77.104
X47.769 Y77.096
X47.781 Y77.102
X47.793 Y77.123
X47.794 Y77.127
X48.046 Y78.459
X48.052 Y78.466
X48.073 Y78.475
X48.079 Y78.482
X48.08 Y78.487
X48.078 Y78.506
X48.068 Y78.522
X48.049 Y78.54
X48.029 Y78.551
X48.005 Y78.549
X47.987 Y78.534
X47.98 Y78.511
Y78.37
X47.988 Y78.347
X48.006 Y78.332
X48.031 Y78.331
X48.051 Y78.343
X48.062 Y78.365
X48.079 Y78.482
X48.086 Y78.506
X48.1 Y78.526
X48.12 Y78.541
X48.136 Y78.555
X48.143 Y78.574
X48.142 Y78.595
X48.131 Y78.613
X47.943 Y78.799
X47.922 Y78.81
X47.897 Y78.808
X47.879 Y78.793
X47.872 Y78.769
X47.879 Y77.496
G2 X47.711 Y77.197 I-0.466 J0.064
G3 X47.457 Y76.967 I2.265 J-2.755
G1 X47.446 Y76.946
X47.448 Y76.921
X47.464 Y76.903
X47.487 Y76.896
X47.865
X47.903 Y76.903
X47.936 Y76.922
X47.96 Y76.952
X47.972 Y76.988
X48.186 Y78.467
Y78.516
X48.17 Y78.562
X48.141 Y78.602
X48.131 Y78.613
X48.109 Y78.644
X48.102 Y78.682
X48.109 Y78.72
X48.116 Y78.757
X48.109 Y78.795
X48.087 Y78.827
X47.857 Y79.055
X47.832 Y79.07
X47.803 Y79.073
X47.776 Y79.061
X47.757 Y79.039
X47.75 Y79.011
X47.765 Y77.512
X47.754 Y77.462
X47.735 Y77.415
X47.71 Y77.371
X47.678 Y77.332
G2 X47.44 Y77.106 I-3.013 J2.928
G3 X47.2 Y76.881 I3.455 J-3.928
G1 X47.184 Y76.856
X47.182 Y76.827
X47.193 Y76.8
X47.215 Y76.781
X47.244 Y76.774
X47.924
X47.969 Y76.781
X48.011 Y76.8
X48.046 Y76.83
X48.071 Y76.869
X48.084 Y76.913
X48.31 Y78.471
X48.311 Y78.526
X48.3 Y78.58
X48.276 Y78.63
X48.242 Y78.673
X48.087 Y78.827
X48.073 Y78.848
X48.068 Y78.874
X48.072 Y78.899
X48.077 Y78.925
X48.072 Y78.95
X48.058 Y78.972
X47.668 Y79.359
Y77.56
X47.667 Y77.543
X47.665 Y77.526
X47.661 Y77.508
X47.656 Y77.49
X47.648 Y77.47
X47.638 Y77.449
X47.628 Y77.432
X47.618 Y77.418
X47.605 Y77.403
X47.572 Y77.368
X47.57 Y77.367
X46.894 Y76.692
X48.133
X48.134 Y76.693
X48.136 Y76.699
X48.414 Y78.617
Y78.618
X48.413
X48.058 Y78.972
X48.045 Y78.979
X48.03 Y78.977
X48.019 Y78.968
X47.688 Y78.445
X47.684 Y78.434
X47.686 Y78.423
G3 X48.13 Y78.592 Z-3.154 I0.222 J0.085 F17.
X47.686 Y78.423 Z-3.181 I-0.222 J-0.085
X48.13 Y78.592 Z-3.207 I0.222 J0.085
X47.673 Y78.541 Z-3.228 I-0.222 J-0.085
X48.079 Y78.483 I0.203 J-0.029
G1 X48.08 Y78.487 F35.
X48.078 Y78.506
X48.068 Y78.522
X48.049 Y78.54
X48.029 Y78.551
X48.005 Y78.549
X47.987 Y78.534
X47.98 Y78.511
Y78.37
X47.988 Y78.347
X48.006 Y78.332
X48.031 Y78.331
X48.051 Y78.343
X48.062 Y78.365
X48.079 Y78.483
X48.074 Y78.501
X48.058 Y78.511
X48.04 Y78.507
X48.03 Y78.491
X47.764 Y77.126
X47.757 Y77.113
X47.756 Y77.111
X47.741 Y77.086
X47.738 Y77.057
X47.749 Y77.03
X47.772 Y77.011
X47.8 Y77.004
X47.817
X47.842 Y77.011
X47.862 Y77.027
X47.871 Y77.051
X47.877 Y77.09
X47.874 Y77.118
X47.858 Y77.14
X47.834 Y77.153
X47.806 Y77.152
X47.782 Y77.138
X47.757 Y77.113
X47.731 Y77.096
X47.701 Y77.091
X47.67 Y77.099
X47.641 Y77.107
X47.61 Y77.102
X47.583 Y77.087
X47.457 Y76.967
X47.446 Y76.946
X47.448 Y76.921
X47.464 Y76.903
X47.487 Y76.896
X47.865
X47.903 Y76.903
X47.936 Y76.922
X47.96 Y76.952
X47.972 Y76.988
X48.186 Y78.467
Y78.516
X48.17 Y78.562
X48.141 Y78.602
X47.943 Y78.799
X47.922 Y78.81
X47.897 Y78.808
X47.879 Y78.793
X47.872 Y78.769
X47.879 Y77.496
G2 X47.711 Y77.197 I-0.466 J0.064
G1 X47.583 Y77.087
X47.553 Y77.069
X47.518 Y77.064
X47.484 Y77.072
X47.451 Y77.081
X47.416 Y77.076
X47.386 Y77.058
G3 X47.2 Y76.881 I3.509 J-3.88
G1 X47.184 Y76.856
X47.182 Y76.827
X47.193 Y76.8
X47.215 Y76.781
X47.244 Y76.774
X47.924
X47.969 Y76.781
X48.011 Y76.8
X48.046 Y76.83
X48.071 Y76.869
X48.084 Y76.913
X48.31 Y78.471
X48.311 Y78.526
X48.3 Y78.58
X48.276 Y78.63
X48.242 Y78.673
X47.857 Y79.055
X47.832 Y79.07
X47.803 Y79.073
X47.776 Y79.061
X47.757 Y79.039
X47.75 Y79.011
X47.765 Y77.512
X47.754 Y77.462
X47.735 Y77.415
X47.71 Y77.371
X47.678 Y77.332
G2 X47.44 Y77.106 I-3.013 J2.928
G1 X47.386 Y77.058
X47.362 Y77.044
X47.336 Y77.039
X47.309 Y77.045
X47.282 Y77.05
X47.255 Y77.045
X47.232 Y77.03
X46.894 Y76.692
X48.133
X48.134 Y76.693
X48.136 Y76.699
X48.414 Y78.617
Y78.618
X48.413
X47.668 Y79.359
Y77.56
X47.667 Y77.543
X47.665 Y77.526
X47.661 Y77.508
X47.656 Y77.49
X47.648 Y77.47
X47.638 Y77.449
X47.628 Y77.432
X47.618 Y77.418
X47.605 Y77.403
X47.572 Y77.368
X47.57 Y77.367
X47.232 Y77.03
X47.229 Y77.021
X47.233 Y77.013
X47.241 Y77.01
X47.292 Y77.012
X47.972 Y77.156
X47.977
X48.016 Y77.146
X48.023
X48.027 Y77.151
G3 X47.588 Y77.333 Z-3.254 I-0.22 J0.091 F17.
X47.808 Y77.004 Z-3.271 I0.22 J-0.091
G1 X47.817 F35.
X47.842 Y77.011
X47.862 Y77.027
X47.871 Y77.051
X47.877 Y77.09
X47.874 Y77.118
X47.858 Y77.14
X47.834 Y77.153
X47.806 Y77.152
X47.782 Y77.138
X47.756 Y77.111
X47.741 Y77.086
X47.738 Y77.057
X47.749 Y77.03
X47.772 Y77.011
X47.8 Y77.004
X47.808
X47.817 Y77.009
X47.82 Y77.018
X47.814 Y77.074
Y77.078
X48.047 Y78.459
X48.052 Y78.466
X48.073 Y78.475
X48.079 Y78.483
X48.08 Y78.487
X48.078 Y78.506
X48.068 Y78.522
X48.049 Y78.54
X48.029 Y78.551
X48.005 Y78.549
X47.987 Y78.534
X47.98 Y78.511
Y78.37
X47.988 Y78.347
X48.006 Y78.332
X48.031 Y78.331
X48.051 Y78.343
X48.062 Y78.365
X48.079 Y78.483
X48.086 Y78.506
X48.1 Y78.527
X48.12 Y78.542
X48.136 Y78.555
X48.143 Y78.575
X48.141 Y78.595
X48.13 Y78.613
X47.943 Y78.799
X47.922 Y78.81
X47.897 Y78.808
X47.879 Y78.793
X47.872 Y78.769
X47.879 Y77.496
G2 X47.711 Y77.197 I-0.466 J0.064
G3 X47.457 Y76.967 I2.265 J-2.755
G1 X47.446 Y76.946
X47.448 Y76.921
X47.464 Y76.903
X47.487 Y76.896
X47.865
X47.903 Y76.903
X47.936 Y76.922
X47.96 Y76.952
X47.972 Y76.988
X48.186 Y78.467
Y78.516
X48.17 Y78.562
X48.141 Y78.602
X48.13 Y78.613
X48.109 Y78.645
X48.101 Y78.682
X48.109 Y78.72
X48.116 Y78.758
X48.108 Y78.795
X48.087 Y78.827
X47.857 Y79.055
X47.832 Y79.07
X47.803 Y79.073
X47.776 Y79.061
X47.757 Y79.039
X47.75 Y79.011
X47.765 Y77.512
X47.754 Y77.462
X47.735 Y77.415
X47.71 Y77.371
X47.678 Y77.332
G2 X47.44 Y77.106 I-3.013 J2.928
G3 X47.2 Y76.881 I3.455 J-3.928
G1 X47.184 Y76.856
X47.182 Y76.827
X47.193 Y76.8
X47.215 Y76.781
X47.244 Y76.774
X47.924
X47.969 Y76.781
X48.011 Y76.8
X48.046 Y76.83
X48.071 Y76.869
X48.084 Y76.913
X48.31 Y78.471
X48.311 Y78.526
X48.3 Y78.58
X48.276 Y78.63
X48.242 Y78.673
X48.087 Y78.827
X48.072 Y78.849
X48.067 Y78.874
X48.072 Y78.9
X48.077 Y78.925
X48.072 Y78.951
X48.057 Y78.972
X47.668 Y79.359
Y77.56
X47.667 Y77.543
X47.665 Y77.526
X47.661 Y77.508
X47.656 Y77.49
X47.648 Y77.47
X47.638 Y77.449
X47.628 Y77.432
X47.618 Y77.418
X47.605 Y77.403
X47.572 Y77.368
X47.57 Y77.367
X46.894 Y76.692
X48.133
X48.134 Y76.693
X48.136 Y76.699
X48.414 Y78.617
Y78.618
X48.413
X48.057 Y78.972
X48.044 Y78.979
X48.03 Y78.977
X48.019 Y78.968
X47.688 Y78.445
X47.684 Y78.434
X47.686 Y78.423
G3 X48.13 Y78.592 Z-3.297 I0.222 J0.085 F17.
X47.686 Y78.423 Z-3.323 I-0.222 J-0.085
X48.13 Y78.592 Z-3.349 I0.222 J0.085
X47.673 Y78.541 Z-3.371 I-0.222 J-0.085
X48.079 Y78.483 I0.203 J-0.029
G1 X48.08 Y78.487 F35.
X48.078 Y78.506
X48.068 Y78.522
X48.049 Y78.54
X48.029 Y78.551
X48.005 Y78.549
X47.987 Y78.534
X47.98 Y78.511
Y78.37
X47.988 Y78.347
X48.006 Y78.332
X48.031 Y78.331
X48.051 Y78.343
X48.062 Y78.365
X48.079 Y78.483
X48.074 Y78.501
X48.058 Y78.511
X48.04 Y78.507
X48.03 Y78.491
X47.764 Y77.126
X47.757 Y77.113
X47.756 Y77.111
X47.741 Y77.086
X47.738 Y77.057
X47.749 Y77.03
X47.772 Y77.011
X47.8 Y77.004
X47.817
X47.842 Y77.011
X47.862 Y77.027
X47.871 Y77.051
X47.877 Y77.09
X47.874 Y77.118
X47.858 Y77.14
X47.834 Y77.153
X47.806 Y77.152
X47.782 Y77.138
X47.757 Y77.113
X47.731 Y77.096
X47.701 Y77.091
X47.67 Y77.099
X47.641 Y77.107
X47.61 Y77.102
X47.583 Y77.087
X47.457 Y76.967
X47.446 Y76.946
X47.448 Y76.921
X47.464 Y76.903
X47.487 Y76.896
X47.865
X47.903 Y76.903
X47.936 Y76.922
X47.96 Y76.952
X47.972 Y76.988
X48.186 Y78.467
Y78.516
X48.17 Y78.562
X48.141 Y78.602
X47.943 Y78.799
X47.922 Y78.81
X47.897 Y78.808
X47.879 Y78.793
X47.872 Y78.769
X47.879 Y77.496
G2 X47.711 Y77.197 I-0.466 J0.064
G1 X47.583 Y77.087
X47.553 Y77.069
X47.518 Y77.064
X47.484 Y77.072
X47.45 Y77.081
X47.416 Y77.076
X47.386 Y77.058
G3 X47.2 Y76.881 I3.509 J-3.88
G1 X47.184 Y76.856
X47.182 Y76.827
X47.193 Y76.8
X47.215 Y76.781
X47.244 Y76.774
X47.924
X47.969 Y76.781
X48.011 Y76.8
X48.046 Y76.83
X48.071 Y76.869
X48.084 Y76.913
X48.31 Y78.471
X48.311 Y78.526
X48.3 Y78.58
X48.276 Y78.63
X48.242 Y78.673
X47.857 Y79.055
X47.832 Y79.07
X47.803 Y79.073
X47.776 Y79.061
X47.757 Y79.039
X47.75 Y79.011
X47.765 Y77.512
X47.754 Y77.462
X47.735 Y77.415
X47.71 Y77.371
X47.678 Y77.332
G2 X47.44 Y77.106 I-3.013 J2.928
G1 X47.386 Y77.058
X47.362 Y77.044
X47.336 Y77.039
X47.309 Y77.045
X47.282 Y77.05
X47.255 Y77.045
X47.232 Y77.03
X46.894 Y76.692
X48.133
X48.134 Y76.693
X48.136 Y76.699
X48.414 Y78.617
Y78.618
X48.413
X47.668 Y79.359
Y77.56
X47.667 Y77.543
X47.665 Y77.526
X47.661 Y77.508
X47.656 Y77.49
X47.648 Y77.47
X47.638 Y77.449
X47.628 Y77.432
X47.618 Y77.418
X47.605 Y77.403
X47.572 Y77.368
X47.57 Y77.367
X47.232 Y77.03
X47.231 Y77.02
X47.239 Y77.015
X47.277 Y77.017
X47.869 Y77.143
X47.873 Y77.144
X47.906 Y77.163
X47.912 Y77.171
X47.909 Y77.181
X47.899 Y77.184
G3 X47.959 Y76.713 Z-3.397 I0.03 J-0.236 F17.
X47.899 Y77.184 Z-3.423 I-0.03 J0.236
X47.761 Y77.117 Z-3.428 I0.03 J-0.236
G1 X47.756 Y77.111 F35.
X47.741 Y77.086
X47.738 Y77.057
X47.749 Y77.03
X47.772 Y77.011
X47.8 Y77.004
X47.817
X47.842 Y77.011
X47.862 Y77.027
X47.871 Y77.051
X47.877 Y77.09
X47.874 Y77.118
X47.858 Y77.14
X47.834 Y77.153
X47.806 Y77.152
X47.782 Y77.138
X47.761 Y77.117
X47.758 Y77.104
X47.769 Y77.096
X47.781 Y77.102
X47.793 Y77.123
X47.794 Y77.127
X48.046 Y78.459
X48.052 Y78.466
X48.073 Y78.475
X48.079 Y78.482
X48.08 Y78.487
X48.078 Y78.506
X48.068 Y78.522
X48.049 Y78.54
X48.029 Y78.551
X48.005 Y78.549
X47.987 Y78.534
X47.98 Y78.511
Y78.37
X47.988 Y78.347
X48.006 Y78.332
X48.031 Y78.331
X48.051 Y78.343
X48.062 Y78.365
X48.079 Y78.482
X48.086 Y78.506
X48.1 Y78.526
X48.12 Y78.541
X48.136 Y78.555
X48.143 Y78.574
X48.142 Y78.595
X48.131 Y78.613
X47.943 Y78.799
X47.922 Y78.81
X47.897 Y78.808
X47.879 Y78.793
X47.872 Y78.769
X47.879 Y77.496
G2 X47.711 Y77.197 I-0.466 J0.064
G3 X47.457 Y76.967 I2.265 J-2.755
G1 X47.446 Y76.946
X47.448 Y76.921
X47.464 Y76.903
X47.487 Y76.896
X47.865
X47.903 Y76.903
X47.936 Y76.922
X47.96 Y76.952
X47.972 Y76.988
X48.186 Y78.467
Y78.516
X48.17 Y78.562
X48.141 Y78.602
X48.131 Y78.613
X48.109 Y78.644
X48.102 Y78.682
X48.109 Y78.72
X48.116 Y78.757
X48.109 Y78.795
X48.087 Y78.827
X47.857 Y79.055
X47.832 Y79.07
X47.803 Y79.073
X47.776 Y79.061
X47.757 Y79.039
X47.75 Y79.011
X47.765 Y77.512
X47.754 Y77.462
X47.735 Y77.415
X47.71 Y77.371
X47.678 Y77.332
G2 X47.44 Y77.106 I-3.013 J2.928
G3 X47.2 Y76.881 I3.455 J-3.928
G1 X47.184 Y76.856
X47.182 Y76.827
X47.193 Y76.8
X47.215 Y76.781
X47.244 Y76.774
X47.924
X47.969 Y76.781
X48.011 Y76.8
X48.046 Y76.83
X48.071 Y76.869
X48.084 Y76.913
X48.31 Y78.471
X48.311 Y78.526
X48.3 Y78.58
X48.276 Y78.63
X48.242 Y78.673
X48.087 Y78.827
X48.073 Y78.848
X48.068 Y78.874
X48.072 Y78.899
X48.077 Y78.925
X48.072 Y78.95
X48.058 Y78.972
X47.668 Y79.359
Y77.56
X47.667 Y77.543
X47.665 Y77.526
X47.661 Y77.508
X47.656 Y77.49
X47.648 Y77.47
X47.638 Y77.449
X47.628 Y77.432
X47.618 Y77.418
X47.605 Y77.403
X47.572 Y77.368
X47.57 Y77.367
X46.894 Y76.692
X48.133
X48.134 Y76.693
X48.136 Y76.699
X48.414 Y78.617
Y78.618
X48.413
X48.058 Y78.972
X48.045 Y78.979
X48.03 Y78.977
X48.019 Y78.968
X47.688 Y78.445
X47.684 Y78.434
X47.686 Y78.423
G3 X48.13 Y78.592 Z-3.454 I0.222 J0.085 F17.
X47.686 Y78.423 Z-3.48 I-0.222 J-0.085
X48.13 Y78.592 Z-3.506 I0.222 J0.085
X47.673 Y78.541 Z-3.528 I-0.222 J-0.085
X48.079 Y78.483 I0.203 J-0.029
G1 X48.08 Y78.487 F35.
X48.078 Y78.506
X48.068 Y78.522
X48.049 Y78.54
X48.029 Y78.551
X48.005 Y78.549
X47.987 Y78.534
X47.98 Y78.511
Y78.37
X47.988 Y78.347
X48.006 Y78.332
X48.031 Y78.331
X48.051 Y78.343
X48.062 Y78.365
X48.079 Y78.483
X48.074 Y78.501
X48.058 Y78.511
X48.04 Y78.507
X48.03 Y78.491
X47.764 Y77.126
X47.757 Y77.113
X47.756 Y77.111
X47.741 Y77.086
X47.738 Y77.057
X47.749 Y77.03
X47.772 Y77.011
X47.8 Y77.004
X47.817
X47.842 Y77.011
X47.862 Y77.027
X47.871 Y77.051
X47.877 Y77.09
X47.874 Y77.118
X47.858 Y77.14
X47.834 Y77.153
X47.806 Y77.152
X47.782 Y77.138
X47.757 Y77.113
X47.731 Y77.096
X47.701 Y77.091
X47.67 Y77.099
X47.641 Y77.107
X47.61 Y77.102
X47.583 Y77.087
X47.457 Y76.967
X47.446 Y76.946
X47.448 Y76.921
X47.464 Y76.903
X47.487 Y76.896
X47.865
X47.903 Y76.903
X47.936 Y76.922
X47.96 Y76.952
X47.972 Y76.988
X48.186 Y78.467
Y78.516
X48.17 Y78.562
X48.141 Y78.602
X47.943 Y78.799
X47.922 Y78.81
X47.897 Y78.808
X47.879 Y78.793
X47.872 Y78.769
X47.879 Y77.496
G2 X47.711 Y77.197 I-0.466 J0.064
G1 X47.583 Y77.087
X47.553 Y77.069
X47.518 Y77.063
X47.484 Y77.072
X47.451 Y77.081
X47.416 Y77.076
X47.386 Y77.058
G3 X47.2 Y76.881 I3.509 J-3.88
G1 X47.184 Y76.856
X47.182 Y76.827
X47.193 Y76.8
X47.215 Y76.781
X47.244 Y76.774
X47.924
X47.969 Y76.781
X48.011 Y76.8
X48.046 Y76.83
X48.071 Y76.869
X48.084 Y76.913
X48.31 Y78.471
X48.311 Y78.526
X48.3 Y78.58
X48.276 Y78.63
X48.242 Y78.673
X47.857 Y79.055
X47.832 Y79.07
X47.803 Y79.073
X47.776 Y79.061
X47.757 Y79.039
X47.75 Y79.011
X47.765 Y77.512
X47.754 Y77.462
X47.735 Y77.415
X47.71 Y77.371
X47.678 Y77.332
G2 X47.44 Y77.106 I-3.013 J2.928
G1 X47.386 Y77.058
X47.362 Y77.044
X47.336 Y77.039
X47.309 Y77.045
X47.282 Y77.05
X47.255 Y77.045
X47.232 Y77.03
X46.894 Y76.692
X48.133
X48.134 Y76.693
X48.136 Y76.699
X48.414 Y78.617
Y78.618
X48.413
X47.668 Y79.359
Y77.56
X47.667 Y77.543
X47.665 Y77.526
X47.661 Y77.508
X47.656 Y77.49
X47.648 Y77.47
X47.638 Y77.449
X47.628 Y77.432
X47.618 Y77.418
X47.605 Y77.403
X47.572 Y77.368
X47.57 Y77.367
X47.232 Y77.03
X47.225 Y77.016
X47.228 Y77.001
X47.238 Y76.99
X47.253 Y76.987
X47.673 Y77.045
X47.689 Y77.042
X47.7 Y77.03
X47.701 Y77.014
G3 X48.158 Y76.883 Z-3.554 I0.228 J-0.065 F17.
X47.701 Y77.014 Z-3.58 I-0.228 J0.065
X48.158 Y76.883 Z-3.606 I0.228 J-0.065
X47.761 Y77.117 Z-3.628 I-0.228 J0.065
G1 X47.756 Y77.111 F35.
X47.741 Y77.086
X47.738 Y77.057
X47.749 Y77.03
X47.772 Y77.011
X47.8 Y77.004
X47.817
X47.842 Y77.011
X47.862 Y77.027
X47.871 Y77.051
X47.877 Y77.09
X47.874 Y77.118
X47.858 Y77.14
X47.834 Y77.153
X47.806 Y77.152
X47.782 Y77.138
X47.761 Y77.117
X47.758 Y77.104
X47.769 Y77.096
X47.781 Y77.102
X47.793 Y77.123
X47.794 Y77.127
X48.046 Y78.459
X48.052 Y78.466
X48.073 Y78.475
X48.079 Y78.482
X48.08 Y78.487
X48.078 Y78.506
X48.068 Y78.522
X48.049 Y78.54
X48.029 Y78.551
X48.005 Y78.549
X47.987 Y78.534
X47.98 Y78.511
Y78.37
X47.988 Y78.347
X48.006 Y78.332
X48.031 Y78.331
X48.051 Y78.343
X48.062 Y78.365
X48.079 Y78.482
X48.086 Y78.506
X48.1 Y78.526
X48.12 Y78.541
X48.136 Y78.555
X48.143 Y78.574
X48.142 Y78.595
X48.131 Y78.613
X47.943 Y78.799
X47.922 Y78.81
X47.897 Y78.808
X47.879 Y78.793
X47.872 Y78.769
X47.879 Y77.496
G2 X47.711 Y77.197 I-0.466 J0.064
G3 X47.457 Y76.967 I2.265 J-2.755
G1 X47.446 Y76.946
X47.448 Y76.921
X47.464 Y76.903
X47.487 Y76.896
X47.865
X47.903 Y76.903
X47.936 Y76.922
X47.96 Y76.952
X47.972 Y76.988
X48.186 Y78.467
Y78.516
X48.17 Y78.562
X48.141 Y78.602
X48.131 Y78.613
X48.109 Y78.644
X48.102 Y78.682
X48.109 Y78.72
X48.116 Y78.757
X48.109 Y78.795
X48.087 Y78.827
X47.857 Y79.055
X47.832 Y79.07
X47.803 Y79.073
X47.776 Y79.061
X47.757 Y79.039
X47.75 Y79.011
X47.765 Y77.512
X47.754 Y77.462
X47.735 Y77.415
X47.71 Y77.371
X47.678 Y77.332
G2 X47.44 Y77.106 I-3.013 J2.928
G3 X47.2 Y76.881 I3.455 J-3.928
G1 X47.184 Y76.856
X47.182 Y76.827
X47.193 Y76.8
X47.215 Y76.781
X47.244 Y76.774
X47.924
X47.969 Y76.781
X48.011 Y76.8
X48.046 Y76.83
X48.071 Y76.869
X48.084 Y76.913
X48.31 Y78.471
X48.311 Y78.526
X48.3 Y78.58
X48.276 Y78.63
X48.242 Y78.673
X48.087 Y78.827
X48.073 Y78.848
X48.068 Y78.874
X48.072 Y78.899
X48.077 Y78.925
X48.072 Y78.95
X48.058 Y78.972
X47.668 Y79.359
Y77.56
X47.667 Y77.543
X47.665 Y77.526
X47.661 Y77.508
X47.656 Y77.49
X47.648 Y77.47
X47.638 Y77.449
X47.628 Y77.432
X47.618 Y77.418
X47.605 Y77.403
X47.572 Y77.368
X47.57 Y77.367
X46.894 Y76.692
X48.133
X48.134 Y76.693
X48.136 Y76.699
X48.414 Y78.617
Y78.618
X48.413
X48.058 Y78.972
X48.045 Y78.979
X48.03 Y78.977
X48.019 Y78.968
X47.688 Y78.445
X47.684 Y78.434
X47.686 Y78.423
G3 X48.13 Y78.592 Z-3.654 I0.222 J0.085 F17.
X47.686 Y78.423 Z-3.68 I-0.222 J-0.085
X48.13 Y78.592 Z-3.706 I0.222 J0.085
X47.673 Y78.541 Z-3.728 I-0.222 J-0.085
X48.079 Y78.483 I0.203 J-0.029
G1 X48.08 Y78.487 F35.
X48.078 Y78.506
X48.068 Y78.522
X48.049 Y78.54
X48.029 Y78.551
X48.005 Y78.549
X47.987 Y78.534
X47.98 Y78.511
Y78.37
X47.988 Y78.347
X48.006 Y78.332
X48.031 Y78.331
X48.051 Y78.343
X48.062 Y78.365
X48.079 Y78.483
X48.074 Y78.501
X48.058 Y78.511
X48.04 Y78.507
X48.03 Y78.491
X47.764 Y77.126
X47.757 Y77.113
X47.756 Y77.111
X47.741 Y77.086
X47.738 Y77.057
X47.749 Y77.03
X47.772 Y77.011
X47.8 Y77.004
X47.817
X47.842 Y77.011
X47.862 Y77.027
X47.871 Y77.051
X47.877 Y77.09
X47.874 Y77.118
X47.858 Y77.14
X47.834 Y77.153
X47.806 Y77.152
X47.782 Y77.138
X47.757 Y77.113
X47.731 Y77.096
X47.701 Y77.091
X47.67 Y77.099
X47.641 Y77.107
X47.61 Y77.102
X47.583 Y77.087
X47.457 Y76.967
X47.446 Y76.946
X47.448 Y76.921
X47.464 Y76.903
X47.487 Y76.896
X47.865
X47.903 Y76.903
X47.936 Y76.922
X47.96 Y76.952
X47.972 Y76.988
X48.186 Y78.467
Y78.516
X48.17 Y78.562
X48.141 Y78.602
X47.943 Y78.799
X47.922 Y78.81
X47.897 Y78.808
X47.879 Y78.793
X47.872 Y78.769
X47.879 Y77.496
G2 X47.711 Y77.197 I-0.466 J0.064
G1 X47.583 Y77.087
X47.553 Y77.069
X47.518 Y77.063
X47.484 Y77.072
X47.451 Y77.081
X47.416 Y77.076
X47.386 Y77.058
G3 X47.2 Y76.881 I3.509 J-3.88
G1 X47.184 Y76.856
X47.182 Y76.827
X47.193 Y76.8
X47.215 Y76.781
X47.244 Y76.774
X47.924
X47.969 Y76.781
X48.011 Y76.8
X48.046 Y76.83
X48.071 Y76.869
X48.084 Y76.913
X48.31 Y78.471
X48.311 Y78.526
X48.3 Y78.58
X48.276 Y78.63
X48.242 Y78.673
X47.857 Y79.055
X47.832 Y79.07
X47.803 Y79.073
X47.776 Y79.061
X47.757 Y79.039
X47.75 Y79.011
X47.765 Y77.512
X47.754 Y77.462
X47.735 Y77.415
X47.71 Y77.371
X47.678 Y77.332
G2 X47.44 Y77.106 I-3.013 J2.928
G1 X47.386 Y77.058
X47.362 Y77.044
X47.336 Y77.039
X47.309 Y77.045
X47.282 Y77.05
X47.255 Y77.045
X47.232 Y77.03
X46.894 Y76.692
X48.133
X48.134 Y76.693
X48.136 Y76.699
X48.414 Y78.617
Y78.618
X48.413
X47.668 Y79.359
Y77.56
X47.667 Y77.543
X47.665 Y77.526
X47.661 Y77.508
X47.656 Y77.49
X47.648 Y77.47
X47.638 Y77.449
X47.628 Y77.432
X47.618 Y77.418
X47.605 Y77.403
X47.572 Y77.368
X47.57 Y77.367
X47.232 Y77.03
X47.225 Y77.014
X47.23 Y76.997
X47.244 Y76.988
X47.261 Y76.99
X47.766 Y77.25
X47.778 Y77.262
X47.779 Y77.279
X47.769 Y77.293
G3 X47.507 Y76.897 Z-3.754 I-0.131 J-0.198 F17.
X47.873 Y77.061 Z-3.771 I0.131 J0.198
G1 X47.877 Y77.09 F35.
X47.874 Y77.118
X47.858 Y77.14
X47.834 Y77.153
X47.806 Y77.152
X47.782 Y77.138
X47.756 Y77.111
X47.741 Y77.086
X47.738 Y77.057
X47.749 Y77.03
X47.772 Y77.011
X47.8 Y77.004
X47.817
X47.842 Y77.011
X47.862 Y77.027
X47.871 Y77.051
X47.873 Y77.061
X47.869 Y77.072
X47.846 Y77.091
X47.842 Y77.103
X48.048 Y78.46
X48.053 Y78.467
X48.074 Y78.476
X48.079 Y78.483
X48.08 Y78.487
X48.078 Y78.506
X48.068 Y78.522
X48.049 Y78.54
X48.029 Y78.551
X48.005 Y78.549
X47.987 Y78.534
X47.98 Y78.511
Y78.37
X47.988 Y78.347
X48.006 Y78.332
X48.031 Y78.331
X48.051 Y78.343
X48.062 Y78.365
X48.079 Y78.483
X48.086 Y78.507
X48.1 Y78.527
X48.12 Y78.542
X48.135 Y78.556
X48.143 Y78.575
X48.141 Y78.596
X48.13 Y78.613
X47.943 Y78.799
X47.922 Y78.81
X47.897 Y78.808
X47.879 Y78.793
X47.872 Y78.769
X47.879 Y77.496
G2 X47.711 Y77.197 I-0.466 J0.064
G3 X47.457 Y76.967 I2.265 J-2.755
G1 X47.446 Y76.946
X47.448 Y76.921
X47.464 Y76.903
X47.487 Y76.896
X47.865
X47.903 Y76.903
X47.936 Y76.922
X47.96 Y76.952
X47.972 Y76.988
X48.186 Y78.467
Y78.516
X48.17 Y78.562
X48.141 Y78.602
X48.13 Y78.613
X48.109 Y78.645
X48.101 Y78.683
X48.108 Y78.72
X48.116 Y78.758
X48.108 Y78.796
X48.087 Y78.827
X47.857 Y79.055
X47.832 Y79.07
X47.803 Y79.073
X47.776 Y79.061
X47.757 Y79.039
X47.75 Y79.011
X47.765 Y77.512
X47.754 Y77.462
X47.735 Y77.415
X47.71 Y77.371
X47.678 Y77.332
G2 X47.44 Y77.106 I-3.013 J2.928
G3 X47.2 Y76.881 I3.455 J-3.928
G1 X47.184 Y76.856
X47.182 Y76.827
X47.193 Y76.8
X47.215 Y76.781
X47.244 Y76.774
X47.924
X47.969 Y76.781
X48.011 Y76.8
X48.046 Y76.83
X48.071 Y76.869
X48.084 Y76.913
X48.31 Y78.471
X48.311 Y78.526
X48.3 Y78.58
X48.276 Y78.63
X48.242 Y78.673
X48.087 Y78.827
X48.072 Y78.849
X48.067 Y78.874
X48.072 Y78.9
X48.077 Y78.925
X48.072 Y78.951
X48.057 Y78.972
X47.668 Y79.359
Y77.56
X47.667 Y77.543
X47.665 Y77.526
X47.661 Y77.508
X47.656 Y77.49
X47.648 Y77.47
X47.638 Y77.449
X47.628 Y77.432
X47.618 Y77.418
X47.605 Y77.403
X47.572 Y77.368
X47.57 Y77.367
X46.894 Y76.692
X48.133
X48.134 Y76.693
X48.136 Y76.699
X48.414 Y78.617
Y78.618
X48.413
X48.057 Y78.972
X48.044 Y78.979
X48.03 Y78.978
X48.018 Y78.968
X47.688 Y78.445
X47.684 Y78.434
X47.686 Y78.423
G3 X48.13 Y78.592 Z-3.797 I0.222 J0.085 F17.
X47.686 Y78.423 Z-3.823 I-0.222 J-0.085
X48.13 Y78.592 Z-3.849 I0.222 J0.085
X47.673 Y78.541 Z-3.871 I-0.222 J-0.085
X48.079 Y78.483 I0.203 J-0.029
G1 X48.08 Y78.487 F35.
X48.078 Y78.506
X48.068 Y78.522
X48.049 Y78.54
X48.029 Y78.551
X48.005 Y78.549
X47.987 Y78.534
X47.98 Y78.511
Y78.37
X47.988 Y78.347
X48.006 Y78.332
X48.031 Y78.331
X48.051 Y78.343
X48.062 Y78.365
X48.079 Y78.483
X48.074 Y78.501
X48.058 Y78.511
X48.04 Y78.507
X48.03 Y78.491
X47.764 Y77.126
X47.757 Y77.113
X47.756 Y77.111
X47.741 Y77.086
X47.738 Y77.057
X47.749 Y77.03
X47.772 Y77.011
X47.8 Y77.004
X47.817
X47.842 Y77.011
X47.862 Y77.027
X47.871 Y77.051
X47.877 Y77.09
X47.874 Y77.118
X47.858 Y77.14
X47.834 Y77.153
X47.806 Y77.152
X47.782 Y77.138
X47.757 Y77.113
X47.731 Y77.096
X47.701 Y77.091
X47.67 Y77.099
X47.641 Y77.107
X47.61 Y77.102
X47.583 Y77.087
X47.457 Y76.967
X47.446 Y76.946
X47.448 Y76.921
X47.464 Y76.903
X47.487 Y76.896
X47.865
X47.903 Y76.903
X47.936 Y76.922
X47.96 Y76.952
X47.972 Y76.988
X48.186 Y78.467
Y78.516
X48.17 Y78.562
X48.141 Y78.602
X47.943 Y78.799
X47.922 Y78.81
X47.897 Y78.808
X47.879 Y78.793
X47.872 Y78.769
X47.879 Y77.496
G2 X47.711 Y77.197 I-0.466 J0.064
G1 X47.583 Y77.087
X47.553 Y77.069
X47.518 Y77.063
X47.484 Y77.072
X47.451 Y77.081
X47.416 Y77.076
X47.386 Y77.058
G3 X47.2 Y76.881 I3.509 J-3.88
G1 X47.184 Y76.856
X47.182 Y76.827
X47.193 Y76.8
X47.215 Y76.781
X47.244 Y76.774
X47.924
X47.969 Y76.781
X48.011 Y76.8
X48.046 Y76.83
X48.071 Y76.869
X48.084 Y76.913
X48.31 Y78.471
X48.311 Y78.526
X48.3 Y78.58
X48.276 Y78.63
X48.242 Y78.673
X47.857 Y79.055
X47.832 Y79.07
X47.803 Y79.073
X47.776 Y79.061
X47.757 Y79.039
X47.75 Y79.011
X47.765 Y77.512
X47.754 Y77.462
X47.735 Y77.415
X47.71 Y77.371
X47.678 Y77.332
G2 X47.44 Y77.106 I-3.013 J2.928
G1 X47.386 Y77.058
X47.362 Y77.044
X47.336 Y77.039
X47.309 Y77.045
X47.282 Y77.05
X47.255 Y77.045
X47.232 Y77.03
X46.894 Y76.692
X48.133
X48.134 Y76.693
X48.136 Y76.699
X48.414 Y78.617
Y78.618
X48.413
X47.668 Y79.359
Y77.56
X47.667 Y77.543
X47.665 Y77.526
X47.661 Y77.508
X47.656 Y77.49
X47.648 Y77.47
X47.638 Y77.449
X47.628 Y77.432
X47.618 Y77.418
X47.605 Y77.403
X47.572 Y77.368
X47.57 Y77.367
X47.232 Y77.03
X47.225 Y77.013
X47.231 Y76.996
X47.247 Y76.987
X47.777 Y76.912
X47.788 Y76.913
X47.797 Y76.919
G3 X47.478 Y77.271 Z-3.897 I-0.159 J0.176 F17.
X47.797 Y76.919 Z-3.923 I0.159 J-0.176
X47.873 Y77.061 Z-3.929 I-0.159 J0.176
G1 X47.877 Y77.09 F35.
X47.874 Y77.118
X47.858 Y77.14
X47.834 Y77.153
X47.806 Y77.152
X47.782 Y77.138
X47.756 Y77.111
X47.741 Y77.086
X47.738 Y77.057
X47.749 Y77.03
X47.772 Y77.011
X47.8 Y77.004
X47.817
X47.842 Y77.011
X47.862 Y77.027
X47.871 Y77.051
X47.873 Y77.061
X47.869 Y77.072
X47.846 Y77.091
X47.842 Y77.103
X48.048 Y78.46
X48.053 Y78.467
X48.074 Y78.476
X48.079 Y78.483
X48.08 Y78.487
X48.078 Y78.506
X48.068 Y78.522
X48.049 Y78.54
X48.029 Y78.551
X48.005 Y78.549
X47.987 Y78.534
X47.98 Y78.511
Y78.37
X47.988 Y78.347
X48.006 Y78.332
X48.031 Y78.331
X48.051 Y78.343
X48.062 Y78.365
X48.079 Y78.483
X48.086 Y78.507
X48.1 Y78.527
X48.12 Y78.542
X48.135 Y78.556
X48.143 Y78.575
X48.141 Y78.596
X48.13 Y78.613
X47.943 Y78.799
X47.922 Y78.81
X47.897 Y78.808
X47.879 Y78.793
X47.872 Y78.769
X47.879 Y77.496
G2 X47.711 Y77.197 I-0.466 J0.064
G3 X47.457 Y76.967 I2.265 J-2.755
G1 X47.446 Y76.946
X47.448 Y76.921
X47.464 Y76.903
X47.487 Y76.896
X47.865
X47.903 Y76.903
X47.936 Y76.922
X47.96 Y76.952
X47.972 Y76.988
X48.186 Y78.467
Y78.516
X48.17 Y78.562
X48.141 Y78.602
X48.13 Y78.613
X48.109 Y78.645
X48.101 Y78.683
X48.108 Y78.72
X48.116 Y78.758
X48.108 Y78.796
X48.087 Y78.827
X47.857 Y79.055
X47.832 Y79.07
X47.803 Y79.073
X47.776 Y79.061
X47.757 Y79.039
X47.75 Y79.011
X47.765 Y77.512
X47.754 Y77.462
X47.735 Y77.415
X47.71 Y77.371
X47.678 Y77.332
G2 X47.44 Y77.106 I-3.013 J2.928
G3 X47.2 Y76.881 I3.455 J-3.928
G1 X47.184 Y76.856
X47.182 Y76.827
X47.193 Y76.8
X47.215 Y76.781
X47.244 Y76.774
X47.924
X47.969 Y76.781
X48.011 Y76.8
X48.046 Y76.83
X48.071 Y76.869
X48.084 Y76.913
X48.31 Y78.471
X48.311 Y78.526
X48.3 Y78.58
X48.276 Y78.63
X48.242 Y78.673
X48.087 Y78.827
X48.072 Y78.849
X48.067 Y78.874
X48.072 Y78.9
X48.077 Y78.925
X48.072 Y78.951
X48.057 Y78.972
X47.668 Y79.359
Y77.56
X47.667 Y77.543
X47.665 Y77.526
X47.661 Y77.508
X47.656 Y77.49
X47.648 Y77.47
X47.638 Y77.449
X47.628 Y77.432
X47.618 Y77.418
X47.605 Y77.403
X47.572 Y77.368
X47.57 Y77.367
X46.894 Y76.692
X48.133
X48.134 Y76.693
X48.136 Y76.699
X48.414 Y78.617
Y78.618
X48.413
X48.057 Y78.972
X48.042 Y78.98
X48.026 Y78.976
X48.016 Y78.962
X47.912 Y78.621
X47.911 Y78.614
X47.881 Y78.221
X47.884 Y78.208
X47.892 Y78.199
X47.905 Y78.195
X47.958 Y78.193 Z-3.931 F17.
X47.989 Y78.2 Z-3.932
X48.013 Y78.22 Z-3.933
X48.025 Y78.249 Z-3.934
X48.052 Y78.434 Z-3.941
X48.051 Y78.475 Z-3.942
X48.038 Y78.514 Z-3.943
X48.014 Y78.547 Z-3.945
X47.88 Y78.68 Z-3.952
X47.863 Y78.689
X47.842 Y78.687 Z-3.953
X47.772 Y78.659 Z-3.956
X47.756 Y78.646
X47.751 Y78.626 Z-3.957
G3 X47.763 Y78.259 Z-3.97 I6.358 J0.031
G1 X47.773 Y78.228 Z-3.971
X47.796 Y78.206 Z-3.972
X47.826 Y78.197 Z-3.973
X47.958 Y78.193 Z-3.978
X47.989 Y78.2 Z-3.979
X48.013 Y78.22 Z-3.98
X48.025 Y78.249 Z-3.981
X48.052 Y78.434 Z-3.988
X48.051 Y78.475 Z-3.989
X48.038 Y78.514 Z-3.991
X48.014 Y78.547 Z-3.992
X47.88 Y78.68 Z-3.999
X47.863 Y78.689
X47.842 Y78.687 Z-4.
X47.772 Y78.659 Z-4.003
X47.756 Y78.646
X47.751 Y78.626 Z-4.004
G3 X47.763 Y78.259 Z-4.017 I6.358 J0.031
G1 X47.773 Y78.228 Z-4.018
X47.796 Y78.206 Z-4.019
X47.826 Y78.197 Z-4.02
X47.958 Y78.193 Z-4.025
X47.989 Y78.2 Z-4.026
X48.013 Y78.22 Z-4.027
X48.025 Y78.249 Z-4.028
X48.027 Y78.265 Z-4.029
X48.028 Y78.306 F35.
X48.017 Y78.346
X47.997 Y78.382
X47.959 Y78.428
X47.917 Y78.472
X47.904 Y78.479
X47.888 Y78.478
X47.876 Y78.468
X47.872 Y78.453
Y78.413
X47.879 Y78.394
X47.897 Y78.386
X47.916 Y78.392
X47.926 Y78.409
X47.931 Y78.444
X47.93 Y78.456
X47.923 Y78.466
X47.917 Y78.472
X47.901 Y78.479
X47.884 Y78.474
X47.875 Y78.458
X47.695 Y77.181
G3 X47.734 Y77.175 I0.019 J-0.003
X47.695 Y77.181 I-0.019 J0.003
G1 X47.685 Y77.152
X47.665 Y77.128
X47.639 Y77.112
X47.618 Y77.097
X47.609 Y77.074
X47.613 Y77.05
X47.63 Y77.031
X47.654 Y77.024
X47.733
X47.77 Y77.03
X47.804 Y77.045
X47.833 Y77.07
X47.853 Y77.102
X47.864 Y77.138
X48.052 Y78.434
X48.051 Y78.475
X48.038 Y78.514
X48.014 Y78.547
X47.857 Y78.703
X47.832 Y78.718
X47.803 Y78.72
X47.776 Y78.709
X47.757 Y78.687
X47.75 Y78.658
G3 X47.776 Y78.085 I6.358 J-0.001
G2 X47.761 Y77.511 I-2.448 J-0.221
G1 X47.746 Y77.449
X47.719 Y77.391
X47.682 Y77.34
X47.636 Y77.296
X47.541 Y77.216
X47.45 Y77.131
X47.435 Y77.106
X47.433 Y77.077
X47.444 Y77.05
X47.466 Y77.031
X47.494 Y77.024
X47.654
X47.68 Y77.019
X47.701 Y77.005
X47.716 Y76.983
X47.73 Y76.962
X47.752 Y76.947
X47.777 Y76.942
X47.918
X48.149 Y78.529
X47.668 Y79.007
Y77.56
X47.667 Y77.543
X47.665 Y77.526
X47.661 Y77.508
X47.656 Y77.49
X47.648 Y77.47
X47.638 Y77.449
X47.628 Y77.432
X47.618 Y77.418
X47.605 Y77.403
X47.572 Y77.368
X47.57 Y77.367
X47.145 Y76.942
X47.777
X47.793 Y76.948
X47.802 Y76.962
X47.8 Y76.978
X47.788 Y76.99
X47.518 Y77.122
X47.504 Y77.125
X47.49 Y77.118
X47.483 Y77.105
X47.484 Y77.09
X47.503 Y77.046 Z-4.031 F17.
X47.517 Y77.03
X47.537 Y77.024 Z-4.032
X47.733 Z-4.039
X47.77 Y77.03 Z-4.04
X47.804 Y77.045 Z-4.042
X47.833 Y77.07 Z-4.043
X47.853 Y77.102 Z-4.044
X47.864 Y77.138 Z-4.045
X47.892 Y77.332 Z-4.052
X47.889 Y77.356 Z-4.053
X47.873 Y77.375 Z-4.054
X47.797 Y77.429 Z-4.057
X47.773 Y77.437 Z-4.058
X47.748 Y77.431 Z-4.059
X47.73 Y77.412 Z-4.06
X47.705 Y77.369 Z-4.062
X47.673 Y77.33 Z-4.064
X47.636 Y77.296 Z-4.065
X47.556 Y77.23 Z-4.069
X47.48 Y77.16 Z-4.073
X47.469 Y77.141
X47.472 Y77.119 Z-4.074
X47.503 Y77.046 Z-4.077
X47.517 Y77.03 Z-4.078
X47.537 Y77.024
X47.733 Z-4.085
X47.77 Y77.03 Z-4.087
X47.804 Y77.045 Z-4.088
X47.833 Y77.07 Z-4.089
X47.853 Y77.102 Z-4.09
X47.864 Y77.138 Z-4.092
X47.892 Y77.332 Z-4.099
X47.889 Y77.356 Z-4.1
X47.873 Y77.375
X47.797 Y77.429 Z-4.104
X47.773 Y77.437 Z-4.105
X47.748 Y77.431
X47.73 Y77.412 Z-4.106
X47.705 Y77.369 Z-4.108
X47.673 Y77.33 Z-4.11
X47.636 Y77.296 Z-4.112
X47.556 Y77.23 Z-4.115
X47.48 Y77.16 Z-4.119
X47.469 Y77.141 Z-4.12
X47.472 Y77.119
X47.503 Y77.046 Z-4.123
X47.517 Y77.03 Z-4.124
X47.537 Y77.024 Z-4.125
X47.657 Z-4.129
X47.682 Y77.029 F35.
X47.704 Y77.042
X47.72 Y77.061
X47.728 Y77.085
X47.734 Y77.178
G3 X47.695 I-0.02 J0.
X47.734 I0.02 J0.
G1 X47.731 Y77.183
X47.72 Y77.191
X47.717 Y77.197
X47.897 Y78.418
X47.903 Y78.425
X47.925 Y78.435
X47.93 Y78.442
X47.931 Y78.444
X47.93 Y78.456
X47.923 Y78.466
X47.917 Y78.472
X47.904 Y78.479
X47.888 Y78.478
X47.876 Y78.468
X47.872 Y78.453
Y78.413
X47.879 Y78.394
X47.897 Y78.386
X47.916 Y78.392
X47.926 Y78.409
X47.93 Y78.442
X47.938 Y78.467
X47.952 Y78.489
X47.971 Y78.506
X47.986 Y78.522
X47.993 Y78.542
X47.991 Y78.564
X47.979 Y78.582
X47.857 Y78.703
X47.832 Y78.718
X47.803 Y78.72
X47.776 Y78.709
X47.757 Y78.687
X47.75 Y78.658
G3 X47.776 Y78.085 I6.358 J-0.001
G2 X47.761 Y77.511 I-2.448 J-0.221
G1 X47.746 Y77.449
X47.719 Y77.391
X47.682 Y77.34
X47.636 Y77.296
X47.541 Y77.216
X47.45 Y77.131
X47.435 Y77.106
X47.433 Y77.077
X47.444 Y77.05
X47.466 Y77.031
X47.494 Y77.024
X47.733
X47.77 Y77.03
X47.804 Y77.045
X47.833 Y77.07
X47.853 Y77.102
X47.864 Y77.138
X48.052 Y78.434
X48.051 Y78.475
X48.038 Y78.514
X48.014 Y78.547
X47.979 Y78.582
X47.965 Y78.603
X47.959 Y78.629
X47.964 Y78.654
X47.969 Y78.68
X47.964 Y78.705
X47.95 Y78.727
X47.668 Y79.007
Y77.56
X47.667 Y77.543
X47.665 Y77.526
X47.661 Y77.508
X47.656 Y77.49
X47.648 Y77.47
X47.638 Y77.449
X47.628 Y77.432
X47.618 Y77.418
X47.605 Y77.403
X47.572 Y77.368
X47.57 Y77.367
X47.145 Y76.942
X47.918
X48.149 Y78.529
X47.95 Y78.727
X47.939 Y78.729
X47.933 Y78.72
X47.932 Y78.677
X47.967 Y78.273
X47.968 Y78.21
X47.974 Y78.199
X47.987
X48.005 Y78.211 Z-4.13 F17.
X48.018 Y78.228
X48.025 Y78.249 Z-4.131
X48.052 Y78.434 Z-4.138
X48.051 Y78.475 Z-4.139
X48.038 Y78.514 Z-4.141
X48.014 Y78.547 Z-4.142
X47.88 Y78.68 Z-4.149
X47.863 Y78.689
X47.842 Y78.687 Z-4.15
X47.772 Y78.659 Z-4.153
X47.756 Y78.646
X47.751 Y78.626 Z-4.154
G3 X47.763 Y78.259 Z-4.167 I6.358 J0.031
G1 X47.773 Y78.228 Z-4.168
X47.796 Y78.206 Z-4.169
X47.826 Y78.197 Z-4.17
X47.958 Y78.193 Z-4.175
X47.989 Y78.2 Z-4.176
X48.013 Y78.22 Z-4.177
X48.025 Y78.249 Z-4.178
X48.027 Y78.265 Z-4.179
X48.028 Y78.306 F35.
X48.017 Y78.346
X47.997 Y78.382
X47.959 Y78.428
X47.917 Y78.472
X47.904 Y78.479
X47.888 Y78.478
X47.876 Y78.468
X47.872 Y78.453
Y78.413
X47.879 Y78.394
X47.897 Y78.386
X47.916 Y78.392
X47.926 Y78.409
X47.931 Y78.444
X47.93 Y78.456
X47.923 Y78.466
X47.917 Y78.472
X47.901 Y78.479
X47.884 Y78.474
X47.875 Y78.458
X47.695 Y77.181
G3 X47.734 Y77.175 I0.019 J-0.003
X47.695 Y77.181 I-0.019 J0.003
G1 X47.685 Y77.152
X47.665 Y77.128
X47.639 Y77.112
X47.618 Y77.097
X47.609 Y77.074
X47.613 Y77.05
X47.63 Y77.031
X47.654 Y77.024
X47.733
X47.77 Y77.03
X47.804 Y77.045
X47.833 Y77.07
X47.853 Y77.102
X47.864 Y77.138
X48.052 Y78.434
X48.051 Y78.475
X48.038 Y78.514
X48.014 Y78.547
X47.857 Y78.703
X47.832 Y78.718
X47.803 Y78.72
X47.776 Y78.709
X47.757 Y78.687
X47.75 Y78.658
G3 X47.776 Y78.085 I6.358 J-0.001
G2 X47.761 Y77.511 I-2.448 J-0.221
G1 X47.746 Y77.449
X47.719 Y77.391
X47.682 Y77.34
X47.636 Y77.296
X47.541 Y77.216
X47.45 Y77.131
X47.435 Y77.106
X47.433 Y77.077
X47.444 Y77.05
X47.466 Y77.031
X47.494 Y77.024
X47.654
X47.68 Y77.019
X47.701 Y77.005
X47.716 Y76.983
X47.73 Y76.962
X47.752 Y76.947
X47.777 Y76.942
X47.918
X48.149 Y78.529
X47.668 Y79.007
Y77.56
X47.667 Y77.543
X47.665 Y77.526
X47.661 Y77.508
X47.656 Y77.49
X47.648 Y77.47
X47.638 Y77.449
X47.628 Y77.432
X47.618 Y77.418
X47.605 Y77.403
X47.572 Y77.368
X47.57 Y77.367
X47.145 Y76.942
X47.777
Z-4.129
G0 Z5.
X54.021 Y78.394
Z-2.273
G1 X54.022 Y78.392 Z-2.286 F17.
X54.024 Y78.388 Z-2.298
X54.027 Y78.381 Z-2.308
X54.031 Y78.372 Z-2.316
X54.036 Y78.361 Z-2.321
X54.043 Y78.351 Z-2.323
G3 X54.446 Y78.602 Z-2.349 I0.201 J0.126
X54.043 Y78.351 Z-2.375 I-0.201 J-0.126
X54.446 Y78.602 Z-2.401 I0.201 J0.126
X54.043 Y78.351 Z-2.427 I-0.201 J-0.126
X54.446 Y78.602 Z-2.453 I0.201 J0.126
X54.043 Y78.351 Z-2.479 I-0.201 J-0.126
X54.446 Y78.602 Z-2.506 I0.201 J0.126
X54.009 Y78.442 Z-2.528 I-0.201 J-0.126
G1 X54.04 Y78.23 F35.
X54.05 Y78.213
X54.069 Y78.207
X54.087 Y78.215
X54.094 Y78.234
Y78.451
X54.087 Y78.474
X54.068 Y78.489
X54.044 Y78.492
X54.023 Y78.48
X54.019 Y78.477
X54.01 Y78.462
X54.009 Y78.446
Y78.442
X54.015 Y78.434
X54.039 Y78.424
X54.045 Y78.415
X54.224 Y77.208
X54.22 Y77.197
X54.197 Y77.178
X54.193 Y77.167
X54.195 Y77.157
X54.201 Y77.141
X54.214 Y77.13
X54.231 Y77.126
X54.258
X54.282 Y77.133
X54.297 Y77.152
X54.299 Y77.176
X54.288 Y77.197
X54.269 Y77.216
X54.25 Y77.235
X54.23 Y77.245
X54.208 Y77.242
X54.192 Y77.226
X54.188 Y77.204
X54.193 Y77.167
Y77.14
X54.183 Y77.114
X54.165 Y77.092
X54.152 Y77.073
X54.15 Y77.049
X54.16 Y77.028
X54.179 Y77.014
X54.206 Y77.007
X54.234 Y77.005
X54.502
X54.53 Y77.011
X54.552 Y77.03
X54.563 Y77.057
X54.561 Y77.086
X54.546 Y77.111
G3 X54.32 Y77.332 I-11.773 J-11.818
G2 X54.196 Y77.622 I0.278 J0.29
X54.206 Y78.157 I15.149 J0.002
G3 X54.215 Y78.692 I-15.14 J0.533
G1 X54.208 Y78.72
X54.189 Y78.743
X54.162 Y78.754
X54.133 Y78.752
X54.108 Y78.736
X53.924 Y78.554
X53.9 Y78.521
X53.887 Y78.482
Y78.441
X54.074 Y77.143
X54.086 Y77.101
X54.109 Y77.064
X54.141 Y77.034
X54.179 Y77.014
X54.208 Y76.999
X54.231 Y76.977
X54.247 Y76.949
X54.266 Y76.921
X54.293 Y76.902
X54.325 Y76.896
X54.815
X54.838 Y76.903
X54.854 Y76.921
X54.856 Y76.946
X54.845 Y76.967
G3 X54.628 Y77.174 I-5.017 J-5.037
G2 X54.412 Y77.38 I4.801 J5.243
X54.311 Y77.622 I0.241 J0.242
G1 X54.324 Y79.003
X54.317 Y79.026
X54.298 Y79.042
X54.274 Y79.044
X54.253 Y79.033
X53.851 Y78.633
X53.815 Y78.588
X53.79 Y78.536
X53.778 Y78.48
X53.78 Y78.422
X53.987 Y76.988
X53.999 Y76.952
X54.023 Y76.922
X54.056 Y76.903
X54.093 Y76.896
X54.325
X54.363 Y76.888
X54.395 Y76.867
X54.416 Y76.835
X54.438 Y76.803
X54.47 Y76.782
X54.507 Y76.775
X55.059 Y76.774
X55.087 Y76.781
X55.109 Y76.8
X55.12 Y76.827
X55.118 Y76.856
X55.103 Y76.881
G3 X54.798 Y77.171 I-6.618 J-6.643
G2 X54.493 Y77.462 I6.313 J6.934
G1 X54.457 Y77.509
X54.434 Y77.563
X54.426 Y77.622
G2 X54.436 Y78.433 I34.835 J0.005
G3 X54.445 Y79.245 I-34.825 J0.807
G1 X54.438 Y79.273
X54.419 Y79.295
X54.392 Y79.306
X54.363 Y79.304
X54.338 Y79.289
X53.766 Y78.721
G3 X53.66 Y78.403 I0.263 J-0.265
G1 X53.875 Y76.913
X53.888 Y76.869
X53.913 Y76.83
X53.947 Y76.8
X53.989 Y76.781
X54.035 Y76.775
X54.507
X54.533 Y76.769
X54.554 Y76.755
X54.569 Y76.733
X54.583 Y76.712
X54.605 Y76.698
X54.63 Y76.692
X55.407
X55.408
X54.564 Y77.533
X54.544 Y77.559
X54.532 Y77.589
X54.527 Y77.622
Y79.592
X53.546 Y78.618
Y78.617
X53.588 Y78.327
X53.823 Y76.699
X53.824 Y76.693
X54.63 Y76.692
X54.647 Y76.699
X54.655 Y76.714
X54.651 Y76.731
X54.264 Y77.32
X54.251 Y77.33
X54.234 Y77.329
X54.221 Y77.318
G3 X54.635 Y77.085 Z-2.554 I0.207 J-0.117 F17.
X54.221 Y77.318 Z-2.58 I-0.207 J0.117
X54.193 Y77.168 Z-2.586 I0.207 J-0.117
G1 X54.195 Y77.157 F35.
X54.201 Y77.141
X54.214 Y77.13
X54.231 Y77.126
X54.258
X54.282 Y77.133
X54.297 Y77.152
X54.299 Y77.176
X54.288 Y77.197
X54.269 Y77.216
X54.25 Y77.235
X54.23 Y77.245
X54.208 Y77.242
X54.192 Y77.226
X54.188 Y77.204
X54.193 Y77.168
X54.203 Y77.151
X54.221 Y77.146
X54.238 Y77.156
X54.243 Y77.174
X54.094 Y78.447
Y78.45
Y78.451
X54.087 Y78.474
X54.068 Y78.489
X54.044 Y78.492
X54.023 Y78.48
X54.019 Y78.477
X54.01 Y78.462
X54.009 Y78.446
X54.04 Y78.23
X54.05 Y78.213
X54.069 Y78.207
X54.087 Y78.215
X54.094 Y78.234
Y78.45
X54.101 Y78.487
X54.123 Y78.518
X54.154 Y78.539
X54.186 Y78.56
X54.207 Y78.592
X54.215 Y78.629
Y78.692
X54.208 Y78.72
X54.189 Y78.743
X54.162 Y78.754
X54.133 Y78.752
X54.108 Y78.736
X53.924 Y78.554
X53.9 Y78.521
X53.887 Y78.482
Y78.441
X54.074 Y77.143
X54.087 Y77.099
X54.112 Y77.06
X54.147 Y77.03
X54.188 Y77.011
X54.234 Y77.005
X54.502
X54.53 Y77.011
X54.552 Y77.03
X54.563 Y77.057
X54.561 Y77.086
X54.546 Y77.111
G3 X54.32 Y77.332 I-11.773 J-11.818
G2 X54.196 Y77.622 I0.278 J0.29
X54.206 Y78.157 I15.149 J0.002
G3 X54.215 Y78.629 I-15.14 J0.533
G1 X54.222 Y78.661
X54.24 Y78.689
X54.268 Y78.708
X54.296 Y78.726
X54.315 Y78.754
X54.322 Y78.786
X54.324 Y79.003
X54.317 Y79.026
X54.298 Y79.042
X54.274 Y79.044
X54.253 Y79.033
X53.851 Y78.633
X53.815 Y78.588
X53.79 Y78.536
X53.778 Y78.48
X53.78 Y78.422
X53.987 Y76.988
X53.999 Y76.952
X54.023 Y76.922
X54.056 Y76.903
X54.093 Y76.896
X54.815
X54.838 Y76.903
X54.854 Y76.921
X54.856 Y76.946
X54.845 Y76.967
G3 X54.628 Y77.174 I-5.017 J-5.037
G2 X54.412 Y77.38 I4.801 J5.243
X54.311 Y77.622 I0.241 J0.242
G1 X54.322 Y78.786
X54.33 Y78.824
X54.351 Y78.855
X54.383 Y78.876
X54.415 Y78.897
X54.436 Y78.928
X54.444 Y78.966
G3 X54.445 Y79.245 I-34.834 J0.274
G1 X54.438 Y79.273
X54.419 Y79.295
X54.392 Y79.306
X54.363 Y79.304
X54.338 Y79.289
X53.766 Y78.721
G3 X53.66 Y78.403 I0.263 J-0.265
G1 X53.875 Y76.913
X53.888 Y76.869
X53.913 Y76.83
X53.947 Y76.8
X53.989 Y76.781
X54.035 Y76.775
X55.059 Y76.774
X55.087 Y76.781
X55.109 Y76.8
X55.12 Y76.827
X55.118 Y76.856
X55.103 Y76.881
G3 X54.798 Y77.171 I-6.618 J-6.643
G2 X54.493 Y77.462 I6.313 J6.934
G1 X54.457 Y77.509
X54.434 Y77.563
X54.426 Y77.622
G2 X54.436 Y78.433 I34.835 J0.005
G3 X54.444 Y78.966 I-34.825 J0.807
G1 X54.449 Y78.991
X54.464 Y79.013
X54.486 Y79.028
X54.507 Y79.042
X54.522 Y79.064
X54.527 Y79.09
Y79.592
X53.546 Y78.618
Y78.617
X53.588 Y78.327
X53.823 Y76.699
X53.824 Y76.693
X55.407 Y76.692
X55.408
X54.564 Y77.533
X54.544 Y77.559
X54.532 Y77.589
X54.527 Y77.622
Y79.09
X54.521 Y79.106
X54.506 Y79.115
X54.489 Y79.111
X54.479 Y79.098
X54.219 Y78.325
X54.22 Y78.305
X54.235 Y78.293
X54.255 Y78.295
X54.267 Y78.31
G3 X53.81 Y78.441 Z-2.612 I-0.228 J0.065 F17.
X54.267 Y78.31 Z-2.638 I0.228 J-0.065
X53.81 Y78.441 Z-2.664 I-0.228 J0.065
X54.206 Y78.207 Z-2.686 I0.228 J-0.065
X53.892 Y78.522 I-0.157 J0.158
G1 X53.891 Y78.521 F35.
X53.882 Y78.505
X53.88 Y78.488
X53.887 Y78.436
X53.897 Y78.415
X53.917 Y78.403
X53.94 Y78.405
X53.959 Y78.419
X53.965 Y78.442
Y78.501
X53.959 Y78.523
X53.941 Y78.537
X53.919 Y78.539
X53.899 Y78.529
X53.892 Y78.522
X53.889 Y78.515
X53.891 Y78.508
X53.918 Y78.472
X53.92 Y78.468
X54.125 Y77.11
X54.12 Y77.096
X54.092 Y77.071
X54.086 Y77.058
X54.087 Y77.051
X54.097 Y77.027
X54.116 Y77.011
X54.141 Y77.005
X54.166
X54.191 Y77.01
X54.21 Y77.027
X54.22 Y77.051
X54.218 Y77.076
X54.205 Y77.098
X54.179 Y77.123
X54.155 Y77.137
X54.128 Y77.138
X54.103 Y77.126
X54.087 Y77.103
X54.084 Y77.075
X54.086 Y77.058
X54.085 Y77.029
X54.071 Y77.004
X54.048 Y76.986
X54.03 Y76.969
X54.023 Y76.945
X54.03 Y76.921
X54.049 Y76.905
X54.071 Y76.898
X54.093 Y76.896
X54.461
X54.484 Y76.903
X54.5 Y76.921
X54.502 Y76.946
X54.49 Y76.967
G3 X54.246 Y77.184 I-2.094 J-2.104
G2 X54.074 Y77.462 I0.303 J0.38
G1 X54.067 Y77.5
X54.063 Y77.539
X54.074 Y78.755
X54.067 Y78.778
X54.048 Y78.794
X54.024 Y78.796
X54.003 Y78.785
X53.804 Y78.587
X53.782 Y78.558
X53.771 Y78.523
X53.77 Y78.487
X53.987 Y76.988
X53.998 Y76.954
X54.019 Y76.925
X54.049 Y76.905
X54.078 Y76.887
X54.102 Y76.862
X54.117 Y76.832
X54.136 Y76.802
X54.164 Y76.782
X54.199 Y76.775
X54.704 Y76.774
X54.733 Y76.781
X54.755 Y76.8
X54.766 Y76.827
X54.764 Y76.856
X54.749 Y76.881
G3 X54.475 Y77.115 I-1.67 J-1.677
G2 X54.232 Y77.38 I0.536 J0.734
G1 X54.211 Y77.42
X54.195 Y77.461
X54.183 Y77.504
X54.177 Y77.548
G2 X54.172 Y78.273 I4.967 J0.399
G3 X54.195 Y78.997 I-11.083 J0.725
G1 X54.189 Y79.025
X54.17 Y79.047
X54.143 Y79.059
X54.113 Y79.056
X54.089 Y79.041
X53.718 Y78.672
X53.683 Y78.629
X53.66 Y78.58
X53.649 Y78.526
X53.65 Y78.471
X53.875 Y76.913
X53.888 Y76.869
X53.913 Y76.83
X53.947 Y76.8
X53.989 Y76.781
X54.035 Y76.775
X54.199
X54.224 Y76.769
X54.246 Y76.755
X54.26 Y76.733
X54.275 Y76.712
X54.296 Y76.698
X54.322 Y76.692
X55.055
X54.349 Y77.394
X54.342 Y77.403
X54.33 Y77.417
X54.319 Y77.433
X54.308 Y77.45
X54.299 Y77.469
X54.291 Y77.488
X54.285 Y77.508
X54.281 Y77.527
X54.279 Y77.543
X54.278 Y77.556
X54.277 Y77.566
Y79.345
X53.546 Y78.618
Y78.617
X53.588 Y78.327
X53.823 Y76.699
X53.824 Y76.693
X54.322 Y76.692
X54.339 Y76.699
X54.347 Y76.717
X54.341 Y76.734
X54.324 Y76.742
X53.972 Y76.767
X53.955 Y76.761
X53.946 Y76.746
X53.949 Y76.728
X53.964 Y76.718
G3 X54.092 Y77.175 Z-2.712 I0.064 J0.229 F17.
X53.964 Y76.718 Z-2.738 I-0.064 J-0.229
X54.092 Y77.175 Z-2.764 I0.064 J0.229
X53.861 Y76.778 Z-2.786 I-0.064 J-0.229
X54.192 Y77.111 I0.166 J0.166
G1 X54.179 Y77.123 F35.
X54.155 Y77.137
X54.128 Y77.138
X54.103 Y77.126
X54.087 Y77.103
X54.084 Y77.075
X54.087 Y77.051
X54.097 Y77.027
X54.116 Y77.011
X54.141 Y77.005
X54.166
X54.191 Y77.01
X54.21 Y77.027
X54.22 Y77.051
X54.218 Y77.076
X54.205 Y77.098
X54.192 Y77.111
X54.185 Y77.125
X53.966 Y78.49
X53.965 Y78.494
Y78.501
X53.959 Y78.523
X53.941 Y78.537
X53.919 Y78.539
X53.899 Y78.529
X53.891 Y78.521
X53.882 Y78.505
X53.88 Y78.488
X53.887 Y78.436
X53.897 Y78.415
X53.917 Y78.403
X53.94 Y78.405
X53.959 Y78.419
X53.965 Y78.442
Y78.494
X53.972 Y78.527
X53.991 Y78.555
X54.019 Y78.573
X54.047 Y78.592
X54.066 Y78.62
X54.073 Y78.653
X54.074 Y78.755
X54.067 Y78.778
X54.048 Y78.794
X54.024 Y78.796
X54.003 Y78.785
X53.804 Y78.587
X53.782 Y78.558
X53.771 Y78.523
X53.77 Y78.487
X53.987 Y76.988
X53.999 Y76.952
X54.023 Y76.922
X54.056 Y76.903
X54.093 Y76.896
X54.461
X54.484 Y76.903
X54.5 Y76.921
X54.502 Y76.946
X54.49 Y76.967
G3 X54.246 Y77.184 I-2.094 J-2.104
G2 X54.074 Y77.462 I0.303 J0.38
G1 X54.067 Y77.5
X54.063 Y77.539
X54.073 Y78.653
X54.081 Y78.689
X54.102 Y78.72
X54.134 Y78.74
X54.165 Y78.76
X54.186 Y78.791
X54.194 Y78.827
X54.195 Y78.997
X54.189 Y79.025
X54.17 Y79.047
X54.143 Y79.059
X54.113 Y79.056
X54.089 Y79.041
X53.718 Y78.672
X53.683 Y78.629
X53.66 Y78.58
X53.649 Y78.526
X53.65 Y78.471
X53.875 Y76.913
X53.888 Y76.869
X53.913 Y76.83
X53.947 Y76.8
X53.989 Y76.781
X54.035 Y76.775
X54.704 Y76.774
X54.733 Y76.781
X54.755 Y76.8
X54.766 Y76.827
X54.764 Y76.856
X54.749 Y76.881
G3 X54.475 Y77.115 I-1.67 J-1.677
G2 X54.232 Y77.38 I0.536 J0.734
G1 X54.211 Y77.42
X54.195 Y77.461
X54.183 Y77.504
X54.177 Y77.548
G2 X54.172 Y78.273 I4.967 J0.399
G3 X54.194 Y78.827 I-11.083 J0.725
G1 X54.199 Y78.853
X54.214 Y78.874
X54.236 Y78.889
X54.258 Y78.903
X54.272 Y78.925
X54.277 Y78.951
Y79.345
X53.546 Y78.618
Y78.617
X53.588 Y78.327
X53.823 Y76.699
X53.824 Y76.693
X55.055 Y76.692
X54.349 Y77.394
X54.342 Y77.403
X54.33 Y77.417
X54.319 Y77.433
X54.308 Y77.45
X54.299 Y77.469
X54.291 Y77.488
X54.285 Y77.508
X54.281 Y77.527
X54.279 Y77.543
X54.278 Y77.556
X54.277 Y77.566
Y78.951
X54.27 Y78.968
X54.253 Y78.976
X54.235 Y78.969
X54.227 Y78.951
X54.218 Y78.317
X54.224 Y78.3
X54.239 Y78.292
X54.256 Y78.296
X54.267 Y78.31
G3 X53.81 Y78.441 Z-2.812 I-0.228 J0.065 F17.
X54.267 Y78.31 Z-2.838 I0.228 J-0.065
X53.81 Y78.441 Z-2.864 I-0.228 J0.065
X54.206 Y78.207 Z-2.886 I0.228 J-0.065
X53.892 Y78.522 I-0.157 J0.158
G1 X53.891 Y78.521 F35.
X53.882 Y78.505
X53.88 Y78.488
X53.887 Y78.436
X53.897 Y78.415
X53.917 Y78.403
X53.94 Y78.405
X53.959 Y78.419
X53.965 Y78.442
Y78.501
X53.959 Y78.523
X53.941 Y78.537
X53.919 Y78.539
X53.899 Y78.529
X53.892 Y78.522
X53.889 Y78.515
X53.891 Y78.508
X53.918 Y78.472
X53.92 Y78.468
X54.125 Y77.11
X54.12 Y77.096
X54.092 Y77.071
X54.086 Y77.058
X54.087 Y77.051
X54.097 Y77.027
X54.116 Y77.011
X54.141 Y77.005
X54.166
X54.191 Y77.01
X54.21 Y77.027
X54.22 Y77.051
X54.218 Y77.076
X54.205 Y77.098
X54.179 Y77.123
X54.155 Y77.137
X54.128 Y77.138
X54.103 Y77.126
X54.087 Y77.103
X54.084 Y77.075
X54.086 Y77.058
X54.085 Y77.029
X54.071 Y77.004
X54.048 Y76.986
X54.03 Y76.969
X54.023 Y76.945
X54.03 Y76.921
X54.049 Y76.905
X54.071 Y76.898
X54.093 Y76.896
X54.461
X54.484 Y76.903
X54.5 Y76.921
X54.502 Y76.946
X54.49 Y76.967
G3 X54.246 Y77.184 I-2.094 J-2.104
G2 X54.074 Y77.462 I0.303 J0.38
G1 X54.067 Y77.5
X54.063 Y77.539
X54.074 Y78.755
X54.067 Y78.778
X54.048 Y78.794
X54.024 Y78.796
X54.003 Y78.785
X53.804 Y78.587
X53.782 Y78.558
X53.771 Y78.523
X53.77 Y78.487
X53.987 Y76.988
X53.998 Y76.954
X54.019 Y76.925
X54.049 Y76.905
X54.078 Y76.887
X54.102 Y76.862
X54.117 Y76.832
X54.136 Y76.802
X54.164 Y76.782
X54.199 Y76.775
X54.704 Y76.774
X54.733 Y76.781
X54.755 Y76.8
X54.766 Y76.827
X54.764 Y76.856
X54.749 Y76.881
G3 X54.475 Y77.115 I-1.67 J-1.677
G2 X54.232 Y77.38 I0.536 J0.734
G1 X54.211 Y77.42
X54.195 Y77.461
X54.183 Y77.504
X54.177 Y77.548
G2 X54.172 Y78.273 I4.967 J0.399
G3 X54.195 Y78.997 I-11.083 J0.725
G1 X54.189 Y79.025
X54.17 Y79.047
X54.143 Y79.059
X54.113 Y79.056
X54.089 Y79.041
X53.718 Y78.672
X53.683 Y78.629
X53.66 Y78.58
X53.649 Y78.526
X53.65 Y78.471
X53.875 Y76.913
X53.888 Y76.869
X53.913 Y76.83
X53.947 Y76.8
X53.989 Y76.781
X54.035 Y76.775
X54.199
X54.224 Y76.769
X54.246 Y76.755
X54.26 Y76.733
X54.275 Y76.712
X54.296 Y76.698
X54.322 Y76.692
X55.055
X54.349 Y77.394
X54.342 Y77.403
X54.33 Y77.417
X54.319 Y77.433
X54.308 Y77.45
X54.299 Y77.469
X54.291 Y77.488
X54.285 Y77.508
X54.281 Y77.527
X54.279 Y77.543
X54.278 Y77.556
X54.277 Y77.566
Y79.345
X53.546 Y78.618
Y78.617
X53.588 Y78.327
X53.823 Y76.699
X53.824 Y76.693
X54.322 Y76.692
X54.344 Y76.697 F17.
X54.361 Y76.711
X54.371 Y76.731
Y76.753
X53.976 Y78.498 Z-2.928
X53.964 Y78.521
X53.942 Y78.535
X53.915
X53.892 Y78.522
X53.891 Y78.521 F35.
X53.882 Y78.505
X53.88 Y78.488
X53.887 Y78.436
X53.897 Y78.415
X53.917 Y78.403
X53.94 Y78.405
X53.959 Y78.419
X53.965 Y78.442
Y78.501
X53.959 Y78.523
X53.941 Y78.537
X53.919 Y78.539
X53.899 Y78.529
X53.892 Y78.522
X53.889 Y78.515
X53.891 Y78.508
X53.918 Y78.472
X53.92 Y78.468
X54.125 Y77.11
X54.12 Y77.096
X54.092 Y77.071
X54.086 Y77.058
X54.087 Y77.051
X54.097 Y77.027
X54.116 Y77.011
X54.141 Y77.005
X54.166
X54.191 Y77.01
X54.21 Y77.027
X54.22 Y77.051
X54.218 Y77.076
X54.205 Y77.098
X54.192 Y77.111
X54.179 Y77.123
X54.155 Y77.137
X54.128 Y77.138
X54.103 Y77.126
X54.087 Y77.103
X54.084 Y77.075
X54.086 Y77.058
X54.085 Y77.029
X54.071 Y77.004
X54.048 Y76.986
X54.03 Y76.969
X54.023 Y76.945
X54.03 Y76.921
X54.049 Y76.905
X54.071 Y76.898
X54.093 Y76.896
X54.461
X54.484 Y76.903
X54.5 Y76.921
X54.502 Y76.946
X54.49 Y76.967
G3 X54.246 Y77.184 I-2.094 J-2.104
G2 X54.074 Y77.462 I0.303 J0.38
G1 X54.067 Y77.5
X54.063 Y77.539
X54.074 Y78.755
X54.067 Y78.778
X54.048 Y78.794
X54.024 Y78.796
X54.003 Y78.785
X53.804 Y78.587
X53.782 Y78.558
X53.771 Y78.523
X53.77 Y78.487
X53.987 Y76.988
X53.998 Y76.954
X54.019 Y76.925
X54.049 Y76.905
X54.078 Y76.887
X54.102 Y76.862
X54.117 Y76.832
X54.136 Y76.802
X54.164 Y76.782
X54.199 Y76.775
X54.704 Y76.774
X54.733 Y76.781
X54.755 Y76.8
X54.766 Y76.827
X54.764 Y76.856
X54.749 Y76.881
G3 X54.475 Y77.115 I-1.67 J-1.677
G2 X54.232 Y77.38 I0.536 J0.734
G1 X54.211 Y77.42
X54.195 Y77.461
X54.183 Y77.504
X54.177 Y77.548
G2 X54.172 Y78.273 I4.967 J0.399
G3 X54.195 Y78.997 I-11.083 J0.725
G1 X54.189 Y79.025
X54.17 Y79.047
X54.143 Y79.059
X54.113 Y79.056
X54.089 Y79.041
X53.718 Y78.672
X53.683 Y78.629
X53.66 Y78.58
X53.649 Y78.526
X53.65 Y78.471
X53.875 Y76.913
X53.888 Y76.869
X53.913 Y76.83
X53.947 Y76.8
X53.989 Y76.781
X54.035 Y76.775
X54.199
X54.224 Y76.769
X54.246 Y76.755
X54.26 Y76.733
X54.275 Y76.712
X54.296 Y76.698
X54.322 Y76.692
X55.055
X54.349 Y77.394
X54.342 Y77.403
X54.33 Y77.417
X54.319 Y77.433
X54.308 Y77.45
X54.299 Y77.469
X54.291 Y77.488
X54.285 Y77.508
X54.281 Y77.527
X54.279 Y77.543
X54.278 Y77.556
X54.277 Y77.566
Y79.345
X53.546 Y78.618
Y78.617
X53.588 Y78.327
X53.823 Y76.699
X53.824 Y76.693
X54.322 Y76.692
X54.339 Y76.699
X54.347 Y76.717
X54.341 Y76.734
X54.324 Y76.742
X53.972 Y76.767
X53.955 Y76.761
X53.946 Y76.746
X53.949 Y76.728
X53.964 Y76.718
G3 X54.092 Y77.175 Z-2.954 I0.064 J0.229 F17.
X53.964 Y76.718 Z-2.981 I-0.064 J-0.229
X54.092 Y77.175 Z-3.007 I0.064 J0.229
X53.861 Y76.778 Z-3.028 I-0.064 J-0.229
X54.192 Y77.111 I0.166 J0.166
G1 X54.179 Y77.123 F35.
X54.155 Y77.137
X54.128 Y77.138
X54.103 Y77.126
X54.087 Y77.103
X54.084 Y77.075
X54.087 Y77.051
X54.097 Y77.027
X54.116 Y77.011
X54.141 Y77.005
X54.166
X54.191 Y77.01
X54.21 Y77.027
X54.22 Y77.051
X54.218 Y77.076
X54.205 Y77.098
X54.192 Y77.111
X54.185 Y77.125
X53.966 Y78.49
X53.965 Y78.494
Y78.501
X53.959 Y78.523
X53.941 Y78.537
X53.919 Y78.539
X53.899 Y78.529
X53.891 Y78.521
X53.882 Y78.505
X53.88 Y78.488
X53.887 Y78.436
X53.897 Y78.415
X53.917 Y78.403
X53.94 Y78.405
X53.959 Y78.419
X53.965 Y78.442
Y78.494
X53.972 Y78.527
X53.991 Y78.555
X54.019 Y78.573
X54.047 Y78.592
X54.066 Y78.62
X54.073 Y78.653
X54.074 Y78.755
X54.067 Y78.778
X54.048 Y78.794
X54.024 Y78.796
X54.003 Y78.785
X53.804 Y78.587
X53.782 Y78.558
X53.771 Y78.523
X53.77 Y78.487
X53.987 Y76.988
X53.999 Y76.952
X54.023 Y76.922
X54.056 Y76.903
X54.093 Y76.896
X54.461
X54.484 Y76.903
X54.5 Y76.921
X54.502 Y76.946
X54.49 Y76.967
G3 X54.246 Y77.184 I-2.094 J-2.104
G2 X54.074 Y77.462 I0.303 J0.38
G1 X54.067 Y77.5
X54.063 Y77.539
X54.073 Y78.653
X54.081 Y78.689
X54.102 Y78.72
X54.134 Y78.74
X54.165 Y78.76
X54.186 Y78.791
X54.194 Y78.827
X54.195 Y78.997
X54.189 Y79.025
X54.17 Y79.047
X54.143 Y79.059
X54.113 Y79.056
X54.089 Y79.041
X53.718 Y78.672
X53.683 Y78.629
X53.66 Y78.58
X53.649 Y78.526
X53.65 Y78.471
X53.875 Y76.913
X53.888 Y76.869
X53.913 Y76.83
X53.947 Y76.8
X53.989 Y76.781
X54.035 Y76.775
X54.704 Y76.774
X54.733 Y76.781
X54.755 Y76.8
X54.766 Y76.827
X54.764 Y76.856
X54.749 Y76.881
G3 X54.475 Y77.115 I-1.67 J-1.677
G2 X54.232 Y77.38 I0.536 J0.734
G1 X54.211 Y77.42
X54.195 Y77.461
X54.183 Y77.504
X54.177 Y77.548
G2 X54.172 Y78.273 I4.967 J0.399
G3 X54.194 Y78.827 I-11.083 J0.725
G1 X54.199 Y78.853
X54.214 Y78.874
X54.236 Y78.889
X54.258 Y78.903
X54.272 Y78.925
X54.277 Y78.951
Y79.345
X53.546 Y78.618
Y78.617
X53.588 Y78.327
X53.823 Y76.699
X53.824 Y76.693
X55.055 Y76.692
X54.349 Y77.394
X54.342 Y77.403
X54.33 Y77.417
X54.319 Y77.433
X54.308 Y77.45
X54.299 Y77.469
X54.291 Y77.488
X54.285 Y77.508
X54.281 Y77.527
X54.279 Y77.543
X54.278 Y77.556
X54.277 Y77.566
Y78.951
X54.27 Y78.968
X54.253 Y78.976
X54.235 Y78.969
X54.227 Y78.951
X54.218 Y78.317
X54.224 Y78.3
X54.239 Y78.292
X54.256 Y78.296
X54.267 Y78.31
G3 X53.81 Y78.441 Z-3.054 I-0.228 J0.065 F17.
X54.267 Y78.31 Z-3.081 I0.228 J-0.065
X53.81 Y78.441 Z-3.107 I-0.228 J0.065
X54.206 Y78.207 Z-3.128 I0.228 J-0.065
X53.892 Y78.522 I-0.157 J0.158
G1 X53.891 Y78.521 F35.
X53.882 Y78.505
X53.88 Y78.488
X53.887 Y78.436
X53.897 Y78.415
X53.917 Y78.403
X53.94 Y78.405
X53.959 Y78.419
X53.965 Y78.442
Y78.501
X53.959 Y78.523
X53.941 Y78.537
X53.919 Y78.539
X53.899 Y78.529
X53.892 Y78.522
X53.889 Y78.515
X53.891 Y78.508
X53.918 Y78.472
X53.92 Y78.468
X54.125 Y77.11
X54.12 Y77.096
X54.092 Y77.071
X54.086 Y77.058
X54.087 Y77.051
X54.097 Y77.027
X54.116 Y77.011
X54.141 Y77.005
X54.166
X54.191 Y77.01
X54.21 Y77.027
X54.22 Y77.051
X54.218 Y77.076
X54.205 Y77.098
X54.179 Y77.123
X54.155 Y77.137
X54.128 Y77.138
X54.103 Y77.126
X54.087 Y77.103
X54.084 Y77.075
X54.086 Y77.058
X54.085 Y77.029
X54.071 Y77.004
X54.048 Y76.986
X54.03 Y76.969
X54.023 Y76.945
X54.03 Y76.921
X54.049 Y76.905
X54.071 Y76.898
X54.093 Y76.896
X54.461
X54.484 Y76.903
X54.5 Y76.921
X54.502 Y76.946
X54.49 Y76.967
G3 X54.246 Y77.184 I-2.094 J-2.104
G2 X54.074 Y77.462 I0.303 J0.38
G1 X54.067 Y77.5
X54.063 Y77.539
X54.074 Y78.755
X54.067 Y78.778
X54.048 Y78.794
X54.024 Y78.796
X54.003 Y78.785
X53.804 Y78.587
X53.782 Y78.558
X53.771 Y78.523
X53.77 Y78.487
X53.987 Y76.988
X53.998 Y76.954
X54.019 Y76.925
X54.049 Y76.905
X54.078 Y76.887
X54.102 Y76.862
X54.117 Y76.832
X54.136 Y76.802
X54.164 Y76.782
X54.199 Y76.775
X54.704 Y76.774
X54.733 Y76.781
X54.755 Y76.8
X54.766 Y76.827
X54.764 Y76.856
X54.749 Y76.881
G3 X54.475 Y77.115 I-1.67 J-1.677
G2 X54.232 Y77.38 I0.536 J0.734
G1 X54.211 Y77.42
X54.195 Y77.461
X54.183 Y77.504
X54.177 Y77.548
G2 X54.172 Y78.273 I4.967 J0.399
G3 X54.195 Y78.997 I-11.083 J0.725
G1 X54.189 Y79.025
X54.17 Y79.047
X54.143 Y79.059
X54.113 Y79.056
X54.089 Y79.041
X53.718 Y78.672
X53.683 Y78.629
X53.66 Y78.58
X53.649 Y78.526
X53.65 Y78.471
X53.875 Y76.913
X53.888 Y76.869
X53.913 Y76.83
X53.947 Y76.8
X53.989 Y76.781
X54.035 Y76.775
X54.199
X54.224 Y76.769
X54.246 Y76.755
X54.26 Y76.733
X54.275 Y76.712
X54.296 Y76.698
X54.322 Y76.692
X55.055
X54.349 Y77.394
X54.342 Y77.403
X54.33 Y77.417
X54.319 Y77.433
X54.308 Y77.45
X54.299 Y77.469
X54.291 Y77.488
X54.285 Y77.508
X54.281 Y77.527
X54.279 Y77.543
X54.278 Y77.556
X54.277 Y77.566
Y79.345
X53.546 Y78.618
Y78.617
X53.588 Y78.327
X53.823 Y76.699
X53.824 Y76.693
X54.322 Y76.692
X54.339 Y76.699
X54.347 Y76.717
X54.341 Y76.734
X54.324 Y76.742
X53.972 Y76.767
X53.955 Y76.761
X53.946 Y76.746
X53.949 Y76.728
X53.964 Y76.718
G3 X54.092 Y77.175 Z-3.154 I0.064 J0.229 F17.
X53.964 Y76.718 Z-3.181 I-0.064 J-0.229
X54.092 Y77.175 Z-3.207 I0.064 J0.229
X53.861 Y76.778 Z-3.228 I-0.064 J-0.229
X54.192 Y77.111 I0.166 J0.166
G1 X54.179 Y77.123 F35.
X54.155 Y77.137
X54.128 Y77.138
X54.103 Y77.126
X54.087 Y77.103
X54.084 Y77.075
X54.087 Y77.051
X54.097 Y77.027
X54.116 Y77.011
X54.141 Y77.005
X54.166
X54.191 Y77.01
X54.21 Y77.027
X54.22 Y77.051
X54.218 Y77.076
X54.205 Y77.098
X54.192 Y77.111
X54.185 Y77.125
X53.966 Y78.49
X53.965 Y78.494
Y78.501
X53.959 Y78.523
X53.941 Y78.537
X53.919 Y78.539
X53.899 Y78.529
X53.891 Y78.521
X53.882 Y78.505
X53.88 Y78.488
X53.887 Y78.436
X53.897 Y78.415
X53.917 Y78.403
X53.94 Y78.405
X53.959 Y78.419
X53.965 Y78.442
Y78.494
X53.972 Y78.527
X53.991 Y78.555
X54.019 Y78.573
X54.047 Y78.592
X54.066 Y78.62
X54.073 Y78.653
X54.074 Y78.755
X54.067 Y78.778
X54.048 Y78.794
X54.024 Y78.796
X54.003 Y78.785
X53.804 Y78.587
X53.782 Y78.558
X53.771 Y78.523
X53.77 Y78.487
X53.987 Y76.988
X53.999 Y76.952
X54.023 Y76.922
X54.056 Y76.903
X54.093 Y76.896
X54.461
X54.484 Y76.903
X54.5 Y76.921
X54.502 Y76.946
X54.49 Y76.967
G3 X54.246 Y77.184 I-2.094 J-2.104
G2 X54.074 Y77.462 I0.303 J0.38
G1 X54.067 Y77.5
X54.063 Y77.539
X54.073 Y78.653
X54.081 Y78.689
X54.102 Y78.72
X54.134 Y78.74
X54.165 Y78.76
X54.186 Y78.791
X54.194 Y78.827
X54.195 Y78.997
X54.189 Y79.025
X54.17 Y79.047
X54.143 Y79.059
X54.113 Y79.056
X54.089 Y79.041
X53.718 Y78.672
X53.683 Y78.629
X53.66 Y78.58
X53.649 Y78.526
X53.65 Y78.471
X53.875 Y76.913
X53.888 Y76.869
X53.913 Y76.83
X53.947 Y76.8
X53.989 Y76.781
X54.035 Y76.775
X54.704 Y76.774
X54.733 Y76.781
X54.755 Y76.8
X54.766 Y76.827
X54.764 Y76.856
X54.749 Y76.881
G3 X54.475 Y77.115 I-1.67 J-1.677
G2 X54.232 Y77.38 I0.536 J0.734
G1 X54.211 Y77.42
X54.195 Y77.461
X54.183 Y77.504
X54.177 Y77.548
G2 X54.172 Y78.273 I4.967 J0.399
G3 X54.194 Y78.827 I-11.083 J0.725
G1 X54.199 Y78.853
X54.214 Y78.874
X54.236 Y78.889
X54.258 Y78.903
X54.272 Y78.925
X54.277 Y78.951
Y79.345
X53.546 Y78.618
Y78.617
X53.588 Y78.327
X53.823 Y76.699
X53.824 Y76.693
X55.055 Y76.692
X54.349 Y77.394
X54.342 Y77.403
X54.33 Y77.417
X54.319 Y77.433
X54.308 Y77.45
X54.299 Y77.469
X54.291 Y77.488
X54.285 Y77.508
X54.281 Y77.527
X54.279 Y77.543
X54.278 Y77.556
X54.277 Y77.566
Y78.951
X54.27 Y78.968
X54.253 Y78.976
X54.235 Y78.969
X54.227 Y78.952
X54.21 Y78.457
X54.215 Y78.44
X54.23 Y78.432
X54.248 Y78.435
X54.259 Y78.448
X54.258 Y78.466
G3 X53.819 Y78.285 Z-3.254 I-0.22 J-0.09 F17.
X54.206 Y78.207 Z-3.271 I0.22 J0.09
X53.892 Y78.522 I-0.157 J0.158
G1 X53.891 Y78.521 F35.
X53.882 Y78.505
X53.88 Y78.488
X53.887 Y78.436
X53.897 Y78.415
X53.917 Y78.403
X53.94 Y78.405
X53.959 Y78.419
X53.965 Y78.442
Y78.501
X53.959 Y78.523
X53.941 Y78.537
X53.919 Y78.539
X53.899 Y78.529
X53.892 Y78.522
X53.889 Y78.515
X53.891 Y78.508
X53.918 Y78.472
X53.92 Y78.468
X54.125 Y77.11
X54.12 Y77.096
X54.092 Y77.071
X54.086 Y77.058
X54.087 Y77.051
X54.097 Y77.027
X54.116 Y77.011
X54.141 Y77.005
X54.166
X54.191 Y77.01
X54.21 Y77.027
X54.22 Y77.051
X54.218 Y77.076
X54.205 Y77.098
X54.179 Y77.123
X54.155 Y77.137
X54.128 Y77.138
X54.103 Y77.126
X54.087 Y77.103
X54.084 Y77.075
X54.086 Y77.058
X54.085 Y77.029
X54.071 Y77.004
X54.048 Y76.986
X54.03 Y76.969
X54.023 Y76.945
X54.03 Y76.921
X54.049 Y76.905
X54.071 Y76.898
X54.093 Y76.896
X54.461
X54.484 Y76.903
X54.5 Y76.921
X54.502 Y76.946
X54.49 Y76.967
G3 X54.246 Y77.184 I-2.094 J-2.104
G2 X54.074 Y77.462 I0.303 J0.38
G1 X54.067 Y77.5
X54.063 Y77.539
X54.074 Y78.755
X54.067 Y78.778
X54.048 Y78.794
X54.024 Y78.796
X54.003 Y78.785
X53.804 Y78.587
X53.782 Y78.558
X53.771 Y78.523
X53.77 Y78.487
X53.987 Y76.988
X53.998 Y76.954
X54.019 Y76.925
X54.049 Y76.905
X54.078 Y76.887
X54.102 Y76.862
X54.117 Y76.832
X54.136 Y76.802
X54.164 Y76.782
X54.199 Y76.775
X54.704 Y76.774
X54.733 Y76.781
X54.755 Y76.8
X54.766 Y76.827
X54.764 Y76.856
X54.749 Y76.881
G3 X54.475 Y77.115 I-1.67 J-1.677
G2 X54.232 Y77.38 I0.536 J0.734
G1 X54.211 Y77.42
X54.195 Y77.461
X54.183 Y77.504
X54.177 Y77.548
G2 X54.172 Y78.273 I4.967 J0.399
G3 X54.195 Y78.997 I-11.083 J0.725
G1 X54.189 Y79.025
X54.17 Y79.047
X54.143 Y79.059
X54.113 Y79.056
X54.089 Y79.041
X53.718 Y78.672
X53.683 Y78.629
X53.66 Y78.58
X53.649 Y78.526
X53.65 Y78.471
X53.875 Y76.913
X53.888 Y76.869
X53.913 Y76.83
X53.947 Y76.8
X53.989 Y76.781
X54.035 Y76.775
X54.199
X54.224 Y76.769
X54.246 Y76.755
X54.26 Y76.733
X54.275 Y76.712
X54.296 Y76.698
X54.322 Y76.692
X55.055
X54.349 Y77.394
X54.342 Y77.403
X54.33 Y77.417
X54.319 Y77.433
X54.308 Y77.45
X54.299 Y77.469
X54.291 Y77.488
X54.285 Y77.508
X54.281 Y77.527
X54.279 Y77.543
X54.278 Y77.556
X54.277 Y77.566
Y79.345
X53.546 Y78.618
Y78.617
X53.588 Y78.327
X53.823 Y76.699
X53.824 Y76.693
X54.322 Y76.692
X54.339 Y76.699
X54.347 Y76.717
X54.341 Y76.734
X54.324 Y76.742
X53.972 Y76.767
X53.955 Y76.761
X53.946 Y76.746
X53.949 Y76.728
X53.964 Y76.718
G3 X54.092 Y77.175 Z-3.297 I0.064 J0.229 F17.
X53.964 Y76.718 Z-3.323 I-0.064 J-0.229
X54.092 Y77.175 Z-3.349 I0.064 J0.229
X53.861 Y76.778 Z-3.371 I-0.064 J-0.229
X54.192 Y77.111 I0.166 J0.166
G1 X54.179 Y77.123 F35.
X54.155 Y77.137
X54.128 Y77.138
X54.103 Y77.126
X54.087 Y77.103
X54.084 Y77.075
X54.087 Y77.051
X54.097 Y77.027
X54.116 Y77.011
X54.141 Y77.005
X54.166
X54.191 Y77.01
X54.21 Y77.027
X54.22 Y77.051
X54.218 Y77.076
X54.205 Y77.098
X54.192 Y77.111
X54.185 Y77.125
X53.966 Y78.49
X53.965 Y78.494
Y78.501
X53.959 Y78.523
X53.941 Y78.537
X53.919 Y78.539
X53.899 Y78.529
X53.891 Y78.521
X53.882 Y78.505
X53.88 Y78.488
X53.887 Y78.436
X53.897 Y78.415
X53.917 Y78.403
X53.94 Y78.405
X53.959 Y78.419
X53.965 Y78.442
Y78.494
X53.972 Y78.527
X53.991 Y78.555
X54.019 Y78.573
X54.047 Y78.592
X54.066 Y78.62
X54.073 Y78.653
X54.074 Y78.755
X54.067 Y78.778
X54.048 Y78.794
X54.024 Y78.796
X54.003 Y78.785
X53.804 Y78.587
X53.782 Y78.558
X53.771 Y78.523
X53.77 Y78.487
X53.987 Y76.988
X53.999 Y76.952
X54.023 Y76.922
X54.056 Y76.903
X54.093 Y76.896
X54.461
X54.484 Y76.903
X54.5 Y76.921
X54.502 Y76.946
X54.49 Y76.967
G3 X54.246 Y77.184 I-2.094 J-2.104
G2 X54.074 Y77.462 I0.303 J0.38
G1 X54.067 Y77.5
X54.063 Y77.539
X54.073 Y78.653
X54.081 Y78.689
X54.102 Y78.72
X54.134 Y78.74
X54.165 Y78.76
X54.186 Y78.791
X54.194 Y78.827
X54.195 Y78.997
X54.189 Y79.025
X54.17 Y79.047
X54.143 Y79.059
X54.113 Y79.056
X54.089 Y79.041
X53.718 Y78.672
X53.683 Y78.629
X53.66 Y78.58
X53.649 Y78.526
X53.65 Y78.471
X53.875 Y76.913
X53.888 Y76.869
X53.913 Y76.83
X53.947 Y76.8
X53.989 Y76.781
X54.035 Y76.775
X54.704 Y76.774
X54.733 Y76.781
X54.755 Y76.8
X54.766 Y76.827
X54.764 Y76.856
X54.749 Y76.881
G3 X54.475 Y77.115 I-1.67 J-1.677
G2 X54.232 Y77.38 I0.536 J0.734
G1 X54.211 Y77.42
X54.195 Y77.461
X54.183 Y77.504
X54.177 Y77.548
G2 X54.172 Y78.273 I4.967 J0.399
G3 X54.194 Y78.827 I-11.083 J0.725
G1 X54.199 Y78.853
X54.214 Y78.874
X54.236 Y78.889
X54.258 Y78.903
X54.272 Y78.925
X54.277 Y78.951
Y79.345
X53.546 Y78.618
Y78.617
X53.588 Y78.327
X53.823 Y76.699
X53.824 Y76.693
X55.055 Y76.692
X54.349 Y77.394
X54.342 Y77.403
X54.33 Y77.417
X54.319 Y77.433
X54.308 Y77.45
X54.299 Y77.469
X54.291 Y77.488
X54.285 Y77.508
X54.281 Y77.527
X54.279 Y77.543
X54.278 Y77.556
X54.277 Y77.566
Y78.951
X54.271 Y78.967
X54.255 Y78.976
X54.238 Y78.971
X54.228 Y78.957
X54.041 Y78.17
X54.042 Y78.154
X54.053 Y78.143
X54.068 Y78.14
G3 X54.009 Y78.611 Z-3.397 I-0.03 J0.236 F17.
X54.068 Y78.14 Z-3.423 I0.03 J-0.236
X54.206 Y78.207 Z-3.428 I-0.03 J0.236
X53.892 Y78.522 I-0.157 J0.158
G1 X53.891 Y78.521 F35.
X53.882 Y78.505
X53.88 Y78.488
X53.887 Y78.436
X53.897 Y78.415
X53.917 Y78.403
X53.94 Y78.405
X53.959 Y78.419
X53.965 Y78.442
Y78.501
X53.959 Y78.523
X53.941 Y78.537
X53.919 Y78.539
X53.899 Y78.529
X53.892 Y78.522
X53.889 Y78.515
X53.891 Y78.508
X53.918 Y78.472
X53.92 Y78.468
X54.125 Y77.11
X54.12 Y77.096
X54.092 Y77.071
X54.086 Y77.058
X54.087 Y77.051
X54.097 Y77.027
X54.116 Y77.011
X54.141 Y77.005
X54.166
X54.191 Y77.01
X54.21 Y77.027
X54.22 Y77.051
X54.218 Y77.076
X54.205 Y77.098
X54.179 Y77.123
X54.155 Y77.137
X54.128 Y77.138
X54.103 Y77.126
X54.087 Y77.103
X54.084 Y77.075
X54.086 Y77.058
X54.085 Y77.029
X54.071 Y77.004
X54.048 Y76.986
X54.03 Y76.969
X54.023 Y76.945
X54.03 Y76.921
X54.049 Y76.905
X54.071 Y76.898
X54.093 Y76.896
X54.461
X54.484 Y76.903
X54.5 Y76.921
X54.502 Y76.946
X54.49 Y76.967
G3 X54.246 Y77.184 I-2.094 J-2.104
G2 X54.074 Y77.462 I0.303 J0.38
G1 X54.067 Y77.5
X54.063 Y77.539
X54.074 Y78.755
X54.067 Y78.778
X54.048 Y78.794
X54.024 Y78.796
X54.003 Y78.785
X53.804 Y78.587
X53.782 Y78.558
X53.771 Y78.523
X53.77 Y78.487
X53.987 Y76.988
X53.998 Y76.954
X54.019 Y76.925
X54.049 Y76.905
X54.078 Y76.887
X54.102 Y76.862
X54.117 Y76.832
X54.136 Y76.802
X54.164 Y76.782
X54.199 Y76.775
X54.704 Y76.774
X54.733 Y76.781
X54.755 Y76.8
X54.766 Y76.827
X54.764 Y76.856
X54.749 Y76.881
G3 X54.475 Y77.115 I-1.67 J-1.677
G2 X54.232 Y77.38 I0.536 J0.734
G1 X54.211 Y77.42
X54.195 Y77.461
X54.183 Y77.504
X54.177 Y77.548
G2 X54.172 Y78.273 I4.967 J0.399
G3 X54.195 Y78.997 I-11.083 J0.725
G1 X54.189 Y79.025
X54.17 Y79.047
X54.143 Y79.059
X54.113 Y79.056
X54.089 Y79.041
X53.718 Y78.672
X53.683 Y78.629
X53.66 Y78.58
X53.649 Y78.526
X53.65 Y78.471
X53.875 Y76.913
X53.888 Y76.869
X53.913 Y76.83
X53.947 Y76.8
X53.989 Y76.781
X54.035 Y76.775
X54.199
X54.224 Y76.769
X54.246 Y76.755
X54.26 Y76.733
X54.275 Y76.712
X54.296 Y76.698
X54.322 Y76.692
X55.055
X54.349 Y77.394
X54.342 Y77.403
X54.33 Y77.417
X54.319 Y77.433
X54.308 Y77.45
X54.299 Y77.469
X54.291 Y77.488
X54.285 Y77.508
X54.281 Y77.527
X54.279 Y77.543
X54.278 Y77.556
X54.277 Y77.566
Y79.345
X53.546 Y78.618
Y78.617
X53.588 Y78.327
X53.823 Y76.699
X53.824 Y76.693
X54.322 Y76.692
X54.339 Y76.699
X54.347 Y76.717
X54.341 Y76.734
X54.324 Y76.742
X53.972 Y76.767
X53.955 Y76.761
X53.946 Y76.746
X53.949 Y76.728
X53.964 Y76.718
G3 X54.092 Y77.175 Z-3.454 I0.064 J0.229 F17.
X53.964 Y76.718 Z-3.48 I-0.064 J-0.229
X54.092 Y77.175 Z-3.506 I0.064 J0.229
X53.861 Y76.778 Z-3.528 I-0.064 J-0.229
X54.192 Y77.111 I0.166 J0.166
G1 X54.179 Y77.123 F35.
X54.155 Y77.137
X54.128 Y77.138
X54.103 Y77.126
X54.087 Y77.103
X54.084 Y77.075
X54.087 Y77.051
X54.097 Y77.027
X54.116 Y77.011
X54.141 Y77.005
X54.166
X54.191 Y77.01
X54.21 Y77.027
X54.22 Y77.051
X54.218 Y77.076
X54.205 Y77.098
X54.192 Y77.111
X54.185 Y77.125
X53.966 Y78.49
X53.965 Y78.494
Y78.501
X53.959 Y78.523
X53.941 Y78.537
X53.919 Y78.539
X53.899 Y78.529
X53.891 Y78.521
X53.882 Y78.505
X53.88 Y78.488
X53.887 Y78.436
X53.897 Y78.415
X53.917 Y78.403
X53.94 Y78.405
X53.959 Y78.419
X53.965 Y78.442
Y78.494
X53.972 Y78.527
X53.991 Y78.555
X54.019 Y78.573
X54.047 Y78.592
X54.066 Y78.62
X54.073 Y78.653
X54.074 Y78.755
X54.067 Y78.778
X54.048 Y78.794
X54.024 Y78.796
X54.003 Y78.785
X53.804 Y78.587
X53.782 Y78.558
X53.771 Y78.523
X53.77 Y78.487
X53.987 Y76.988
X53.999 Y76.952
X54.023 Y76.922
X54.056 Y76.903
X54.093 Y76.896
X54.461
X54.484 Y76.903
X54.5 Y76.921
X54.502 Y76.946
X54.49 Y76.967
G3 X54.246 Y77.184 I-2.094 J-2.104
G2 X54.074 Y77.462 I0.303 J0.38
G1 X54.067 Y77.5
X54.063 Y77.539
X54.073 Y78.653
X54.081 Y78.689
X54.102 Y78.72
X54.134 Y78.74
X54.165 Y78.76
X54.186 Y78.791
X54.194 Y78.827
X54.195 Y78.997
X54.189 Y79.025
X54.17 Y79.047
X54.143 Y79.059
X54.113 Y79.056
X54.089 Y79.041
X53.718 Y78.672
X53.683 Y78.629
X53.66 Y78.58
X53.649 Y78.526
X53.65 Y78.471
X53.875 Y76.913
X53.888 Y76.869
X53.913 Y76.83
X53.947 Y76.8
X53.989 Y76.781
X54.035 Y76.775
X54.704 Y76.774
X54.733 Y76.781
X54.755 Y76.8
X54.766 Y76.827
X54.764 Y76.856
X54.749 Y76.881
G3 X54.475 Y77.115 I-1.67 J-1.677
G2 X54.232 Y77.38 I0.536 J0.734
G1 X54.211 Y77.42
X54.195 Y77.461
X54.183 Y77.504
X54.177 Y77.548
G2 X54.172 Y78.273 I4.967 J0.399
G3 X54.194 Y78.827 I-11.083 J0.725
G1 X54.199 Y78.853
X54.214 Y78.874
X54.236 Y78.889
X54.258 Y78.903
X54.272 Y78.925
X54.277 Y78.951
Y79.345
X53.546 Y78.618
Y78.617
X53.588 Y78.327
X53.823 Y76.699
X53.824 Y76.693
X55.055 Y76.692
X54.349 Y77.394
X54.342 Y77.403
X54.33 Y77.417
X54.319 Y77.433
X54.308 Y77.45
X54.299 Y77.469
X54.291 Y77.488
X54.285 Y77.508
X54.281 Y77.527
X54.279 Y77.543
X54.278 Y77.556
X54.277 Y77.566
Y78.951
X54.27 Y78.968
X54.253 Y78.976
X54.235 Y78.969
X54.227 Y78.951
X54.218 Y78.317
X54.224 Y78.3
X54.239 Y78.292
X54.256 Y78.296
X54.267 Y78.31
G3 X53.81 Y78.441 Z-3.554 I-0.228 J0.065 F17.
X54.267 Y78.31 Z-3.58 I0.228 J-0.065
X53.81 Y78.441 Z-3.606 I-0.228 J0.065
X54.206 Y78.207 Z-3.628 I0.228 J-0.065
X53.892 Y78.522 I-0.157 J0.158
G1 X53.891 Y78.521 F35.
X53.882 Y78.505
X53.88 Y78.488
X53.887 Y78.436
X53.897 Y78.415
X53.917 Y78.403
X53.94 Y78.405
X53.959 Y78.419
X53.965 Y78.442
Y78.501
X53.959 Y78.523
X53.941 Y78.537
X53.919 Y78.539
X53.899 Y78.529
X53.892 Y78.522
X53.889 Y78.515
X53.891 Y78.508
X53.918 Y78.472
X53.92 Y78.468
X54.125 Y77.11
X54.12 Y77.096
X54.092 Y77.071
X54.086 Y77.058
X54.087 Y77.051
X54.097 Y77.027
X54.116 Y77.011
X54.141 Y77.005
X54.166
X54.191 Y77.01
X54.21 Y77.027
X54.22 Y77.051
X54.218 Y77.076
X54.205 Y77.098
X54.179 Y77.123
X54.155 Y77.137
X54.128 Y77.138
X54.103 Y77.126
X54.087 Y77.103
X54.084 Y77.075
X54.086 Y77.058
X54.085 Y77.029
X54.071 Y77.004
X54.048 Y76.986
X54.03 Y76.969
X54.023 Y76.945
X54.03 Y76.921
X54.049 Y76.905
X54.071 Y76.898
X54.093 Y76.896
X54.461
X54.484 Y76.903
X54.5 Y76.921
X54.502 Y76.946
X54.49 Y76.967
G3 X54.246 Y77.184 I-2.094 J-2.104
G2 X54.074 Y77.462 I0.303 J0.38
G1 X54.067 Y77.5
X54.063 Y77.539
X54.074 Y78.755
X54.067 Y78.778
X54.048 Y78.794
X54.024 Y78.796
X54.003 Y78.785
X53.804 Y78.587
X53.782 Y78.558
X53.771 Y78.523
X53.77 Y78.487
X53.987 Y76.988
X53.998 Y76.954
X54.019 Y76.925
X54.049 Y76.905
X54.078 Y76.887
X54.102 Y76.862
X54.117 Y76.832
X54.136 Y76.802
X54.164 Y76.782
X54.199 Y76.775
X54.704 Y76.774
X54.733 Y76.781
X54.755 Y76.8
X54.766 Y76.827
X54.764 Y76.856
X54.749 Y76.881
G3 X54.475 Y77.115 I-1.67 J-1.677
G2 X54.232 Y77.38 I0.536 J0.734
G1 X54.211 Y77.42
X54.195 Y77.461
X54.183 Y77.504
X54.177 Y77.548
G2 X54.172 Y78.273 I4.967 J0.399
G3 X54.195 Y78.997 I-11.083 J0.725
G1 X54.189 Y79.025
X54.17 Y79.047
X54.143 Y79.059
X54.113 Y79.056
X54.089 Y79.041
X53.718 Y78.672
X53.683 Y78.629
X53.66 Y78.58
X53.649 Y78.526
X53.65 Y78.471
X53.875 Y76.913
X53.888 Y76.869
X53.913 Y76.83
X53.947 Y76.8
X53.989 Y76.781
X54.035 Y76.775
X54.199
X54.224 Y76.769
X54.246 Y76.755
X54.26 Y76.733
X54.275 Y76.712
X54.296 Y76.698
X54.322 Y76.692
X55.055
X54.349 Y77.394
X54.342 Y77.403
X54.33 Y77.417
X54.319 Y77.433
X54.308 Y77.45
X54.299 Y77.469
X54.291 Y77.488
X54.285 Y77.508
X54.281 Y77.527
X54.279 Y77.543
X54.278 Y77.556
X54.277 Y77.566
Y79.345
X53.546 Y78.618
Y78.617
X53.588 Y78.327
X53.823 Y76.699
X53.824 Y76.693
X54.322 Y76.692
X54.339 Y76.699
X54.347 Y76.717
X54.341 Y76.734
X54.324 Y76.742
X53.972 Y76.767
X53.955 Y76.761
X53.946 Y76.746
X53.949 Y76.728
X53.964 Y76.718
G3 X54.092 Y77.175 Z-3.654 I0.064 J0.229 F17.
X53.964 Y76.718 Z-3.68 I-0.064 J-0.229
X54.092 Y77.175 Z-3.706 I0.064 J0.229
X53.861 Y76.778 Z-3.728 I-0.064 J-0.229
X54.192 Y77.111 I0.166 J0.166
G1 X54.179 Y77.123 F35.
X54.155 Y77.137
X54.128 Y77.138
X54.103 Y77.126
X54.087 Y77.103
X54.084 Y77.075
X54.087 Y77.051
X54.097 Y77.027
X54.116 Y77.011
X54.141 Y77.005
X54.166
X54.191 Y77.01
X54.21 Y77.027
X54.22 Y77.051
X54.218 Y77.076
X54.205 Y77.098
X54.192 Y77.111
X54.185 Y77.125
X53.966 Y78.49
X53.965 Y78.494
Y78.501
X53.959 Y78.523
X53.941 Y78.537
X53.919 Y78.539
X53.899 Y78.529
X53.891 Y78.521
X53.882 Y78.505
X53.88 Y78.488
X53.887 Y78.436
X53.897 Y78.415
X53.917 Y78.403
X53.94 Y78.405
X53.959 Y78.419
X53.965 Y78.442
Y78.494
X53.972 Y78.527
X53.991 Y78.555
X54.019 Y78.573
X54.047 Y78.592
X54.066 Y78.62
X54.073 Y78.653
X54.074 Y78.755
X54.067 Y78.778
X54.048 Y78.794
X54.024 Y78.796
X54.003 Y78.785
X53.804 Y78.587
X53.782 Y78.558
X53.771 Y78.523
X53.77 Y78.487
X53.987 Y76.988
X53.999 Y76.952
X54.023 Y76.922
X54.056 Y76.903
X54.093 Y76.896
X54.461
X54.484 Y76.903
X54.5 Y76.921
X54.502 Y76.946
X54.49 Y76.967
G3 X54.246 Y77.184 I-2.094 J-2.104
G2 X54.074 Y77.462 I0.303 J0.38
G1 X54.067 Y77.5
X54.063 Y77.539
X54.073 Y78.653
X54.081 Y78.689
X54.102 Y78.72
X54.134 Y78.74
X54.165 Y78.76
X54.186 Y78.791
X54.194 Y78.827
X54.195 Y78.997
X54.189 Y79.025
X54.17 Y79.047
X54.143 Y79.059
X54.113 Y79.056
X54.089 Y79.041
X53.718 Y78.672
X53.683 Y78.629
X53.66 Y78.58
X53.649 Y78.526
X53.65 Y78.471
X53.875 Y76.913
X53.888 Y76.869
X53.913 Y76.83
X53.947 Y76.8
X53.989 Y76.781
X54.035 Y76.775
X54.704 Y76.774
X54.733 Y76.781
X54.755 Y76.8
X54.766 Y76.827
X54.764 Y76.856
X54.749 Y76.881
G3 X54.475 Y77.115 I-1.67 J-1.677
G2 X54.232 Y77.38 I0.536 J0.734
G1 X54.211 Y77.42
X54.195 Y77.461
X54.183 Y77.504
X54.177 Y77.548
G2 X54.172 Y78.273 I4.967 J0.399
G3 X54.194 Y78.827 I-11.083 J0.725
G1 X54.199 Y78.853
X54.214 Y78.874
X54.236 Y78.889
X54.258 Y78.903
X54.272 Y78.925
X54.277 Y78.951
Y79.345
X53.546 Y78.618
Y78.617
X53.588 Y78.327
X53.823 Y76.699
X53.824 Y76.693
X55.055 Y76.692
X54.349 Y77.394
X54.342 Y77.403
X54.33 Y77.417
X54.319 Y77.433
X54.308 Y77.45
X54.299 Y77.469
X54.291 Y77.488
X54.285 Y77.508
X54.281 Y77.527
X54.279 Y77.543
X54.278 Y77.556
X54.277 Y77.566
Y78.951
X54.27 Y78.968
X54.253 Y78.976
X54.235 Y78.969
X54.227 Y78.952
X54.214 Y78.447
X54.219 Y78.431
X54.234 Y78.422
X54.251 Y78.424
X54.262 Y78.438
Y78.455
G3 X53.815 Y78.296 Z-3.754 I-0.224 J-0.08 F17.
X54.206 Y78.207 Z-3.771 I0.224 J0.08
X53.892 Y78.522 I-0.157 J0.158
G1 X53.891 Y78.521 F35.
X53.882 Y78.505
X53.88 Y78.488
X53.887 Y78.436
X53.897 Y78.415
X53.917 Y78.403
X53.94 Y78.405
X53.959 Y78.419
X53.965 Y78.442
Y78.501
X53.959 Y78.523
X53.941 Y78.537
X53.919 Y78.539
X53.899 Y78.529
X53.892 Y78.522
X53.889 Y78.515
X53.891 Y78.508
X53.918 Y78.472
X53.92 Y78.468
X54.125 Y77.11
X54.12 Y77.096
X54.092 Y77.071
X54.086 Y77.058
X54.087 Y77.051
X54.097 Y77.027
X54.116 Y77.011
X54.141 Y77.005
X54.166
X54.191 Y77.01
X54.21 Y77.027
X54.22 Y77.051
X54.218 Y77.076
X54.205 Y77.098
X54.179 Y77.123
X54.155 Y77.137
X54.128 Y77.138
X54.103 Y77.126
X54.087 Y77.103
X54.084 Y77.075
X54.086 Y77.058
X54.085 Y77.029
X54.071 Y77.004
X54.048 Y76.986
X54.03 Y76.969
X54.023 Y76.945
X54.03 Y76.921
X54.049 Y76.905
X54.071 Y76.898
X54.093 Y76.896
X54.461
X54.484 Y76.903
X54.5 Y76.921
X54.502 Y76.946
X54.49 Y76.967
G3 X54.246 Y77.184 I-2.094 J-2.104
G2 X54.074 Y77.462 I0.303 J0.38
G1 X54.067 Y77.5
X54.063 Y77.539
X54.074 Y78.755
X54.067 Y78.778
X54.048 Y78.794
X54.024 Y78.796
X54.003 Y78.785
X53.804 Y78.587
X53.782 Y78.558
X53.771 Y78.523
X53.77 Y78.487
X53.987 Y76.988
X53.998 Y76.954
X54.019 Y76.925
X54.049 Y76.905
X54.078 Y76.887
X54.102 Y76.862
X54.117 Y76.832
X54.136 Y76.802
X54.164 Y76.782
X54.199 Y76.775
X54.704 Y76.774
X54.733 Y76.781
X54.755 Y76.8
X54.766 Y76.827
X54.764 Y76.856
X54.749 Y76.881
G3 X54.475 Y77.115 I-1.67 J-1.677
G2 X54.232 Y77.38 I0.536 J0.734
G1 X54.211 Y77.42
X54.195 Y77.461
X54.183 Y77.504
X54.177 Y77.548
G2 X54.172 Y78.273 I4.967 J0.399
G3 X54.195 Y78.997 I-11.083 J0.725
G1 X54.189 Y79.025
X54.17 Y79.047
X54.143 Y79.059
X54.113 Y79.056
X54.089 Y79.041
X53.718 Y78.672
X53.683 Y78.629
X53.66 Y78.58
X53.649 Y78.526
X53.65 Y78.471
X53.875 Y76.913
X53.888 Y76.869
X53.913 Y76.83
X53.947 Y76.8
X53.989 Y76.781
X54.035 Y76.775
X54.199
X54.224 Y76.769
X54.246 Y76.755
X54.26 Y76.733
X54.275 Y76.712
X54.296 Y76.698
X54.322 Y76.692
X55.055
X54.349 Y77.394
X54.342 Y77.403
X54.33 Y77.417
X54.319 Y77.433
X54.308 Y77.45
X54.299 Y77.469
X54.291 Y77.488
X54.285 Y77.508
X54.281 Y77.527
X54.279 Y77.543
X54.278 Y77.556
X54.277 Y77.566
Y79.345
X53.546 Y78.618
Y78.617
X53.588 Y78.327
X53.823 Y76.699
X53.824 Y76.693
X54.322 Y76.692
X54.339 Y76.699
X54.347 Y76.717
X54.341 Y76.734
X54.324 Y76.742
X53.972 Y76.767
X53.955 Y76.761
X53.946 Y76.746
X53.949 Y76.728
X53.964 Y76.718
G3 X54.092 Y77.175 Z-3.797 I0.064 J0.229 F17.
X53.964 Y76.718 Z-3.823 I-0.064 J-0.229
X54.092 Y77.175 Z-3.849 I0.064 J0.229
X53.861 Y76.778 Z-3.871 I-0.064 J-0.229
X54.192 Y77.111 I0.166 J0.166
G1 X54.179 Y77.123 F35.
X54.155 Y77.137
X54.128 Y77.138
X54.103 Y77.126
X54.087 Y77.103
X54.084 Y77.075
X54.087 Y77.051
X54.097 Y77.027
X54.116 Y77.011
X54.141 Y77.005
X54.166
X54.191 Y77.01
X54.21 Y77.027
X54.22 Y77.051
X54.218 Y77.076
X54.205 Y77.098
X54.192 Y77.111
X54.185 Y77.125
X53.966 Y78.49
X53.965 Y78.494
Y78.501
X53.959 Y78.523
X53.941 Y78.537
X53.919 Y78.539
X53.899 Y78.529
X53.891 Y78.521
X53.882 Y78.505
X53.88 Y78.488
X53.887 Y78.436
X53.897 Y78.415
X53.917 Y78.403
X53.94 Y78.405
X53.959 Y78.419
X53.965 Y78.442
Y78.494
X53.972 Y78.527
X53.991 Y78.555
X54.019 Y78.573
X54.047 Y78.592
X54.066 Y78.62
X54.073 Y78.653
X54.074 Y78.755
X54.067 Y78.778
X54.048 Y78.794
X54.024 Y78.796
X54.003 Y78.785
X53.804 Y78.587
X53.782 Y78.558
X53.771 Y78.523
X53.77 Y78.487
X53.987 Y76.988
X53.999 Y76.952
X54.023 Y76.922
X54.056 Y76.903
X54.093 Y76.896
X54.461
X54.484 Y76.903
X54.5 Y76.921
X54.502 Y76.946
X54.49 Y76.967
G3 X54.246 Y77.184 I-2.094 J-2.104
G2 X54.074 Y77.462 I0.303 J0.38
G1 X54.067 Y77.5
X54.063 Y77.539
X54.073 Y78.653
X54.081 Y78.689
X54.102 Y78.72
X54.134 Y78.74
X54.165 Y78.76
X54.186 Y78.791
X54.194 Y78.827
X54.195 Y78.997
X54.189 Y79.025
X54.17 Y79.047
X54.143 Y79.059
X54.113 Y79.056
X54.089 Y79.041
X53.718 Y78.672
X53.683 Y78.629
X53.66 Y78.58
X53.649 Y78.526
X53.65 Y78.471
X53.875 Y76.913
X53.888 Y76.869
X53.913 Y76.83
X53.947 Y76.8
X53.989 Y76.781
X54.035 Y76.775
X54.704 Y76.774
X54.733 Y76.781
X54.755 Y76.8
X54.766 Y76.827
X54.764 Y76.856
X54.749 Y76.881
G3 X54.475 Y77.115 I-1.67 J-1.677
G2 X54.232 Y77.38 I0.536 J0.734
G1 X54.211 Y77.42
X54.195 Y77.461
X54.183 Y77.504
X54.177 Y77.548
G2 X54.172 Y78.273 I4.967 J0.399
G3 X54.194 Y78.827 I-11.083 J0.725
G1 X54.199 Y78.853
X54.214 Y78.874
X54.236 Y78.889
X54.258 Y78.903
X54.272 Y78.925
X54.277 Y78.951
Y79.345
X53.546 Y78.618
Y78.617
X53.588 Y78.327
X53.823 Y76.699
X53.824 Y76.693
X55.055 Y76.692
X54.349 Y77.394
X54.342 Y77.403
X54.33 Y77.417
X54.319 Y77.433
X54.308 Y77.45
X54.299 Y77.469
X54.291 Y77.488
X54.285 Y77.508
X54.281 Y77.527
X54.279 Y77.543
X54.278 Y77.556
X54.277 Y77.566
Y78.951
X54.271 Y78.967
X54.255 Y78.976
X54.238 Y78.971
X54.228 Y78.957
X54.033 Y78.17
X54.035 Y78.154
X54.045 Y78.142
X54.06 Y78.139
G3 X54.017 Y78.612 Z-3.897 I-0.021 J0.237 F17.
X54.06 Y78.139 Z-3.923 I0.021 J-0.237
X54.206 Y78.207 Z-3.929 I-0.021 J0.237
X53.892 Y78.522 I-0.157 J0.158
G1 X53.891 Y78.521 F35.
X53.882 Y78.505
X53.88 Y78.488
X53.887 Y78.436
X53.897 Y78.415
X53.917 Y78.403
X53.94 Y78.405
X53.959 Y78.419
X53.965 Y78.442
Y78.501
X53.959 Y78.523
X53.941 Y78.537
X53.919 Y78.539
X53.899 Y78.529
X53.892 Y78.522
X53.889 Y78.515
X53.891 Y78.508
X53.918 Y78.472
X53.92 Y78.468
X54.125 Y77.11
X54.12 Y77.096
X54.092 Y77.071
X54.086 Y77.058
X54.087 Y77.051
X54.097 Y77.027
X54.116 Y77.011
X54.141 Y77.005
X54.166
X54.191 Y77.01
X54.21 Y77.027
X54.22 Y77.051
X54.218 Y77.076
X54.205 Y77.098
X54.179 Y77.123
X54.155 Y77.137
X54.128 Y77.138
X54.103 Y77.126
X54.087 Y77.103
X54.084 Y77.075
X54.086 Y77.058
X54.085 Y77.029
X54.071 Y77.004
X54.048 Y76.986
X54.03 Y76.969
X54.023 Y76.945
X54.03 Y76.921
X54.049 Y76.905
X54.071 Y76.898
X54.093 Y76.896
X54.461
X54.484 Y76.903
X54.5 Y76.921
X54.502 Y76.946
X54.49 Y76.967
G3 X54.246 Y77.184 I-2.094 J-2.104
G2 X54.074 Y77.462 I0.303 J0.38
G1 X54.067 Y77.5
X54.063 Y77.539
X54.074 Y78.755
X54.067 Y78.778
X54.048 Y78.794
X54.024 Y78.796
X54.003 Y78.785
X53.804 Y78.587
X53.782 Y78.558
X53.771 Y78.523
X53.77 Y78.487
X53.987 Y76.988
X53.998 Y76.954
X54.019 Y76.925
X54.049 Y76.905
X54.078 Y76.887
X54.102 Y76.862
X54.117 Y76.832
X54.136 Y76.802
X54.164 Y76.782
X54.199 Y76.775
