(1001)
(T1  D=1. CR=0. - ZMIN=-0.261 - FLAT END MILL)
G0 G90 G94 G17
G21
G53 G0 Z0.

(C 1MM  FLATEND  MORPHED-SPIRAL)
M5
M9
T1
S12000 M3
G4 P4.
G55
G0 X51.27 Y38.534
Z15.
Z1.835
G1 Z-0.251 F200.
Z-0.261
X50.753
Z-0.251
Z-0.248
X50.76 Z-0.223
X50.778 Y38.533 Z-0.205
X50.803 Y38.532 Z-0.198
X51.438 Y38.503
X51.463 Y38.502 Z-0.205
X51.481 Y38.501 Z-0.223
X51.488 Y38.5 Z-0.248
Z-0.251
X51.487 Z-0.261
X50.536 Y38.501
Z-0.251
G0 Z5.
X51.628 Y38.467
Z1.835
G1 Z-0.251 F200.
Z-0.261
X50.395
Z-0.251
G0 Z5.
X51.757 Y38.433
Z1.835
G1 Z-0.251 F200.
Z-0.261
X50.266 Y38.434
Z-0.251
G0 Z5.
X51.848 Y38.4
Z1.835
G1 Z-0.251 F200.
X51.847 Z-0.261
X50.175
Z-0.251
G0 Z5.
X51.938 Y38.366
Z1.835
G1 Z-0.251 F200.
Z-0.261
X50.084 Y38.367
Z-0.251
G0 Z5.
X52.019 Y38.332
Z1.835
G1 Z-0.251 F200.
X52.018 Z-0.261
X50.004 Y38.333
Z-0.251
G0 Z5.
X52.087 Y38.299
Z1.835
G1 Z-0.251 F200.
Z-0.261
X49.935 Y38.3
Z-0.251
G0 Z5.
X52.156 Y38.265
Z1.835
G1 Z-0.248 F200.
Z-0.251
Z-0.261
X49.866 Y38.266
Z-0.251
G0 Z5.
X52.221 Y38.232
Z1.835
G1 Z-0.246 F200.
Z-0.251
X52.22 Z-0.261
X49.801 Y38.233
Z-0.251
G0 Z5.
X52.276 Y38.198
Z1.835
G1 Z-0.251 F200.
X52.275 Z-0.261
X49.746 Y38.199
Z-0.251
G0 Z5.
X52.33 Y38.164
Z1.835
G1 Z-0.248 F200.
Z-0.251
Z-0.261
X49.692 Y38.165
Z-0.251
G0 Z5.
X52.385 Y38.131
Z1.835
G1 Z-0.246 F200.
Z-0.251
Z-0.261
X49.637 Y38.132
Z-0.251
G0 Z5.
X52.434 Y38.097
Z1.835
G1 Z-0.251 F200.
Z-0.261
X49.587 Y38.098
Z-0.251
G0 Z5.
X52.48 Y38.064
Z1.835
G1 Z-0.24 F200.
X52.479 Z-0.251
X52.477 Z-0.261
X49.543 Y38.065
Z-0.251
G0 Z5.
X52.523 Y38.03
Z1.835
G1 Z-0.251 F200.
Z-0.261
X49.498 Y38.031
Z-0.251
G0 Z5.
X52.568 Y37.996
Z1.835
G1 Z-0.246 F200.
Z-0.251
X52.567 Z-0.261
X49.454 Y37.998
Z-0.251
G0 Z5.
X52.611 Y37.963
Z1.835
G1 Z-0.248 F200.
Z-0.251
X52.61 Z-0.261
X49.41 Y37.964
Z-0.251
G0 Z5.
X52.648 Y37.929
Z1.835
G1 Z-0.251 F200.
X52.647 Z-0.261
X49.374 Y37.931
Z-0.251
G0 Z5.
X52.684 Y37.896
Z1.835
G1 Z-0.246 F200.
Z-0.251
Z-0.261
X49.337 Y37.897
Z-0.251
G0 Z5.
X52.721 Y37.862
Z1.835
G1 Z-0.249 F200.
Z-0.251
X52.72 Z-0.261
X49.301 Y37.863
Z-0.251
G0 Z5.
X52.757 Y37.829
Z1.835
G1 Z-0.251 F200.
Z-0.261
X49.264 Y37.83
Z-0.251
G0 Z5.
X52.792 Y37.795
Z1.835
G1 Z-0.246 F200.
Z-0.251
Z-0.261
X49.229 Y37.796
Z-0.251
G0 Z5.
X52.823 Y37.761
Z1.835
G1 Z-0.241 F200.
X52.822 Z-0.251
X52.821 Z-0.261
X49.199 Y37.763
Z-0.251
G0 Z5.
X52.853 Y37.728
Z1.835
G1 Z-0.246 F200.
X52.852 Z-0.251
Z-0.261
X49.168 Y37.729
Z-0.251
G0 Z5.
X52.883 Y37.694
Z1.835
G1 Z-0.251 F200.
X52.879 Z-0.261
X49.138 Y37.696
Z-0.251
G0 Z5.
X52.913 Y37.661
Z1.835
G1 Z-0.246 F200.
Z-0.251
X52.912 Z-0.261
X49.108 Y37.662
Z-0.251
G0 Z5.
X52.944 Y37.627
Z1.835
G1 Z-0.241 F200.
X52.943 Z-0.251
X52.942 Z-0.261
X49.078 Y37.629
Z-0.251
G0 Z5.
X52.969 Y37.594
Z1.835
G1 Z-0.246 F200.
Z-0.251
X52.968 Z-0.261
X49.052 Y37.595
Z-0.251
G0 Z5.
X52.994 Y37.56
Z1.835
G1 Z-0.251 F200.
X52.993 Z-0.261
X49.027 Y37.561
Z-0.251
G0 Z5.
X53.019 Y37.526
Z1.835
G1 Z-0.24 F200.
X53.018 Z-0.251
X53.016 Z-0.261
X49.002 Y37.528
Z-0.251
G0 Z5.
X53.043 Y37.493
Z1.835
G1 Z-0.248 F200.
Z-0.251
Z-0.261
X48.977 Y37.494
Z-0.251
G0 Z5.
X53.068 Y37.459
Z1.835
G1 Z-0.251 F200.
Z-0.261
X48.952 Y37.461
Z-0.251
G0 Z5.
X53.093 Y37.426
Z1.835
G1 Z-0.248 F200.
Z-0.251
Z-0.261
X48.928 Y37.427
Z-0.251
G0 Z5.
X53.113 Y37.392
Z1.835
G1 Z-0.251 F200.
X53.105 Z-0.261
X48.907 Y37.394
Z-0.251
G0 Z5.
X53.133 Y37.358
Z1.835
G1 Z-0.246 F200.
Z-0.251
Z-0.261
X48.887 Y37.36
Z-0.251
G0 Z5.
X53.153 Y37.325
Z1.835
G1 Z-0.249 F200.
Z-0.251
Z-0.261
X48.867 Y37.327
Z-0.251
G0 Z5.
X53.174 Y37.291
Z1.835
G1 Z-0.246 F200.
Z-0.251
X53.173 Z-0.261
X48.847 Y37.293
Z-0.251
G0 Z5.
X53.194 Y37.258
Z1.835
G1 Z-0.248 F200.
Z-0.251
Z-0.261
X48.827 Y37.259
Z-0.251
G0 Z5.
X53.214 Y37.224
Z1.835
G1 Z-0.25 F200.
Z-0.251
Z-0.261
X48.806 Y37.226
Z-0.251
G0 Z5.
X53.232 Y37.191
Z1.835
G1 Z-0.24 F200.
X53.231 Z-0.251
X53.229 Z-0.261
X48.789 Y37.192
Z-0.251
G0 Z5.
X53.247 Y37.157
Z1.835
G1 Z-0.25 F200.
Z-0.251
Z-0.261
X48.773 Y37.159
Z-0.251
G0 Z5.
X53.263 Y37.123
Z1.835
G1 Z-0.249 F200.
Z-0.251
Z-0.261
X48.757 Y37.125
Z-0.251
G0 Z5.
X53.279 Y37.09
Z1.835
G1 Z-0.248 F200.
Z-0.251
Z-0.261
X48.741 Y37.092
Z-0.251
G0 Z5.
X53.295 Y37.056
Z1.835
G1 Z-0.25 F200.
Z-0.251
Z-0.261
X48.725 Y37.058
Z-0.251
G0 Z5.
X53.311 Y37.023
Z1.835
G1 Z-0.249 F200.
Z-0.251
Z-0.261
X48.709 Y37.024
Z-0.251
G0 Z5.
X53.327 Y36.989
Z1.835
G1 Z-0.246 F200.
Z-0.251
X53.326 Z-0.261
X48.694 Y36.991
Z-0.251
G0 Z5.
X53.339 Y36.956
Z1.835
G1 Z-0.246 F200.
Z-0.251
X53.338 Z-0.261
X48.681 Y36.957
Z-0.251
G0 Z5.
X53.351 Y36.922
Z1.835
G1 Z-0.248 F200.
Z-0.251
Z-0.261
X48.669 Y36.924
Z-0.251
G0 Z5.
X53.363 Y36.888
Z1.835
G1 Z-0.241 F200.
Z-0.251
X53.362 Z-0.261
X48.657 Y36.89
Z-0.251
G0 Z5.
X53.375 Y36.855
Z1.835
G1 Z-0.247 F200.
Z-0.251
Z-0.261
X48.645 Y36.857
Z-0.251
G0 Z5.
X53.388 Y36.821
Z1.835
G1 Z-0.25 F200.
Z-0.251
X53.387 Z-0.261
X48.633 Y36.823
X48.632 Z-0.251
G0 Z5.
X53.4 Y36.788
Z1.835
G1 Z-0.249 F200.
Z-0.251
X53.399 Z-0.261
X48.62 Y36.789
Z-0.251
G0 Z5.
X53.411 Y36.754
Z1.835
G1 Z-0.249 F200.
Z-0.251
Z-0.261
X48.609 Y36.756
Z-0.251
G0 Z5.
X53.42 Y36.721
Z1.835
G1 Z-0.251 F200.
Z-0.261
X48.6 Y36.722
Z-0.251
G0 Z5.
X53.428 Y36.687
Z1.835
G1 Z-0.249 F200.
Z-0.251
Z-0.261
X48.592 Y36.689
Z-0.251
G0 Z5.
X53.437 Y36.653
Z1.835
G1 Z-0.248 F200.
Z-0.251
Z-0.261
X48.583 Y36.655
Z-0.251
G0 Z5.
X53.445 Y36.62
Z1.835
G1 Z-0.25 F200.
Z-0.251
Z-0.261
X48.575 Y36.622
Z-0.251
G0 Z5.
X53.454 Y36.586
Z1.835
G1 Z-0.247 F200.
Z-0.251
Z-0.261
X48.566 Y36.588
Z-0.251
G0 Z5.
X53.463 Y36.553
Z1.835
G1 Z-0.248 F200.
Z-0.251
X53.462 Z-0.261
X48.557 Y36.554
Z-0.251
G0 Z5.
X53.471 Y36.519
Z1.835
G1 Z-0.25 F200.
Z-0.251
Z-0.261
X48.549 Y36.521
Z-0.251
G0 Z5.
X53.476 Y36.486
Z1.835
G1 Z-0.247 F200.
Z-0.251
Z-0.261
X48.543 Y36.487
Z-0.251
G0 Z5.
X53.481 Y36.452
Z1.835
G1 Z-0.246 F200.
Z-0.251
Z-0.261
X48.538 Y36.454
Z-0.251
G0 Z5.
X53.486 Y36.418
Z1.835
G1 Z-0.246 F200.
Z-0.251
Z-0.261
X48.533 Y36.42
Z-0.251
G0 Z5.
X53.492 Y36.385
Z1.835
G1 Z-0.248 F200.
Z-0.251
X53.491 Z-0.261
X48.528 Y36.387
Z-0.251
G0 Z5.
X53.496 Y36.351
Z1.835
G1 Z-0.249 F200.
Z-0.251
Z-0.261
X48.523 Y36.353
Z-0.251
G0 Z5.
X53.502 Y36.318
Z1.835
G1 Z-0.251 F200.
Z-0.261
X48.518 Y36.32
Z-0.251
G0 Z5.
X53.508 Y36.284
Z1.835
G1 Z-0.24 F200.
X53.507 Z-0.251
X53.505 Z-0.261
X48.513 Y36.286
Z-0.251
G0 Z5.
X53.511 Y36.251
Z1.835
G1 Z-0.24 F200.
X53.51 Z-0.251
X53.508 Z-0.261
X48.509 Y36.252
Z-0.251
G0 Z5.
X53.512 Y36.217
Z1.835
G1 Z-0.25 F200.
Z-0.251
Z-0.261
X48.508 Y36.219
Z-0.251
G0 Z5.
X53.515 Y36.184
Z1.835
G1 Z-0.24 F200.
X53.514 Z-0.251
X53.512 Z-0.261
X48.506 Y36.185
Z-0.251
G0 Z5.
X53.515 Y36.15
Z1.835
G1 Z-0.251 F200.
Z-0.261
X48.504 Y36.152
Z-0.251
G0 Z5.
X53.518 Y36.116
Z1.835
G1 Z-0.24 F200.
X53.517 Z-0.251
X53.515 Z-0.261
X48.503 Y36.118
Z-0.251
G0 Z5.
X53.519 Y36.083
Z1.835
G1 Z-0.251 F200.
X53.515 Z-0.261
X48.501 Y36.085
Z-0.251
G0 Z5.
X53.52 Y36.049
Z1.835
G1 Z-0.25 F200.
Z-0.251
Z-0.261
X48.499 Y36.051
Z-0.251
G0 Z5.
X53.522 Y36.016
Z1.835
G1 Z-0.251 F200.
X53.514 Z-0.261
X48.497 Y36.017
Z-0.251
G0 Z5.
X53.521 Y35.982
Z1.835
G1 Z-0.249 F200.
Z-0.251
Z-0.261
X48.498 Y35.984
Z-0.251
G0 Z5.
X53.521 Y35.949
Z1.835
G1 Z-0.24 F200.
X53.52 Z-0.251
X53.518 Z-0.261
X48.5 Y35.95
Z-0.251
G0 Z5.
X53.518 Y35.915
Z1.835
G1 Z-0.247 F200.
Z-0.251
Z-0.261
X48.501 Y35.917
Z-0.251
G0 Z5.
X53.516 Y35.881
Z1.835
G1 Z-0.247 F200.
Z-0.251
Z-0.261
X48.503 Y35.883
Z-0.251
G0 Z5.
X53.515 Y35.848
Z1.835
G1 Z-0.248 F200.
Z-0.251
X53.514 Z-0.261
X48.505 Y35.85
Z-0.251
G0 Z5.
X53.513 Y35.814
Z1.835
G1 Z-0.249 F200.
Z-0.251
Z-0.261
X48.507 Y35.816
Z-0.251
G0 Z5.
X53.511 Y35.781
Z1.835
G1 Z-0.25 F200.
Z-0.251
Z-0.261
X48.508 Y35.782
Z-0.251
G0 Z5.
X53.509 Y35.747
Z1.835
G1 Z-0.248 F200.
Z-0.251
Z-0.261
X48.51 Y35.749
Z-0.251
G0 Z5.
X53.505 Y35.714
Z1.835
G1 Z-0.246 F200.
Z-0.251
X53.504 Z-0.261
X48.515 Y35.715
Z-0.251
G0 Z5.
X53.5 Y35.68
Z1.835
G1 Z-0.248 F200.
Z-0.251
X53.499 Z-0.261
X48.519 Y35.682
Z-0.251
G0 Z5.
X53.495 Y35.646
Z1.835
G1 Z-0.25 F200.
Z-0.251
Z-0.261
X48.525 Y35.648
Z-0.251
G0 Z5.
X53.49 Y35.613
Z1.835
G1 Z-0.248 F200.
Z-0.251
X53.489 Z-0.261
X48.53 Y35.615
Z-0.251
G0 Z5.
X53.484 Y35.579
Z1.835
G1 Z-0.25 F200.
Z-0.251
Z-0.261
X48.535 Y35.581
Z-0.251
G0 Z5.
X53.479 Y35.546
Z1.835
G1 Z-0.249 F200.
Z-0.251
Z-0.261
X48.54 Y35.547
Z-0.251
G0 Z5.
X53.474 Y35.512
Z1.835
G1 Z-0.25 F200.
Z-0.251
Z-0.261
X48.545 Y35.514
Z-0.251
G0 Z5.
X53.468 Y35.479
Z1.835
G1 Z-0.247 F200.
Z-0.251
X53.467 Z-0.261
X48.551 Y35.48
Z-0.251
G0 Z5.
X53.459 Y35.445
Z1.835
G1 Z-0.248 F200.
Z-0.251
Z-0.261
X48.56 Y35.447
Z-0.251
G0 Z5.
X53.451 Y35.412
Z1.835
G1 Z-0.251 F200.
Z-0.261
X48.568 Y35.413
Z-0.251
G0 Z5.
X53.442 Y35.378
Z1.835
G1 Z-0.25 F200.
Z-0.251
Z-0.261
X48.577 Y35.379
Z-0.251
G0 Z5.
X53.434 Y35.344
Z1.835
G1 Z-0.246 F200.
X53.433 Z-0.251
Z-0.261
X48.586 Y35.346
Z-0.251
G0 Z5.
X53.425 Y35.311
Z1.835
G1 Z-0.246 F200.
Z-0.251
X53.424 Z-0.261
X48.594 Y35.312
Z-0.251
G0 Z5.
X53.416 Y35.277
Z1.835
G1 Z-0.249 F200.
Z-0.251
Z-0.261
X48.603 Y35.279
Z-0.251
G0 Z5.
X53.407 Y35.244
Z1.835
G1 Z-0.249 F200.
Z-0.251
Z-0.261
X48.612 Y35.245
Z-0.251
G0 Z5.
X53.395 Y35.21
Z1.835
G1 Z-0.249 F200.
Z-0.251
Z-0.261
X48.624 Y35.212
Z-0.251
G0 Z5.
X53.383 Y35.177
Z1.835
G1 Z-0.251 F200.
Z-0.261
X48.636 Y35.178
Z-0.251
G0 Z5.
X53.371 Y35.143
Z1.835
G1 Z-0.249 F200.
Z-0.251
X53.37 Z-0.261
X48.648 Y35.144
Z-0.251
G0 Z5.
X53.359 Y35.109
Z1.835
G1 Z-0.247 F200.
X53.358 Z-0.251
Z-0.261
X48.661 Y35.111
Z-0.251
G0 Z5.
X53.347 Y35.076
Z1.835
G1 Z-0.24 F200.
X53.346 Z-0.251
X53.344 Z-0.261
X48.673 Y35.077
Z-0.251
G0 Z5.
X53.334 Y35.042
Z1.835
G1 Z-0.248 F200.
Z-0.251
Z-0.261
X48.685 Y35.044
Z-0.251
G0 Z5.
X53.321 Y35.009
Z1.835
G1 Z-0.246 F200.
Z-0.251
Z-0.261
X48.698 Y35.01
Z-0.251
G0 Z5.
X53.305 Y34.975
Z1.835
G1 Z-0.246 F200.
Z-0.251
X53.304 Z-0.261
X48.714 Y34.977
Z-0.251
G0 Z5.
X53.289 Y34.942
Z1.835
G1 Z-0.248 F200.
Z-0.251
Z-0.261
X48.73 Y34.943
Z-0.251
G0 Z5.
X53.273 Y34.908
Z1.835
G1 Z-0.248 F200.
Z-0.251
Z-0.261
X48.746 Y34.909
Z-0.251
G0 Z5.
X53.257 Y34.874
Z1.835
G1 Z-0.249 F200.
Z-0.251
Z-0.261
X48.762 Y34.876
Z-0.251
G0 Z5.
X53.241 Y34.841
Z1.835
G1 Z-0.246 F200.
Z-0.251
X53.24 Z-0.261
X48.778 Y34.842
Z-0.251
G0 Z5.
X53.226 Y34.807
Z1.835
G1 Z-0.24 F200.
X53.225 Z-0.251
X53.223 Z-0.261
X48.794 Y34.809
Z-0.251
G0 Z5.
X53.206 Y34.774
Z1.835
G1 Z-0.246 F200.
Z-0.251
Z-0.261
X48.812 Y34.775
Z-0.251
G0 Z5.
X53.186 Y34.74
Z1.835
G1 Z-0.25 F200.
Z-0.251
Z-0.261
X48.833 Y34.742
Z-0.251
G0 Z5.
X53.166 Y34.707
Z1.835
G1 Z-0.246 F200.
Z-0.251
X53.165 Z-0.261
X48.853 Y34.708
Z-0.251
G0 Z5.
X53.146 Y34.673
Z1.835
G1 Z-0.249 F200.
Z-0.251
X53.145 Z-0.261
X48.873 Y34.674
Z-0.251
G0 Z5.
X53.126 Y34.64
Z1.835
G1 Z-0.247 F200.
X53.125 Z-0.251
Z-0.261
X48.893 Y34.641
Z-0.251
G0 Z5.
X53.105 Y34.606
Z1.835
G1 Z-0.246 F200.
Z-0.251
Z-0.261
X48.913 Y34.607
Z-0.251
G0 Z5.
X53.084 Y34.572
Z1.835
G1 Z-0.247 F200.
X53.083 Z-0.251
Z-0.261
X48.935 Y34.574
Z-0.251
G0 Z5.
X53.059 Y34.539
Z1.835
G1 Z-0.251 F200.
Z-0.261
X48.96 Y34.54
Z-0.251
G0 Z5.
X53.034 Y34.505
Z1.835
G1 Z-0.251 F200.
X53.033 Z-0.261
X48.985 Y34.507
Z-0.251
G0 Z5.
X53.009 Y34.472
Z1.835
G1 Z-0.251 F200.
X53.008 Z-0.261
X49.01 Y34.473
Z-0.251
G0 Z5.
X52.984 Y34.438
Z1.835
G1 Z-0.248 F200.
Z-0.251
X52.983 Z-0.261
X49.035 Y34.439
Z-0.251
G0 Z5.
X52.959 Y34.405
Z1.835
G1 Z-0.246 F200.
Z-0.251
X52.958 Z-0.261
X49.06 Y34.406
Z-0.251
G0 Z5.
X52.931 Y34.371
Z1.835
G1 Z-0.249 F200.
Z-0.251
Z-0.261
X49.087 Y34.372
Z-0.251
G0 Z5.
X52.901 Y34.338
Z1.835
G1 Z-0.249 F200.
Z-0.251
Z-0.261
X49.117 Y34.339
Z-0.251
G0 Z5.
X52.871 Y34.304
Z1.835
G1 Z-0.251 F200.
Z-0.261
X49.148 Y34.305
Z-0.251
G0 Z5.
X52.841 Y34.27
Z1.835
G1 Z-0.251 F200.
Z-0.261
X49.178 Y34.271
Z-0.251
G0 Z5.
X52.811 Y34.237
Z1.835
G1 Z-0.241 F200.
Z-0.251
X52.81 Z-0.261
X49.208 Y34.238
Z-0.251
G0 Z5.
X52.78 Y34.203
Z1.835
G1 Z-0.251 F200.
X52.779 Z-0.261
X49.239 Y34.204
Z-0.251
G0 Z5.
X52.743 Y34.17
Z1.835
G1 Z-0.251 F200.
Z-0.261
X49.276 Y34.171
Z-0.251
G0 Z5.
X52.706 Y34.136
Z1.835
G1 Z-0.248 F200.
Z-0.251
Z-0.261
X49.312 Y34.137
Z-0.251
G0 Z5.
X52.67 Y34.103
Z1.835
G1 Z-0.246 F200.
Z-0.251
X52.669 Z-0.261
X49.349 Y34.104
Z-0.251
G0 Z5.
X52.633 Y34.069
Z1.835
G1 Z-0.251 F200.
Z-0.261
X49.386 Y34.07
Z-0.251
G0 Z5.
X52.596 Y34.036
Z1.835
G1 Z-0.24 F200.
X52.595 Z-0.251
X52.593 Z-0.261
X49.424
Z-0.251
G0 Z5.
X52.551 Y34.002
Z1.835
G1 Z-0.251 F200.
X52.55 Z-0.261
X49.468 Y34.003
Z-0.251
G0 Z5.
X52.506 Y33.968
Z1.835
G1 Z-0.251 F200.
Z-0.261
X49.513 Y33.969
Z-0.251
G0 Z5.
X52.462 Y33.935
Z1.835
G1 Z-0.251 F200.
X52.461 Z-0.261
X49.557 Y33.936
Z-0.251
G0 Z5.
X52.417 Y33.901
Z1.835
G1 Z-0.251 F200.
Z-0.261
X49.602 Y33.902
Z-0.251
G0 Z5.
X52.364 Y33.868
Z1.835
G1 Z-0.251 F200.
Z-0.261
X49.655 Y33.869
Z-0.251
G0 Z5.
X52.31 Y33.834
Z1.835
G1 Z-0.24 F200.
X52.309 Z-0.251
X52.307 Z-0.261
X49.71 Y33.835
Z-0.251
G0 Z5.
X52.255 Y33.801
Z1.835
G1 Z-0.251 F200.
X52.254 Z-0.261
X49.764
Z-0.251
G0 Z5.
X52.199 Y33.767
Z1.835
G1 Z-0.251 F200.
Z-0.261
X49.82 Y33.768
Z-0.251
G0 Z5.
X52.13 Y33.734
Z1.835
G1 Z-0.241 F200.
Z-0.251
X52.129 Z-0.261
X49.889
Z-0.251
G0 Z5.
X52.061 Y33.7
Z1.835
G1 Z-0.249 F200.
Z-0.251
Z-0.261
X49.958 Y33.701
Z-0.251
Z-0.25
X49.965 Y33.7 Z-0.225
X49.983 Z-0.206
X50.008 Z-0.2
X51.942 Y33.667
X51.967 Z-0.206
X51.985 Z-0.225
X51.992 Y33.666 Z-0.25
Z-0.251
Z-0.261
X50.027 Y33.667
Z-0.251
G0 Z5.
X51.904 Y33.633
Z1.835
G1 Z-0.251 F200.
Z-0.261
X50.115
Z-0.251
G0 Z5.
X51.813 Y33.599
Z1.835
G1 Z-0.246 F200.
Z-0.251
Z-0.261
X50.207 Y33.6
Z-0.251
G0 Z5.
X51.709 Y33.566
Z1.835
G1 Z-0.251 F200.
X51.708 Z-0.261
X50.311
Z-0.251
G0 Z5.
X51.58 Y33.532
Z1.835
G1 Z-0.251 F200.
X51.579 Z-0.261
X50.44 Y33.533
Z-0.251
Z-0.25
X50.447 Y33.532 Z-0.225
X50.465 Z-0.207
X50.49 Y33.531 Z-0.2
X51.356 Y33.5
X51.381 Z-0.207
X51.4 Y33.499 Z-0.225
X51.406 Z-0.25
Z-0.251
Z-0.261
X50.614
Z-0.251
G0 Z15.

G53 Z0.
M30
