(1001)
(T1  D=1. CR=0. - ZMIN=-3.128 - FLAT END MILL)
G0 G90 G94 G17
G21
G53 G0 Z0.

(1MM  FLATEND  PARALLEL)
M5
M9
T1
S12000 M3
G4 P4.
G55
G0 X51.016 Y13.04
Z15.
Z1.33
G1 Z-3.128 F200.
X50.945
G0 Z5.
X48.319 Y13.14
Z1.34
G1 Z-3.128 F200.
X53.642
G0 Z5.
X54.725 Y13.24
Z1.343
G1 Z-3.123 F200.
X47.236 Z-3.128
Z-3.123
X47.13 Y13.252
X47.025 Y13.264
X46.603 Y13.312
X46.498 Y13.326
X46.393 Y13.34
Z-3.128
X55.568 Z-3.123
X55.746 Y13.364
X55.836 Y13.377
X56.193 Y13.427
X56.282 Y13.44
X45.679 Z-3.128
Z-3.123
X45.374 Y13.489 Z-3.126
X45.221 Y13.515 Z-3.127
X45.069 Y13.54 Z-3.128
X56.889
X56.892 Z-3.123
X57.032 Y13.563
X57.172 Y13.588
X57.451 Y13.64
X44.508 Z-3.128
Z-3.123
X44.379 Y13.665 Z-3.125
X43.99 Y13.74 Z-3.128
X57.969
X57.972 Z-3.123
X58.089 Y13.765 Z-3.125
X58.324 Y13.815 Z-3.127
X58.441 Y13.84 Z-3.128
X54.157
Z-3.123
G0 Z5.
X55.073 Y13.94
Z1.401
G1 Z-3.123 F200.
Z-3.128
X58.892 Z-3.123
X59.204 Y14.015
X59.307 Y14.04
X59.305 Z-3.128
X55.637
Z-3.123
X55.734 Y14.062
X55.832 Y14.086
X55.929 Y14.112
X56.025 Y14.14
Z-3.128
X59.712 Z-3.123
X59.9 Y14.19
X59.993 Y14.215
X60.087 Y14.24
X56.31 Z-3.128
Z-3.123
X56.419 Y14.287
X56.526 Y14.34
Z-3.128
X60.451
X60.454 Z-3.123
X60.541 Y14.364
X60.627 Y14.389
X60.714 Y14.415
X60.8 Y14.44
X56.694 Z-3.128
Z-3.123
X56.762 Y14.488
X56.828 Y14.54
Z-3.128
X61.136
Z-3.123
X61.3 Y14.589
X61.382 Y14.614
X61.463 Y14.64
X56.936 Z-3.128
Z-3.123
X57.023 Y14.74
Z-3.128
X61.774 Z-3.123
X61.851 Y14.765
X62.08 Y14.84
X62.077 Z-3.128
X57.093
Z-3.123
X57.151 Y14.94
Z-3.128
X62.374 Z-3.123
X62.516 Y14.99
X62.659 Y15.04
X62.656 Z-3.128
X57.195
Z-3.123
X57.228 Y15.14
Z-3.128
X62.937
X62.94 Z-3.123
X63.075 Y15.189
X63.21 Y15.24
X57.253 Z-3.128
Z-3.123
X57.266 Y15.34
X63.474 Z-3.128
X63.604 Y15.39 Z-3.126
X63.735 Y15.44 Z-3.123
X63.732 Z-3.128
X57.275
Z-3.123
X57.278 Y15.54
Z-3.128
X63.986 Z-3.123
X64.109 Y15.59
X64.232 Y15.64
X57.281 Z-3.128
Z-3.123
X57.283 Y15.74
Z-3.128
X64.472
X64.474 Z-3.123
X64.594 Y15.789
X64.712 Y15.84
X57.57 Z-3.128
Z-3.123
X57.781 Y15.888
X57.887 Y15.913
X57.992 Y15.94
Z-3.128
X64.942 Z-3.123
X65.056 Y15.99
X65.169 Y16.04
X65.167 Z-3.128
X58.375 Z-3.123
X58.566 Y16.09
X58.758 Y16.14
X65.393 Z-3.128
X65.396 Z-3.123
X65.504 Y16.19
X65.612 Y16.24
X59.109 Z-3.128
Z-3.123
X59.194 Y16.265
X59.446 Y16.34
Z-3.128
X65.827 Z-3.123
X65.933 Y16.39
X66.039 Y16.44
Z-3.128
X59.783
Z-3.123
X59.861 Y16.464
X59.939 Y16.489
X60.017 Y16.514
X60.095 Y16.54
Z-3.128
X66.249 Z-3.123
X66.349 Y16.59
X66.45 Y16.64
X60.396 Z-3.128
Z-3.123
X60.547 Y16.69
X60.697 Y16.74
Z-3.128
X66.651 Z-3.123
X66.751 Y16.79
X66.85 Y16.84
X66.847 Z-3.128
X60.986
X61.122 Y16.89 Z-3.126
X61.258 Y16.94 Z-3.123
Z-3.128
X67.046 Z-3.123
X67.141 Y16.99
X67.236 Y17.04
X61.53 Z-3.128
Z-3.123
X61.664 Y17.089
X61.798 Y17.14
Z-3.128
X67.424
X67.518 Y17.19 Z-3.126
X67.612 Y17.24 Z-3.123
X67.585 Z-3.128
X62.054 Z-3.123
X62.178 Y17.29
X62.302 Y17.34
Z-3.128
X67.797 Z-3.123
X67.976 Y17.44
X62.55 Z-3.128
Z-3.123
X62.671 Y17.489
X62.792 Y17.54
Z-3.128
X68.154 Z-3.123
X68.243 Y17.59
X68.331 Y17.64
X68.329 Z-3.128
X63.027 Z-3.123
X63.141 Y17.69
X63.255 Y17.74
Z-3.128
X68.508 Z-3.123
X68.676 Y17.84
X63.482 Z-3.128
Z-3.123
X63.594 Y17.889
X63.705 Y17.94
Z-3.128
X68.845 Z-3.123
X68.929 Y17.99
X69.013 Y18.04
X69.01 Z-3.128
X63.924 Z-3.123
X64.029 Y18.09
X64.134 Y18.14
Z-3.128
X69.181 Z-3.123
X69.262 Y18.189
X69.343 Y18.24
X64.345 Z-3.128
Z-3.123
X64.449 Y18.289
X64.553 Y18.34
Z-3.128
X69.502 Z-3.123
X69.582 Y18.39
X69.661 Y18.44
X64.756 Z-3.128
Z-3.123
X64.855 Y18.489
X64.955 Y18.54
X69.808 Z-3.128
X69.82 Z-3.123
X69.899 Y18.59
X69.978 Y18.64
X65.15 Z-3.128
Z-3.123
X65.248 Y18.69
X65.346 Y18.74
Z-3.128
X70.129 Z-3.123
X70.28 Y18.84
X65.536 Z-3.128
Z-3.123
X65.631 Y18.89
X65.726 Y18.94
Z-3.128
X70.431 Z-3.123
X70.582 Y19.04
X70.552 Z-3.128
X65.909
Z-3.123
X66. Y19.09
X66.091 Y19.14
Z-3.128
X70.73 Z-3.123
X70.873 Y19.24
X66.274 Z-3.128
Z-3.123
X66.451 Y19.34
Z-3.128
X71.016 Z-3.123
X71.088 Y19.39
X71.159 Y19.44
X66.628 Z-3.128
Z-3.123
X66.713 Y19.49
X66.799 Y19.54
X71.298 Z-3.128
X71.302 Z-3.123
X71.373 Y19.589
X71.442 Y19.64
X66.97 Z-3.128
Z-3.123
X67.055 Y19.69
X67.141 Y19.74
Z-3.128
X71.578 Z-3.123
X71.646 Y19.79
X71.714 Y19.84
X67.307 Z-3.128
Z-3.123
X67.39 Y19.89
X67.473 Y19.94
Z-3.128
X71.85 Z-3.123
X71.918 Y19.99
X71.986 Y20.04
X67.634 Z-3.128
Z-3.123
X67.795 Y20.14
Z-3.128
X72.12 Z-3.123
X72.185 Y20.19
X72.249 Y20.24
X67.956 Z-3.128
Z-3.123
X68.034 Y20.29
X68.113 Y20.34
Z-3.128
X72.379 Z-3.123
X72.443 Y20.39
X72.508 Y20.44
X68.269 Z-3.128
Z-3.123
X68.346 Y20.49
X68.422 Y20.54
Z-3.128
X72.637 Z-3.123
X72.702 Y20.59
X72.766 Y20.64
X68.573 Z-3.128
Z-3.123
X68.649 Y20.69
X68.725 Y20.74
Z-3.128
X72.889 Z-3.123
X72.951 Y20.79
X73.012 Y20.84
X68.875 Z-3.128
Z-3.123
X69.022 Y20.94
Z-3.128
X73.135 Z-3.123
X73.196 Y20.99
X73.258 Y21.04
X69.169 Z-3.128
Z-3.123
X69.24 Y21.09
X69.312 Y21.14
Z-3.128
X73.381 Z-3.123
X73.441 Y21.189
X73.5 Y21.24
X73.488 Z-3.128
X69.454 Z-3.123
X69.526 Y21.29
X69.597 Y21.34
Z-3.128
X73.617 Z-3.123
X73.734 Y21.44
X69.738 Z-3.128
Z-3.123
X69.807 Y21.49
X69.877 Y21.54
Z-3.128
X73.851 Z-3.123
X73.968 Y21.64
X70.014 Z-3.128
Z-3.123
X70.081 Y21.69
X70.149 Y21.74
Z-3.128
X74.085 Z-3.123
X74.197 Y21.84
X74.194 Z-3.128
X70.284 Z-3.123
X70.352 Y21.89
X70.42 Y21.94
Z-3.128
X74.308 Z-3.123
X74.42 Y22.04
X70.551 Z-3.128
Z-3.123
X70.617 Y22.09
X70.683 Y22.14
Z-3.128
X74.531 Z-3.123
X74.642 Y22.24
X70.812 Z-3.128
Z-3.123
X70.876 Y22.29
X70.94 Y22.34
Z-3.128
X74.752 Z-3.123
X74.859 Y22.44
X74.856 Z-3.128
X71.068 Z-3.123
X71.132 Y22.49
X71.196 Y22.54
Z-3.128
X74.965 Z-3.123
X75.071 Y22.64
X71.321 Z-3.128
Z-3.123
X71.383 Y22.69 Z-3.126
X71.446 Y22.74 Z-3.128
X75.177 Z-3.123
X75.283 Y22.84
X71.567 Z-3.128
Z-3.123
X71.628 Y22.89
X71.688 Y22.94
Z-3.128
X75.387 Z-3.123
X75.489 Y23.04
X75.486 Z-3.128
X71.81 Z-3.123
X71.871 Y23.09
X71.932 Y23.14
Z-3.128
X75.59 Z-3.123
X75.691 Y23.24
X72.05 Z-3.128
Z-3.123
X72.109 Y23.29
X72.168 Y23.34
Z-3.128
X75.792 Z-3.123
X75.893 Y23.44
X72.283 Z-3.128
Z-3.123
X72.399 Y23.54
X75.99 Z-3.128
X75.993 Z-3.123
X76.09 Y23.64
X76.087 Z-3.128
X72.514 Z-3.123
X72.63 Y23.74
Z-3.128
X76.183
X76.186 Z-3.123
X76.283 Y23.84
X72.742 Z-3.128
Z-3.123
X72.854 Y23.94
Z-3.126
X76.379 Z-3.123
X76.475 Y24.04
X72.964 Z-3.128
Z-3.123
X73.074 Y24.14
Z-3.128
X76.571 Z-3.123
X76.663 Y24.24
X76.66 Z-3.128
X73.183
Z-3.123
X73.293 Y24.34
Z-3.128
X76.755 Z-3.123
X76.847 Y24.44
X73.401 Z-3.128
Z-3.123
X73.507 Y24.54
Z-3.128
X76.939 Z-3.123
X77.03 Y24.64
X73.612 Z-3.128
Z-3.123
X73.716 Y24.74
Z-3.128
X77.122 Z-3.123
X77.21 Y24.84
X77.207 Z-3.128
X73.82 Z-3.123
X73.924 Y24.94
X77.295 Z-3.128
X77.298 Z-3.123
X77.386 Y25.04
X74.027 Z-3.128
Z-3.123
X74.128 Y25.14
Z-3.128
X77.473 Z-3.123
X77.561 Y25.24
X74.228 Z-3.128
Z-3.123
X74.327 Y25.34
Z-3.128
X77.648 Z-3.123
X77.734 Y25.44
X77.731 Z-3.128
X74.426 Z-3.123
X74.524 Y25.54
X77.815 Z-3.128
X77.818 Z-3.123
X77.901 Y25.64
X74.623 Z-3.128
Z-3.123
X74.719 Y25.74
Z-3.128
X77.985 Z-3.123
X78.068 Y25.84
X74.814 Z-3.128
Z-3.123
X74.908 Y25.94
Z-3.128
X78.151 Z-3.123
X78.234 Y26.04
X75.002 Z-3.128
Z-3.123
X75.096 Y26.14
X78.312 Z-3.128
X78.315 Z-3.123
X78.394 Y26.24
X78.392 Z-3.128
X75.19
Z-3.123
X75.282 Y26.34
Z-3.128
X78.472
X78.474 Z-3.123
X78.554 Y26.44
X75.372 Z-3.128
Z-3.123
X75.461 Y26.54
Z-3.128
X78.633 Z-3.123
X78.711 Y26.64
X75.551 Z-3.128
Z-3.123
X75.64 Y26.74
Z-3.128
X78.79 Z-3.123
X78.867 Y26.84
X78.864 Z-3.128
X75.729 Z-3.123
X75.817 Y26.94
Z-3.128
X78.942 Z-3.123
X79.018 Y27.04
X79.015 Z-3.128
X75.903 Z-3.123
X75.988 Y27.14
Z-3.128
X79.094 Z-3.123
X79.169 Y27.24
X76.072 Z-3.128
Z-3.123
X76.156 Y27.34
Z-3.128
X79.244 Z-3.123
X79.319 Y27.44
X76.241 Z-3.128
Z-3.123
X76.325 Y27.54
Z-3.128
X79.391 Z-3.123
X79.463 Y27.64
X79.46 Z-3.128
X76.407
X76.487 Y27.74 Z-3.123
Z-3.128
X79.535 Z-3.123
X79.607 Y27.84
X76.567 Z-3.128
Z-3.123
X76.647 Y27.94
Z-3.128
X79.678 Z-3.123
X79.75 Y28.04
X76.727 Z-3.128
Z-3.123
X76.807 Y28.14
Z-3.128
X79.821 Z-3.123
X79.889 Y28.24
X76.884 Z-3.128
Z-3.123
X76.96 Y28.34
X79.955 Z-3.128
X79.958 Z-3.123
X80.027 Y28.44
X80.024 Z-3.128
X77.035 Z-3.123
X77.111 Y28.54
Z-3.128
X80.095 Z-3.123
X80.162 Y28.64
X77.186 Z-3.128
Z-3.123
X77.262 Y28.74
Z-3.128
X80.23 Z-3.123
X80.298 Y28.84
X77.335 Z-3.128
Z-3.123
X77.407 Y28.94
Z-3.128
X80.363 Z-3.123
X80.428 Y29.04
X80.426 Z-3.128
X77.478 Z-3.123
X77.549 Y29.14
X80.491 Z-3.128
X80.494 Z-3.123
X80.558 Y29.24
X77.62 Z-3.128
Z-3.123
X77.691 Y29.34
Z-3.128
X80.623 Z-3.123
X80.687 Y29.44
X77.76 Z-3.128
Z-3.123
X77.827 Y29.54
Z-3.128
X80.751 Z-3.123
X80.814 Y29.64
X77.894 Z-3.128
Z-3.123
X77.96 Y29.74
X80.873 Z-3.128
X80.875 Z-3.123
X80.937 Y29.84
X80.934 Z-3.128
X78.027 Z-3.123
X78.093 Y29.94
Z-3.128
X80.999 Z-3.123
X81.06 Y30.04
X78.159 Z-3.128
Z-3.123
X78.221 Y30.14
Z-3.128
X81.121 Z-3.123
X81.181 Y30.24
X78.283 Z-3.128
Z-3.123
X78.345 Y30.34
X81.235 Z-3.128
X81.241 Z-3.123
X81.3 Y30.44
X81.297 Z-3.128
X78.407 Z-3.123
X78.469 Y30.54
X81.356 Z-3.128
X81.359 Z-3.123
X81.417 Y30.64
X78.53 Z-3.128
Z-3.123
X78.588 Y30.74
Z-3.128
X81.475 Z-3.123
X81.532 Y30.84
X78.645 Z-3.128
Z-3.123
X78.702 Y30.94
Z-3.128
X81.59 Z-3.123
X81.647 Y31.04
X78.759 Z-3.128
Z-3.123
X78.817 Y31.14
X81.7 Z-3.128
X81.703 Z-3.123
X81.759 Y31.24
X81.756 Z-3.128
X78.873
X78.925 Y31.34 Z-3.123
X81.811 Z-3.128
X81.814 Z-3.123
X81.869 Y31.44
X78.978 Z-3.128
Z-3.123
X79.03 Y31.54
Z-3.128
X81.923 Z-3.123
X81.978 Y31.64
X79.083 Z-3.128
Z-3.123
X79.135 Y31.74
Z-3.128
X82.032 Z-3.123
X82.086 Y31.84
X82.083 Z-3.128
X79.185 Z-3.123
X79.233 Y31.94
Z-3.128
X82.138 Z-3.123
X82.19 Y32.04
X82.181 Z-3.128
X79.281 Z-3.123
X79.328 Y32.14
X82.241 Z-3.128
X82.243 Z-3.123
X82.294 Y32.24
X79.376 Z-3.128
Z-3.123
X79.423 Y32.34
Z-3.128
X82.345 Z-3.123
X82.397 Y32.44
X79.461 Z-3.128
Z-3.123
X79.491 Y32.54
Z-3.128
X82.448 Z-3.123
X82.498 Y32.64
X82.495 Z-3.128
X79.507 Z-3.123
X79.514 Y32.74
Z-3.128
X82.544
X82.547 Z-3.123
X82.596 Y32.84
X79.51 Z-3.128
Z-3.123
X79.496 Y32.94
Z-3.128
X82.646 Z-3.123
X82.694 Y33.04
X79.471 Z-3.128
Z-3.123
X79.433 Y33.14
Z-3.128
X82.742 Z-3.123
X82.79 Y33.24
X79.385 Z-3.128
Z-3.123
X79.319 Y33.34
Z-3.128
X82.838 Z-3.123
X82.885 Y33.44
X82.882 Z-3.128
X79.233 Z-3.123
X79.12 Y33.54
Z-3.128
X82.931 Z-3.123
X82.978 Y33.64
X82.975 Z-3.128
X78.958
Z-3.123
X78.867 Y33.69
X78.777 Y33.74
Z-3.128
X83.023
X83.069 Y33.84 Z-3.123
X78.595 Z-3.128
Z-3.123
X78.505 Y33.889
X78.417 Y33.94
Z-3.128
X83.114 Z-3.123
X83.159 Y34.04
X78.243 Z-3.128
Z-3.123
X78.155 Y34.09
X78.068 Y34.14
Z-3.128
X83.205 Z-3.123
X83.248 Y34.24
X83.235 Z-3.128
X77.897
Z-3.123
X77.813 Y34.29
X77.729 Y34.34
Z-3.128
X83.291
Z-3.123
X83.335 Y34.44
X83.33 Z-3.128
X77.562
Z-3.123
X77.479 Y34.489
X77.395 Y34.54
Z-3.128
X83.378 Z-3.123
X83.42 Y34.64
X77.343 Z-3.128
Z-3.123
X77.391 Y34.74
Z-3.128
X83.463 Z-3.123
X83.505 Y34.84
X77.439 Z-3.128
Z-3.123
X77.485 Y34.94
Z-3.128
X83.547 Z-3.123
X83.588 Y35.04
X83.585 Z-3.128
X77.53 Z-3.123
X77.575 Y35.14
X83.625 Z-3.128
X83.628 Z-3.123
X83.669 Y35.24
X83.666 Z-3.128
X77.619 Z-3.123
X77.664 Y35.34
Z-3.128
X83.709 Z-3.123
X83.748 Y35.44
X77.709 Z-3.128
Z-3.123
X77.753 Y35.54
Z-3.128
X83.788 Z-3.123
X83.827 Y35.64
X77.798 Z-3.128
Z-3.123
X77.841 Y35.74
Z-3.128
X83.867 Z-3.123
X83.905 Y35.84
X83.902 Z-3.128
X77.883 Z-3.123
X77.925 Y35.94
X83.939 Z-3.128
X83.942 Z-3.123
X83.98 Y36.04
X83.977 Z-3.128
X77.967 Z-3.123
X78.009 Y36.14
X84.014 Z-3.128
X84.018 Z-3.123
X84.054 Y36.24
X78.051 Z-3.128
Z-3.123
X78.093 Y36.34
Z-3.128
X84.091 Z-3.123
X84.128 Y36.44
X78.134 Z-3.128
Z-3.123
X78.174 Y36.54
Z-3.128
X84.164 Z-3.123
X84.2 Y36.64
X84.197 Z-3.128
X78.215
X78.254 Y36.74 Z-3.123
X84.231 Z-3.128
X84.234 Z-3.123
X84.269 Y36.84
X84.266 Z-3.128
X78.294 Z-3.123
X78.333 Y36.94
Z-3.128
X84.304 Z-3.123
X84.338 Y37.04
X78.373 Z-3.128
Z-3.123
X78.412 Y37.14
Z-3.128
X84.372 Z-3.123
X84.406 Y37.24
X78.451 Z-3.128
Z-3.123
X78.489 Y37.34
Z-3.128
X84.44 Z-3.123
X84.473 Y37.44
X78.527 Z-3.128
Z-3.123
X78.565 Y37.54
X84.503 Z-3.128
X84.505 Z-3.123
X84.537 Y37.64
X78.602 Z-3.128
Z-3.123
X78.64 Y37.74
X84.567 Z-3.128
X84.569 Z-3.123
X84.601 Y37.84
X78.677 Z-3.128
Z-3.123
X78.714 Y37.94
Z-3.128
X84.633 Z-3.123
X84.664 Y38.04
X78.751 Z-3.128
Z-3.123
X78.787 Y38.14
Z-3.128
X84.695 Z-3.123
X84.725 Y38.24 Z-3.128
X78.824 Z-3.123
X78.86 Y38.34
Z-3.128
X84.755 Z-3.123
X84.784 Y38.44
X84.782 Z-3.128
X78.895 Z-3.123
X78.93 Y38.54
Z-3.128
X84.814 Z-3.123
X84.843 Y38.64 Z-3.128
X78.966 Z-3.123
X79.001 Y38.74
Z-3.128
X84.872 Z-3.123
X84.901 Y38.84
X79.036 Z-3.128
Z-3.123
X79.07 Y38.94
Z-3.128
X84.929 Z-3.123
X84.958 Y39.04
X79.105 Z-3.128
Z-3.123
X79.139 Y39.14
Z-3.128
X84.982
X84.985 Z-3.123
X85.011 Y39.24
X79.173 Z-3.128
Z-3.123
X79.207 Y39.34
Z-3.128
X85.038 Z-3.123
X85.065 Y39.44
X85.062 Z-3.128
X79.24 Z-3.123
X79.274 Y39.54
Z-3.128
X85.091 Z-3.123
X85.117 Y39.64
X79.307 Z-3.128
Z-3.123
X79.34 Y39.74
Z-3.128
X85.143 Z-3.123
X85.169 Y39.84
X79.373 Z-3.128
Z-3.123
X79.406 Y39.94 Z-3.128
X85.19
X85.194 Z-3.123
X85.218 Y40.04
X85.215 Z-3.128
X79.438 Z-3.123
X79.47 Y40.14
Z-3.128
X85.242 Z-3.123
X85.267 Y40.24
X85.264 Z-3.128
X79.502 Z-3.124
Z-3.123
X79.534 Y40.34
Z-3.128
X85.291 Z-3.123
X85.314 Y40.44
X79.566 Z-3.128
Z-3.123
X79.597 Y40.54
Z-3.128
X85.338 Z-3.123
X85.361 Y40.64
X79.628 Z-3.128
Z-3.123
X79.659 Y40.74
X85.384 Z-3.128
X85.405 Y40.84
X79.69
Z-3.123
X79.721 Y40.94
Z-3.128
X85.427 Z-3.123
X85.449 Y41.04
X85.446 Z-3.128
X79.752
Z-3.123
X79.782 Y41.14
Z-3.128
X85.47 Z-3.123
X85.492 Y41.24
X79.812 Z-3.128
Z-3.123
X79.842 Y41.34
Z-3.128
X85.513 Z-3.123
X85.533 Y41.44
X79.872 Z-3.128
Z-3.123
X79.901 Y41.54
Z-3.128
X85.554 Z-3.123
X85.574 Y41.64
X79.931 Z-3.128
Z-3.123
X79.96 Y41.74
X85.59 Z-3.128
X85.593 Z-3.123
X85.612 Y41.84
X85.592 Z-3.128
X79.989 Z-3.123
X80.018 Y41.94
X85.628 Z-3.128
X85.631 Z-3.123
X85.65 Y42.04
X80.047 Z-3.128
Z-3.123
X80.076 Y42.14
Z-3.128
X85.669 Z-3.123
X85.687 Y42.24
X80.104 Z-3.128
Z-3.123
X80.132 Y42.34
Z-3.128
X85.705 Z-3.123
X85.723 Y42.44
X80.16 Z-3.128
Z-3.123
X80.188 Y42.54
X85.737 Z-3.128
X85.74 Z-3.123
X85.756 Y42.64
X85.754 Z-3.128
X80.216 Z-3.123
X80.243 Y42.74
X85.77 Z-3.128
X85.773 Z-3.123
X85.789 Y42.84
X80.271 Z-3.128
Z-3.123
X80.298 Y42.94
Z-3.128
X85.806 Z-3.123
X85.822 Y43.04
X80.325 Z-3.128
Z-3.123
X80.351 Y43.14
Z-3.128
X85.837 Z-3.123
X85.853 Y43.24
X80.378 Z-3.128
Z-3.123
X80.404 Y43.34
Z-3.128
X85.869 Z-3.123
X85.882 Y43.44
X85.88 Z-3.128
X80.43 Z-3.123
X80.456 Y43.54
X85.893 Z-3.128
X85.896 Z-3.123
X85.91 Y43.64
X85.907 Z-3.128
X80.482
Z-3.123
X80.508 Y43.74
X85.922 Z-3.128
X85.924 Z-3.123
X85.938 Y43.84
X80.533 Z-3.128
Z-3.123
X80.558 Y43.94
Z-3.128
X85.951 Z-3.123
X85.964 Y44.04
X80.582 Z-3.128
Z-3.123
X80.607 Y44.14
Z-3.128
X85.978 Z-3.123
X85.99 Y44.24
X80.631 Z-3.128
Z-3.123
X80.654 Y44.34
Z-3.128
X85.999
X86.002 Z-3.123
X86.013 Y44.44
X86.01 Z-3.128
X80.677
Z-3.123
X80.701 Y44.54
Z-3.128
X86.024 Z-3.123
X86.036 Y44.64
X80.724 Z-3.128
Z-3.123
X80.747 Y44.74
Z-3.128
X86.047 Z-3.123
X86.058 Y44.84
X80.771 Z-3.128
Z-3.123
X80.794 Y44.94
Z-3.128
X86.068 Z-3.123
X86.079 Y45.04
X80.817 Z-3.128
Z-3.123
X80.84 Y45.14
Z-3.128
X86.086
X86.089 Z-3.123
X86.098 Y45.24
X86.095 Z-3.128
X80.864
Z-3.123
X80.887 Y45.34
Z-3.128
X86.107 Z-3.123
X86.115 Y45.44
X86.113 Z-3.128
X80.91
Z-3.123
X80.921 Y45.54
Z-3.128
X86.122
X86.124 Z-3.123
X86.133 Y45.64
X80.915 Z-3.128
Z-3.123
X80.892 Y45.74
Z-3.128
X86.141 Z-3.123
X86.15 Y45.84
X80.849 Z-3.128
Z-3.123
X80.781 Y45.94
Z-3.128
X86.158 Z-3.123
G0 Z5.
X76.241 Y42.64
Z0.03
G1 Z-3.123 F200.
X76.014 Z-3.128
Z-3.123
X75.975 Y42.74
Z-3.128
X76.351 Z-3.123
X76.46 Y42.84
X75.935 Z-3.128
Z-3.123
X75.895 Y42.94
Z-3.128
X76.57 Z-3.123
X76.679 Y43.04
X75.855 Z-3.128
Z-3.123
X75.816 Y43.14
Z-3.128
X76.789 Z-3.123
X76.898 Y43.24
X75.776 Z-3.128
Z-3.123
X75.736 Y43.34
Z-3.128
X77.007 Z-3.123
X77.117 Y43.44
X75.697 Z-3.128
Z-3.123
X75.657 Y43.54
Z-3.128
X77.226 Z-3.123
X77.336 Y43.64
X75.617 Z-3.128
Z-3.123
X75.578 Y43.74
Z-3.128
X77.445 Z-3.123
X77.555 Y43.84
X75.538 Z-3.128
Z-3.123
X75.498 Y43.94
Z-3.128
X77.664 Z-3.123
X77.773 Y44.04
X75.459 Z-3.128
Z-3.123
X75.419 Y44.14
Z-3.128
X77.883 Z-3.123
X77.992 Y44.24
X75.379 Z-3.128
Z-3.123
X75.34 Y44.34
Z-3.128
X78.102 Z-3.123
X78.211 Y44.44
X75.3 Z-3.128
Z-3.123
X75.26 Y44.54
Z-3.128
X78.321 Z-3.123
X78.43 Y44.64
X75.221 Z-3.128
Z-3.123
X75.181 Y44.74
Z-3.128
X78.54 Z-3.123
X78.649 Y44.84
X75.141 Z-3.128
Z-3.123
X75.102 Y44.94
Z-3.128
X78.758 Z-3.123
X78.868 Y45.04
X75.062 Z-3.128
Z-3.123
X75.022 Y45.14
Z-3.128
X78.977 Z-3.123
X79.087 Y45.24
X74.983 Z-3.128
Z-3.123
X74.943 Y45.34
Z-3.128
X79.196 Z-3.123
X79.306 Y45.44
X74.903 Z-3.128
Z-3.123
X74.864 Y45.54
Z-3.128
X79.415 Z-3.123
X79.525 Y45.64
X74.824 Z-3.128
Z-3.123
X74.784 Y45.74
Z-3.128
X79.634 Z-3.123
X79.743 Y45.84
X74.745 Z-3.128
Z-3.123
X74.705 Y45.94
Z-3.128
X79.853 Z-3.123
X79.968 Y46.04
X79.965 Z-3.128
X74.665
Z-3.123
G0 Z5.
X80.674
Z0.03
G1 Z-3.123 F200.
Z-3.128
X86.162
X86.165 Z-3.123
X86.171 Y46.14
X86.049 Z-3.128
X80.454
Z-3.123
X80.321 Y46.155
X80.188 Y46.14
X74.626 Z-3.128
Z-3.123
X74.586 Y46.24
Z-3.128
X86.178 Z-3.123
X86.184 Y46.34
X74.546 Z-3.128
Z-3.123
X74.507 Y46.44
Z-3.128
X86.187
X86.19 Z-3.123
X86.196 Y46.54
X74.467 Z-3.128
Z-3.123
X74.427 Y46.64
Z-3.128
X86.202 Z-3.123
X86.208 Y46.74
X74.388 Z-3.128
Z-3.123
X74.348 Y46.84
Z-3.128
X86.214 Z-3.123
X86.219 Y46.94
X86.214 Z-3.128
X74.309 Z-3.123
X74.269 Y47.04
X86.219 Z-3.128
X86.223 Z-3.123
X86.226 Y47.14
X74.229 Z-3.128
Z-3.123
X74.187 Y47.24
Z-3.128
X86.227
X86.23 Z-3.123
X86.234 Y47.34
X74.123 Z-3.128
Z-3.123
X74.023 Y47.44
Z-3.128
X86.238 Z-3.123
X86.241 Y47.54
X73.834 Z-3.128
Z-3.123
X73.739 Y47.562
X73.639 Y47.568
X73.535 Y47.556
X73.456 Y47.64
Z-3.128
X86.245 Z-3.123
X86.248 Y47.74
X73.473 Z-3.128
Z-3.123
X73.49 Y47.84
X86.245 Z-3.128
X86.25 Z-3.123
X86.251 Y47.94
X86.248 Z-3.128
X73.506 Z-3.123
X73.523 Y48.04
Z-3.128
X86.253 Z-3.123
X86.254 Y48.14
X86.251 Z-3.128
X73.539
Z-3.123
X73.554 Y48.24
Z-3.128
X86.255 Z-3.123
X86.256 Y48.34
X73.568 Z-3.128
Z-3.123
X73.583 Y48.44
Z-3.128
X86.258 Z-3.123
X86.259 Y48.54
X73.598 Z-3.128
Z-3.123
X73.613 Y48.64
Z-3.128
X86.26 Z-3.123
X86.259 Y48.74
X73.628 Z-3.128
Z-3.123
X73.641 Y48.84
Z-3.128
X86.258 Z-3.123
X86.257 Y48.94
X73.655 Z-3.128
Z-3.123
X73.668 Y49.04
Z-3.128
X86.255 Z-3.123
X86.254 Y49.14
X73.68 Z-3.128
Z-3.123
X73.693 Y49.24
Z-3.128
X86.253 Z-3.123
X86.252 Y49.34
X86.249 Z-3.128
X73.706 Z-3.123
X73.718 Y49.44
X86.246 Z-3.128
X86.251 Z-3.123
X86.249 Y49.54
X86.244 Z-3.128
X73.73 Z-3.123
X73.741 Y49.64
Z-3.128
X86.246 Z-3.123
X86.242 Y49.74
X73.753 Z-3.128
Z-3.123
X73.763 Y49.84
Z-3.128
X86.239 Z-3.123
X86.235 Y49.939
X73.774 Z-3.128
Z-3.123
X73.785 Y50.039
Z-3.128
X86.231 Z-3.123
X86.228 Y50.139
X73.795 Z-3.128
Z-3.123
X73.804 Y50.239
X86.221 Z-3.128
X86.224 Z-3.123
X86.22 Y50.339
X86.216 Z-3.128
X73.814 Z-3.123
X73.823 Y50.439
X86.213 Z-3.128
X86.216 Z-3.123
X86.211 Y50.539
X73.833 Z-3.128
Z-3.123
X73.842 Y50.639
Z-3.128
X86.205 Z-3.123
X86.199 Y50.739
X73.85 Z-3.128
Z-3.123
X73.858 Y50.839
Z-3.128
X86.193 Z-3.123
X86.186 Y50.939
X86.183 Z-3.128
X73.865
Z-3.123
X73.873 Y51.039
X86.177 Z-3.128
X86.18 Z-3.123
X86.174 Y51.139
X86.171 Z-3.128
X73.881 Z-3.123
X73.888 Y51.239
X86.165 Z-3.128
X86.167 Z-3.123
X86.161 Y51.339
X73.896 Z-3.128
Z-3.123
X73.903 Y51.439
Z-3.128
X86.153 Z-3.123
X86.144 Y51.539
X73.908 Z-3.128
Z-3.123
X73.914 Y51.639
Z-3.128
X86.136 Z-3.123
X86.128 Y51.739
X73.92 Z-3.128
Z-3.123
X73.926 Y51.839
Z-3.128
X86.119 Z-3.123
X86.11 Y51.939
X86.107 Z-3.128
X73.932 Z-3.123
X73.937 Y52.039
Z-3.128
X86.101 Z-3.123
X86.092 Y52.139
X86.089 Z-3.128
X73.942 Z-3.123
X73.947 Y52.239
Z-3.128
X86.083 Z-3.123
X86.072 Y52.339
X73.951 Z-3.128
Z-3.123
X73.955 Y52.439
Z-3.128
X86.062 Z-3.123
X86.051 Y52.539
X73.959 Z-3.128
Z-3.123
X73.963 Y52.639
Z-3.128
X86.04 Z-3.123
X86.028 Y52.739
X86.026 Z-3.128
X73.966 Z-3.123
X73.969 Y52.839
X86.014 Z-3.128
X86.017 Z-3.123
X86.006 Y52.939
X86.003 Z-3.128
X73.971 Z-3.123
X73.974 Y53.039
Z-3.128
X85.994 Z-3.123
X85.982 Y53.139
X73.977 Z-3.128
Z-3.123
X73.979 Y53.239
Z-3.128
X85.969 Z-3.123
X85.956 Y53.339
X73.981 Z-3.128
Z-3.123
X73.982 Y53.439
Z-3.128
X85.943 Z-3.123
X85.929 Y53.539
X73.983 Z-3.128
Z-3.123
X73.984 Y53.639
Z-3.128
X85.915 Z-3.123
X85.901 Y53.739
X85.898 Z-3.128
X73.984
Z-3.123
X73.985 Y53.839
Z-3.128
X85.885
X85.888 Z-3.123
X85.874 Y53.939
X85.871 Z-3.128
X73.986
Z-3.123
X73.987 Y54.039
Z-3.128
X85.859 Z-3.123
X85.843 Y54.139
X73.987 Z-3.128
Z-3.123
Y54.239
Z-3.128
X85.827 Z-3.123
X85.811 Y54.339
X73.987 Z-3.128
Z-3.123
Y54.439
Z-3.128
X85.795
X85.779 Y54.539 Z-3.123
X85.776 Z-3.128
X73.987
Z-3.123
Y54.639
Z-3.128
X85.762 Z-3.123
X85.746 Y54.739
X73.987 Z-3.128
Z-3.123
Y54.839
Z-3.128
X85.73 Z-3.123
X85.712 Y54.939
X73.987 Z-3.128
Z-3.123
Y55.039
Z-3.128
X85.693 Z-3.123
X85.675 Y55.139
X73.987 Z-3.128
Z-3.123
Y55.239
Z-3.128
X85.657 Z-3.123
X85.638 Y55.339
X85.633 Z-3.128
X73.987
Z-3.123
Y55.439
Z-3.128
X85.616
X85.619 Z-3.123
X85.6 Y55.539
X85.597 Z-3.128
X73.987
Z-3.123
Y55.639
Z-3.128
X85.581
X85.562 Y55.739 Z-3.123
X73.987 Z-3.128
Z-3.123
Y55.839
Z-3.128
X85.541 Z-3.123
X85.52 Y55.939
X73.987 Z-3.128
Z-3.123
Y56.039
Z-3.128
X85.499 Z-3.123
X85.478 Y56.139
X73.987 Z-3.128
Z-3.123
Y56.239
Z-3.128
X85.457 Z-3.123
X85.435 Y56.339
X85.432 Z-3.128
X73.987
Z-3.123
Y56.439
Z-3.128
X85.411
X85.414 Z-3.123
X85.392 Y56.539
X85.389 Z-3.128
X73.987
Z-3.123
Y56.639
Z-3.128
X85.369 Z-3.123
X85.346 Y56.739
X73.987 Z-3.128
Z-3.123
Y56.839
Z-3.128
X85.323 Z-3.123
X85.299 Y56.939
X73.987 Z-3.128
Z-3.123
Y57.039
Z-3.128
X85.275 Z-3.123
X85.251 Y57.139
X85.248 Z-3.128
X73.987
Z-3.123
Y57.239
Z-3.128
X85.224
X85.227 Z-3.123
X85.203 Y57.339
X85.2 Z-3.128
X73.987
Z-3.123
Y57.439
Z-3.128
X85.179 Z-3.123
X85.153 Y57.539
X73.987 Z-3.128
Z-3.123
Y57.639
Z-3.128
X85.127 Z-3.123
X85.101 Y57.739
X73.987 Z-3.128
Z-3.123
Y57.839
Z-3.128
X85.075 Z-3.123
X85.048 Y57.939
X73.987 Z-3.128
Z-3.123
Y58.039
Z-3.128
X85.018
X85.021 Z-3.123
X84.994 Y58.139
X84.988 Z-3.128
X73.987
Z-3.123
Y58.239
Z-3.128
X84.965
X84.968 Z-3.123
X84.94 Y58.339
X73.987 Z-3.128
Z-3.123
Y58.439
Z-3.128
X84.911 Z-3.123
X84.882 Y58.539
X73.987 Z-3.128
Z-3.123
Y58.639
Z-3.128
X84.854 Z-3.123
X84.825 Y58.739
X84.822 Z-3.128
X73.987
Z-3.123
Y58.839
Z-3.128
X84.792
X84.795 Z-3.123
X84.766 Y58.939
X84.763 Z-3.128
X73.987
Z-3.123
Y59.039
Z-3.128
X84.733
X84.736 Z-3.123
X84.706 Y59.139
X73.987 Z-3.128
Z-3.123
Y59.239
Z-3.128
X84.675 Z-3.123
X84.644 Y59.339
X73.987 Z-3.128
Z-3.123
Y59.439
Z-3.128
X84.613 Z-3.123
X84.581 Y59.539
X73.987 Z-3.128
Z-3.123
Y59.639
Z-3.128
X84.546
X84.549 Z-3.123
X84.517 Y59.739
X84.514 Z-3.128
X73.987
Z-3.123
Y59.839
Z-3.128
X84.482
X84.485 Z-3.123
X84.453 Y59.939
X73.987 Z-3.128
Z-3.123
Y60.039
Z-3.128
X84.419 Z-3.123
X84.385 Y60.139
X73.987 Z-3.128
Z-3.123
Y60.239
Z-3.128
X84.351 Z-3.123
X84.317 Y60.339
X73.987 Z-3.128
Z-3.123
Y60.439
Z-3.128
X84.279
X84.282 Z-3.123
X84.247 Y60.539
X84.244 Z-3.128
X73.987
Z-3.123
Y60.639
Z-3.128
X84.212 Z-3.123
X84.177 Y60.739
X73.987 Z-3.128
Z-3.123
Y60.839
Z-3.128
X84.141 Z-3.123
X84.104 Y60.939
X73.987 Z-3.128
Z-3.123
Y61.039
Z-3.128
X84.068 Z-3.123
X84.031 Y61.139
X73.987 Z-3.128
Z-3.123
Y61.239
Z-3.128
X83.991
X83.994 Z-3.123
X83.956 Y61.339
X83.953 Z-3.128
X73.987
Z-3.123
Y61.439
Z-3.128
X83.918 Z-3.123
X83.881 Y61.539
X83.876 Z-3.128
X73.987
Z-3.123
Y61.639
Z-3.128
X83.842 Z-3.123
X83.802 Y61.739
X73.987 Z-3.128
Z-3.123
Y61.839
Z-3.128
X83.763 Z-3.123
X83.723 Y61.939
X73.987 Z-3.128
Z-3.123
Y62.039
Z-3.128
X83.681
X83.683 Z-3.123
X83.643 Y62.139
X83.64 Z-3.128
X73.987
Z-3.123
Y62.239
Z-3.128
X83.6
X83.603 Z-3.123
X83.562 Y62.339
X73.987 Z-3.128
Z-3.123
Y62.439
Z-3.128
X83.521 Z-3.123
X83.478 Y62.539
X73.987 Z-3.128
Z-3.123
Y62.639
Z-3.128
X83.436 Z-3.123
X83.393 Y62.739
X73.987 Z-3.128
Z-3.123
Y62.839
Z-3.128
X83.35 Z-3.123
X83.307 Y62.939
X83.304 Z-3.128
X73.987
Z-3.123
Y63.039
Z-3.128
X83.251
X83.264 Z-3.123
X83.221 Y63.139
X73.987 Z-3.128
Z-3.123
Y63.239
Z-3.128
X83.176 Z-3.123
X83.131 Y63.339
X73.987 Z-3.128
Z-3.123
Y63.439
Z-3.128
X83.086 Z-3.123
X83.04 Y63.539
X73.987 Z-3.128
Z-3.123
Y63.639
Z-3.128
X82.995 Z-3.123
X82.948 Y63.739
X82.945 Z-3.128
X73.987
Z-3.123
Y63.839
Z-3.128
X82.899
X82.902 Z-3.123
X82.856 Y63.939
X73.987 Z-3.128
Z-3.123
Y64.039
Z-3.128
X82.808 Z-3.123
X82.76 Y64.139
X73.987 Z-3.128
Z-3.123
Y64.239
Z-3.128
X82.712 Z-3.123
X82.663 Y64.339
X73.987 Z-3.128
Z-3.123
Y64.439
Z-3.128
X82.613
X82.615 Z-3.123
X82.565 Y64.539
X82.562 Z-3.128
X73.987
Z-3.123
Y64.639
Z-3.128
X82.513
X82.516 Z-3.123
X82.467 Y64.739
X82.464 Z-3.128
X73.987
Z-3.123
Y64.839
Z-3.128
X82.416 Z-3.123
X82.364 Y64.939
X73.987 Z-3.128
Z-3.123
Y65.039
Z-3.128
X82.313 Z-3.123
X82.262 Y65.139
X73.987 Z-3.128
Z-3.123
Y65.239
Z-3.128
X82.207
X82.21 Z-3.123
X82.157 Y65.339
X82.154 Z-3.128
X73.987
Z-3.123
Y65.439
Z-3.128
X82.102
X82.105 Z-3.123
X82.052 Y65.539
X73.987 Z-3.128
Z-3.123
Y65.639
Z-3.128
X81.998 Z-3.123
X81.943 Y65.739
X73.987 Z-3.128
Z-3.123
Y65.839
Z-3.128
X81.889 Z-3.123
X81.834 Y65.939 Z-3.128
X73.987
Z-3.123
Y66.039
Z-3.128
X81.779 Z-3.123
X81.724 Y66.139
X81.721 Z-3.128
X73.987
Z-3.123
Y66.239
Z-3.128
X81.665
X81.668 Z-3.123
X81.611 Y66.339
X73.987 Z-3.128
Z-3.123
Y66.439
Z-3.128
X81.554 Z-3.123
X81.496 Y66.539
X73.987 Z-3.128
Z-3.123
Y66.639
Z-3.128
X81.438 Z-3.123
X81.38 Y66.739
X81.377 Z-3.128
X73.987
Z-3.123
Y66.839
Z-3.128
X81.319
X81.322 Z-3.123
X81.263 Y66.939
X73.987 Z-3.128
Z-3.123
Y67.039
Z-3.128
X81.204 Z-3.123
X81.143 Y67.139
X73.987 Z-3.128
Z-3.123
Y67.239
Z-3.128
X81.082 Z-3.123
X81.021 Y67.339
X73.987 Z-3.128
Z-3.123
Y67.439
Z-3.128
X80.96 Z-3.123
X80.898 Y67.539
X80.895 Z-3.128
X73.987
Z-3.123
Y67.639
Z-3.128
X80.833
X80.836 Z-3.123
X80.774 Y67.739
X73.987 Z-3.128
Z-3.123
Y67.839
Z-3.128
X80.711 Z-3.123
X80.646 Y67.939
X73.987 Z-3.128
Z-3.123
Y68.039
Z-3.128
X80.582 Z-3.123
X80.518 Y68.139
X73.987 Z-3.128
Z-3.123
Y68.239
Z-3.128
X80.45
X80.452 Z-3.123
X80.387 Y68.339
X80.384 Z-3.128
X73.987
Z-3.123
Y68.439
Z-3.128
X80.32
X80.322 Z-3.123
X80.255 Y68.539
X73.987 Z-3.128
Z-3.123
Y68.639
Z-3.128
X80.188 Z-3.123
X80.12 Y68.739
X73.987 Z-3.128
Z-3.123
Y68.839
Z-3.128
X80.052 Z-3.123
X79.983 Y68.939
X73.987 Z-3.128
Z-3.123
X73.983 Y69.039
Z-3.128
X79.915 Z-3.123
X79.846 Y69.139
X73.963 Z-3.128
Z-3.123
X73.924 Y69.239
Z-3.128
X79.776 Z-3.123
X79.705 Y69.339
X73.861 Z-3.128
Z-3.123
X73.763 Y69.439
Z-3.128
X79.633 Z-3.123
X79.562 Y69.539
X73.582 Z-3.128
Z-3.123
G0 Z5.
X79.49 Y69.639
Z0.919
G1 Z-3.123 F200.
X62.75 Z-3.128
Z-3.123
X62.743 Y69.739
Z-3.128
X79.413
X79.418 Z-3.123
X79.345 Y69.839
X79.342 Z-3.128
X62.735
Z-3.123
X62.728 Y69.939
Z-3.128
X79.272 Z-3.123
X79.197 Y70.039
X62.72 Z-3.128
Z-3.123
X62.713 Y70.139
Z-3.128
X79.121 Z-3.123
X79.046 Y70.239
X62.706 Z-3.128
Z-3.123
X62.698 Y70.339
Z-3.128
X78.967
X78.97 Z-3.123
X78.894 Y70.439
X78.891 Z-3.128
X62.691
Z-3.123
X62.683 Y70.539
Z-3.128
X78.816
X78.818 Z-3.123
X78.741 Y70.639
X62.676 Z-3.128
Z-3.123
X62.668 Y70.739
Z-3.128
X78.662 Z-3.123
X78.583 Y70.839
X62.661 Z-3.128
Z-3.123
X62.653 Y70.939
Z-3.128
X78.503 Z-3.123
X78.424 Y71.039
X78.422 Z-3.128
X62.646
Z-3.123
X62.639 Y71.139
Z-3.128
X78.344 Z-3.123
X78.264 Y71.239
X78.261 Z-3.128
X62.631
Z-3.123
X62.624 Y71.339
Z-3.128
X78.182 Z-3.123
X78.099 Y71.439
X62.616 Z-3.128
Z-3.123
X62.609 Y71.539
Z-3.128
X78.016 Z-3.123
X77.932 Y71.639
X62.601 Z-3.128
Z-3.123
X62.594 Y71.739
Z-3.128
X77.846
X77.849 Z-3.123
X77.765 Y71.839
X62.587 Z-3.128
Z-3.123
X62.579 Y71.939
Z-3.128
X77.68 Z-3.123
X77.593 Y72.039
X62.572 Z-3.128
Z-3.123
X62.564 Y72.139
Z-3.128
X77.506 Z-3.123
X77.418 Y72.239
X62.557 Z-3.128
Z-3.123
X62.55 Y72.339
Z-3.128
X77.33 Z-3.123
X77.243 Y72.439
X77.24 Z-3.128
X62.542
Z-3.123
X62.535 Y72.539
Z-3.128
X77.152
X77.155 Z-3.123
X77.064 Y72.639
X62.527 Z-3.128
Z-3.123
X62.52 Y72.739
Z-3.128
X76.972 Z-3.123
X76.881 Y72.839
X62.512 Z-3.128
Z-3.123
X62.505 Y72.939
Z-3.128
X76.789 Z-3.123
X76.697 Y73.039
X76.692 Z-3.128
X62.497
Z-3.123
X62.49 Y73.139
Z-3.128
X76.605 Z-3.123
X76.511 Y73.239
X62.483 Z-3.128
Z-3.123
X62.475 Y73.339
Z-3.128
X76.414 Z-3.123
X76.318 Y73.439
X62.468 Z-3.128
Z-3.123
X62.46 Y73.539
Z-3.128
X76.222 Z-3.123
X76.125 Y73.639
X62.447 Z-3.128
Z-3.123
X62.415 Y73.739
Z-3.128
X76.025
X76.028 Z-3.123
X75.931 Y73.839
X62.362 Z-3.128
Z-3.123
X62.28 Y73.939
Z-3.128
X75.83 Z-3.123
X75.729 Y74.039
X62.181 Z-3.128
Z-3.123
X62.082 Y74.139
Z-3.128
X75.627 Z-3.123
X75.526 Y74.239
X61.983 Z-3.128
Z-3.123
X61.883 Y74.339
Z-3.128
X75.422
X75.425 Z-3.123
X75.323 Y74.439
X61.784 Z-3.128
Z-3.123
X61.685 Y74.539
Z-3.128
X75.217 Z-3.123
X75.11 Y74.639
X61.638 Z-3.128
Z-3.123
X61.624 Y74.739
Z-3.128
X75.004 Z-3.123
X74.898 Y74.839
X61.609 Z-3.128
Z-3.123
X61.595 Y74.939
X74.785 Z-3.128
X74.791 Z-3.123
X74.684 Y75.039
X61.581 Z-3.128
Z-3.123
X61.566 Y75.139
Z-3.128
X74.572 Z-3.123
X74.461 Y75.239
X61.552 Z-3.128
Z-3.123
X61.537 Y75.339
Z-3.128
X74.349 Z-3.123
X74.238 Y75.439
X61.523 Z-3.128
Z-3.123
X61.509 Y75.539
Z-3.128
X74.126 Z-3.123
X74.012 Y75.639
X61.494 Z-3.128
Z-3.123
X61.48 Y75.739
Z-3.128
X73.895 Z-3.123
X73.777 Y75.839
X61.465 Z-3.128
Z-3.123
X61.451 Y75.939
Z-3.128
X73.66 Z-3.123
X73.543 Y76.039
X61.437 Z-3.128
Z-3.123
X61.422 Y76.139
Z-3.128
X73.425 Z-3.123
X73.365 Y76.189
X73.303 Y76.239
X61.407 Z-3.128
Z-3.123
X61.492 Y76.339
Z-3.128
X73.18 Z-3.123
X73.119 Y76.389
X73.057 Y76.439
X61.593 Z-3.128
Z-3.123
X61.693 Y76.539
Z-3.128
X72.934 Z-3.123
X72.872 Y76.589
X72.811 Y76.639
X61.794 Z-3.128
Z-3.123
X61.894 Y76.739
Z-3.128
X72.685 Z-3.123
X72.556 Y76.839
X72.553 Z-3.128
X61.995
Z-3.123
X62.095 Y76.939
Z-3.128
X72.426 Z-3.123
X72.297 Y77.039
X62.196 Z-3.128
Z-3.123
X62.297 Y77.139
Z-3.128
X72.167 Z-3.123
X72.102 Y77.189
X72.036 Y77.239
X72.033 Z-3.128
X62.379
Z-3.123
X62.432 Y77.339
Z-3.128
X71.899
X71.9 Z-3.123
X71.832 Y77.389
X71.765 Y77.439
X62.463 Z-3.128
Z-3.123
X62.477 Y77.539
Z-3.128
X71.628 Z-3.123
X71.56 Y77.589
X71.492 Y77.639
X62.478 Z-3.128
Z-3.123
Y77.739
Z-3.128
X71.35
X71.355 Z-3.123
X71.212 Y77.839
X71.209 Z-3.128
X62.478
Z-3.123
Y77.939
Z-3.128
X71.069
X70.997 Y77.989 Z-3.126
X70.925 Y78.039 Z-3.123
X62.478 Z-3.128
Z-3.123
Y78.139
Z-3.128
X70.782 Z-3.123
X70.709 Y78.189
X70.637 Y78.239
X62.478 Z-3.128
Z-3.123
Y78.339
Z-3.128
X70.483
X70.486 Z-3.123
X70.411 Y78.389
X70.336 Y78.439
X62.478 Z-3.128
Z-3.123
Y78.539
Z-3.128
X70.184 Z-3.123
X70.109 Y78.589
X70.033 Y78.639
X62.478 Z-3.128
Z-3.123
Y78.739
Z-3.128
X69.878
Z-3.123
X69.72 Y78.839
X62.478 Z-3.128
Z-3.123
Y78.939
Z-3.128
X69.561 Z-3.123
X69.481 Y78.989
X69.401 Y79.039
X62.478 Z-3.128
Z-3.123
Y79.139
Z-3.128
X69.241 Z-3.123
X69.158 Y79.189
X69.075 Y79.239
X69.072 Z-3.128
X62.478
Z-3.123
Y79.339
Z-3.128
X68.907 Z-3.123
X68.823 Y79.389
X68.738 Y79.439
X62.478 Z-3.128
Z-3.123
Y79.539
Z-3.128
X68.569 Z-3.123
X68.483 Y79.59
X68.396 Y79.639
X68.383 Z-3.128
X62.478
Z-3.123
Y79.739
Z-3.128
X68.216
X68.219 Z-3.123
X68.13 Y79.789
X68.041 Y79.839
X62.478 Z-3.128
Z-3.123
Y79.939
Z-3.128
X67.862 Z-3.123
X67.772 Y79.989
X67.681 Y80.039
X67.678 Z-3.128
X62.478
Z-3.123
Y80.139
Z-3.128
X67.491
X67.494 Z-3.123
X67.399 Y80.189
X67.305 Y80.239
X62.478 Z-3.128
Z-3.123
Y80.339
Z-3.128
X67.115 Z-3.123
X67.019 Y80.389
X66.923 Y80.439
X62.478 Z-3.128
Z-3.123
Y80.539
Z-3.128
X66.721
X66.724 Z-3.123
X66.624 Y80.589
X66.524 Y80.639
X62.478 Z-3.128
Z-3.123
Y80.739
Z-3.128
X66.322 Z-3.123
X66.22 Y80.79
X66.117 Y80.839
X66.115 Z-3.128
X62.473
Z-3.123
X62.453 Y80.939
Z-3.128
X65.901
X65.904 Z-3.123
X65.798 Y80.989
X65.69 Y81.039
X62.413 Z-3.128
Z-3.123
X62.349 Y81.139
Z-3.128
X65.475 Z-3.123
X65.364 Y81.19
X65.252 Y81.239
X65.13 Z-3.128
X62.249
Z-3.123
X62.16 Y81.297
X62.062 Y81.339
Z-3.128
X65.02
X65.026 Z-3.123
X64.911 Y81.389
X64.796 Y81.439
X55.154 Z-3.128
X55.132 Z-3.123
X55.11 Z-3.118
X55.085 Y81.446
X55.067 Y81.464
X55.06 Y81.489
X55.067 Y81.514
X55.085 Y81.532
X55.11 Y81.539
X55.132 Z-3.123
X55.154 Z-3.128
X64.446
X64.563 Z-3.123
X64.321 Y81.639
X64.318 Z-3.128
X55.154
X55.132 Z-3.123
X55.11 Z-3.118
X55.085 Y81.646
X55.067 Y81.664
X55.06 Y81.689
X55.067 Y81.714
X55.085 Y81.732
X55.11 Y81.739
X55.132 Z-3.123
X55.154 Z-3.128
X64.076 Z-3.123
X63.952 Y81.789
X63.829 Y81.839
X55.154 Z-3.128
X55.132 Z-3.123
X55.11 Z-3.118
X55.085 Y81.846
X55.067 Y81.864
X55.06 Y81.889
X55.067 Y81.914
X55.085 Y81.932
X55.11 Y81.939
X55.132 Z-3.123
X55.154 Z-3.128
X63.566
X63.569 Z-3.123
X63.438 Y81.989
X63.307 Y82.039
X55.154 Z-3.128
X55.132 Z-3.123
X55.11 Z-3.118
X55.085 Y82.046
X55.067 Y82.064
X55.06 Y82.089
X55.067 Y82.114
X55.085 Y82.132
X55.11 Y82.139
X55.132 Z-3.123
X55.154 Z-3.128
X63.041 Z-3.123
X62.902 Y82.189
X62.762 Y82.239
X61.567 Z-3.128
X55.154
X55.132 Z-3.123
X55.11 Z-3.118
X55.085 Y82.246
X55.067 Y82.264
X55.06 Y82.289
X55.067 Y82.314
X55.085 Y82.332
X55.11 Y82.339
X55.132 Z-3.123
X55.154 Z-3.128
X62.478 Z-3.123
X62.335 Y82.389
X62.191 Y82.439
X55.154 Z-3.128
X55.132 Z-3.123
X55.11 Z-3.118
X55.085 Y82.446
X55.067 Y82.464
X55.06 Y82.489
X55.067 Y82.514
X55.085 Y82.532
X55.11 Y82.539
X55.132 Z-3.123
X55.154 Z-3.128
X61.883
X61.886 Z-3.123
X61.809 Y82.564
X61.732 Y82.589
X61.577 Y82.639
X55.154 Z-3.128
X55.132 Z-3.123
X55.11 Z-3.118
X55.085 Y82.646
X55.067 Y82.664
X55.06 Y82.689
X55.067 Y82.714
X55.085 Y82.732
X55.11 Y82.739
X55.132 Z-3.123
X55.154 Z-3.128
X61.258
X61.175 Y82.764 Z-3.127
X61.008 Y82.814 Z-3.125
X60.925 Y82.839 Z-3.123
X55.154 Z-3.128
X55.132 Z-3.123
X55.11 Z-3.118
X55.109
X55.084 Y82.846
X55.065 Y82.864
X55.059 Y82.889
X55.065 Y82.914
X55.084 Y82.932
X55.109 Y82.939
X55.131 Z-3.123
X55.153 Z-3.128
X60.584 Z-3.123
X60.494 Y82.965
X60.222 Y83.039
X60.219 Z-3.128
X55.139
X55.117 Z-3.123
X55.095 Z-3.118
X55.058
X55.033 Y83.046
X55.015 Y83.064
X55.008 Y83.089
X55.015 Y83.114
X55.033 Y83.132
X55.058 Y83.139
X55.08 Z-3.123
X55.102 Z-3.128
X59.85 Z-3.123
X59.751 Y83.165
X59.653 Y83.19
X59.456 Y83.239
Z-3.128
X55.037
X55.015 Z-3.123
X54.993 Z-3.118
X54.883
X54.858 Y83.246
X54.84 Y83.264
X54.833 Y83.289
X54.84 Y83.314
X54.858 Y83.332
X54.883 Y83.339
X54.905 Z-3.123
X54.927 Z-3.128
X59.045 Z-3.123
G0 Z5.
X68.447 Y34.84
Z0.977
G1 Z-3.123 F200.
X68.492 Z-3.128
X68.569 Y34.94 Z-3.123
X68.512 Z-3.128
Z-3.123
X68.578 Y35.04
Z-3.128
X68.646 Z-3.123
X68.721 Y35.14
X68.718 Z-3.128
X68.642 Z-3.123
X68.706 Y35.24
Z-3.128
X68.792 Z-3.123
X68.862 Y35.34
X68.768 Z-3.128
Z-3.123
X68.831 Y35.44
Z-3.128
X68.933 Z-3.123
X69.002 Y35.54
X68.997 Z-3.128
X68.893 Z-3.123
X68.956 Y35.64
Z-3.128
X69.064
X69.067 Z-3.123
X69.132 Y35.74 Z-3.128
X69.017 Z-3.123
X69.078 Y35.84
Z-3.128
X69.197 Z-3.123
X69.262 Y35.94
X69.137 Z-3.128
Z-3.123
X69.197 Y36.04
X69.319 Z-3.128
X69.322 Z-3.123
X69.382 Y36.14
X69.257 Z-3.128
Z-3.123
X69.316 Y36.24
Z-3.128
X69.443 Z-3.123
X69.503 Y36.34
X69.375 Z-3.128
Z-3.123
X69.432 Y36.44
Z-3.128
X69.561 Z-3.123
X69.617 Y36.54
X69.49 Z-3.128
Z-3.123
X69.547 Y36.64
Z-3.128
X69.673 Z-3.123
X69.729 Y36.74
X69.726 Z-3.128
X69.604 Z-3.123
X69.66 Y36.84
Z-3.128
X69.784 Z-3.123
X69.837 Y36.94
X69.716 Z-3.128
Z-3.123
X69.771 Y37.04
Z-3.128
X69.89 Z-3.123
X69.942 Y37.14
X69.939 Z-3.128
X69.825 Z-3.123
X69.88 Y37.24
X69.994 Z-3.128
X70.045 Y37.34 Z-3.123
X69.934 Z-3.128
Z-3.123
X69.988 Y37.44
Z-3.128
X70.095 Z-3.123
X70.144 Y37.54
X70.141 Z-3.128
X70.041 Z-3.123
X70.093 Y37.64
X70.191 Z-3.128
X70.193 Z-3.123
X70.242 Y37.74
X70.145 Z-3.128
Z-3.123
X70.197 Y37.84
Z-3.128
X70.289 Z-3.123
X70.336 Y37.94
X70.249 Z-3.128
Z-3.123
X70.3 Y38.04
X70.381 Z-3.128
X70.383 Z-3.123
X70.429 Y38.14
X70.427 Z-3.128
X70.351 Z-3.123
X70.4 Y38.24
Z-3.128
X70.473 Z-3.123
X70.516 Y38.34
X70.45 Z-3.128
Z-3.123
X70.499 Y38.44
Z-3.128
X70.56 Z-3.123
X70.603 Y38.54
X70.549 Z-3.128
Z-3.123
X70.597 Y38.64
Z-3.128
X70.646 Z-3.123
X70.69 Y38.74
X70.645 Z-3.128
Z-3.123
X70.692 Y38.84
Z-3.128
X70.733 Z-3.123
G0 Z5.
X58.793 Y24.84
Z0.919
G1 Z-3.12 F200.
X58.792 Z-3.123
X58.789 Z-3.128
X58.681 Z-3.123
X58.752 Y24.89
X58.823 Y24.94
Z-3.128
X59.046 Z-3.123
G0 Z5.
X58.962 Y25.04
Z0.982
G1 Z-3.123 F200.
Z-3.128
X59.292
X59.414 Y25.089 Z-3.126
X59.536 Y25.14 Z-3.123
X59.1 Z-3.128
Z-3.123
X59.169 Y25.19
X59.238 Y25.24
Z-3.128
X59.768
X59.771 Z-3.123
X60.002 Y25.34
X59.373 Z-3.128
Z-3.123
X59.441 Y25.39
X59.508 Y25.44
Z-3.128
X60.227 Z-3.123
X60.337 Y25.49
X60.447 Y25.54
X60.444 Z-3.128
X59.642
Z-3.123
X59.708 Y25.59
X59.774 Y25.64
Z-3.128
X60.664 Z-3.123
X60.77 Y25.69 Z-3.126
X60.875 Y25.74 Z-3.128
X59.905 Z-3.123
X59.971 Y25.79
X60.036 Y25.84
X61.078 Z-3.128
X61.082 Z-3.123
X61.184 Y25.889
X61.285 Y25.94
X60.165 Z-3.128
Z-3.123
X60.229 Y25.99
X60.292 Y26.04
X61.481 Z-3.128
X61.484 Z-3.123
X61.582 Y26.09
X61.68 Y26.14
X60.42 Z-3.128
Z-3.123
X60.483 Y26.19
X60.547 Y26.24
Z-3.128
X61.871 Z-3.123
X61.965 Y26.289
X62.059 Y26.34
X62.056 Z-3.128
X60.671 Z-3.123
X60.733 Y26.39
X60.795 Y26.44
Z-3.128
X62.244 Z-3.123
X62.335 Y26.49
X62.426 Y26.54
X60.918 Z-3.128
Z-3.123
X60.979 Y26.59
X61.04 Y26.64
Z-3.128
X62.604 Z-3.123
X62.691 Y26.69
X62.779 Y26.74
X61.16 Z-3.128
Z-3.123
X61.221 Y26.79
X61.281 Y26.84
Z-3.128
X62.951 Z-3.123
X63.036 Y26.89
X63.12 Y26.94
X61.4 Z-3.128
Z-3.123
X61.518 Y27.04
Z-3.128
X63.287 Z-3.123
X63.451 Y27.14
X61.635 Z-3.128
Z-3.123
X61.752 Y27.24
Z-3.128
X63.612 Z-3.123
X63.771 Y27.34
X61.867 Z-3.128
Z-3.123
X61.981 Y27.44
Z-3.128
X63.927 Z-3.123
X64.004 Y27.49
X64.081 Y27.54
X62.095 Z-3.127
Z-3.123
X62.207 Y27.64
Z-3.128
X64.232 Z-3.123
X64.307 Y27.69
X64.381 Y27.74
X62.319 Z-3.128
Z-3.123
X62.43 Y27.84
Z-3.128
X64.528 Z-3.123
X64.673 Y27.94
X62.54 Z-3.128
Z-3.123
X62.649 Y28.04
Z-3.128
X64.815 Z-3.123
X64.886 Y28.09
X64.956 Y28.14
X64.941 Z-3.128
X62.758 Z-3.123
X62.865 Y28.24
Z-3.128
X65.094 Z-3.123
X65.163 Y28.29
X65.231 Y28.34
X62.971 Z-3.128
Z-3.123
X63.077 Y28.44
Z-3.128
X65.366 Z-3.123
X65.432 Y28.49
X65.499 Y28.54
X63.183 Z-3.128
Z-3.123
X63.287 Y28.64
Z-3.128
X65.629 Z-3.123
X65.694 Y28.69
X65.758 Y28.74
X63.39 Z-3.128
Z-3.123
X63.493 Y28.84
Z-3.128
X65.886 Z-3.123
X65.949 Y28.89
X66.012 Y28.94
X63.595 Z-3.128
Z-3.123
X63.697 Y29.04
Z-3.128
X66.135 Z-3.123
X66.197 Y29.09
X66.258 Y29.14
X63.796 Z-3.128
Z-3.123
X63.896 Y29.24
Z-3.128
X66.378 Z-3.123
X66.438 Y29.29
X66.497 Y29.34
X63.995 Z-3.128
Z-3.123
X64.094 Y29.44
Z-3.128
X66.615 Z-3.123
X66.731 Y29.54
X64.191 Z-3.128
Z-3.123
X64.287 Y29.64
Z-3.128
X66.845 Z-3.123
X66.958 Y29.74
X64.383 Z-3.128
Z-3.123
X64.479 Y29.84
Z-3.128
X67.069 Z-3.123
X67.179 Y29.94
X64.574 Z-3.128
Z-3.123
X64.667 Y30.04
Z-3.128
X67.287 Z-3.123
X67.395 Y30.14
X67.39 Z-3.128
X64.76 Z-3.123
X64.853 Y30.24
Z-3.128
X67.501 Z-3.123
X67.605 Y30.34
X64.946 Z-3.128
Z-3.123
X65.036 Y30.44
Z-3.128
X67.709 Z-3.123
X67.81 Y30.54
X65.126 Z-3.128
Z-3.123
X65.216 Y30.64
Z-3.128
X67.911 Z-3.123
X68.01 Y30.74
X65.307 Z-3.128
X65.395 Y30.84 Z-3.123
X68.106 Z-3.128
X68.108 Z-3.123
X68.205 Y30.94
X65.482 Z-3.128
Z-3.123
X65.569 Y31.04
Z-3.128
X68.301 Z-3.123
X68.396 Y31.14
X65.656 Z-3.128
Z-3.123
X65.743 Y31.24
Z-3.128
X68.489 Z-3.123
X68.581 Y31.34
X65.828 Z-3.128
Z-3.123
X65.912 Y31.44
X68.669 Z-3.128
X68.672 Z-3.123
X68.762 Y31.54
X65.996 Z-3.128
Z-3.123
X66.08 Y31.64
Z-3.128
X68.85 Z-3.123
G0 Z5.
X68.8 Y31.74
Z0.919
G1 Z-3.123 F200.
X66.163 Z-3.128
Z-3.123
X66.245 Y31.84
X68.676 Z-3.128
X68.679 Z-3.123
X68.56 Y31.94
X66.326 Z-3.128
Z-3.123
X66.407 Y32.04
Z-3.128
X68.442 Z-3.123
X68.326 Y32.14
X66.488 Z-3.128
Z-3.123
X66.568 Y32.24
Z-3.128
X68.21 Z-3.123
X68.096 Y32.34
X66.647 Z-3.128
Z-3.123
X66.726 Y32.44
Z-3.128
X67.985 Z-3.123
X67.875 Y32.54
X66.804 Z-3.128
Z-3.123
X66.882 Y32.64
Z-3.128
X67.771 Z-3.123
X67.682 Y32.74
X67.676 Z-3.128
X66.958 Z-3.123
X67.035 Y32.84
Z-3.128
X67.612 Z-3.123
X67.558 Y32.94
X67.555 Z-3.128
X67.111 Z-3.123
X67.185 Y33.04
Z-3.128
X67.518 Z-3.123
X67.491 Y33.14
X67.485 Z-3.128
X67.261
Z-3.123
X67.334 Y33.24
X67.475 Z-3.128
X67.476 Z-3.123
X67.472 Y33.34
X67.408 Z-3.128
Z-3.123
G0 Z5.
X43.281 Y24.84
Z0.979
G1 Z-3.123 F200.
X43.169 Z-3.127
Z-3.123
G0 Z5.
X43.14 Y24.94
Z0.979
G1 Z-3.123 F200.
X42.915 Z-3.128
Z-3.123
G0 Z5.
X43. Y25.04
Z0.98
G1 Z-3.123 F200.
X42.668 Z-3.125
Z-3.123
X42.547 Y25.089
X42.425 Y25.14
Z-3.128
X42.862 Z-3.123
X42.793 Y25.19
X42.725 Y25.24
X42.19 Z-3.127
Z-3.123
X41.959 Y25.34
Z-3.128
X42.588 Z-3.123
X42.521 Y25.39
X42.453 Y25.44
X41.733 Z-3.128
Z-3.123
X41.623 Y25.49
X41.514 Y25.54
Z-3.126
X42.32 Z-3.123
X42.254 Y25.59
X42.188 Y25.64
X41.297 Z-3.128
Z-3.123
X41.191 Y25.69
X41.085 Y25.74
Z-3.128
X42.056 Z-3.123
X41.991 Y25.79
X41.926 Y25.84
X40.878 Z-3.128
Z-3.123
X40.777 Y25.889
X40.675 Y25.94
Z-3.128
X41.797 Z-3.123
X41.733 Y25.99
X41.668 Y26.04
X40.476 Z-3.127
Z-3.123
X40.378 Y26.09
X40.28 Y26.14
Z-3.128
X41.542 Z-3.123
X41.479 Y26.19
X41.416 Y26.24
X40.089 Z-3.128
Z-3.123
X39.995 Y26.289
X39.901 Y26.34
Z-3.127
X41.291 Z-3.123
X41.229 Y26.39
X41.166 Y26.44
X39.716 Z-3.128
Z-3.123
X39.625 Y26.49
X39.535 Y26.54
Z-3.128
X41.044 Z-3.123
X40.983 Y26.59
X40.923 Y26.64
X39.357 Z-3.128
Z-3.123
X39.269 Y26.69
X39.181 Y26.74
Z-3.128
X40.801 Z-3.123
X40.741 Y26.79
X40.681 Y26.84
X39.009 Z-3.128
Z-3.123
X38.924 Y26.89
X38.84 Y26.94
Z-3.128
X40.563 Z-3.123
X40.445 Y27.04
X38.673 Z-3.128
Z-3.123
X38.591 Y27.09
X38.509 Y27.14
Z-3.128
X40.327 Z-3.123
X40.21 Y27.24
X38.348 Z-3.128
Z-3.123
X38.189 Y27.34
Z-3.128
X40.096 Z-3.123
X39.982 Y27.44
X38.033 Z-3.128
Z-3.123
X37.956 Y27.49
X37.879 Y27.54
Z-3.128
X39.867 Z-3.123
X39.754 Y27.64
X37.728 Z-3.128
Z-3.123
X37.653 Y27.69
X37.579 Y27.74
Z-3.128
X39.644 Z-3.123
X39.532 Y27.84
X37.432 Z-3.128
Z-3.123
X37.359 Y27.89
X37.287 Y27.94
Z-3.128
X39.422 Z-3.123
X39.313 Y28.04
X37.145 Z-3.128
Z-3.123
X37.074 Y28.09
X37.004 Y28.14
Z-3.128
X39.205 Z-3.123
X39.097 Y28.24
X36.866 Z-3.128
Z-3.123
X36.797 Y28.29
X36.729 Y28.34
Z-3.128
X38.99 Z-3.123
X38.884 Y28.44
X36.594 Z-3.128
Z-3.123
X36.527 Y28.489
X36.461 Y28.54
Z-3.128
X38.779 Z-3.123
X38.675 Y28.64
X36.331 Z-3.128
Z-3.123
X36.202 Y28.74
Z-3.128
X38.571 Z-3.123
X38.468 Y28.84
X36.074 Z-3.128
Z-3.123
X36.011 Y28.89
X35.949 Y28.94
Z-3.128
X38.366 Z-3.123
X38.265 Y29.04
X35.825 Z-3.128
Z-3.123
X35.702 Y29.14
Z-3.128
X38.165 Z-3.123
X38.065 Y29.24
X35.582 Z-3.128
Z-3.123
X35.522 Y29.29
X35.463 Y29.34
Z-3.128
X37.966 Z-3.123
X37.868 Y29.44
X35.345 Z-3.128
Z-3.123
X35.229 Y29.54
Z-3.128
X37.771 Z-3.123
X37.674 Y29.64
X35.116 Z-3.128
Z-3.123
X35.003 Y29.74
Z-3.128
X37.578 Z-3.123
X37.482 Y29.84
X34.891 Z-3.128
Z-3.123
X34.781 Y29.94
Z-3.128
X37.388 Z-3.123
X37.295 Y30.04
X34.673 Z-3.128
Z-3.123
X34.565 Y30.14
Z-3.128
X37.201 Z-3.123
X37.108 Y30.24
X34.46 Z-3.128
Z-3.123
X34.355 Y30.34
Z-3.128
X37.016 Z-3.123
X36.926 Y30.44
X34.252 Z-3.128
Z-3.123
X34.15 Y30.54
Z-3.128
X36.835 Z-3.123
X36.745 Y30.64
X34.05 Z-3.128
Z-3.123
X33.95 Y30.74
Z-3.128
X36.655 Z-3.123
X36.567 Y30.84
X33.852 Z-3.128
Z-3.123
X33.756 Y30.94
Z-3.128
X36.48 Z-3.123
X36.393 Y31.04
X33.66 Z-3.128
Z-3.123
X33.565 Y31.14
Z-3.126
X36.306 Z-3.123
X36.219 Y31.24
X33.472 Z-3.128
Z-3.123
X33.38 Y31.34
Z-3.128
X36.134 Z-3.123
X36.05 Y31.44
X33.289 Z-3.128
Z-3.123
X33.199 Y31.54
Z-3.128
X35.966 Z-3.123
X35.882 Y31.64
X33.111 Z-3.128
Z-3.123
X33.114 Y31.646 Z-3.096
X33.123 Y31.665 Z-3.075
X33.135 Y31.69 Z-3.068
X33.147 Y31.715 Z-3.075
X33.156 Y31.733 Z-3.096
X33.159 Y31.74 Z-3.123
Z-3.128
X35.799 Z-3.123
X35.717 Y31.84
X33.279 Z-3.128
Z-3.123
X33.339 Y31.89
X33.398 Y31.94
Z-3.128
X35.636 Z-3.123
X35.555 Y32.04
X33.515 Z-3.128
Z-3.123
X33.631 Y32.14
X35.47 Z-3.128
X35.473 Z-3.123
X35.394 Y32.24
X33.746 Z-3.128
Z-3.123
X33.859 Y32.34
Z-3.128
X35.315 Z-3.123
X35.237 Y32.44
X33.972 Z-3.128
Z-3.123
X34.084 Y32.54
Z-3.128
X35.158 Z-3.123
X35.08 Y32.64
X34.198 Z-3.128
Z-3.123
X34.29 Y32.74
Z-3.128
X35.003 Z-3.123
X34.927 Y32.84
X34.356 Z-3.128
Z-3.123
X34.406 Y32.94
Z-3.128
X34.852 Z-3.123
X34.776 Y33.04
X34.439 Z-3.128
Z-3.123
X34.463 Y33.14
Z-3.128
X34.701 Z-3.123
X34.627 Y33.24
X34.474 Z-3.128
Z-3.123
X34.477 Y33.34
Z-3.128
X34.553 Z-3.123
G0 Z5.
X33.448 Y34.94
Z0.972
G1 Z-3.123 F200.
X33.392 Z-3.127
Z-3.123
X33.316 Y35.04
Z-3.128
X33.384 Z-3.123
X33.32 Y35.14
X33.241 Z-3.128
Z-3.123
X33.17 Y35.24
Z-3.128
X33.255
X33.193 Y35.34 Z-3.123
X33.099 Z-3.128
Z-3.123
X33.029 Y35.44
Z-3.128
X33.13 Z-3.123
X33.068 Y35.54
X32.961 Z-3.128
X32.895 Y35.64 Z-3.123
Z-3.128
X33.006 Z-3.123
X32.945 Y35.74
X32.83 Z-3.128
Z-3.123
X32.765 Y35.84
Z-3.128
X32.883 Z-3.123
X32.823 Y35.94
X32.701 Z-3.128
Z-3.123
X32.64 Y36.04 Z-3.128
X32.763 Z-3.123
X32.705 Y36.14
X32.58 Z-3.127
Z-3.123
X32.519 Y36.24
Z-3.127
X32.646 Z-3.123
X32.587 Y36.34
X32.46 Z-3.128
Z-3.123
X32.402 Y36.44
Z-3.128
X32.529 Z-3.123
X32.471 Y36.54
X32.345 Z-3.127
Z-3.123
X32.289 Y36.64
Z-3.128
X32.414 Z-3.123
X32.358 Y36.74
X32.235 Z-3.128
Z-3.123
X32.182 Y36.84
Z-3.128
X32.302 Z-3.123
X32.245 Y36.94
X32.128 Z-3.128
Z-3.123
X32.075 Y37.04
Z-3.128
X32.19 Z-3.123
X32.135 Y37.14
X32.022 Z-3.128
Z-3.123
X31.968 Y37.24
Z-3.128
X32.081 Z-3.123
X32.028 Y37.34
X31.917 Z-3.128
Z-3.123
X31.869 Y37.44
Z-3.128
X31.974 Z-3.123
X31.92 Y37.54
X31.82 Z-3.128
Z-3.123
X31.772 Y37.64
Z-3.128
X31.867 Z-3.123
X31.815 Y37.74
X31.723 Z-3.128
Z-3.123
X31.675 Y37.84
Z-3.128
X31.764 Z-3.123
X31.713 Y37.94
X31.626 Z-3.128
Z-3.123
X31.58 Y38.04
Z-3.128
X31.662 Z-3.123
X31.61 Y38.14
X31.534 Z-3.128
Z-3.123
X31.49 Y38.24
Z-3.128
X31.56 Z-3.123
X31.511 Y38.34
X31.446 Z-3.128
Z-3.123
X31.401 Y38.44
Z-3.128
X31.462 Z-3.123
X31.414 Y38.54
X31.357 Z-3.128
Z-3.123
X31.313 Y38.64
Z-3.128
X31.365 Z-3.123
X31.316 Y38.74
X31.269 Z-3.128
Z-3.123
X31.227 Y38.84
Z-3.128
X31.268 Z-3.123
G0 Z5.
X25.948 Y42.64
Z0.03
G1 Z-3.123 F200.
X25.721 Z-3.128
Z-3.123
X25.612 Y42.74
Z-3.128
X25.988 Z-3.123
X26.028 Y42.84
X25.502 Z-3.128
Z-3.123
X25.393 Y42.94
Z-3.128
X26.067 Z-3.123
X26.107 Y43.04
X25.283 Z-3.128
Z-3.123
X25.174 Y43.14
Z-3.128
X26.147 Z-3.123
X26.186 Y43.24
X25.064 Z-3.128
Z-3.123
X24.955 Y43.34
Z-3.128
X26.226 Z-3.123
X26.265 Y43.44
X24.845 Z-3.128
Z-3.123
X24.736 Y43.54
Z-3.128
X26.305 Z-3.123
X26.345 Y43.64
X24.626 Z-3.128
Z-3.123
X24.517 Y43.74
Z-3.128
X26.385 Z-3.123
X26.424 Y43.84
X24.407 Z-3.128
Z-3.123
X24.298 Y43.94
Z-3.128
X26.464 Z-3.123
X26.503 Y44.04
X24.188 Z-3.128
Z-3.123
X24.079 Y44.14
Z-3.128
X26.543 Z-3.123
X26.583 Y44.24
X23.969 Z-3.128
Z-3.123
X23.86 Y44.34
Z-3.128
X26.622 Z-3.123
X26.662 Y44.44
X23.75 Z-3.128
Z-3.123
X23.641 Y44.54
Z-3.128
X26.702 Z-3.123
X26.741 Y44.64
X23.531 Z-3.128
Z-3.123
X23.422 Y44.74
Z-3.128
X26.781 Z-3.123
X26.821 Y44.84
X23.312 Z-3.128
Z-3.123
X23.203 Y44.94
Z-3.128
X26.86 Z-3.123
X26.9 Y45.04
X23.093 Z-3.128
Z-3.123
X22.984 Y45.14
Z-3.128
X26.94 Z-3.123
X26.979 Y45.24
X22.874 Z-3.128
Z-3.123
X22.765 Y45.34
Z-3.128
X27.019 Z-3.123
X27.059 Y45.44
X22.655 Z-3.128
Z-3.123
X22.546 Y45.54
Z-3.128
X27.098 Z-3.123
X27.138 Y45.64
X22.436 Z-3.128
Z-3.123
X22.327 Y45.74
Z-3.128
X27.177 Z-3.123
X27.217 Y45.84
X22.217 Z-3.128
Z-3.123
G0 Z5.
X43.52 Y13.84
Z0.919
G1 Z-3.128 F200.
X47.811 Z-3.123
G0 Z5.
X46.889 Y13.94
Z1.401
G1 Z-3.123 F200.
X43.069 Z-3.128
Z-3.123
X42.757 Y14.015
X42.654 Y14.04
Z-3.127
X46.324 Z-3.123
X46.226 Y14.062
X46.129 Y14.086
X46.032 Y14.112
X45.935 Y14.14
X42.249 Z-3.128
Z-3.123
X41.967 Y14.215
X41.873 Y14.24
Z-3.126
X45.651 Z-3.123
X45.542 Y14.287
X45.436 Y14.34
X41.507 Z-3.128
Z-3.123
X41.42 Y14.364
X41.16 Y14.44
Z-3.128
X45.267 Z-3.123
X45.198 Y14.488
X45.132 Y14.54
X40.824 Z-3.124
Z-3.123
X40.661 Y14.589
X40.579 Y14.614
X40.498 Y14.64
Z-3.128
X45.025 Z-3.123
X44.937 Y14.74
X44.934 Z-3.128
X40.187
X40.11 Y14.765 Z-3.127
X39.881 Y14.84 Z-3.123
Z-3.128
X44.866 Z-3.123
X44.809 Y14.94
X39.588 Z-3.128
Z-3.123
X39.445 Y14.99
X39.302 Y15.04
Z-3.127
X44.765 Z-3.123
X44.731 Y15.14
X39.021 Z-3.125
X39.02 Z-3.123
X38.886 Y15.189
X38.751 Y15.24
Z-3.128
X44.703
X44.706 Z-3.123
X44.691 Y15.34
X38.487 Z-3.127
Z-3.123
X38.226 Y15.44
Z-3.127
X44.685 Z-3.123
X44.681 Y15.54
X37.976 Z-3.128
Z-3.123
X37.852 Y15.59
X37.729 Y15.64
Z-3.128
X44.679 Z-3.123
X44.677 Y15.74
X37.486 Z-3.128
Z-3.123
X37.367 Y15.789
X37.249 Y15.84
Z-3.128
X44.392 Z-3.123
X44.18 Y15.888
X44.075 Y15.913
X43.97 Y15.94
X37.019 Z-3.128
Z-3.123
X36.905 Y15.99
X36.791 Y16.04
Z-3.127
X43.587 Z-3.123
X43.299 Y16.115
X43.204 Y16.14
X36.565 Z-3.128
Z-3.123
X36.457 Y16.19
X36.349 Y16.24
Z-3.128
X42.852 Z-3.123
X42.684 Y16.29
X42.515 Y16.34
X36.134 Z-3.128
Z-3.123
X35.922 Y16.44
Z-3.124
X42.178 Z-3.123
X42.1 Y16.465
X42.022 Y16.489
X41.944 Y16.514
X41.866 Y16.54
X35.713 Z-3.128
Z-3.123
X35.612 Y16.59
X35.511 Y16.64
Z-3.128
X41.565 Z-3.123
X41.414 Y16.69
X41.264 Y16.74
X35.31 Z-3.128
Z-3.123
X35.11 Y16.84
Z-3.128
X40.975 Z-3.123
X40.839 Y16.89
X40.703 Y16.94
X34.915 Z-3.128
Z-3.123
X34.82 Y16.99
X34.725 Y17.04
Z-3.128
X40.431 Z-3.123
X40.297 Y17.089
X40.164 Y17.14
X34.536 Z-3.128
Z-3.123
X34.348 Y17.24
Z-3.128
X39.907 Z-3.123
X39.783 Y17.29
X39.659 Y17.34
X34.164 Z-3.128
Z-3.123
X33.985 Y17.44
Z-3.128
X39.411 Z-3.123
X39.29 Y17.489
X39.17 Y17.54
X33.806 Z-3.128
Z-3.123
X33.629 Y17.64
Z-3.124
X38.934 Z-3.123
X38.82 Y17.69
X38.706 Y17.74
X33.454 Z-3.128
Z-3.123
X33.369 Y17.79
X33.285 Y17.84
Z-3.128
X38.478 Z-3.123
X38.367 Y17.889
X38.256 Y17.94
X33.116 Z-3.128
Z-3.123
X33.032 Y17.99
X32.948 Y18.04
Z-3.126
X38.038 Z-3.123
X37.932 Y18.09
X37.827 Y18.14
X32.78 Z-3.127
Z-3.123
X32.699 Y18.19
X32.619 Y18.24
Z-3.128
X37.616 Z-3.123
X37.512 Y18.289
X37.409 Y18.34
X32.459 Z-3.128
Z-3.123
X32.379 Y18.39
X32.299 Y18.44
Z-3.128
X37.205 Z-3.123
X37.105 Y18.489
X37.006 Y18.54
X32.141 Z-3.128
X32.062 Y18.589 Z-3.126
X31.983 Y18.64 Z-3.123
Z-3.128
X36.81 Z-3.123
X36.712 Y18.69
X36.615 Y18.74
X31.832 Z-3.128
Z-3.123
X31.756 Y18.79
X31.68 Y18.84
Z-3.128
X36.425 Z-3.123
X36.33 Y18.89
X36.235 Y18.94
X31.529 Z-3.128
Z-3.123
X31.379 Y19.04
Z-3.124
X36.052 Z-3.123
X35.961 Y19.09
X35.869 Y19.14
X31.232 Z-3.128
Z-3.123
X31.16 Y19.19
X31.088 Y19.24
Z-3.128
X35.687 Z-3.123
X35.599 Y19.29
X35.51 Y19.34
X30.944 Z-3.128
Z-3.123
X30.873 Y19.39
X30.801 Y19.44
X35.333 Z-3.128
Z-3.123
X35.248 Y19.49
X35.162 Y19.54
X30.658 Z-3.126
Z-3.123
X30.588 Y19.589
X30.519 Y19.64
Z-3.128
X34.991 Z-3.123
X34.905 Y19.69
X34.82 Y19.74
X30.383 Z-3.128
Z-3.123
X30.246 Y19.84
Z-3.128
X34.654 Z-3.123
X34.571 Y19.89
X34.488 Y19.94
X30.11 Z-3.127
Z-3.123
X29.974 Y20.04
X34.327
X34.246 Y20.09
X34.166 Y20.14
X29.841 Z-3.128
Z-3.123
X29.712 Y20.24
Z-3.128
X34.005 Z-3.123
X33.927 Y20.29
X33.848 Y20.34
X29.582 Z-3.128
Z-3.123
X29.517 Y20.39
X29.452 Y20.44
Z-3.128
X33.692 Z-3.123
X33.615 Y20.49
X33.539 Y20.54
X29.323 Z-3.124
Z-3.123
X29.259 Y20.59
X29.195 Y20.64
Z-3.128
X33.387 Z-3.123
X33.312 Y20.69
X33.236 Y20.74
X29.072 Z-3.128
Z-3.123
X29.01 Y20.79
X28.949 Y20.84
Z-3.128
X33.086 Z-3.123
X33.012 Y20.89
X32.939 Y20.94
X28.825 Z-3.128
Z-3.123
X28.764 Y20.99
X28.702 Y21.04
Z-3.128
X32.792 Z-3.123
X32.721 Y21.09
X32.649 Y21.14
X28.579 Z-3.126
Z-3.123
X28.52 Y21.19
X28.461 Y21.24
Z-3.128
X32.506 Z-3.123
X32.363 Y21.34
X28.344 Z-3.128
Z-3.123
X28.226 Y21.44
Z-3.128
X32.223 Z-3.123
X32.154 Y21.49
X32.084 Y21.54
X28.109 Z-3.128
Z-3.123
X27.992 Y21.64
Z-3.128
X31.947 Z-3.123
X31.88 Y21.69
X31.812 Y21.74
X27.876 Z-3.128
Z-3.123
X27.764 Y21.84
Z-3.128
X31.676 Z-3.123
X31.541 Y21.94
X27.652 Z-3.128
Z-3.123
X27.541 Y22.04
Z-3.128
X31.409 Z-3.123
X31.344 Y22.09
X31.278 Y22.14
X27.429 Z-3.128
Z-3.123
X27.318 Y22.24
Z-3.128
X31.149 Z-3.123
X31.085 Y22.29
X31.021 Y22.34
X27.208 Z-3.128
Z-3.123
X27.102 Y22.44
Z-3.128
X30.892 Z-3.123
X30.828 Y22.49
X30.764 Y22.54
X26.995 Z-3.128
Z-3.123
X26.889 Y22.64
Z-3.128
X30.64 Z-3.123
X30.578 Y22.69 Z-3.126
X30.515 Y22.74 Z-3.128
X26.783
Z-3.123
X26.677 Y22.84
Z-3.128
X30.394 Z-3.123
X30.333 Y22.89
X30.272 Y22.94
X26.573 Z-3.124
Z-3.123
X26.472 Y23.04
Z-3.126
X30.15 Z-3.123
X30.089 Y23.09
X30.029 Y23.14
X26.37 Z-3.128
Z-3.123
X26.269 Y23.24
Z-3.128
X29.911 Z-3.123
X29.852 Y23.29 Z-3.126
X29.793 Y23.34 Z-3.128
X26.168
Z-3.123
X26.067 Y23.44
Z-3.128
X29.677 Z-3.123
X29.562 Y23.54
X25.968 Z-3.128
Z-3.123
X25.871 Y23.64
Z-3.127
X29.446 Z-3.123
X29.33 Y23.74
X25.774 Z-3.128
Z-3.123
X25.678 Y23.84
Z-3.128
X29.218 Z-3.123
X29.107 Y23.94
X29.084 Z-3.128
X25.581
Z-3.123
X25.485 Y24.04
Z-3.128
X28.997 Z-3.123
X28.887 Y24.14
X25.39 Z-3.127
Z-3.123
X25.298 Y24.24 Z-3.128
X28.777 Z-3.123
X28.667 Y24.34
X25.206 Z-3.128
X25.113 Y24.44 Z-3.123
Z-3.128
X28.56 Z-3.123
X28.454 Y24.54
X25.022 Z-3.128
Z-3.123
X24.93 Y24.64
Z-3.128
X28.349 Z-3.123
X28.245 Y24.74
X24.838 Z-3.128
Z-3.123
X24.75 Y24.84
Z-3.126
X28.141 Z-3.123
X28.036 Y24.94
X24.662 Z-3.126
Z-3.123
X24.574 Y25.04
Z-3.128
X27.934 Z-3.123
X27.833 Y25.14
X24.487 Z-3.128
Z-3.123
X24.399 Y25.24
Z-3.128
X27.733 Z-3.123
X27.634 Y25.34
X24.312 Z-3.128
Z-3.123
X24.226 Y25.44
Z-3.128
X27.535 Z-3.123
X27.436 Y25.54
X24.143 Z-3.125
Z-3.123
X24.059 Y25.64
Z-3.127
X27.338 Z-3.123
X27.241 Y25.74
X23.975 Z-3.128
Z-3.123
X23.892 Y25.84
Z-3.128
X27.147 Z-3.123
X27.053 Y25.94
X23.809 Z-3.128
Z-3.123
X23.726 Y26.04
Z-3.128
X26.959 Z-3.123
X26.865 Y26.14
X23.646 Z-3.128
Z-3.123
X23.566 Y26.24
Z-3.126
X26.771 Z-3.123
X26.679 Y26.34
X23.486 Z-3.128
Z-3.123
X23.407 Y26.44
Z-3.128
X26.588 Z-3.123
X26.499 Y26.54
X23.328 Z-3.128
Z-3.123
X23.249 Y26.64
Z-3.128
X26.41 Z-3.123
X26.321 Y26.74
X23.17 Z-3.127
Z-3.123
X23.094 Y26.84
Z-3.126
X26.232 Z-3.123
X26.144 Y26.94
X23.018 Z-3.128
Z-3.123
X22.942 Y27.04
Z-3.128
X26.058 Z-3.123
X25.973 Y27.14
X22.867 Z-3.128
Z-3.123
X22.791 Y27.24
Z-3.128
X25.889 Z-3.123
X25.804 Y27.34
X22.716 Z-3.128
Z-3.123
X22.642 Y27.44
Z-3.126
X25.72 Z-3.123
X25.636 Y27.54
X22.569 Z-3.124
Z-3.123
X22.497 Y27.64
X25.554 Z-3.128
X25.474 Y27.74 Z-3.123
X22.425 Z-3.128
Z-3.123
X22.353 Y27.84
Z-3.128
X25.394 Z-3.123
X25.314 Y27.94
X22.282 Z-3.128
Z-3.123
X22.21 Y28.04
Z-3.128
X25.234 Z-3.123
X25.154 Y28.14
X22.139 Z-3.126
Z-3.123
X22.071 Y28.24
Z-3.124
X25.077 Z-3.123
X25.001 Y28.34
X22.002 Z-3.126
Z-3.123
X21.933 Y28.44
Z-3.128
X24.925 Z-3.123
X24.85 Y28.54
X21.866 Z-3.128
Z-3.123
X21.798 Y28.64
Z-3.128
X24.775 Z-3.123
X24.699 Y28.74
X21.73 Z-3.128
Z-3.123
X21.662 Y28.84
Z-3.128
X24.625 Z-3.123
X24.554 Y28.94
X21.597 Z-3.128
Z-3.123
X21.532 Y29.04
Z-3.126
X24.483 Z-3.123
X24.412 Y29.14
X21.467 Z-3.128
Z-3.123
X21.402 Y29.24
Z-3.128
X24.341 Z-3.123
X24.27 Y29.34
X21.338 Z-3.128
Z-3.123
X21.273 Y29.44
Z-3.128
X24.2 Z-3.123
X24.133 Y29.54
X21.209 Z-3.128
Z-3.123
X21.147 Y29.64
Z-3.125
X24.067 Z-3.123
X24. Y29.74
X21.085 Z-3.125
Z-3.123
X21.023 Y29.84
Z-3.127
X23.934 Z-3.123
X23.868 Y29.94
X20.961 Z-3.128
Z-3.123
X20.9 Y30.04
Z-3.128
X23.802 Z-3.123
X23.739 Y30.14
X20.839 Z-3.128
Z-3.123
X20.778 Y30.24
Z-3.128
X23.678 Z-3.123
X23.616 Y30.34
X20.719 Z-3.125
Z-3.123
X20.66 Y30.44
Z-3.127
X23.554 Z-3.123
X23.492 Y30.54
X20.602 Z-3.127
Z-3.123
X20.543 Y30.64
Z-3.128
X23.431 Z-3.123
X23.373 Y30.74
X20.485 Z-3.128
Z-3.123
X20.428 Y30.84
Z-3.128
X23.316 Z-3.123
X23.259 Y30.94
X20.37 Z-3.128
Z-3.123
X20.312 Y31.04
Z-3.128
X23.201 Z-3.123
X23.144 Y31.14
X20.257 Z-3.128
Z-3.123
X20.202 Y31.24
Z-3.125
X23.088 Z-3.123
X23.035 Y31.34
X20.146 Z-3.127
Z-3.123
X20.091 Y31.44
Z-3.128
X22.983 Z-3.123
X22.93 Y31.54
X20.037 Z-3.128
Z-3.123
X19.982 Y31.64
Z-3.128
X22.878 Z-3.123
X22.825 Y31.74
X19.928 Z-3.128
Z-3.123
X19.874 Y31.84
Z-3.126
X22.775 Z-3.123
X22.728 Y31.94
X19.822 Z-3.128
Z-3.123
X19.77 Y32.04
Z-3.126
X22.68 Z-3.123
X22.633 Y32.14
X19.718 Z-3.128
Z-3.123
X19.666 Y32.24
Z-3.128
X22.585 Z-3.123
X22.537 Y32.34
X19.615 Z-3.128
Z-3.123
X19.563 Y32.44
Z-3.128
X22.499 Z-3.123
X22.47 Y32.54
X19.512 Z-3.128
Z-3.123
X19.462 Y32.64
Z-3.124
X22.454 Z-3.123
X22.447 Y32.74
X22.44 Z-3.128
X19.413 Z-3.124
Z-3.123
X19.364 Y32.84
Z-3.127
X22.451 Z-3.123
X22.465 Y32.94
X22.105 Z-3.128
X19.315
Z-3.123
X19.266 Y33.04
Z-3.128
X22.489 Z-3.123
X22.527 Y33.14
X19.218 Z-3.128
Z-3.123
X19.17 Y33.24
Z-3.128
X22.575 Z-3.123
X22.642 Y33.34
X22.639 Z-3.128
X19.121 Z-3.123
X19.075 Y33.44
Z-3.127
X22.728 Z-3.123
X22.842 Y33.54
X19.029 Z-3.124
Z-3.123
X18.983 Y33.64
Z-3.127
X23.004 Z-3.123
X23.094 Y33.69
X23.185 Y33.74
X18.936 Z-3.128
Z-3.123
X18.891 Y33.84
Z-3.128
X23.366 Z-3.123
X23.456 Y33.889
X23.545 Y33.94
X18.846 Z-3.128
Z-3.123
X18.801 Y34.04
Z-3.128
X23.719 Z-3.123
X23.805 Y34.09
X23.892 Y34.14
X18.755 Z-3.128
Z-3.123
X18.712 Y34.24
Z-3.128
X24.064 Z-3.123
X24.229 Y34.34
X18.669 Z-3.124
Z-3.123
X18.625 Y34.44
Z-3.128
X24.393 Z-3.123
X24.558 Y34.54
X18.582 Z-3.128
Z-3.123
X18.54 Y34.64
Z-3.128
X24.618 Z-3.123
X24.57 Y34.74
X18.497 Z-3.128
Z-3.123
X18.455 Y34.84
Z-3.128
X24.523 Z-3.123
X24.476 Y34.94 Z-3.128
X18.413
Z-3.123
X18.372 Y35.04
Z-3.128
X24.432 Z-3.123
X24.387 Y35.14
X18.332 Z-3.127
Z-3.123
X18.292 Y35.24
Z-3.127
X24.342 Z-3.123
X24.297 Y35.34
X18.251 Z-3.128
Z-3.123
X18.212 Y35.44
Z-3.128
X24.252 Z-3.123
X24.208 Y35.54
X18.172 Z-3.128
Z-3.123
X18.133 Y35.64
Z-3.128
X24.164 Z-3.123
X24.12 Y35.74
X18.093 Z-3.128
Z-3.123
X18.056 Y35.84
Z-3.124
X24.078 Z-3.123
X24.036 Y35.94
X18.018 Z-3.125
Z-3.123
X17.98 Y36.04
Z-3.127
X23.994 Z-3.123
X23.952 Y36.14
X17.943 Z-3.128
Z-3.123
X17.906 Y36.24
Z-3.128
X23.91 Z-3.123
X23.868 Y36.34
X17.869 Z-3.128
Z-3.123
X17.832 Y36.44
Z-3.128
X23.827 Z-3.123
X23.787 Y36.54
X17.796 Z-3.128
Z-3.123
X17.761 Y36.64
X23.745 Z-3.128
X23.706 Y36.74 Z-3.123
X17.726 Z-3.128
Z-3.123
X17.691 Y36.84
Z-3.128
X23.667 Z-3.123
X23.627 Y36.94
X17.656 Z-3.128
Z-3.123
X17.622 Y37.04
Z-3.128
X23.588 Z-3.123
X23.548 Y37.14
X17.588 Z-3.128
Z-3.123
X17.554 Y37.24
Z-3.128
X23.51 Z-3.123
X23.472 Y37.34
X17.52 Z-3.128
Z-3.123
X17.487 Y37.44
Z-3.127
X23.433 Z-3.123
X23.395 Y37.54
X17.455 Z-3.128
Z-3.123
X17.423 Y37.64
Z-3.127
X23.358 Z-3.123
X23.321 Y37.74
X17.391 Z-3.127
Z-3.123
X17.359 Y37.84
Z-3.128
X23.283 Z-3.123
X23.246 Y37.94
X17.328 Z-3.128
Z-3.123
X17.296 Y38.04
Z-3.128
X23.21 Z-3.123
X23.173 Y38.14
X17.265 Z-3.128
Z-3.123
X17.235 Y38.24
Z-3.128
X23.137 Z-3.123
X23.101 Y38.34
X17.205 Z-3.128
Z-3.123
X17.176 Y38.44
Z-3.128
X23.065 Z-3.123
X23.03 Y38.54
X17.146 Z-3.128
Z-3.123
X17.117 Y38.64
Z-3.128
X22.994 Z-3.123
X22.959 Y38.74
X17.088 Z-3.128
Z-3.123
X17.06 Y38.84
Z-3.128
X22.925 Z-3.123
X22.89 Y38.94
X17.031 Z-3.128
Z-3.123
X17.002 Y39.04
Z-3.128
X22.855 Z-3.123
X22.821 Y39.14
X22.817 Z-3.128
X16.976
Z-3.123
X16.949 Y39.24
Z-3.127
X22.787 Z-3.123
X22.754 Y39.34
X16.922 Z-3.126
Z-3.123
X16.895 Y39.44
Z-3.128
X22.72 Z-3.123
X22.686 Y39.54
X16.869 Z-3.128
Z-3.123
X16.843 Y39.64
Z-3.128
X22.653 Z-3.123
X22.62 Y39.74
X16.817 Z-3.128
Z-3.123
X16.791 Y39.84
Z-3.128
X22.587 Z-3.123
X22.554 Y39.94 Z-3.128
X16.766 Z-3.123
X16.742 Y40.04
Z-3.128
X22.522 Z-3.123
X22.49 Y40.14
X16.718 Z-3.127
Z-3.123
X16.693 Y40.24
Z-3.127
X22.458 Z-3.123
X22.426 Y40.34
X16.669 Z-3.128
Z-3.123
X16.646 Y40.44
Z-3.128
X22.395 Z-3.123
X22.363 Y40.54
X16.623 Z-3.128
Z-3.123
X16.599 Y40.64
Z-3.128
X22.332 Z-3.123
X22.301 Y40.74
X16.576 Z-3.128
Z-3.123
X16.554 Y40.84
Z-3.125
X22.27 Z-3.123
X22.239 Y40.94
X16.533 Z-3.125
Z-3.123
X16.511 Y41.04
Z-3.128
X22.208 Z-3.123
X22.178 Y41.14
X16.49 Z-3.128
Z-3.123
X16.468 Y41.24
Z-3.128
X22.148 Z-3.123
X22.118 Y41.34
X16.448 Z-3.128
Z-3.123
X16.427 Y41.44
Z-3.128
X22.088 Z-3.123
X22.059 Y41.54
X16.406 Z-3.128
Z-3.123
X16.386 Y41.64
Z-3.128
X22.029 Z-3.123
X22. Y41.74
X16.367 Z-3.128
Z-3.123
X16.348 Y41.84
Z-3.127
X21.971 Z-3.123
X21.942 Y41.94
X16.329 Z-3.126
Z-3.123
X16.31 Y42.04
Z-3.128
X21.913 Z-3.123
X21.884 Y42.14
X16.292 Z-3.128
Z-3.123
X16.273 Y42.24
Z-3.128
X21.856 Z-3.123
X21.828 Y42.34
X16.255 Z-3.128
Z-3.123
X16.237 Y42.44
Z-3.128
X21.8 Z-3.123
X21.772 Y42.54
X16.22 Z-3.125
Z-3.123
X16.204 Y42.64
Z-3.128
X21.744 Z-3.123
X21.717 Y42.74
X16.187 Z-3.125
Z-3.123
X16.171 Y42.84
Z-3.128
X21.69 Z-3.123
X21.662 Y42.94
X16.154 Z-3.128
Z-3.123
X16.139 Y43.04
Z-3.128
X21.636 Z-3.123
X21.609 Y43.14
X16.123 Z-3.128
Z-3.123
X16.107 Y43.24
Z-3.128
X21.582 Z-3.123
X21.556 Y43.34
X16.092 Z-3.128
Z-3.123
X16.078 Y43.44
Z-3.128
X21.53 Z-3.123
X21.504 Y43.54
X16.064 Z-3.124
Z-3.123
X16.05 Y43.64
Z-3.126
X21.478 Z-3.123
X21.453 Y43.74
X16.036 Z-3.127
Z-3.123
X16.022 Y43.84
Z-3.128
X21.428 Z-3.123
X21.403 Y43.94
X16.009 Z-3.128
Z-3.123
X15.996 Y44.04
Z-3.128
X21.378 Z-3.123
X21.354 Y44.14
X15.982 Z-3.128
Z-3.123
X15.97 Y44.24
Z-3.128
X21.33 Z-3.123
X21.307 Y44.34
X15.958 Z-3.128
Z-3.123
X15.947 Y44.44
Z-3.128
X21.283 Z-3.123
X21.26 Y44.54
X15.936 Z-3.126
Z-3.123
X15.924 Y44.64
Z-3.128
X21.237 Z-3.123
X21.213 Y44.74
X15.913 Z-3.128
Z-3.123
X15.902 Y44.84
Z-3.128
X21.19 Z-3.123
X21.167 Y44.94
X15.892 Z-3.128
Z-3.123
X15.881 Y45.04
Z-3.128
X21.143 Z-3.123
X21.12 Y45.14
X15.871 Z-3.127
Z-3.123
X15.862 Y45.24
Z-3.126
X21.097 Z-3.123
X21.073 Y45.34
X15.853 Z-3.127
Z-3.123
X15.845 Y45.44
Z-3.128
X21.051 Z-3.123
X21.04 Y45.54
X21.033 Z-3.128
X15.836 Z-3.123
X15.827 Y45.64
Z-3.128
X21.046 Z-3.123
X21.069 Y45.74
X15.819 Z-3.128
Z-3.123
X15.81 Y45.84
Z-3.128
X21.112 Z-3.123
X21.179 Y45.94
X15.802 Z-3.128
Z-3.123
G0 Z5.
X22.108
Z0.03
G1 Z-3.123 F200.
Z-3.128
X27.257 Z-3.123
X27.296 Y46.04
X21.993 Z-3.128
Z-3.123
X21.904 Y46.093
X21.816 Y46.128
X21.728 Y46.148
X21.64 Y46.155
X21.551 Y46.148
X21.463 Y46.128
X21.375 Y46.093
X21.286 Y46.04
X15.795 Z-3.127
Z-3.123
X15.789 Y46.14
Z-3.127
X21.506 Z-3.123
X21.64 Y46.155
X21.773 Y46.14
Z-3.128
X27.336 Z-3.123
X27.375 Y46.24
X15.782 Z-3.125
Z-3.123
X15.776 Y46.34
Z-3.126
X27.415 Z-3.123
X27.454 Y46.44
X15.77 Z-3.128
Z-3.123
X15.764 Y46.54
Z-3.128
X27.494 Z-3.123
X27.533 Y46.64
X15.758 Z-3.128
Z-3.123
X15.752 Y46.74
Z-3.128
X27.573 Z-3.123
X27.612 Y46.84
X15.746 Z-3.128
Z-3.123
X15.741 Y46.94
Z-3.128
X27.652 Z-3.123
X27.692 Y47.04
X15.737 Z-3.128
Z-3.123
X15.734 Y47.14
Z-3.127
X27.731 Z-3.128
X27.773 Y47.24 Z-3.123
X15.73 Z-3.128
X15.726 Y47.34 Z-3.123
Z-3.127
X27.837 Z-3.123
X27.936 Y47.44
X27.923 Z-3.128
X15.722 Z-3.127
Z-3.123
X15.719 Y47.54
Z-3.128
X28.123 Z-3.123
X28.219 Y47.562
X28.319 Y47.569
X28.423 Y47.558
X28.504 Y47.64
X15.715 Z-3.128
Z-3.123
X15.712 Y47.74
Z-3.128
X28.487 Z-3.123
X28.471 Y47.84
X15.71 Z-3.126
Z-3.123
X15.709 Y47.94
Z-3.126
X28.454 Z-3.123
X28.438 Y48.04
X15.707 Z-3.124
Z-3.123
X15.706 Y48.14
Z-3.125
X28.422 Z-3.123
X28.406 Y48.24
X15.705 Z-3.128
Z-3.123
X15.704 Y48.34
Z-3.128
X28.392 Z-3.123
X28.377 Y48.44
X15.702 Z-3.127
Z-3.123
X15.701 Y48.54
Z-3.128
X28.363 Z-3.123
X28.348 Y48.64
X15.7 Z-3.128
Z-3.123
X15.701 Y48.74
Z-3.128
X28.333 Z-3.123
X28.319 Y48.84
X15.702 Z-3.128
Z-3.123
X15.703 Y48.94
Z-3.126
X28.306 Z-3.123
X28.293 Y49.04
X15.705 Z-3.128
Z-3.123
X15.706 Y49.14
Z-3.125
X28.281 Z-3.123
X28.268 Y49.24
X15.707 Z-3.124
Z-3.123
X15.708 Y49.34
Z-3.124
X28.255 Z-3.123
X28.243 Y49.44
X15.709 Z-3.128
Z-3.123
X15.711 Y49.54
Z-3.127
X28.231 Z-3.123
X28.219 Y49.64
X15.714 Z-3.128
Z-3.123
X15.718 Y49.74
Z-3.128
X28.208 Z-3.123
X28.197 Y49.84
X15.721 Z-3.128
Z-3.123
X15.725 Y49.939
Z-3.127
X28.187 Z-3.123
X28.176 Y50.039
X15.729 Z-3.128
Z-3.123
X15.732 Y50.139
Z-3.127
X28.165 Z-3.123
X28.156 Y50.239
X15.736 Z-3.126
Z-3.123
X15.74 Y50.339
Z-3.128
X28.147 Z-3.123
X28.137 Y50.439
X15.744 Z-3.128
Z-3.123
X15.749 Y50.539
Z-3.128
X28.127 Z-3.123
X28.119 Y50.639
X15.755 Z-3.128
Z-3.123
X15.761 Y50.739
Z-3.128
X28.11 Z-3.123
X28.102 Y50.839
X15.767 Z-3.128
Z-3.123
X15.774 Y50.939
Z-3.128
X28.095 Z-3.123
X28.087 Y51.039
X15.78 Z-3.127
Z-3.123
X15.786 Y51.139
Z-3.128
X28.08 Z-3.123
X28.072 Y51.239
X15.793 Z-3.128
Z-3.123
X15.799 Y51.339
Z-3.128
X28.065 Z-3.123
X28.058 Y51.439
X15.807 Z-3.128
Z-3.123
X15.816 Y51.539
Z-3.128
X28.052 Z-3.123
X28.046 Y51.639
X15.824 Z-3.128
Z-3.123
X15.833 Y51.739
Z-3.128
X28.041 Z-3.123
X28.035 Y51.839
X15.841 Z-3.128
Z-3.123
X15.85 Y51.939
Z-3.128
X28.029 Z-3.123
X28.023 Y52.039
X15.859 Z-3.124
Z-3.123
X15.868 Y52.139
Z-3.128
X28.018 Z-3.123
X28.014 Y52.239
X15.877 Z-3.128
Z-3.123
X15.888 Y52.339
Z-3.128
X28.01 Z-3.123
X28.006 Y52.439
X15.898 Z-3.128
Z-3.123
X15.909 Y52.539
Z-3.128
X28.002 Z-3.123
X27.998 Y52.639
X15.92 Z-3.128
Z-3.123
X15.932 Y52.739
Z-3.128
X27.994 Z-3.123
X27.992 Y52.839
X15.943 Z-3.127
Z-3.123
X15.954 Y52.939
Z-3.127
X27.989 Z-3.123
X27.986 Y53.039
X15.966 Z-3.127
Z-3.123
X15.978 Y53.139
Z-3.128
X27.979
X27.984 Z-3.123
X27.982 Y53.239
X15.991 Z-3.128
Z-3.123
X16.004 Y53.339
Z-3.128
X27.98 Z-3.123
X27.979 Y53.439
X16.017 Z-3.128
Z-3.123
X16.031 Y53.539
Z-3.128
X27.978 Z-3.123
X27.977 Y53.639
X16.045 Z-3.128
Z-3.123
X16.059 Y53.739
Z-3.128
X27.976 Z-3.123
X27.975 Y53.839
X16.072 Z-3.128
Z-3.123
X16.086 Y53.939
Z-3.128
X27.975 Z-3.123
X27.974 Y54.039
X16.101 Z-3.128
Z-3.123
X16.117 Y54.139
Z-3.128
X27.974 Z-3.123
Y54.239
X16.133 Z-3.128
Z-3.123
X16.148 Y54.339
Z-3.128
X27.974 Z-3.123
Y54.439
X16.165 Z-3.128
Z-3.123
X16.181 Y54.539
Z-3.128
X27.974 Z-3.123
Y54.639
X16.198 Z-3.124
Z-3.123
X16.214 Y54.739
Z-3.128
X27.974 Z-3.123
Y54.839
X16.23 Z-3.128
Z-3.123
X16.248 Y54.939
Z-3.128
X27.974 Z-3.123
Y55.039
X16.267 Z-3.128
Z-3.123
X16.285 Y55.139
Z-3.128
X27.974 Z-3.123
Y55.239
X16.303 Z-3.128
Z-3.123
X16.322 Y55.339
Z-3.128
X27.974 Z-3.123
Y55.439
X16.341 Z-3.127
Z-3.123
X16.36 Y55.539
Z-3.128
X27.974 Z-3.123
Y55.639
X16.379 Z-3.128
Z-3.123
X16.398 Y55.739
Z-3.128
X27.974 Z-3.123
Y55.839
X16.419 Z-3.128
Z-3.123
X16.44 Y55.939
Z-3.128
X27.974 Z-3.123
Y56.039
X16.461 Z-3.128
Z-3.123
X16.482 Y56.139
Z-3.128
X27.974 Z-3.123
Y56.239
X16.503 Z-3.128
Z-3.123
X16.525 Y56.339
Z-3.124
X27.974 Z-3.123
Y56.439
X16.546 Z-3.127
Z-3.123
X16.568 Y56.539
Z-3.128
X27.974 Z-3.123
Y56.639
X16.591 Z-3.128
Z-3.123
X16.614 Y56.739
Z-3.128
X27.974 Z-3.123
Y56.839
X16.637 Z-3.128
Z-3.123
X16.661 Y56.939
Z-3.128
X27.974 Z-3.123
Y57.039
X16.685 Z-3.128
Z-3.123
X16.709 Y57.139
Z-3.127
X27.974 Z-3.123
Y57.239
X16.733 Z-3.128
Z-3.123
X16.757 Y57.339
Z-3.125
X27.974 Z-3.123
Y57.439
X16.781 Z-3.128
Z-3.123
X16.807 Y57.539
Z-3.128
X27.974 Z-3.123
Y57.639
X16.833 Z-3.128
Z-3.123
X16.859 Y57.739
Z-3.128
X27.974 Z-3.123
Y57.839
X16.885 Z-3.128
Z-3.123
X16.912 Y57.939
Z-3.128
X27.974 Z-3.123
Y58.039
X16.939 Z-3.124
Z-3.123
X16.966 Y58.139
Z-3.127
X27.974 Z-3.123
Y58.239
X16.993 Z-3.124
Z-3.123
X17.021 Y58.339
Z-3.128
X27.974 Z-3.123
Y58.439
X17.049 Z-3.128
Z-3.123
X17.078 Y58.539
Z-3.128
X27.974 Z-3.123
Y58.639
X17.106 Z-3.128
Z-3.123
X17.135 Y58.739
Z-3.127
X27.974 Z-3.123
Y58.839
X17.165 Z-3.126
Z-3.123
X17.194 Y58.939
Z-3.128
X27.974 Z-3.123
Y59.039
X17.224 Z-3.126
Z-3.123
X17.254 Y59.139
Z-3.128
X27.974 Z-3.123
Y59.239
X17.285 Z-3.128
Z-3.123
X17.316 Y59.339
Z-3.128
X27.974 Z-3.123
Y59.439
X17.347 Z-3.128
Z-3.123
X17.379 Y59.539
Z-3.127
X27.974 Z-3.123
Y59.639
X17.411 Z-3.125
Z-3.123
X17.443 Y59.739
Z-3.126
X27.974 Z-3.123
Y59.839
X17.475 Z-3.125
Z-3.123
X17.508 Y59.939
Z-3.128
X27.974 Z-3.123
Y60.039
X17.542 Z-3.128
Z-3.123
X17.575 Y60.139
Z-3.128
X27.974 Z-3.123
Y60.239
X17.609 Z-3.128
Z-3.123
X17.643 Y60.339
Z-3.128
X27.974 Z-3.123
Y60.439
X17.678 Z-3.126
Z-3.123
X17.713 Y60.539
Z-3.125
X27.974 Z-3.123
Y60.639
X17.748 Z-3.124
Z-3.123
X17.783 Y60.739
Z-3.128
X27.974 Z-3.123
Y60.839
X17.819 Z-3.128
Z-3.123
X17.856 Y60.939
Z-3.128
X27.974 Z-3.123
Y61.039
X17.892 Z-3.128
Z-3.123
X17.929 Y61.139
Z-3.128
X27.974 Z-3.123
Y61.239
X17.967 Z-3.128
Z-3.123
X18.004 Y61.339
Z-3.128
X27.974 Z-3.123
Y61.439
X18.042 Z-3.127
Z-3.123
X18.08 Y61.539 Z-3.128
X27.974 Z-3.123
Y61.639
X18.118 Z-3.128
Z-3.123
X18.158 Y61.739
Z-3.128
X27.974 Z-3.123
Y61.839
X18.197 Z-3.128
Z-3.123
X18.237 Y61.939
Z-3.128
X27.974 Z-3.123
Y62.039
X18.277 Z-3.128
Z-3.123
X18.317 Y62.139
Z-3.128
X27.974 Z-3.123
Y62.239
X18.358 Z-3.124
Z-3.123
X18.398 Y62.339
Z-3.127
X27.974 Z-3.123
Y62.439
X18.44 Z-3.128
Z-3.123
X18.482 Y62.539
Z-3.128
X27.974 Z-3.123
Y62.639
X18.525 Z-3.128
Z-3.123
X18.567 Y62.739
Z-3.128
X27.974 Z-3.123
Y62.839
X18.61 Z-3.127
Z-3.123
X18.653 Y62.939
Z-3.127
X27.974 Z-3.123
Y63.039
X18.696 Z-3.127
Z-3.123
X18.74 Y63.139
Z-3.128
X27.974 Z-3.123
Y63.239
X18.784 Z-3.128
Z-3.123
X18.83 Y63.339
Z-3.128
X27.974 Z-3.123
Y63.439
X18.875 Z-3.128
Z-3.123
X18.92 Y63.539
Z-3.128
X27.974 Z-3.123
Y63.639
X18.966 Z-3.127
Z-3.123
X19.012 Y63.739
Z-3.124
X27.974 Z-3.123
Y63.839
X19.058 Z-3.128
Z-3.123
X19.105 Y63.939
Z-3.128
X27.974 Z-3.123
Y64.039
X19.152 Z-3.128
Z-3.123
X19.201 Y64.139
Z-3.128
X27.974 Z-3.123
Y64.239
X19.249 Z-3.128
Z-3.123
X19.297 Y64.339
Z-3.128
X27.974 Z-3.123
Y64.439
X19.346 Z-3.126
Z-3.123
X19.395 Y64.539
Z-3.124
X27.974 Z-3.123
Y64.639
X19.444 Z-3.128
Z-3.123
X19.494 Y64.739
Z-3.128
X27.974 Z-3.123
Y64.839
X19.545 Z-3.128
Z-3.123
X19.596 Y64.939
Z-3.128
X27.974 Z-3.123
Y65.039
X19.647 Z-3.128
Z-3.123
X19.699 Y65.139 Z-3.128
X27.974 Z-3.123
Y65.239
X19.751 Z-3.126
Z-3.123
X19.803 Y65.339
Z-3.125
X27.974 Z-3.123
Y65.439
X19.855 Z-3.128
Z-3.123
X19.908 Y65.539
Z-3.128
X27.974 Z-3.123
Y65.639
X19.963 Z-3.128
Z-3.123
X20.017 Y65.739
Z-3.128
X27.974 Z-3.123
Y65.839
X20.071 Z-3.128
Z-3.123
X20.126 Y65.939 Z-3.128
X27.974 Z-3.123
Y66.039
X20.181 Z-3.127
Z-3.123
X20.237 Y66.139
Z-3.128
X27.974 Z-3.123
Y66.239
X20.292 Z-3.127
Z-3.123
X20.349 Y66.339
Z-3.128
X27.974 Z-3.123
Y66.439
X20.407 Z-3.128
Z-3.123
X20.464 Y66.539
Z-3.128
X27.974 Z-3.123
Y66.639
X20.522 Z-3.128
Z-3.123
X20.58 Y66.739
Z-3.128
X27.974 Z-3.123
Y66.839
X20.639 Z-3.128
Z-3.123
X20.697 Y66.939
Z-3.127
X27.974 Z-3.123
Y67.039
X20.757 Z-3.128
Z-3.123
X20.818 Y67.139
Z-3.128
X27.974 Z-3.123
Y67.239
X20.879 Z-3.128
Z-3.123
X20.939 Y67.339
Z-3.128
X27.974 Z-3.123
Y67.439
X21. Z-3.127
Z-3.123
X21.062 Y67.539
Z-3.127
X27.974 Z-3.123
Y67.639
X21.124 Z-3.126
Z-3.123
X21.186 Y67.739
Z-3.128
X27.974 Z-3.123
Y67.839
X21.25 Z-3.128
Z-3.123
X21.314 Y67.939
Z-3.128
X27.974 Z-3.123
Y68.039
X21.379 Z-3.128
Z-3.123
X21.443 Y68.139
Z-3.128
X27.974 Z-3.123
Y68.239
X21.508 Z-3.126
Z-3.123
X21.573 Y68.339
Z-3.127
X27.974 Z-3.123
Y68.439
X21.639 Z-3.128
Z-3.123
X21.706 Y68.539
Z-3.128
X27.974 Z-3.123
Y68.639
X21.773 Z-3.128
Z-3.123
X21.841 Y68.739
Z-3.128
X27.974 Z-3.123
Y68.839
X21.909 Z-3.128
Z-3.123
X21.977 Y68.939
Z-3.128
X27.974 Z-3.123
X27.978 Y69.039
X22.046 Z-3.128
Z-3.123
X22.115 Y69.139
Z-3.126
X27.998 Z-3.123
X28.037 Y69.239
X22.185 Z-3.128
Z-3.123
X22.256 Y69.339
Z-3.128
X28.099 Z-3.123
X28.197 Y69.439
X22.327 Z-3.128
Z-3.123
X22.399 Y69.539
Z-3.128
X28.378 Z-3.123
G0 Z5.
X22.471 Y69.639
Z0.919
G1 Z-3.123 F200.
Z-3.128
X39.212 Z-3.123
X39.219 Y69.739
X22.543 Z-3.124
Z-3.123
X22.615 Y69.839
Z-3.125
X39.226 Z-3.123
X39.233 Y69.939
X22.689 Z-3.128
Z-3.123
X22.764 Y70.039
Z-3.128
X39.24 Z-3.123
X39.248 Y70.139
X22.839 Z-3.128
Z-3.123
X22.914 Y70.239
Z-3.128
X39.255 Z-3.123
X39.262 Y70.339
X22.99 Z-3.126
Z-3.123
X23.066 Y70.439
Z-3.124
X39.269 Z-3.123
X39.276 Y70.539
X23.142 Z-3.126
Z-3.123
X23.22 Y70.639
Z-3.128
X39.283 Z-3.123
X39.29 Y70.739
X23.299 Z-3.128
Z-3.123
X23.378 Y70.839
Z-3.128
X39.297 Z-3.123
X39.304 Y70.939
X23.457 Z-3.128
Z-3.123
X23.537 Y71.039
Z-3.126
X39.311 Z-3.123
X39.318 Y71.139
X23.617 Z-3.127
Z-3.123
X23.697 Y71.239
Z-3.128
X39.325 Z-3.123
X39.332 Y71.339
X23.779 Z-3.128
Z-3.123
X23.862 Y71.439
Z-3.128
X39.339 Z-3.123
X39.346 Y71.539
X23.945 Z-3.128
Z-3.123
X24.029 Y71.639
Z-3.128
X39.353 Z-3.123
X39.36 Y71.739
X24.112 Z-3.125
Z-3.123
X24.196 Y71.839
Z-3.128
X39.368 Z-3.123
X39.375 Y71.939
X24.281 Z-3.128
Z-3.123
X24.368 Y72.039
Z-3.128
X39.382 Z-3.123
X39.389 Y72.139
X24.455 Z-3.128
Z-3.123
X24.542 Y72.239
Z-3.128
X39.396 Z-3.123
X39.403 Y72.339
X24.63 Z-3.128
Z-3.123
X24.718 Y72.439
Z-3.127
X39.41 Z-3.123
X39.417 Y72.539
X24.806 Z-3.127
Z-3.123
X24.897 Y72.639
Z-3.128
X39.424 Z-3.123
X39.431 Y72.739
X24.989 Z-3.128
Z-3.123
X25.08 Y72.839
Z-3.128
X39.438 Z-3.123
X39.445 Y72.939
X25.172 Z-3.127
Z-3.123
X25.264 Y73.039
Z-3.125
X39.452 Z-3.123
X39.459 Y73.139
X25.356 Z-3.128
Z-3.123
X25.451 Y73.239
Z-3.128
X39.466 Z-3.123
X39.473 Y73.339
X25.547 Z-3.128
Z-3.123
X25.643 Y73.439
Z-3.128
X39.481 Z-3.123
X39.488 Y73.539
X25.739 Z-3.128
Z-3.123
X25.836 Y73.639
Z-3.127
X39.501 Z-3.123
X39.533 Y73.739
X25.932 Z-3.128
Z-3.123
X26.03 Y73.839
Z-3.128
X39.586 Z-3.123
X39.668 Y73.939
X26.131 Z-3.128
Z-3.123
X26.232 Y74.039
Z-3.128
X39.767 Z-3.123
X39.866 Y74.139
X26.333 Z-3.128
Z-3.123
X26.435 Y74.239
Z-3.126
X39.964 Z-3.123
X40.063 Y74.339
X26.536 Z-3.124
Z-3.123
X26.639 Y74.439
Z-3.128
X40.162 Z-3.123
X40.261 Y74.539
X26.745 Z-3.128
Z-3.123
X26.851 Y74.639
Z-3.128
X40.308 Z-3.123
X40.322 Y74.739
X26.957 Z-3.128
Z-3.123
X27.063 Y74.839
Z-3.126
X40.337 Z-3.123
X40.351 Y74.939
X27.17 Z-3.124
Z-3.123
X27.278 Y75.039
Z-3.128
X40.366 Z-3.123
X40.38 Y75.139
X27.389 Z-3.128
Z-3.123
X27.5 Y75.239
Z-3.128
X40.395 Z-3.123
X40.409 Y75.339
X27.612 Z-3.128
Z-3.123
X27.723 Y75.439
Z-3.126
X40.424 Z-3.123
X40.438 Y75.539
X27.835 Z-3.128
Z-3.123
X27.95 Y75.639
Z-3.128
X40.453 Z-3.123
X40.467 Y75.739
X28.067 Z-3.128
Z-3.123
X28.184 Y75.839
Z-3.128
X40.482 Z-3.123
X40.496 Y75.939
X28.301 Z-3.128
Z-3.123
X28.418 Y76.039
Z-3.126
X40.511 Z-3.123
X40.525 Y76.139
X28.535 Z-3.128
Z-3.123
X28.658 Y76.239
Z-3.128
X40.54 Z-3.123
X40.454 Y76.339
X28.781 Z-3.128
Z-3.123
X28.842 Y76.389
X28.904 Y76.439
Z-3.128
X40.354 Z-3.123
X40.253 Y76.539
X29.027 Z-3.128
Z-3.123
X29.15 Y76.639
Z-3.128
X40.153 Z-3.123
X40.053 Y76.739
X29.276 Z-3.128
Z-3.123
X29.406 Y76.839
Z-3.128
X39.952 Z-3.123
X39.852 Y76.939
X29.535 Z-3.128
Z-3.123
X29.6 Y76.989
X29.664 Y77.039
Z-3.128
X39.752 Z-3.123
X39.651 Y77.139
X29.794 Z-3.128
Z-3.123
X29.859 Y77.19
X29.925 Y77.239
Z-3.124
X39.568 Z-3.123
X39.515 Y77.339
X30.061 Z-3.128
X30.129 Y77.389 Z-3.126
X30.197 Y77.439 Z-3.123
Z-3.128
X39.483 Z-3.123
X39.47 Y77.539
X30.333 Z-3.128
Z-3.123
X30.469 Y77.639
Z-3.128
X39.469 Z-3.123
Y77.739
X30.606 Z-3.128
Z-3.123
X30.749 Y77.839
Z-3.128
X39.469 Z-3.123
Y77.939
X30.892 Z-3.128
Z-3.123
X31.036 Y78.039
Z-3.128
X39.469 Z-3.123
Y78.139
X31.179 Z-3.128
Z-3.123
X31.251 Y78.19
X31.324 Y78.239
Z-3.128
X39.469 Z-3.123
Y78.339
X31.475 Z-3.128
Z-3.123
X31.55 Y78.389
X31.626 Y78.439
Z-3.128
X39.469 Z-3.123
Y78.539
X31.777 Z-3.128
Z-3.123
X31.928 Y78.639
Z-3.128
X39.469 Z-3.123
Y78.739
X32.083 Z-3.127
Z-3.123
X32.162 Y78.789
X32.242 Y78.839
Z-3.128
X39.469 Z-3.123
Y78.939
X32.401 Z-3.128
Z-3.123
X32.48 Y78.989
X32.56 Y79.039
Z-3.128
X39.469 Z-3.123
Y79.139
X32.72 Z-3.128
Z-3.123
X32.803 Y79.189
X32.887 Y79.239
Z-3.128
X39.469 Z-3.123
Y79.339
X33.054 Z-3.128
Z-3.123
X33.139 Y79.389
X33.223 Y79.439
Z-3.128
X39.469 Z-3.123
Y79.539
X33.392 Z-3.128
Z-3.123
X33.478 Y79.59
X33.565 Y79.639
Z-3.124
X39.469 Z-3.123
Y79.739
X33.742 Z-3.127
Z-3.123
X33.831 Y79.789
X33.92 Y79.839
Z-3.128
X39.469 Z-3.123
Y79.939
X34.099 Z-3.128
Z-3.123
X34.189 Y79.99
X34.28 Y80.039
X39.469
Y80.139
X34.468 Z-3.128
Z-3.123
X34.562 Y80.189
X34.656 Y80.239
Z-3.128
X39.469 Z-3.123
Y80.339
X34.846 Z-3.128
Z-3.123
X34.941 Y80.39
X35.038 Y80.439
Z-3.126
X39.469 Z-3.123
Y80.539
X35.237 Z-3.128
Z-3.123
X35.337 Y80.589
X35.438 Y80.639
Z-3.128
X39.469 Z-3.123
Y80.739
X35.639 Z-3.128
Z-3.123
X35.741 Y80.79
X35.845 Y80.839
Z-3.128
X39.473 Z-3.123
X39.494 Y80.939
X36.057 Z-3.127
Z-3.123
X36.164 Y80.989
X36.271 Y81.039
Z-3.128
X39.534 Z-3.123
X39.597 Y81.139
X36.485 Z-3.128
Z-3.123
X36.597 Y81.19
X36.709 Y81.239
Z-3.128
X39.697 Z-3.123
X39.787 Y81.297
X39.885 Y81.339
X36.936 Z-3.128
Z-3.123
X37.165 Y81.439
Z-3.128
X46.805
X46.827 Z-3.123
X46.849 Z-3.118
X46.874 Y81.446
X46.892 Y81.464
X46.899 Y81.489
X46.892 Y81.514
X46.874 Y81.532
X46.849 Y81.539
X46.827 Z-3.123
X46.805 Z-3.128
X37.398 Z-3.126
Z-3.123
X37.52 Y81.589 Z-3.126
X37.641 Y81.639 Z-3.128
X46.805
X46.827 Z-3.123
X46.849 Z-3.118
X46.874 Y81.646
X46.892 Y81.664
X46.899 Y81.689
X46.892 Y81.714
X46.874 Y81.732
X46.849 Y81.739
X46.827 Z-3.123
X46.805 Z-3.128
X37.885
Z-3.123
X38.009 Y81.789 Z-3.126
X38.132 Y81.839 Z-3.128
X46.805
X46.827 Z-3.123
X46.849 Z-3.118
X46.874 Y81.846
X46.892 Y81.864
X46.899 Y81.889
X46.892 Y81.914
X46.874 Y81.932
X46.849 Y81.939
X46.827 Z-3.123
X46.805 Z-3.128
X38.392 Z-3.126
Z-3.123
X38.523 Y81.989
X38.655 Y82.039
Z-3.128
X46.805
X46.827 Z-3.123
X46.849 Z-3.118
X46.874 Y82.046
X46.892 Y82.064
X46.899 Y82.089
X46.892 Y82.114
X46.874 Y82.132
X46.849 Y82.139
X46.827 Z-3.123
X46.805 Z-3.128
X38.919
Z-3.123
X39.059 Y82.189 Z-3.126
X39.2 Y82.239 Z-3.128
X46.805
X46.827 Z-3.123
X46.849 Z-3.118
X46.874 Y82.246
X46.892 Y82.264
X46.899 Y82.289
X46.892 Y82.314
X46.874 Y82.332
X46.849 Y82.339
X46.827 Z-3.123
X46.805 Z-3.128
X39.483
Z-3.123
X39.626 Y82.389
X39.77 Y82.439
X46.805 Z-3.128
X46.827 Z-3.123
X46.849 Z-3.118
X46.874 Y82.446
X46.892 Y82.464
X46.899 Y82.489
X46.892 Y82.514
X46.874 Y82.532
X46.849 Y82.539
X46.827 Z-3.123
X46.805 Z-3.128
X40.075
Z-3.123
X40.152 Y82.564
X40.23 Y82.589
X40.384 Y82.639
Z-3.128
X46.805
X46.827 Z-3.123
X46.849 Z-3.118
X46.874 Y82.646
X46.892 Y82.664
X46.899 Y82.689
X46.892 Y82.714
X46.874 Y82.732
X46.849 Y82.739
X46.827 Z-3.123
X46.805 Z-3.128
X40.703
Z-3.123
X40.953 Y82.814
X41.037 Y82.839
Z-3.128
X46.805
X46.827 Z-3.123
X46.849 Z-3.118
X46.851
X46.876 Y82.846
X46.894 Y82.864
X46.901 Y82.889
X46.894 Y82.914
X46.876 Y82.932
X46.851 Y82.939
X46.829 Z-3.123
X46.807 Z-3.128
X41.377
Z-3.123
X41.468 Y82.965 Z-3.125
X41.649 Y83.014 Z-3.127
X41.74 Y83.039 Z-3.128
X46.821
X46.843 Z-3.123
X46.865 Z-3.118
X46.901
X46.926 Y83.046
X46.945 Y83.064
X46.951 Y83.089
X46.945 Y83.114
X46.926 Y83.132
X46.901 Y83.139
X46.879 Z-3.123
X46.857 Z-3.128
X42.112
Z-3.123
X42.21 Y83.165
X42.308 Y83.19
X42.506 Y83.239
Z-3.128
X46.922
X46.944 Z-3.123
X46.966 Z-3.118
X47.076
X47.101 Y83.246
X47.119 Y83.264
X47.126 Y83.289
X47.119 Y83.314
X47.101 Y83.332
X47.076 Y83.339
X47.054 Z-3.123
X47.032 Z-3.128
X42.917
Z-3.123
X43.026 Y83.365
X43.135 Y83.391
X43.354 Y83.439
Z-3.128
X57.056
X58.607 Z-3.123
X58.376 Y83.49
X58.261 Y83.514
X58.145 Y83.539
X43.817 Z-3.128
Z-3.123
X43.942 Y83.566 Z-3.125
X44.067 Y83.59 Z-3.126
X44.193 Y83.615 Z-3.127
X44.318 Y83.639 Z-3.128
X57.643
X57.51 Y83.665
X57.244 Y83.715
X57.11 Y83.739
X44.851
X45.002 Y83.764 Z-3.127
X45.152 Y83.79 Z-3.126
X45.303 Y83.815 Z-3.125
X45.454 Y83.839 Z-3.123
Z-3.128
X56.508 Z-3.123
X56.34 Y83.866 Z-3.125
X56.256 Y83.879
X55.918 Y83.927 Z-3.128
X55.834 Y83.939
X46.127
X46.226 Y83.953
X46.52 Y83.993
X46.618 Y84.005
X46.815 Y84.028
X46.913 Y84.039
X55.048
G0 Z5.
X54.065 Y84.139
Z0.919
G1 Z-3.128 F200.
X47.897
G0 Z5.
X49.41 Y84.239
Z0.919
G1 Z-3.128 F200.
X52.552 Z-3.125
G0 Z15.

G53 Z0.
M30
