(1001)
(T1  D=0.396 CR=0. - ZMIN=-0.781 - FLAT END MILL)
G0 G90 G94 G17
G21
G53 G0 Z0.

(CONTOUR7)
M5
M9
T1
S16500 M3
G4 P4.
G55
G0 X72.988 Y18.167
Z15.
Z1.049
G1 Z-0.05 F142.
X72.99 Y18.165 Z-0.057
X72.994 Y18.159 Z-0.06
X73.285 Y17.77
X73.291 Y17.766
X73.299 Y17.768
X73.322 Y17.785
X73.327 Y17.789
X73.331 Y17.791
X73.335 Y17.794
X73.34 Y17.796
X73.344 Y17.798
X73.348 Y17.8
X73.357 Y17.802
X73.365 Y17.804
X73.369 Y17.805
X73.374
X73.379
X73.383
X73.391
X73.399 Y17.804
X73.404 Y17.803
X73.409 Y17.802
X73.414 Y17.8
X73.418 Y17.798
X73.423 Y17.796
X73.427 Y17.794
X73.432 Y17.792
X73.436 Y17.789
X73.44 Y17.786
X73.445 Y17.783
X73.449 Y17.779
X73.453 Y17.774
X73.458 Y17.769
X73.484 Y17.734
X73.549 Y17.648
X73.551 Y17.644
X73.554 Y17.64
X73.556 Y17.636
X73.558 Y17.632
X73.56 Y17.629
X73.562 Y17.625
X73.563 Y17.62
X73.565 Y17.616
X73.566 Y17.612
X73.567 Y17.607
Y17.603
X73.568 Y17.598
Y17.594
Y17.59
Y17.585
Y17.581
X73.567 Y17.577
Y17.572
X73.566 Y17.568
X73.565 Y17.563
X73.563 Y17.559
X73.561 Y17.553
X73.558 Y17.547
X73.555 Y17.541
X73.552 Y17.535
X73.548 Y17.53
X73.543 Y17.524
X73.538 Y17.519
X73.533 Y17.514
X73.523 Y17.507
X73.506 Y17.494
X73.503 Y17.484
X73.509 Y17.476
X73.519 Y17.478
X73.852 Y17.727
X73.856 Y17.736
X73.85 Y17.744
X73.84 Y17.743
X73.816 Y17.725
X73.809 Y17.721
X73.803 Y17.717
X73.799 Y17.715
X73.794 Y17.714
X73.79 Y17.712
X73.786 Y17.711
X73.781 Y17.709
X73.777 Y17.708
X73.773
X73.768 Y17.707
X73.764
X73.759
X73.755
X73.751
X73.746
X73.742 Y17.708
X73.738 Y17.709
X73.733 Y17.71
X73.729 Y17.711
X73.724 Y17.713
X73.72 Y17.714
X73.716 Y17.716
X73.711 Y17.719
X73.707 Y17.721
X73.703 Y17.724
X73.698 Y17.727
X73.694 Y17.731
X73.691 Y17.734
X73.686 Y17.738
X73.682 Y17.743
X73.676 Y17.751
X73.593 Y17.864
X73.59 Y17.869
X73.587 Y17.874
X73.584 Y17.878
X73.582 Y17.883
X73.58 Y17.887
X73.579 Y17.891
X73.577 Y17.896
X73.576 Y17.9
X73.575 Y17.905
X73.574 Y17.909
Y17.913
X73.573 Y17.918
Y17.922
Y17.926
Y17.931
X73.574 Y17.935
Y17.94
X73.575 Y17.944
X73.576 Y17.948
X73.578 Y17.953
X73.579 Y17.957
X73.581 Y17.961
X73.583 Y17.966
X73.585 Y17.97
X73.587 Y17.975
X73.59 Y17.979
X73.593 Y17.983
X73.597 Y17.988
X73.601 Y17.992
X73.606 Y17.997
X73.611 Y18.001
X73.628 Y18.014
X73.637 Y18.021
X73.641 Y18.027
X73.639 Y18.035
X73.341 Y18.418
X73.337 Y18.424 Z-0.057
X73.335 Y18.426 Z-0.05
G0 Z5.
X74.199 Y17.26
Z1.
G1 Z-0.098 F142.
X74.197 Y17.262 Z-0.105
X74.193 Y17.268 Z-0.108
X73.854 Y17.74
X73.848 Y17.745
X73.84 Y17.743
X73.816 Y17.725
X73.809 Y17.721
X73.803 Y17.717
X73.799 Y17.715
X73.794 Y17.714
X73.79 Y17.712
X73.786 Y17.711
X73.781 Y17.709
X73.777 Y17.708
X73.773
X73.768 Y17.707
X73.764
X73.759
X73.755
X73.751
X73.746
X73.742 Y17.708
X73.738 Y17.709
X73.733 Y17.71
X73.729 Y17.711
X73.724 Y17.713
X73.72 Y17.714
X73.716 Y17.716
X73.711 Y17.719
X73.707 Y17.721
X73.703 Y17.724
X73.698 Y17.727
X73.694 Y17.731
X73.691 Y17.734
X73.686 Y17.738
X73.682 Y17.743
X73.676 Y17.751
X73.593 Y17.864
X73.59 Y17.869
X73.587 Y17.874
X73.584 Y17.878
X73.582 Y17.883
X73.58 Y17.887
X73.579 Y17.891
X73.577 Y17.896
X73.576 Y17.9
X73.575 Y17.905
X73.574 Y17.909
Y17.913
X73.573 Y17.918
Y17.922
Y17.926
Y17.931
X73.574 Y17.935
Y17.94
X73.575 Y17.944
X73.576 Y17.948
X73.578 Y17.953
X73.579 Y17.957
X73.581 Y17.961
X73.583 Y17.966
X73.585 Y17.97
X73.587 Y17.975
X73.59 Y17.979
X73.593 Y17.983
X73.597 Y17.988
X73.601 Y17.992
X73.606 Y17.997
X73.611 Y18.001
X73.628 Y18.014
X73.637 Y18.021
X73.641 Y18.03
X73.635 Y18.038
X73.625 Y18.037
X73.287 Y17.784
X73.283 Y17.775
X73.289 Y17.767
X73.299 Y17.768
X73.322 Y17.785
X73.327 Y17.789
X73.331 Y17.791
X73.335 Y17.794
X73.34 Y17.796
X73.344 Y17.798
X73.348 Y17.8
X73.357 Y17.802
X73.365 Y17.804
X73.369 Y17.805
X73.374
X73.379
X73.383
X73.391
X73.399 Y17.804
X73.404 Y17.803
X73.409 Y17.802
X73.414 Y17.8
X73.418 Y17.798
X73.423 Y17.796
X73.427 Y17.794
X73.432 Y17.792
X73.436 Y17.789
X73.44 Y17.786
X73.445 Y17.783
X73.449 Y17.779
X73.453 Y17.774
X73.458 Y17.769
X73.484 Y17.734
X73.549 Y17.648
X73.551 Y17.644
X73.554 Y17.64
X73.556 Y17.636
X73.558 Y17.632
X73.56 Y17.629
X73.562 Y17.625
X73.563 Y17.62
X73.565 Y17.616
X73.566 Y17.612
X73.567 Y17.607
Y17.603
X73.568 Y17.598
Y17.594
Y17.59
Y17.585
Y17.581
X73.567 Y17.577
Y17.572
X73.566 Y17.568
X73.565 Y17.563
X73.563 Y17.559
X73.561 Y17.553
X73.558 Y17.547
X73.555 Y17.541
X73.552 Y17.535
X73.548 Y17.53
X73.543 Y17.524
X73.538 Y17.519
X73.533 Y17.514
X73.523 Y17.507
X73.506 Y17.494
X73.503 Y17.487
X73.505 Y17.479
X73.869 Y17.026
X73.873 Y17.021 Z-0.105
X73.875 Y17.018 Z-0.098
G0 Z5.
X72.886 Y18.304
Z0.952
G1 Z-0.146 F142.
X72.888 Y18.301 Z-0.153
X72.892 Y18.296 Z-0.156
X73.285 Y17.77
X73.291 Y17.766
X73.299 Y17.768
X73.322 Y17.785
X73.327 Y17.789
X73.331 Y17.791
X73.335 Y17.794
X73.34 Y17.796
X73.344 Y17.798
X73.348 Y17.8
X73.357 Y17.802
X73.365 Y17.804
X73.369 Y17.805
X73.374
X73.379
X73.383
X73.391
X73.399 Y17.804
X73.404 Y17.803
X73.409 Y17.802
X73.414 Y17.8
X73.418 Y17.798
X73.423 Y17.796
X73.427 Y17.794
X73.432 Y17.792
X73.436 Y17.789
X73.44 Y17.786
X73.445 Y17.783
X73.449 Y17.779
X73.453 Y17.774
X73.458 Y17.769
X73.484 Y17.734
X73.549 Y17.648
X73.551 Y17.644
X73.554 Y17.64
X73.556 Y17.636
X73.558 Y17.632
X73.56 Y17.629
X73.562 Y17.625
X73.563 Y17.62
X73.565 Y17.616
X73.566 Y17.612
X73.567 Y17.607
Y17.603
X73.568 Y17.598
Y17.594
Y17.59
Y17.585
Y17.581
X73.567 Y17.577
Y17.572
X73.566 Y17.568
X73.565 Y17.563
X73.563 Y17.559
X73.561 Y17.553
X73.558 Y17.547
X73.555 Y17.541
X73.552 Y17.535
X73.548 Y17.53
X73.543 Y17.524
X73.538 Y17.519
X73.533 Y17.514
X73.523 Y17.507
X73.506 Y17.494
X73.503 Y17.484
X73.509 Y17.476
X73.519 Y17.478
X73.852 Y17.727
X73.856 Y17.736
X73.85 Y17.744
X73.84 Y17.743
X73.816 Y17.725
X73.809 Y17.721
X73.803 Y17.717
X73.799 Y17.715
X73.794 Y17.714
X73.79 Y17.712
X73.786 Y17.711
X73.781 Y17.709
X73.777 Y17.708
X73.773
X73.768 Y17.707
X73.764
X73.759
X73.755
X73.751
X73.746
X73.742 Y17.708
X73.738 Y17.709
X73.733 Y17.71
X73.729 Y17.711
X73.724 Y17.713
X73.72 Y17.714
X73.716 Y17.716
X73.711 Y17.719
X73.707 Y17.721
X73.703 Y17.724
X73.698 Y17.727
X73.694 Y17.731
X73.691 Y17.734
X73.686 Y17.738
X73.682 Y17.743
X73.676 Y17.751
X73.593 Y17.864
X73.59 Y17.869
X73.587 Y17.874
X73.584 Y17.878
X73.582 Y17.883
X73.58 Y17.887
X73.579 Y17.891
X73.577 Y17.896
X73.576 Y17.9
X73.575 Y17.905
X73.574 Y17.909
Y17.913
X73.573 Y17.918
Y17.922
Y17.926
Y17.931
X73.574 Y17.935
Y17.94
X73.575 Y17.944
X73.576 Y17.948
X73.578 Y17.953
X73.579 Y17.957
X73.581 Y17.961
X73.583 Y17.966
X73.585 Y17.97
X73.587 Y17.975
X73.59 Y17.979
X73.593 Y17.983
X73.597 Y17.988
X73.601 Y17.992
X73.606 Y17.997
X73.611 Y18.001
X73.628 Y18.014
X73.637 Y18.021
X73.641 Y18.027
X73.639 Y18.035
X73.239 Y18.555
X73.234 Y18.561 Z-0.153
X73.233 Y18.563 Z-0.146
G0 Z5.
X73.854 Y17.74
Z1.135
G1 Z-0.206 F142.
X73.848 Y17.745
X73.84 Y17.743
X73.816 Y17.725
X73.809 Y17.721
X73.803 Y17.717
X73.799 Y17.715
X73.794 Y17.714
X73.79 Y17.712
X73.786 Y17.711
X73.781 Y17.709
X73.777 Y17.708
X73.773
X73.768 Y17.707
X73.764
X73.759
X73.755
X73.751
X73.746
X73.742 Y17.708
X73.738 Y17.709
X73.733 Y17.71
X73.729 Y17.711
X73.724 Y17.713
X73.72 Y17.714
X73.716 Y17.716
X73.711 Y17.719
X73.707 Y17.721
X73.703 Y17.724
X73.698 Y17.727
X73.694 Y17.731
X73.691 Y17.734
X73.686 Y17.738
X73.682 Y17.743
X73.676 Y17.751
X73.593 Y17.864
X73.59 Y17.869
X73.587 Y17.874
X73.584 Y17.878
X73.582 Y17.883
X73.58 Y17.887
X73.579 Y17.891
X73.577 Y17.896
X73.576 Y17.9
X73.575 Y17.905
X73.574 Y17.909
Y17.913
X73.573 Y17.918
Y17.922
Y17.926
Y17.931
X73.574 Y17.935
Y17.94
X73.575 Y17.944
X73.576 Y17.948
X73.578 Y17.953
X73.579 Y17.957
X73.581 Y17.961
X73.583 Y17.966
X73.585 Y17.97
X73.587 Y17.975
X73.59 Y17.979
X73.593 Y17.983
X73.597 Y17.988
X73.601 Y17.992
X73.606 Y17.997
X73.611 Y18.001
X73.628 Y18.014
X73.637 Y18.021
X73.641 Y18.03
X73.635 Y18.038
X73.625 Y18.037
X73.287 Y17.784
X73.283 Y17.775
X73.289 Y17.767
X73.299 Y17.768
X73.322 Y17.785
X73.327 Y17.789
X73.331 Y17.791
X73.335 Y17.794
X73.34 Y17.796
X73.344 Y17.798
X73.348 Y17.8
X73.357 Y17.802
X73.365 Y17.804
X73.369 Y17.805
X73.374
X73.379
X73.383
X73.391
X73.399 Y17.804
X73.404 Y17.803
X73.409 Y17.802
X73.414 Y17.8
X73.418 Y17.798
X73.423 Y17.796
X73.427 Y17.794
X73.432 Y17.792
X73.436 Y17.789
X73.44 Y17.786
X73.445 Y17.783
X73.449 Y17.779
X73.453 Y17.774
X73.458 Y17.769
X73.484 Y17.734
X73.549 Y17.648
X73.551 Y17.644
X73.554 Y17.64
X73.556 Y17.636
X73.558 Y17.632
X73.56 Y17.629
X73.562 Y17.625
X73.563 Y17.62
X73.565 Y17.616
X73.566 Y17.612
X73.567 Y17.607
Y17.603
X73.568 Y17.598
Y17.594
Y17.59
Y17.585
Y17.581
X73.567 Y17.577
Y17.572
X73.566 Y17.568
X73.565 Y17.563
X73.563 Y17.559
X73.561 Y17.553
X73.558 Y17.547
X73.555 Y17.541
X73.552 Y17.535
X73.548 Y17.53
X73.543 Y17.524
X73.538 Y17.519
X73.533 Y17.514
X73.523 Y17.507
X73.506 Y17.494
X73.503 Y17.487
X73.505 Y17.479
G0 Z5.
X72.815 Y18.4
Z0.853
G1 Z-0.246 F142.
X72.816 Y18.397 Z-0.253
X72.821 Y18.392 Z-0.256
X73.285 Y17.77
X73.291 Y17.766
X73.299 Y17.768
X73.322 Y17.785
X73.327 Y17.789
X73.331 Y17.791
X73.335 Y17.794
X73.34 Y17.796
X73.344 Y17.798
X73.348 Y17.8
X73.357 Y17.802
X73.365 Y17.804
X73.369 Y17.805
X73.374
X73.379
X73.383
X73.391
X73.399 Y17.804
X73.404 Y17.803
X73.409 Y17.802
X73.414 Y17.8
X73.418 Y17.798
X73.423 Y17.796
X73.427 Y17.794
X73.432 Y17.792
X73.436 Y17.789
X73.44 Y17.786
X73.445 Y17.783
X73.449 Y17.779
X73.453 Y17.774
X73.458 Y17.769
X73.484 Y17.734
X73.549 Y17.648
X73.551 Y17.644
X73.554 Y17.64
X73.556 Y17.636
X73.558 Y17.632
X73.56 Y17.629
X73.562 Y17.625
X73.563 Y17.62
X73.565 Y17.616
X73.566 Y17.612
X73.567 Y17.607
Y17.603
X73.568 Y17.598
Y17.594
Y17.59
Y17.585
Y17.581
X73.567 Y17.577
Y17.572
X73.566 Y17.568
X73.565 Y17.563
X73.563 Y17.559
X73.561 Y17.553
X73.558 Y17.547
X73.555 Y17.541
X73.552 Y17.535
X73.548 Y17.53
X73.543 Y17.524
X73.538 Y17.519
X73.533 Y17.514
X73.523 Y17.507
X73.506 Y17.494
X73.503 Y17.484
X73.509 Y17.476
X73.519 Y17.478
X73.852 Y17.727
X73.856 Y17.736
X73.85 Y17.744
X73.84 Y17.743
X73.816 Y17.725
X73.809 Y17.721
X73.803 Y17.717
X73.799 Y17.715
X73.794 Y17.714
X73.79 Y17.712
X73.786 Y17.711
X73.781 Y17.709
X73.777 Y17.708
X73.773
X73.768 Y17.707
X73.764
X73.759
X73.755
X73.751
X73.746
X73.742 Y17.708
X73.738 Y17.709
X73.733 Y17.71
X73.729 Y17.711
X73.724 Y17.713
X73.72 Y17.714
X73.716 Y17.716
X73.711 Y17.719
X73.707 Y17.721
X73.703 Y17.724
X73.698 Y17.727
X73.694 Y17.731
X73.691 Y17.734
X73.686 Y17.738
X73.682 Y17.743
X73.676 Y17.751
X73.593 Y17.864
X73.59 Y17.869
X73.587 Y17.874
X73.584 Y17.878
X73.582 Y17.883
X73.58 Y17.887
X73.579 Y17.891
X73.577 Y17.896
X73.576 Y17.9
X73.575 Y17.905
X73.574 Y17.909
Y17.913
X73.573 Y17.918
Y17.922
Y17.926
Y17.931
X73.574 Y17.935
Y17.94
X73.575 Y17.944
X73.576 Y17.948
X73.578 Y17.953
X73.579 Y17.957
X73.581 Y17.961
X73.583 Y17.966
X73.585 Y17.97
X73.587 Y17.975
X73.59 Y17.979
X73.593 Y17.983
X73.597 Y17.988
X73.601 Y17.992
X73.606 Y17.997
X73.611 Y18.001
X73.628 Y18.014
X73.637 Y18.021
X73.641 Y18.027
X73.639 Y18.035
X73.167 Y18.651
X73.163 Y18.656 Z-0.253
X73.161 Y18.659 Z-0.246
G0 Z5.
X73.854 Y17.74
Z1.135
G1 Z-0.299 F142.
X73.848 Y17.745
X73.84 Y17.743
X73.816 Y17.725
X73.809 Y17.721
X73.803 Y17.717
X73.799 Y17.715
X73.794 Y17.714
X73.79 Y17.712
X73.786 Y17.711
X73.781 Y17.709
X73.777 Y17.708
X73.773
X73.768 Y17.707
X73.764
X73.759
X73.755
X73.751
X73.746
X73.742 Y17.708
X73.738 Y17.709
X73.733 Y17.71
X73.729 Y17.711
X73.724 Y17.713
X73.72 Y17.714
X73.716 Y17.716
X73.711 Y17.719
X73.707 Y17.721
X73.703 Y17.724
X73.698 Y17.727
X73.694 Y17.731
X73.691 Y17.734
X73.686 Y17.738
X73.682 Y17.743
X73.676 Y17.751
X73.593 Y17.864
X73.59 Y17.869
X73.587 Y17.874
X73.584 Y17.878
X73.582 Y17.883
X73.58 Y17.887
X73.579 Y17.891
X73.577 Y17.896
X73.576 Y17.9
X73.575 Y17.905
X73.574 Y17.909
Y17.913
X73.573 Y17.918
Y17.922
Y17.926
Y17.931
X73.574 Y17.935
Y17.94
X73.575 Y17.944
X73.576 Y17.948
X73.578 Y17.953
X73.579 Y17.957
X73.581 Y17.961
X73.583 Y17.966
X73.585 Y17.97
X73.587 Y17.975
X73.59 Y17.979
X73.593 Y17.983
X73.597 Y17.988
X73.601 Y17.992
X73.606 Y17.997
X73.611 Y18.001
X73.628 Y18.014
X73.637 Y18.021
X73.641 Y18.03
X73.635 Y18.038
X73.625 Y18.037
X73.287 Y17.784
X73.283 Y17.775
X73.289 Y17.767
X73.299 Y17.768
X73.322 Y17.785
X73.327 Y17.789
X73.331 Y17.791
X73.335 Y17.794
X73.34 Y17.796
X73.344 Y17.798
X73.348 Y17.8
X73.357 Y17.802
X73.365 Y17.804
X73.369 Y17.805
X73.374
X73.379
X73.383
X73.391
X73.399 Y17.804
X73.404 Y17.803
X73.409 Y17.802
X73.414 Y17.8
X73.418 Y17.798
X73.423 Y17.796
X73.427 Y17.794
X73.432 Y17.792
X73.436 Y17.789
X73.44 Y17.786
X73.445 Y17.783
X73.449 Y17.779
X73.453 Y17.774
X73.458 Y17.769
X73.484 Y17.734
X73.549 Y17.648
X73.551 Y17.644
X73.554 Y17.64
X73.556 Y17.636
X73.558 Y17.632
X73.56 Y17.629
X73.562 Y17.625
X73.563 Y17.62
X73.565 Y17.616
X73.566 Y17.612
X73.567 Y17.607
Y17.603
X73.568 Y17.598
Y17.594
Y17.59
Y17.585
Y17.581
X73.567 Y17.577
Y17.572
X73.566 Y17.568
X73.565 Y17.563
X73.563 Y17.559
X73.561 Y17.553
X73.558 Y17.547
X73.555 Y17.541
X73.552 Y17.535
X73.548 Y17.53
X73.543 Y17.524
X73.538 Y17.519
X73.533 Y17.514
X73.523 Y17.507
X73.506 Y17.494
X73.503 Y17.487
X73.505 Y17.479
G0 Z5.
X72.763 Y18.468
Z0.759
G1 Z-0.339 F142.
X72.765 Y18.466 Z-0.346
X72.769 Y18.46 Z-0.349
X73.285 Y17.77
X73.291 Y17.766
X73.299 Y17.768
X73.322 Y17.785
X73.327 Y17.789
X73.331 Y17.791
X73.335 Y17.794
X73.34 Y17.796
X73.344 Y17.798
X73.348 Y17.8
X73.357 Y17.802
X73.365 Y17.804
X73.369 Y17.805
X73.374
X73.379
X73.383
X73.391
X73.399 Y17.804
X73.404 Y17.803
X73.409 Y17.802
X73.414 Y17.8
X73.418 Y17.798
X73.423 Y17.796
X73.427 Y17.794
X73.432 Y17.792
X73.436 Y17.789
X73.44 Y17.786
X73.445 Y17.783
X73.449 Y17.779
X73.453 Y17.774
X73.458 Y17.769
X73.484 Y17.734
X73.549 Y17.648
X73.551 Y17.644
X73.554 Y17.64
X73.556 Y17.636
X73.558 Y17.632
X73.56 Y17.629
X73.562 Y17.625
X73.563 Y17.62
X73.565 Y17.616
X73.566 Y17.612
X73.567 Y17.607
Y17.603
X73.568 Y17.598
Y17.594
Y17.59
Y17.585
Y17.581
X73.567 Y17.577
Y17.572
X73.566 Y17.568
X73.565 Y17.563
X73.563 Y17.559
X73.561 Y17.553
X73.558 Y17.547
X73.555 Y17.541
X73.552 Y17.535
X73.548 Y17.53
X73.543 Y17.524
X73.538 Y17.519
X73.533 Y17.514
X73.523 Y17.507
X73.506 Y17.494
X73.503 Y17.484
X73.509 Y17.476
X73.519 Y17.478
X73.852 Y17.727
X73.856 Y17.736
X73.85 Y17.744
X73.84 Y17.743
X73.816 Y17.725
X73.809 Y17.721
X73.803 Y17.717
X73.799 Y17.715
X73.794 Y17.714
X73.79 Y17.712
X73.786 Y17.711
X73.781 Y17.709
X73.777 Y17.708
X73.773
X73.768 Y17.707
X73.764
X73.759
X73.755
X73.751
X73.746
X73.742 Y17.708
X73.738 Y17.709
X73.733 Y17.71
X73.729 Y17.711
X73.724 Y17.713
X73.72 Y17.714
X73.716 Y17.716
X73.711 Y17.719
X73.707 Y17.721
X73.703 Y17.724
X73.698 Y17.727
X73.694 Y17.731
X73.691 Y17.734
X73.686 Y17.738
X73.682 Y17.743
X73.676 Y17.751
X73.593 Y17.864
X73.59 Y17.869
X73.587 Y17.874
X73.584 Y17.878
X73.582 Y17.883
X73.58 Y17.887
X73.579 Y17.891
X73.577 Y17.896
X73.576 Y17.9
X73.575 Y17.905
X73.574 Y17.909
Y17.913
X73.573 Y17.918
Y17.922
Y17.926
Y17.931
X73.574 Y17.935
Y17.94
X73.575 Y17.944
X73.576 Y17.948
X73.578 Y17.953
X73.579 Y17.957
X73.581 Y17.961
X73.583 Y17.966
X73.585 Y17.97
X73.587 Y17.975
X73.59 Y17.979
X73.593 Y17.983
X73.597 Y17.988
X73.601 Y17.992
X73.606 Y17.997
X73.611 Y18.001
X73.628 Y18.014
X73.637 Y18.021
X73.641 Y18.027
X73.639 Y18.035
X73.116 Y18.719
X73.112 Y18.725 Z-0.346
X73.11 Y18.727 Z-0.339
G0 Z5.
X73.854 Y17.74
Z1.135
G1 Z-0.399 F142.
X73.848 Y17.745
X73.84 Y17.743
X73.816 Y17.725
X73.809 Y17.721
X73.803 Y17.717
X73.799 Y17.715
X73.794 Y17.714
X73.79 Y17.712
X73.786 Y17.711
X73.781 Y17.709
X73.777 Y17.708
X73.773
X73.768 Y17.707
X73.764
X73.759
X73.755
X73.751
X73.746
X73.742 Y17.708
X73.738 Y17.709
X73.733 Y17.71
X73.729 Y17.711
X73.724 Y17.713
X73.72 Y17.714
X73.716 Y17.716
X73.711 Y17.719
X73.707 Y17.721
X73.703 Y17.724
X73.698 Y17.727
X73.694 Y17.731
X73.691 Y17.734
X73.686 Y17.738
X73.682 Y17.743
X73.676 Y17.751
X73.593 Y17.864
X73.59 Y17.869
X73.587 Y17.874
X73.584 Y17.878
X73.582 Y17.883
X73.58 Y17.887
X73.579 Y17.891
X73.577 Y17.896
X73.576 Y17.9
X73.575 Y17.905
X73.574 Y17.909
Y17.913
X73.573 Y17.918
Y17.922
Y17.926
Y17.931
X73.574 Y17.935
Y17.94
X73.575 Y17.944
X73.576 Y17.948
X73.578 Y17.953
X73.579 Y17.957
X73.581 Y17.961
X73.583 Y17.966
X73.585 Y17.97
X73.587 Y17.975
X73.59 Y17.979
X73.593 Y17.983
X73.597 Y17.988
X73.601 Y17.992
X73.606 Y17.997
X73.611 Y18.001
X73.628 Y18.014
X73.637 Y18.021
X73.641 Y18.03
X73.635 Y18.038
X73.625 Y18.037
X73.287 Y17.784
X73.283 Y17.775
X73.289 Y17.767
X73.299 Y17.768
X73.322 Y17.785
X73.327 Y17.789
X73.331 Y17.791
X73.335 Y17.794
X73.34 Y17.796
X73.344 Y17.798
X73.348 Y17.8
X73.357 Y17.802
X73.365 Y17.804
X73.369 Y17.805
X73.374
X73.379
X73.383
X73.391
X73.399 Y17.804
X73.404 Y17.803
X73.409 Y17.802
X73.414 Y17.8
X73.418 Y17.798
X73.423 Y17.796
X73.427 Y17.794
X73.432 Y17.792
X73.436 Y17.789
X73.44 Y17.786
X73.445 Y17.783
X73.449 Y17.779
X73.453 Y17.774
X73.458 Y17.769
X73.484 Y17.734
X73.549 Y17.648
X73.551 Y17.644
X73.554 Y17.64
X73.556 Y17.636
X73.558 Y17.632
X73.56 Y17.629
X73.562 Y17.625
X73.563 Y17.62
X73.565 Y17.616
X73.566 Y17.612
X73.567 Y17.607
Y17.603
X73.568 Y17.598
Y17.594
Y17.59
Y17.585
Y17.581
X73.567 Y17.577
Y17.572
X73.566 Y17.568
X73.565 Y17.563
X73.563 Y17.559
X73.561 Y17.553
X73.558 Y17.547
X73.555 Y17.541
X73.552 Y17.535
X73.548 Y17.53
X73.543 Y17.524
X73.538 Y17.519
X73.533 Y17.514
X73.523 Y17.507
X73.506 Y17.494
X73.503 Y17.487
X73.505 Y17.479
G0 Z5.
X72.725 Y18.52
Z0.667
G1 Z-0.433 F142.
X72.726 Y18.518 Z-0.44
X72.731 Y18.512 Z-0.443
X73.285 Y17.77
X73.291 Y17.766
X73.299 Y17.768
X73.322 Y17.785
X73.327 Y17.789
X73.331 Y17.791
X73.335 Y17.794
X73.34 Y17.796
X73.344 Y17.798
X73.348 Y17.8
X73.357 Y17.802
X73.365 Y17.804
X73.369 Y17.805
X73.374
X73.379
X73.383
X73.391
X73.399 Y17.804
X73.404 Y17.803
X73.409 Y17.802
X73.414 Y17.8
X73.418 Y17.798
X73.423 Y17.796
X73.427 Y17.794
X73.432 Y17.792
X73.436 Y17.789
X73.44 Y17.786
X73.445 Y17.783
X73.449 Y17.779
X73.453 Y17.774
X73.458 Y17.769
X73.484 Y17.734
X73.549 Y17.648
X73.551 Y17.644
X73.554 Y17.64
X73.556 Y17.636
X73.558 Y17.632
X73.56 Y17.629
X73.562 Y17.625
X73.563 Y17.62
X73.565 Y17.616
X73.566 Y17.612
X73.567 Y17.607
Y17.603
X73.568 Y17.598
Y17.594
Y17.59
Y17.585
Y17.581
X73.567 Y17.577
Y17.572
X73.566 Y17.568
X73.565 Y17.563
X73.563 Y17.559
X73.561 Y17.553
X73.558 Y17.547
X73.555 Y17.541
X73.552 Y17.535
X73.548 Y17.53
X73.543 Y17.524
X73.538 Y17.519
X73.533 Y17.514
X73.523 Y17.507
X73.506 Y17.494
X73.503 Y17.484
X73.509 Y17.476
X73.519 Y17.478
X73.852 Y17.727
X73.856 Y17.736
X73.85 Y17.744
X73.84 Y17.743
X73.816 Y17.725
X73.809 Y17.721
X73.803 Y17.717
X73.799 Y17.715
X73.794 Y17.714
X73.79 Y17.712
X73.786 Y17.711
X73.781 Y17.709
X73.777 Y17.708
X73.773
X73.768 Y17.707
X73.764
X73.759
X73.755
X73.751
X73.746
X73.742 Y17.708
X73.738 Y17.709
X73.733 Y17.71
X73.729 Y17.711
X73.724 Y17.713
X73.72 Y17.714
X73.716 Y17.716
X73.711 Y17.719
X73.707 Y17.721
X73.703 Y17.724
X73.698 Y17.727
X73.694 Y17.731
X73.691 Y17.734
X73.686 Y17.738
X73.682 Y17.743
X73.676 Y17.751
X73.593 Y17.864
X73.59 Y17.869
X73.587 Y17.874
X73.584 Y17.878
X73.582 Y17.883
X73.58 Y17.887
X73.579 Y17.891
X73.577 Y17.896
X73.576 Y17.9
X73.575 Y17.905
X73.574 Y17.909
Y17.913
X73.573 Y17.918
Y17.922
Y17.926
Y17.931
X73.574 Y17.935
Y17.94
X73.575 Y17.944
X73.576 Y17.948
X73.578 Y17.953
X73.579 Y17.957
X73.581 Y17.961
X73.583 Y17.966
X73.585 Y17.97
X73.587 Y17.975
X73.59 Y17.979
X73.593 Y17.983
X73.597 Y17.988
X73.601 Y17.992
X73.606 Y17.997
X73.611 Y18.001
X73.628 Y18.014
X73.637 Y18.021
X73.641 Y18.027
X73.639 Y18.035
X73.077 Y18.771
X73.073 Y18.777 Z-0.44
X73.071 Y18.779 Z-0.433
G0 Z5.
X73.854 Y17.74
Z1.135
G1 Z-0.493 F142.
X73.848 Y17.745
X73.84 Y17.743
X73.816 Y17.725
X73.809 Y17.721
X73.803 Y17.717
X73.799 Y17.715
X73.794 Y17.714
X73.79 Y17.712
X73.786 Y17.711
X73.781 Y17.709
X73.777 Y17.708
X73.773
X73.768 Y17.707
X73.764
X73.759
X73.755
X73.751
X73.746
X73.742 Y17.708
X73.738 Y17.709
X73.733 Y17.71
X73.729 Y17.711
X73.724 Y17.713
X73.72 Y17.714
X73.716 Y17.716
X73.711 Y17.719
X73.707 Y17.721
X73.703 Y17.724
X73.698 Y17.727
X73.694 Y17.731
X73.691 Y17.734
X73.686 Y17.738
X73.682 Y17.743
X73.676 Y17.751
X73.593 Y17.864
X73.59 Y17.869
X73.587 Y17.874
X73.584 Y17.878
X73.582 Y17.883
X73.58 Y17.887
X73.579 Y17.891
X73.577 Y17.896
X73.576 Y17.9
X73.575 Y17.905
X73.574 Y17.909
Y17.913
X73.573 Y17.918
Y17.922
Y17.926
Y17.931
X73.574 Y17.935
Y17.94
X73.575 Y17.944
X73.576 Y17.948
X73.578 Y17.953
X73.579 Y17.957
X73.581 Y17.961
X73.583 Y17.966
X73.585 Y17.97
X73.587 Y17.975
X73.59 Y17.979
X73.593 Y17.983
X73.597 Y17.988
X73.601 Y17.992
X73.606 Y17.997
X73.611 Y18.001
X73.628 Y18.014
X73.637 Y18.021
X73.641 Y18.03
X73.635 Y18.038
X73.625 Y18.037
X73.287 Y17.784
X73.283 Y17.775
X73.289 Y17.767
X73.299 Y17.768
X73.322 Y17.785
X73.327 Y17.789
X73.331 Y17.791
X73.335 Y17.794
X73.34 Y17.796
X73.344 Y17.798
X73.348 Y17.8
X73.357 Y17.802
X73.365 Y17.804
X73.369 Y17.805
X73.374
X73.379
X73.383
X73.391
X73.399 Y17.804
X73.404 Y17.803
X73.409 Y17.802
X73.414 Y17.8
X73.418 Y17.798
X73.423 Y17.796
X73.427 Y17.794
X73.432 Y17.792
X73.436 Y17.789
X73.44 Y17.786
X73.445 Y17.783
X73.449 Y17.779
X73.453 Y17.774
X73.458 Y17.769
X73.484 Y17.734
X73.549 Y17.648
X73.551 Y17.644
X73.554 Y17.64
X73.556 Y17.636
X73.558 Y17.632
X73.56 Y17.629
X73.562 Y17.625
X73.563 Y17.62
X73.565 Y17.616
X73.566 Y17.612
X73.567 Y17.607
Y17.603
X73.568 Y17.598
Y17.594
Y17.59
Y17.585
Y17.581
X73.567 Y17.577
Y17.572
X73.566 Y17.568
X73.565 Y17.563
X73.563 Y17.559
X73.561 Y17.553
X73.558 Y17.547
X73.555 Y17.541
X73.552 Y17.535
X73.548 Y17.53
X73.543 Y17.524
X73.538 Y17.519
X73.533 Y17.514
X73.523 Y17.507
X73.506 Y17.494
X73.503 Y17.487
X73.505 Y17.479
G0 Z5.
X72.69 Y18.567
Z0.561
G1 Z-0.533 F142.
X72.692 Y18.564 Z-0.54
X72.696 Y18.559 Z-0.543
X73.285 Y17.77
X73.291 Y17.766
X73.299 Y17.768
X73.322 Y17.785
X73.327 Y17.789
X73.331 Y17.791
X73.335 Y17.794
X73.34 Y17.796
X73.344 Y17.798
X73.348 Y17.8
X73.357 Y17.802
X73.365 Y17.804
X73.369 Y17.805
X73.374
X73.379
X73.383
X73.391
X73.399 Y17.804
X73.404 Y17.803
X73.409 Y17.802
X73.414 Y17.8
X73.418 Y17.798
X73.423 Y17.796
X73.427 Y17.794
X73.432 Y17.792
X73.436 Y17.789
X73.44 Y17.786
X73.445 Y17.783
X73.449 Y17.779
X73.453 Y17.774
X73.458 Y17.769
X73.484 Y17.734
X73.549 Y17.648
X73.551 Y17.644
X73.554 Y17.64
X73.556 Y17.636
X73.558 Y17.632
X73.56 Y17.629
X73.562 Y17.625
X73.563 Y17.62
X73.565 Y17.616
X73.566 Y17.612
X73.567 Y17.607
Y17.603
X73.568 Y17.598
Y17.594
Y17.59
Y17.585
Y17.581
X73.567 Y17.577
Y17.572
X73.566 Y17.568
X73.565 Y17.563
X73.563 Y17.559
X73.561 Y17.553
X73.558 Y17.547
X73.555 Y17.541
X73.552 Y17.535
X73.548 Y17.53
X73.543 Y17.524
X73.538 Y17.519
X73.533 Y17.514
X73.523 Y17.507
X73.506 Y17.494
X73.503 Y17.484
X73.509 Y17.476
X73.519 Y17.478
X73.852 Y17.727
X73.856 Y17.736
X73.85 Y17.744
X73.84 Y17.743
X73.816 Y17.725
X73.809 Y17.721
X73.803 Y17.717
X73.799 Y17.715
X73.794 Y17.714
X73.79 Y17.712
X73.786 Y17.711
X73.781 Y17.709
X73.777 Y17.708
X73.773
X73.768 Y17.707
X73.764
X73.759
X73.755
X73.751
X73.746
X73.742 Y17.708
X73.738 Y17.709
X73.733 Y17.71
X73.729 Y17.711
X73.724 Y17.713
X73.72 Y17.714
X73.716 Y17.716
X73.711 Y17.719
X73.707 Y17.721
X73.703 Y17.724
X73.698 Y17.727
X73.694 Y17.731
X73.691 Y17.734
X73.686 Y17.738
X73.682 Y17.743
X73.676 Y17.751
X73.593 Y17.864
X73.59 Y17.869
X73.587 Y17.874
X73.584 Y17.878
X73.582 Y17.883
X73.58 Y17.887
X73.579 Y17.891
X73.577 Y17.896
X73.576 Y17.9
X73.575 Y17.905
X73.574 Y17.909
Y17.913
X73.573 Y17.918
Y17.922
Y17.926
Y17.931
X73.574 Y17.935
Y17.94
X73.575 Y17.944
X73.576 Y17.948
X73.578 Y17.953
X73.579 Y17.957
X73.581 Y17.961
X73.583 Y17.966
X73.585 Y17.97
X73.587 Y17.975
X73.59 Y17.979
X73.593 Y17.983
X73.597 Y17.988
X73.601 Y17.992
X73.606 Y17.997
X73.611 Y18.001
X73.628 Y18.014
X73.637 Y18.021
X73.641 Y18.027
X73.639 Y18.035
X73.042 Y18.818
X73.038 Y18.823 Z-0.54
X73.036 Y18.826 Z-0.533
G0 Z5.
X73.854 Y17.74
Z1.135
G1 Z-0.643 F142.
X73.848 Y17.745
X73.84 Y17.743
X73.816 Y17.725
X73.809 Y17.721
X73.803 Y17.717
X73.799 Y17.715
X73.794 Y17.714
X73.79 Y17.712
X73.786 Y17.711
X73.781 Y17.709
X73.777 Y17.708
X73.773
X73.768 Y17.707
X73.764
X73.759
X73.755
X73.751
X73.746
X73.742 Y17.708
X73.738 Y17.709
X73.733 Y17.71
X73.729 Y17.711
X73.724 Y17.713
X73.72 Y17.714
X73.716 Y17.716
X73.711 Y17.719
X73.707 Y17.721
X73.703 Y17.724
X73.698 Y17.727
X73.694 Y17.731
X73.691 Y17.734
X73.686 Y17.738
X73.682 Y17.743
X73.676 Y17.751
X73.593 Y17.864
X73.59 Y17.869
X73.587 Y17.874
X73.584 Y17.878
X73.582 Y17.883
X73.58 Y17.887
X73.579 Y17.891
X73.577 Y17.896
X73.576 Y17.9
X73.575 Y17.905
X73.574 Y17.909
Y17.913
X73.573 Y17.918
Y17.922
Y17.926
Y17.931
X73.574 Y17.935
Y17.94
X73.575 Y17.944
X73.576 Y17.948
X73.578 Y17.953
X73.579 Y17.957
X73.581 Y17.961
X73.583 Y17.966
X73.585 Y17.97
X73.587 Y17.975
X73.59 Y17.979
X73.593 Y17.983
X73.597 Y17.988
X73.601 Y17.992
X73.606 Y17.997
X73.611 Y18.001
X73.628 Y18.014
X73.637 Y18.021
X73.641 Y18.03
X73.635 Y18.038
X73.625 Y18.037
X73.287 Y17.784
X73.283 Y17.775
X73.289 Y17.767
X73.299 Y17.768
X73.322 Y17.785
X73.327 Y17.789
X73.331 Y17.791
X73.335 Y17.794
X73.34 Y17.796
X73.344 Y17.798
X73.348 Y17.8
X73.357 Y17.802
X73.365 Y17.804
X73.369 Y17.805
X73.374
X73.379
X73.383
X73.391
X73.399 Y17.804
X73.404 Y17.803
X73.409 Y17.802
X73.414 Y17.8
X73.418 Y17.798
X73.423 Y17.796
X73.427 Y17.794
X73.432 Y17.792
X73.436 Y17.789
X73.44 Y17.786
X73.445 Y17.783
X73.449 Y17.779
X73.453 Y17.774
X73.458 Y17.769
X73.484 Y17.734
X73.549 Y17.648
X73.551 Y17.644
X73.554 Y17.64
X73.556 Y17.636
X73.558 Y17.632
X73.56 Y17.629
X73.562 Y17.625
X73.563 Y17.62
X73.565 Y17.616
X73.566 Y17.612
X73.567 Y17.607
Y17.603
X73.568 Y17.598
Y17.594
Y17.59
Y17.585
Y17.581
X73.567 Y17.577
Y17.572
X73.566 Y17.568
X73.565 Y17.563
X73.563 Y17.559
X73.561 Y17.553
X73.558 Y17.547
X73.555 Y17.541
X73.552 Y17.535
X73.548 Y17.53
X73.543 Y17.524
X73.538 Y17.519
X73.533 Y17.514
X73.523 Y17.507
X73.506 Y17.494
X73.503 Y17.487
X73.505 Y17.479
G0 Z5.
X72.649 Y18.621
Z0.367
G1 Z-0.733 F142.
X72.651 Y18.619 Z-0.74
X72.655 Y18.613 Z-0.743
X73.285 Y17.77
X73.291 Y17.766
X73.299 Y17.768
X73.322 Y17.785
X73.327 Y17.789
X73.331 Y17.791
X73.335 Y17.794
X73.34 Y17.796
X73.344 Y17.798
X73.348 Y17.8
X73.357 Y17.802
X73.365 Y17.804
X73.369 Y17.805
X73.374
X73.379
X73.383
X73.391
X73.399 Y17.804
X73.404 Y17.803
X73.409 Y17.802
X73.414 Y17.8
X73.418 Y17.798
X73.423 Y17.796
X73.427 Y17.794
X73.432 Y17.792
X73.436 Y17.789
X73.44 Y17.786
X73.445 Y17.783
X73.449 Y17.779
X73.453 Y17.774
X73.458 Y17.769
X73.484 Y17.734
X73.549 Y17.648
X73.551 Y17.644
X73.554 Y17.64
X73.556 Y17.636
X73.558 Y17.632
X73.56 Y17.629
X73.562 Y17.625
X73.563 Y17.62
X73.565 Y17.616
X73.566 Y17.612
X73.567 Y17.607
Y17.603
X73.568 Y17.598
Y17.594
Y17.59
Y17.585
Y17.581
X73.567 Y17.577
Y17.572
X73.566 Y17.568
X73.565 Y17.563
X73.563 Y17.559
X73.561 Y17.553
X73.558 Y17.547
X73.555 Y17.541
X73.552 Y17.535
X73.548 Y17.53
X73.543 Y17.524
X73.538 Y17.519
X73.533 Y17.514
X73.523 Y17.507
X73.506 Y17.494
X73.503 Y17.484
X73.509 Y17.476
X73.519 Y17.478
X73.852 Y17.727
X73.856 Y17.736
X73.85 Y17.744
X73.84 Y17.743
X73.816 Y17.725
X73.809 Y17.721
X73.803 Y17.717
X73.799 Y17.715
X73.794 Y17.714
X73.79 Y17.712
X73.786 Y17.711
X73.781 Y17.709
X73.777 Y17.708
X73.773
X73.768 Y17.707
X73.764
X73.759
X73.755
X73.751
X73.746
X73.742 Y17.708
X73.738 Y17.709
X73.733 Y17.71
X73.729 Y17.711
X73.724 Y17.713
X73.72 Y17.714
X73.716 Y17.716
X73.711 Y17.719
X73.707 Y17.721
X73.703 Y17.724
X73.698 Y17.727
X73.694 Y17.731
X73.691 Y17.734
X73.686 Y17.738
X73.682 Y17.743
X73.676 Y17.751
X73.593 Y17.864
X73.59 Y17.869
X73.587 Y17.874
X73.584 Y17.878
X73.582 Y17.883
X73.58 Y17.887
X73.579 Y17.891
X73.577 Y17.896
X73.576 Y17.9
X73.575 Y17.905
X73.574 Y17.909
Y17.913
X73.573 Y17.918
Y17.922
Y17.926
Y17.931
X73.574 Y17.935
Y17.94
X73.575 Y17.944
X73.576 Y17.948
X73.578 Y17.953
X73.579 Y17.957
X73.581 Y17.961
X73.583 Y17.966
X73.585 Y17.97
X73.587 Y17.975
X73.59 Y17.979
X73.593 Y17.983
X73.597 Y17.988
X73.601 Y17.992
X73.606 Y17.997
X73.611 Y18.001
X73.628 Y18.014
X73.637 Y18.021
X73.641 Y18.027
X73.639 Y18.035
X73.002 Y18.873
X72.997 Y18.878 Z-0.74
X72.995 Y18.881 Z-0.733
G0 Z5.
X73.854 Y17.74
Z1.135
G1 Z-0.781 F142.
X73.848 Y17.745
X73.84 Y17.743
X73.816 Y17.725
X73.809 Y17.721
X73.803 Y17.717
X73.799 Y17.715
X73.794 Y17.714
X73.79 Y17.712
X73.786 Y17.711
X73.781 Y17.709
X73.777 Y17.708
X73.773
X73.768 Y17.707
X73.764
X73.759
X73.755
X73.751
X73.746
X73.742 Y17.708
X73.738 Y17.709
X73.733 Y17.71
X73.729 Y17.711
X73.724 Y17.713
X73.72 Y17.714
X73.716 Y17.716
X73.711 Y17.719
X73.707 Y17.721
X73.703 Y17.724
X73.698 Y17.727
X73.694 Y17.731
X73.691 Y17.734
X73.686 Y17.738
X73.682 Y17.743
X73.676 Y17.751
X73.593 Y17.864
X73.59 Y17.869
X73.587 Y17.874
X73.584 Y17.878
X73.582 Y17.883
X73.58 Y17.887
X73.579 Y17.891
X73.577 Y17.896
X73.576 Y17.9
X73.575 Y17.905
X73.574 Y17.909
Y17.913
X73.573 Y17.918
Y17.922
Y17.926
Y17.931
X73.574 Y17.935
Y17.94
X73.575 Y17.944
X73.576 Y17.948
X73.578 Y17.953
X73.579 Y17.957
X73.581 Y17.961
X73.583 Y17.966
X73.585 Y17.97
X73.587 Y17.975
X73.59 Y17.979
X73.593 Y17.983
X73.597 Y17.988
X73.601 Y17.992
X73.606 Y17.997
X73.611 Y18.001
X73.628 Y18.014
X73.637 Y18.021
X73.641 Y18.03
X73.635 Y18.038
X73.625 Y18.037
X73.287 Y17.784
X73.283 Y17.775
X73.289 Y17.767
X73.299 Y17.768
X73.322 Y17.785
X73.327 Y17.789
X73.331 Y17.791
X73.335 Y17.794
X73.34 Y17.796
X73.344 Y17.798
X73.348 Y17.8
X73.357 Y17.802
X73.365 Y17.804
X73.369 Y17.805
X73.374
X73.379
X73.383
X73.391
X73.399 Y17.804
X73.404 Y17.803
X73.409 Y17.802
X73.414 Y17.8
X73.418 Y17.798
X73.423 Y17.796
X73.427 Y17.794
X73.432 Y17.792
X73.436 Y17.789
X73.44 Y17.786
X73.445 Y17.783
X73.449 Y17.779
X73.453 Y17.774
X73.458 Y17.769
X73.484 Y17.734
X73.549 Y17.648
X73.551 Y17.644
X73.554 Y17.64
X73.556 Y17.636
X73.558 Y17.632
X73.56 Y17.629
X73.562 Y17.625
X73.563 Y17.62
X73.565 Y17.616
X73.566 Y17.612
X73.567 Y17.607
Y17.603
X73.568 Y17.598
Y17.594
Y17.59
Y17.585
Y17.581
X73.567 Y17.577
Y17.572
X73.566 Y17.568
X73.565 Y17.563
X73.563 Y17.559
X73.561 Y17.553
X73.558 Y17.547
X73.555 Y17.541
X73.552 Y17.535
X73.548 Y17.53
X73.543 Y17.524
X73.538 Y17.519
X73.533 Y17.514
X73.523 Y17.507
X73.506 Y17.494
X73.503 Y17.487
X73.505 Y17.479
G0 Z15.

G53 Z0.
M30
