(1001)
(T1  D=3.175 CR=0. - ZMIN=-6.57 - FLAT END MILL)
G0 G90 G94 G17
G21
G53 G0 Z0.

(CONTOUR8)
M5
M9
T1
S12000 M3
G4 P4.
G55
G0 X1.448 Y47.76
Z15.
Z4.929
G1 Z-0.16 F200.
G3 X1.882 Y48.059 I0.117 J0.295
G1 X1.876 Y48.593
Y48.727
X1.889 Y49.791
X1.891 Y49.924
X1.896 Y50.057
X1.936 Y51.121
X1.942 Y51.254
X2.016 Y52.42
X2.018 Y52.451
X2.029 Y52.584
X2.123 Y53.648
X2.136 Y53.781
X2.257 Y54.845
X2.273 Y54.978
X2.282 Y55.042
X2.421 Y56.042
X2.439 Y56.175
X2.461 Y56.308
X2.636 Y57.372
X2.66 Y57.505
X2.862 Y58.569
X2.89 Y58.702
X3.12 Y59.766
X3.15 Y59.899
X3.408 Y60.963
X3.442 Y61.096
X3.728 Y62.16
X3.745 Y62.222
X3.766 Y62.293
X4.041 Y63.224
X4.08 Y63.357
X4.123 Y63.49
X4.423 Y64.421
X4.466 Y64.554
X4.544 Y64.775
X4.838 Y65.618
X4.887 Y65.751
X5.238 Y66.682
X5.289 Y66.815
X5.343 Y66.948
X5.72 Y67.879
X5.741 Y67.93
X5.777 Y68.012
X6.181 Y68.943
X6.24 Y69.076
X6.672 Y70.01
X6.733 Y70.14
X6.806 Y70.287
X7.205 Y71.096
X7.258 Y71.204
X7.328 Y71.337
X7.746 Y72.135
X7.816 Y72.268
X7.87 Y72.367
X8.332 Y73.2
X8.402 Y73.325
X8.952 Y74.264
X9.033 Y74.397
X9.609 Y75.328
X9.695 Y75.461
X10.216 Y76.259
X10.265 Y76.334
X10.305 Y76.392
X10.93 Y77.302
X10.945 Y77.323
X11.041 Y77.456
X11.618 Y78.254
X11.718 Y78.387
X12.324 Y79.185
X12.394 Y79.274
X13.066 Y80.116
X13.176 Y80.249
X13.844 Y81.047
X13.857 Y81.062
X13.96 Y81.18
X14.545 Y81.845
X14.656 Y81.97
X14.663 Y81.978
X15.399 Y82.776
X15.454 Y82.835
X15.526 Y82.909
X16.252 Y83.66
X16.299 Y83.707
X17.051 Y84.448
X17.109 Y84.505
X17.184 Y84.576
X17.958 Y85.303
X17.982 Y85.326
X18.115 Y85.445
X18.781 Y86.041
X18.848 Y86.101
X18.914 Y86.158
X19.712 Y86.839
X19.783 Y86.899
X20.643 Y87.599
X20.769 Y87.697
X21.575 Y88.321
X21.629 Y88.362
X22.531 Y89.027
X22.639 Y89.104
X23.479 Y89.692
X23.571 Y89.755
X24.502 Y90.374
X24.635 Y90.459
X25.433 Y90.962
X25.528 Y91.022
X25.566 Y91.045
X26.498 Y91.602
X26.631 Y91.678
X27.429 Y92.129
X27.562 Y92.205
X27.589 Y92.219
X27.695 Y92.276
X28.586 Y92.751
X28.627 Y92.773
X28.76 Y92.84
X29.642 Y93.283
X29.691 Y93.308
X29.824 Y93.371
X30.756 Y93.811
X30.765 Y93.815
X30.889 Y93.871
X31.82 Y94.282
X31.953 Y94.339
X32.939 Y94.746
X33.017 Y94.778
X33.973 Y95.145
X34.082 Y95.187
X34.215 Y95.235
X35.146 Y95.567
X35.279 Y95.614
X36.344 Y95.963
X36.477 Y96.004
X37.408 Y96.285
X37.541 Y96.325
X37.606 Y96.342
X38.606 Y96.616
X38.739 Y96.652
X39.803 Y96.915
X39.936 Y96.947
X41.001 Y97.181
X41.134 Y97.21
X42.198 Y97.416
X42.331 Y97.441
X43.396 Y97.62
X43.529 Y97.641
X44.688 Y97.806
X44.726 Y97.811
X44.859 Y97.827
X45.924 Y97.95
X46.057 Y97.963
X47.121 Y98.059
X47.254 Y98.069
X48.319 Y98.138
X48.452 Y98.146
X48.585 Y98.151
X49.649 Y98.192
X49.782 Y98.196
X50.847 Y98.209
X50.98 Y98.211
X51.113 Y98.209
X52.177 Y98.196
X52.311 Y98.192
X53.375 Y98.151
X53.508 Y98.146
X53.641 Y98.138
X54.706 Y98.069
X54.839 Y98.059
X55.903 Y97.963
X56.036 Y97.95
X57.101 Y97.827
X57.234 Y97.811
X57.273 Y97.806
X58.431 Y97.641
X58.564 Y97.62
X59.629 Y97.441
X59.762 Y97.416
X60.826 Y97.21
X60.959 Y97.182
X62.024 Y96.947
X62.157 Y96.915
X63.221 Y96.652
X63.354 Y96.616
X64.355 Y96.342
X64.419 Y96.325
X64.552 Y96.285
X65.483 Y96.004
X65.616 Y95.963
X66.681 Y95.614
X66.814 Y95.567
X67.745 Y95.235
X67.878 Y95.187
X68.942 Y94.778
X69.021 Y94.746
X70.007 Y94.339
X70.14 Y94.283
X71.071 Y93.871
X71.195 Y93.815
X71.204 Y93.811
X72.136 Y93.371
X72.269 Y93.308
X72.318 Y93.283
X73.2 Y92.84
X73.333 Y92.773
X73.374 Y92.751
X74.265 Y92.276
X74.371 Y92.219
X74.398 Y92.205
X74.664 Y92.054
X75.329 Y91.678
X75.462 Y91.602
X76.394 Y91.045
X76.432 Y91.022
X76.527 Y90.962
X77.325 Y90.459
X77.458 Y90.374
X77.483 Y90.357
X78.389 Y89.755
X78.48 Y89.692
X79.321 Y89.104
X79.428 Y89.027
X80.331 Y88.362
X80.385 Y88.321
X81.191 Y87.697
X81.317 Y87.598
X82.176 Y86.899
X82.248 Y86.839
X83.046 Y86.157
X83.112 Y86.101
X83.179 Y86.041
X83.854 Y85.436
X83.978 Y85.325
X84.002 Y85.303
X84.776 Y84.575
X84.851 Y84.505
X84.909 Y84.448
X85.661 Y83.707
X85.707 Y83.66
X86.434 Y82.909
X86.506 Y82.835
X86.56 Y82.776
X87.296 Y81.978
X87.304 Y81.97
X87.414 Y81.845
X87.999 Y81.18
X88.103 Y81.062
X88.115 Y81.047
X88.784 Y80.249
X88.894 Y80.116
X89.566 Y79.274
X89.635 Y79.185
X90.242 Y78.387
X90.342 Y78.254
X90.919 Y77.456
X91.015 Y77.323
X91.03 Y77.302
X91.655 Y76.392
X91.695 Y76.333
X91.744 Y76.259
X92.265 Y75.461
X92.351 Y75.328
X92.927 Y74.397
X93.007 Y74.264
X93.553 Y73.333
X93.558 Y73.325
X93.628 Y73.2
X94.09 Y72.366
X94.144 Y72.268
X94.214 Y72.135
X94.632 Y71.337
X94.701 Y71.204
X94.755 Y71.096
X95.161 Y70.273
X95.226 Y70.14
X95.287 Y70.01
X95.72 Y69.076
X95.779 Y68.943
X96.183 Y68.012
X96.219 Y67.93
X96.24 Y67.879
X96.618 Y66.946
X96.671 Y66.815
X96.722 Y66.682
X97.073 Y65.751
X97.122 Y65.618
X97.447 Y64.687
X97.494 Y64.554
X97.537 Y64.421
X97.837 Y63.49
X97.88 Y63.357
X97.958 Y63.091
X98.194 Y62.293
X98.215 Y62.222
X98.232 Y62.16
X98.518 Y61.096
X98.552 Y60.963
X98.81 Y59.899
X98.84 Y59.766
X99.07 Y58.702
X99.098 Y58.569
X99.3 Y57.505
X99.324 Y57.372
X99.499 Y56.308
X99.521 Y56.175
X99.558 Y55.909
X99.678 Y55.042
X99.687 Y54.978
X99.703 Y54.845
X99.824 Y53.781
X99.837 Y53.648
X99.931 Y52.584
X99.942 Y52.451
X99.944 Y52.419
X100.018 Y51.254
X100.024 Y51.121
X100.064 Y50.057
X100.069 Y49.924
X100.071 Y49.791
X100.084 Y48.727
Y48.593
X100.069 Y47.396
X100.065 Y47.263
X100.024 Y46.199
X100.018 Y46.066
X99.944 Y44.896
X99.943 Y44.869
X99.931 Y44.736
X99.838 Y43.672
X99.824 Y43.539
X99.703 Y42.475
X99.688 Y42.342
X99.678 Y42.274
X99.521 Y41.145
X99.5 Y41.012
X99.325 Y39.948
X99.301 Y39.815
X99.098 Y38.751
X99.071 Y38.618
X98.841 Y37.554
X98.811 Y37.421
X98.553 Y36.357
X98.519 Y36.224
X98.233 Y35.16
X98.215 Y35.094
X98.195 Y35.027
X97.881 Y33.963
X97.839 Y33.83
X97.538 Y32.899
X97.495 Y32.766
X97.449 Y32.633
X97.123 Y31.702
X97.075 Y31.569
X96.723 Y30.638
X96.673 Y30.505
X96.618 Y30.37
X96.241 Y29.441
X96.219 Y29.386
X96.185 Y29.308
X95.781 Y28.377
X95.722 Y28.244
X95.287 Y27.306
X95.228 Y27.18
X95.154 Y27.029
X94.755 Y26.22
X94.704 Y26.116
X94.634 Y25.983
X94.216 Y25.185
X94.146 Y25.052
X94.09 Y24.95
X93.63 Y24.12
X93.558 Y23.991
X93.01 Y23.056
X92.93 Y22.923
X92.353 Y21.992
X92.267 Y21.859
X91.746 Y21.061
X91.695 Y20.983
X91.658 Y20.928
X91.03 Y20.015
X91.018 Y19.997
X90.922 Y19.864
X90.345 Y19.066
X90.245 Y18.933
X89.638 Y18.135
X89.566 Y18.043
X88.897 Y17.204
X88.787 Y17.071
X88.118 Y16.273
X88.103 Y16.255
X88.002 Y16.14
X87.417 Y15.475
X87.304 Y15.347
X87.299 Y15.342
X86.809 Y14.81
X86.563 Y14.544
X86.506 Y14.482
X86.437 Y14.411
X85.707 Y13.657
X85.664 Y13.613
X84.909 Y12.87
X84.854 Y12.815
X84.776 Y12.742
X84.005 Y12.017
X83.978 Y11.992
X83.845 Y11.873
X83.115 Y11.219
X83.046 Y11.16
X82.248 Y10.479
X82.179 Y10.421
X81.317 Y9.719
X81.194 Y9.623
X80.385 Y8.997
X80.334 Y8.958
X79.431 Y8.293
X79.321 Y8.214
X78.483 Y7.628
X78.389 Y7.563
X77.458 Y6.944
X77.325 Y6.859
X76.527 Y6.356
X76.434 Y6.298
X76.394 Y6.273
X75.462 Y5.717
X75.329 Y5.64
X74.531 Y5.189
X74.398 Y5.114
X74.374 Y5.101
X74.265 Y5.042
X73.377 Y4.569
X73.333 Y4.546
X73.2 Y4.478
X72.321 Y4.037
X72.269 Y4.011
X72.136 Y3.948
X71.204 Y3.508
X71.197 Y3.505
X71.071 Y3.448
X70.14 Y3.036
X70.007 Y2.98
X69.024 Y2.574
X68.942 Y2.541
X67.989 Y2.175
X67.878 Y2.132
X67.745 Y2.084
X66.814 Y1.752
X66.681 Y1.706
X65.616 Y1.356
X65.483 Y1.315
X64.552 Y1.035
X64.419 Y0.995
X64.357 Y0.978
X63.354 Y0.703
X63.221 Y0.667
X62.157 Y0.404
X62.024 Y0.373
X60.959 Y0.138
X60.826 Y0.11
X59.762 Y-0.097
X59.629 Y-0.121
X58.564 Y-0.3
X58.431 Y-0.322
X57.274 Y-0.486
X57.234 Y-0.491
X57.101 Y-0.507
X56.036 Y-0.63
X55.903 Y-0.643
X54.839 Y-0.739
X54.706 Y-0.749
X53.641 Y-0.818
X53.508 Y-0.826
X53.375 Y-0.831
X52.311 Y-0.872
X52.177 Y-0.876
X51.113 Y-0.889
X50.98 Y-0.891
X50.847 Y-0.889
X49.782 Y-0.876
X49.649 Y-0.872
X48.585 Y-0.831
X48.452 Y-0.826
X48.319 Y-0.818
X47.254 Y-0.749
X47.121 Y-0.739
X46.057 Y-0.643
X45.924 Y-0.63
X44.859 Y-0.507
X44.726 Y-0.491
X44.687 Y-0.486
X43.529 Y-0.321
X43.396 Y-0.3
X42.331 Y-0.121
X42.198 Y-0.096
X41.134 Y0.11
X41.001 Y0.138
X39.936 Y0.373
X39.803 Y0.405
X38.739 Y0.667
X38.606 Y0.703
X37.604 Y0.978
X37.541 Y0.995
X37.408 Y1.035
X36.477 Y1.315
X36.344 Y1.357
X35.279 Y1.706
X35.146 Y1.752
X34.215 Y2.084
X34.082 Y2.132
X33.017 Y2.541
X32.937 Y2.574
X31.953 Y2.98
X31.82 Y3.037
X30.889 Y3.449
X30.764 Y3.505
X30.756 Y3.508
X29.824 Y3.948
X29.691 Y4.011
X29.64 Y4.037
X28.76 Y4.479
X28.627 Y4.546
X28.584 Y4.569
X27.695 Y5.043
X27.587 Y5.101
X27.562 Y5.114
X27.296 Y5.265
X26.631 Y5.641
X26.498 Y5.717
X25.566 Y6.274
X25.527 Y6.298
X25.433 Y6.356
X24.635 Y6.86
X24.502 Y6.945
X24.475 Y6.963
X23.571 Y7.564
X23.478 Y7.628
X22.639 Y8.215
X22.53 Y8.293
X21.627 Y8.958
X21.575 Y8.998
X20.767 Y9.623
X20.643 Y9.72
X19.781 Y10.421
X19.712 Y10.479
X18.914 Y11.161
X18.846 Y11.219
X18.104 Y11.884
X17.982 Y11.993
X17.956 Y12.017
X17.184 Y12.742
X17.107 Y12.815
X17.051 Y12.87
X16.297 Y13.613
X16.252 Y13.658
X15.524 Y14.411
X15.454 Y14.483
X15.397 Y14.544
X14.661 Y15.342
X14.656 Y15.348
X14.543 Y15.475
X13.959 Y16.14
X13.857 Y16.255
X13.842 Y16.273
X13.174 Y17.071
X13.064 Y17.204
X12.394 Y18.043
X12.322 Y18.135
X11.716 Y18.933
X11.616 Y19.066
X11.039 Y19.864
X10.943 Y19.997
X10.93 Y20.015
X10.303 Y20.928
X10.265 Y20.984
X10.214 Y21.061
X9.693 Y21.859
X9.607 Y21.992
X9.031 Y22.923
X8.951 Y23.056
X8.402 Y23.992
X8.33 Y24.12
X7.87 Y24.95
X7.814 Y25.052
X7.744 Y25.185
X7.326 Y25.983
X7.257 Y26.116
X7.205 Y26.22
X6.797 Y27.047
X6.732 Y27.18
X6.672 Y27.306
X6.238 Y28.244
X6.179 Y28.377
X5.775 Y29.308
X5.741 Y29.386
X5.719 Y29.441
X5.341 Y30.372
X5.287 Y30.505
X5.237 Y30.638
X4.886 Y31.569
X4.837 Y31.702
X4.512 Y32.633
X4.465 Y32.766
X4.422 Y32.899
X4.122 Y33.83
X4.079 Y33.963
X3.765 Y35.027
X3.745 Y35.094
X3.727 Y35.16
X3.441 Y36.224
X3.407 Y36.357
X3.149 Y37.421
X3.119 Y37.554
X2.889 Y38.618
X2.862 Y38.751
X2.659 Y39.815
X2.635 Y39.948
X2.46 Y41.012
X2.439 Y41.145
X2.282 Y42.274
X2.272 Y42.342
X2.257 Y42.475
X2.136 Y43.539
X2.122 Y43.672
X2.029 Y44.736
X2.017 Y44.869
X1.984 Y45.401
X1.942 Y46.066
X1.936 Y46.199
X1.895 Y47.263
X1.891 Y47.396
X1.882 Y48.059
G3 X1.441 Y48.348 I-0.317 J-0.004
G0 Z5.
X1.486 Y47.748
Z4.93
G1 Z-0.256 F200.
G3 X1.882 Y48.059 I0.079 J0.308
G1 X1.876 Y48.593
Y48.727
X1.889 Y49.791
X1.891 Y49.924
X1.896 Y50.057
X1.936 Y51.121
X1.942 Y51.254
X2.016 Y52.42
X2.018 Y52.451
X2.029 Y52.584
X2.123 Y53.648
X2.136 Y53.781
X2.257 Y54.845
X2.273 Y54.978
X2.282 Y55.043
X2.421 Y56.042
X2.439 Y56.175
X2.461 Y56.308
X2.636 Y57.372
X2.66 Y57.505
X2.862 Y58.569
X2.89 Y58.702
X3.12 Y59.766
X3.15 Y59.899
X3.408 Y60.963
X3.442 Y61.096
X3.728 Y62.16
X3.745 Y62.222
X3.766 Y62.293
X4.041 Y63.224
X4.08 Y63.357
X4.123 Y63.49
X4.423 Y64.421
X4.466 Y64.554
X4.513 Y64.687
X4.838 Y65.618
X4.887 Y65.751
X5.238 Y66.682
X5.289 Y66.815
X5.343 Y66.948
X5.72 Y67.879
X5.741 Y67.93
X5.776 Y68.012
X6.181 Y68.943
X6.24 Y69.076
X6.672 Y70.01
X6.733 Y70.14
X6.799 Y70.273
X7.205 Y71.097
X7.258 Y71.204
X7.328 Y71.337
X7.745 Y72.135
X7.816 Y72.268
X7.87 Y72.367
X8.332 Y73.2
X8.402 Y73.325
X8.407 Y73.333
X8.484 Y73.466
X8.952 Y74.264
X9.033 Y74.397
X9.6 Y75.313
X9.609 Y75.328
X9.695 Y75.461
X10.216 Y76.259
X10.265 Y76.334
X10.305 Y76.392
X10.93 Y77.302
X10.945 Y77.323
X11.041 Y77.456
X11.618 Y78.254
X11.718 Y78.387
X12.324 Y79.185
X12.394 Y79.274
X13.066 Y80.116
X13.175 Y80.249
X13.844 Y81.047
X13.857 Y81.062
X13.96 Y81.18
X14.545 Y81.845
X14.656 Y81.97
X14.663 Y81.978
X14.789 Y82.114
X15.399 Y82.776
X15.454 Y82.835
X15.526 Y82.909
X16.252 Y83.66
X16.299 Y83.707
X16.434 Y83.84
X17.051 Y84.448
X17.109 Y84.505
X17.184 Y84.576
X17.958 Y85.303
X17.982 Y85.326
X18.115 Y85.445
X18.781 Y86.041
X18.848 Y86.101
X18.914 Y86.158
X19.712 Y86.839
X19.783 Y86.899
X20.643 Y87.599
X20.769 Y87.697
X21.575 Y88.321
X21.629 Y88.362
X22.531 Y89.027
X22.639 Y89.104
X23.479 Y89.692
X23.571 Y89.755
X24.476 Y90.357
X24.502 Y90.374
X24.635 Y90.459
X25.433 Y90.963
X25.528 Y91.022
X25.566 Y91.045
X26.498 Y91.602
X26.631 Y91.678
X27.429 Y92.13
X27.562 Y92.205
X27.589 Y92.219
X27.695 Y92.276
X28.586 Y92.751
X28.627 Y92.773
X28.76 Y92.84
X29.642 Y93.283
X29.691 Y93.308
X29.824 Y93.371
X30.622 Y93.748
X30.756 Y93.811
X30.765 Y93.815
X30.889 Y93.871
X31.82 Y94.283
X31.953 Y94.339
X32.939 Y94.746
X33.017 Y94.778
X33.973 Y95.145
X34.082 Y95.187
X34.215 Y95.235
X35.146 Y95.567
X35.279 Y95.614
X36.344 Y95.963
X36.477 Y96.004
X37.408 Y96.285
X37.541 Y96.325
X37.605 Y96.342
X38.606 Y96.616
X38.739 Y96.652
X38.872 Y96.685
X39.803 Y96.915
X39.936 Y96.947
X41.001 Y97.182
X41.134 Y97.21
X42.198 Y97.416
X42.331 Y97.441
X43.396 Y97.62
X43.529 Y97.641
X43.662 Y97.66
X44.593 Y97.792
X44.688 Y97.806
X44.726 Y97.811
X44.859 Y97.827
X45.826 Y97.939
X45.924 Y97.95
X46.057 Y97.963
X47.121 Y98.059
X47.254 Y98.069
X48.319 Y98.138
X48.452 Y98.146
X48.585 Y98.151
X49.649 Y98.192
X49.782 Y98.196
X50.847 Y98.209
X50.98 Y98.211
X51.113 Y98.209
X52.177 Y98.196
X52.311 Y98.192
X53.375 Y98.152
X53.508 Y98.146
X53.641 Y98.138
X54.706 Y98.069
X54.839 Y98.059
X55.903 Y97.963
X56.036 Y97.95
X56.169 Y97.935
X57.101 Y97.827
X57.234 Y97.811
X57.273 Y97.806
X58.298 Y97.66
X58.431 Y97.642
X58.564 Y97.62
X59.629 Y97.441
X59.762 Y97.416
X60.826 Y97.21
X60.959 Y97.182
X62.024 Y96.947
X62.157 Y96.915
X63.088 Y96.685
X63.221 Y96.652
X63.354 Y96.616
X64.355 Y96.342
X64.419 Y96.325
X64.552 Y96.285
X65.483 Y96.005
X65.616 Y95.963
X66.681 Y95.614
X66.814 Y95.567
X67.745 Y95.236
X67.878 Y95.187
X67.987 Y95.145
X68.942 Y94.778
X69.021 Y94.746
X70.007 Y94.339
X70.14 Y94.283
X71.071 Y93.871
X71.195 Y93.815
X71.204 Y93.811
X71.338 Y93.748
X72.136 Y93.371
X72.269 Y93.308
X72.318 Y93.283
X73.2 Y92.84
X73.333 Y92.773
X73.374 Y92.751
X74.265 Y92.276
X74.371 Y92.219
X74.398 Y92.205
X74.531 Y92.129
X75.329 Y91.678
X75.462 Y91.602
X76.394 Y91.045
X76.432 Y91.022
X76.527 Y90.962
X77.325 Y90.459
X77.458 Y90.374
X77.483 Y90.357
X78.389 Y89.755
X78.48 Y89.692
X79.321 Y89.104
X79.428 Y89.027
X79.454 Y89.008
X80.331 Y88.362
X80.385 Y88.321
X81.191 Y87.697
X81.317 Y87.598
X82.176 Y86.899
X82.248 Y86.839
X83.046 Y86.157
X83.112 Y86.101
X83.179 Y86.041
X83.854 Y85.436
X83.978 Y85.325
X84.002 Y85.303
X84.776 Y84.575
X84.851 Y84.505
X84.909 Y84.448
X85.574 Y83.792
X85.661 Y83.707
X85.707 Y83.66
X86.434 Y82.909
X86.506 Y82.835
X86.56 Y82.776
X87.174 Y82.111
X87.296 Y81.978
X87.304 Y81.97
X87.414 Y81.845
X87.999 Y81.18
X88.103 Y81.062
X88.115 Y81.047
X88.784 Y80.249
X88.894 Y80.116
X89.566 Y79.274
X89.636 Y79.185
X90.242 Y78.387
X90.342 Y78.254
X90.919 Y77.456
X91.015 Y77.323
X91.03 Y77.302
X91.655 Y76.392
X91.695 Y76.333
X91.744 Y76.259
X92.265 Y75.461
X92.351 Y75.328
X92.36 Y75.312
X92.927 Y74.397
X93.007 Y74.264
X93.475 Y73.466
X93.553 Y73.333
X93.558 Y73.325
X93.628 Y73.2
X94.09 Y72.366
X94.144 Y72.268
X94.214 Y72.135
X94.632 Y71.337
X94.701 Y71.204
X94.755 Y71.096
X95.161 Y70.273
X95.226 Y70.14
X95.287 Y70.01
X95.72 Y69.076
X95.779 Y68.943
X96.183 Y68.012
X96.219 Y67.93
X96.24 Y67.879
X96.618 Y66.946
X96.671 Y66.815
X96.722 Y66.682
X97.073 Y65.751
X97.122 Y65.618
X97.447 Y64.687
X97.494 Y64.554
X97.537 Y64.421
X97.837 Y63.49
X97.88 Y63.357
X97.919 Y63.224
X98.194 Y62.293
X98.215 Y62.222
X98.232 Y62.16
X98.518 Y61.096
X98.552 Y60.963
X98.81 Y59.899
X98.84 Y59.766
X99.07 Y58.702
X99.098 Y58.569
X99.3 Y57.505
X99.324 Y57.372
X99.499 Y56.308
X99.521 Y56.175
X99.539 Y56.042
X99.678 Y55.042
X99.687 Y54.978
X99.703 Y54.845
X99.824 Y53.781
X99.837 Y53.648
X99.931 Y52.584
X99.942 Y52.451
X99.944 Y52.42
X100.018 Y51.254
X100.024 Y51.121
X100.064 Y50.057
X100.069 Y49.924
X100.071 Y49.791
X100.084 Y48.727
Y48.593
X100.071 Y47.529
X100.069 Y47.396
X100.065 Y47.263
X100.024 Y46.199
X100.018 Y46.066
X100.001 Y45.8
X99.944 Y44.896
X99.943 Y44.869
X99.931 Y44.736
X99.838 Y43.672
X99.824 Y43.539
X99.703 Y42.475
X99.688 Y42.342
X99.678 Y42.273
X99.54 Y41.278
X99.521 Y41.145
X99.5 Y41.012
X99.325 Y39.948
X99.301 Y39.815
X99.098 Y38.751
X99.071 Y38.618
X98.841 Y37.554
X98.811 Y37.421
X98.553 Y36.357
X98.519 Y36.224
X98.233 Y35.16
X98.215 Y35.094
X98.195 Y35.027
X97.92 Y34.096
X97.881 Y33.963
X97.839 Y33.83
X97.538 Y32.899
X97.495 Y32.766
X97.449 Y32.633
X97.123 Y31.702
X97.075 Y31.569
X96.723 Y30.638
X96.673 Y30.505
X96.618 Y30.369
X96.241 Y29.441
X96.219 Y29.386
X96.185 Y29.308
X95.781 Y28.377
X95.722 Y28.244
X95.287 Y27.306
X95.228 Y27.18
X95.163 Y27.047
X94.755 Y26.22
X94.704 Y26.116
X94.634 Y25.983
X94.216 Y25.185
X94.146 Y25.052
X94.09 Y24.95
X93.63 Y24.12
X93.558 Y23.991
X93.556 Y23.987
X93.478 Y23.854
X93.01 Y23.056
X92.93 Y22.923
X92.36 Y22.004
X92.353 Y21.992
X92.267 Y21.859
X91.746 Y21.061
X91.695 Y20.983
X91.658 Y20.928
X91.03 Y20.015
X91.018 Y19.997
X90.922 Y19.864
X90.345 Y19.066
X90.245 Y18.933
X89.638 Y18.135
X89.566 Y18.043
X88.897 Y17.204
X88.787 Y17.071
X88.118 Y16.273
X88.103 Y16.255
X88.002 Y16.14
X87.417 Y15.475
X87.304 Y15.347
X87.299 Y15.342
X87.171 Y15.203
X86.563 Y14.544
X86.506 Y14.482
X86.437 Y14.411
X85.707 Y13.657
X85.664 Y13.613
X85.529 Y13.48
X84.909 Y12.87
X84.854 Y12.815
X84.776 Y12.742
X84.005 Y12.017
X83.978 Y11.992
X83.845 Y11.873
X83.179 Y11.277
X83.115 Y11.219
X83.046 Y11.16
X82.248 Y10.479
X82.179 Y10.421
X81.317 Y9.719
X81.194 Y9.623
X80.385 Y8.997
X80.334 Y8.958
X79.431 Y8.293
X79.321 Y8.214
X78.483 Y7.628
X78.389 Y7.563
X77.486 Y6.963
X77.458 Y6.944
X77.325 Y6.859
X76.527 Y6.356
X76.434 Y6.298
X76.394 Y6.273
X75.462 Y5.717
X75.329 Y5.64
X74.531 Y5.189
X74.398 Y5.114
X74.374 Y5.101
X74.265 Y5.042
X73.377 Y4.569
X73.333 Y4.546
X73.2 Y4.478
X72.321 Y4.037
X72.269 Y4.011
X72.136 Y3.947
X71.338 Y3.571
X71.204 Y3.508
X71.197 Y3.505
X71.071 Y3.448
X70.14 Y3.036
X70.007 Y2.98
X69.024 Y2.574
X68.942 Y2.541
X67.989 Y2.175
X67.878 Y2.132
X67.745 Y2.084
X66.814 Y1.752
X66.681 Y1.706
X65.616 Y1.356
X65.483 Y1.315
X64.552 Y1.035
X64.419 Y0.995
X64.357 Y0.978
X63.354 Y0.703
X63.221 Y0.667
X62.955 Y0.601
X62.157 Y0.404
X62.024 Y0.372
X60.959 Y0.138
X60.826 Y0.11
X59.762 Y-0.097
X59.629 Y-0.121
X58.564 Y-0.3
X58.431 Y-0.322
X58.213 Y-0.353
X57.274 Y-0.486
X57.234 Y-0.491
X57.101 Y-0.507
X56.135 Y-0.619
X56.036 Y-0.63
X55.903 Y-0.643
X54.839 Y-0.739
X54.706 Y-0.749
X53.641 Y-0.818
X53.508 Y-0.826
X53.375 Y-0.832
X52.311 Y-0.872
X52.177 Y-0.876
X51.113 Y-0.889
X50.98 Y-0.891
X50.847 Y-0.889
X49.782 Y-0.876
X49.649 Y-0.872
X48.585 Y-0.831
X48.452 Y-0.826
X48.319 Y-0.818
X47.254 Y-0.749
X47.121 Y-0.739
X46.057 Y-0.643
X45.924 Y-0.63
X45.791 Y-0.614
X44.859 Y-0.507
X44.726 Y-0.491
X44.687 Y-0.486
X43.662 Y-0.34
X43.529 Y-0.322
X43.396 Y-0.3
X42.331 Y-0.121
X42.198 Y-0.096
X41.134 Y0.11
X41.001 Y0.138
X39.936 Y0.373
X39.803 Y0.405
X38.872 Y0.635
X38.739 Y0.667
X38.606 Y0.703
X37.604 Y0.978
X37.541 Y0.995
X37.408 Y1.035
X36.477 Y1.315
X36.344 Y1.356
X35.279 Y1.706
X35.146 Y1.752
X34.215 Y2.084
X34.082 Y2.132
X33.972 Y2.175
X33.017 Y2.541
X32.937 Y2.574
X31.953 Y2.98
X31.82 Y3.037
X30.889 Y3.449
X30.764 Y3.505
X30.756 Y3.508
X30.622 Y3.571
X29.824 Y3.948
X29.691 Y4.011
X29.64 Y4.037
X28.76 Y4.479
X28.627 Y4.546
X28.584 Y4.569
X27.695 Y5.043
X27.587 Y5.101
X27.562 Y5.114
X27.429 Y5.19
X26.631 Y5.64
X26.498 Y5.717
X25.566 Y6.274
X25.527 Y6.298
X25.433 Y6.356
X24.635 Y6.86
X24.502 Y6.945
X24.475 Y6.963
X23.571 Y7.564
X23.478 Y7.628
X22.639 Y8.215
X22.53 Y8.293
X22.506 Y8.31
X21.627 Y8.958
X21.575 Y8.998
X20.767 Y9.623
X20.643 Y9.72
X19.781 Y10.421
X19.712 Y10.479
X18.914 Y11.161
X18.846 Y11.219
X18.104 Y11.884
X17.982 Y11.993
X17.956 Y12.017
X17.184 Y12.742
X17.107 Y12.815
X17.051 Y12.87
X16.386 Y13.526
X16.297 Y13.613
X16.252 Y13.658
X15.524 Y14.411
X15.454 Y14.483
X15.397 Y14.544
X14.784 Y15.209
X14.661 Y15.342
X14.656 Y15.348
X14.543 Y15.475
X13.958 Y16.14
X13.857 Y16.255
X13.842 Y16.273
X13.174 Y17.071
X13.064 Y17.204
X12.394 Y18.043
X12.322 Y18.135
X11.716 Y18.933
X11.616 Y19.066
X11.039 Y19.864
X10.943 Y19.997
X10.93 Y20.015
X10.303 Y20.928
X10.265 Y20.984
X10.214 Y21.061
X9.693 Y21.859
X9.607 Y21.992
X9.031 Y22.923
X8.951 Y23.056
X8.483 Y23.854
X8.405 Y23.987
X8.402 Y23.992
X8.33 Y24.12
X7.87 Y24.95
X7.814 Y25.052
X7.744 Y25.185
X7.326 Y25.983
X7.257 Y26.116
X7.205 Y26.22
X6.797 Y27.047
X6.732 Y27.18
X6.672 Y27.306
X6.238 Y28.244
X6.179 Y28.377
X5.775 Y29.308
X5.741 Y29.386
X5.719 Y29.441
X5.341 Y30.372
X5.287 Y30.505
X5.237 Y30.638
X4.886 Y31.569
X4.837 Y31.702
X4.512 Y32.633
X4.465 Y32.766
X4.422 Y32.899
X4.122 Y33.83
X4.079 Y33.963
X4.04 Y34.096
X3.765 Y35.027
X3.745 Y35.094
X3.727 Y35.16
X3.441 Y36.224
X3.407 Y36.357
X3.149 Y37.421
X3.119 Y37.554
X2.889 Y38.618
X2.862 Y38.751
X2.659 Y39.815
X2.635 Y39.948
X2.46 Y41.012
X2.439 Y41.145
X2.415 Y41.317
X2.282 Y42.274
X2.272 Y42.342
X2.257 Y42.475
X2.136 Y43.539
X2.122 Y43.672
X2.029 Y44.736
X2.017 Y44.869
X2.016 Y44.896
X1.95 Y45.933
X1.942 Y46.066
X1.936 Y46.199
X1.895 Y47.263
X1.891 Y47.396
X1.887 Y47.662
X1.882 Y48.058
Y48.059
G3 X1.479 Y48.361 I-0.317 J-0.004
G0 Z5.
X1.503 Y47.744
Z4.931
G1 Z-0.356 F200.
G3 X1.882 Y48.059 I0.062 J0.311
G1 X1.877 Y48.46
X1.876 Y48.593
Y48.727
X1.881 Y49.126
X1.889 Y49.791
X1.891 Y49.924
X1.896 Y50.057
X1.936 Y51.121
X1.942 Y51.254
X1.95 Y51.387
X2.016 Y52.421
X2.018 Y52.451
X2.029 Y52.584
X2.123 Y53.648
X2.136 Y53.781
X2.257 Y54.845
X2.273 Y54.978
X2.282 Y55.043
X2.421 Y56.042
X2.439 Y56.175
X2.46 Y56.308
X2.636 Y57.372
X2.66 Y57.505
X2.862 Y58.569
X2.889 Y58.702
X3.12 Y59.766
X3.15 Y59.899
X3.408 Y60.963
X3.442 Y61.096
X3.728 Y62.16
X3.745 Y62.222
X3.766 Y62.293
X4.041 Y63.224
X4.08 Y63.357
X4.123 Y63.49
X4.423 Y64.421
X4.466 Y64.554
X4.513 Y64.687
X4.838 Y65.618
X4.887 Y65.751
X5.238 Y66.682
X5.289 Y66.815
X5.342 Y66.948
X5.72 Y67.879
X5.741 Y67.93
X5.776 Y68.012
X6.181 Y68.943
X6.24 Y69.076
X6.273 Y69.149
X6.672 Y70.011
X6.733 Y70.14
X6.799 Y70.273
X7.205 Y71.097
X7.258 Y71.204
X7.328 Y71.337
X7.745 Y72.135
X7.816 Y72.268
X7.87 Y72.367
X8.332 Y73.2
X8.402 Y73.325
X8.407 Y73.333
X8.484 Y73.466
X8.952 Y74.264
X9.032 Y74.397
X9.6 Y75.313
X9.609 Y75.328
X9.695 Y75.461
X10.216 Y76.259
X10.265 Y76.334
X10.304 Y76.392
X10.853 Y77.19
X10.93 Y77.302
X10.945 Y77.323
X11.041 Y77.456
X11.618 Y78.254
X11.718 Y78.387
X12.324 Y79.185
X12.394 Y79.274
X12.429 Y79.318
X13.066 Y80.116
X13.175 Y80.249
X13.844 Y81.047
X13.857 Y81.062
X13.96 Y81.18
X14.545 Y81.845
X14.656 Y81.97
X14.663 Y81.978
X14.789 Y82.114
X15.399 Y82.776
X15.454 Y82.835
X15.526 Y82.909
X16.252 Y83.66
X16.299 Y83.707
X16.386 Y83.792
X17.051 Y84.448
X17.109 Y84.505
X17.184 Y84.576
X17.958 Y85.303
X17.982 Y85.326
X18.115 Y85.445
X18.781 Y86.041
X18.848 Y86.101
X18.914 Y86.158
X19.712 Y86.839
X19.783 Y86.899
X20.643 Y87.599
X20.769 Y87.697
X21.575 Y88.321
X21.629 Y88.362
X22.531 Y89.027
X22.639 Y89.104
X23.479 Y89.692
X23.571 Y89.755
X24.369 Y90.286
X24.476 Y90.357
X24.502 Y90.374
X24.635 Y90.459
X25.433 Y90.963
X25.528 Y91.022
X25.566 Y91.045
X26.418 Y91.554
X26.498 Y91.602
X26.631 Y91.679
X27.429 Y92.13
X27.562 Y92.205
X27.589 Y92.219
X27.695 Y92.276
X28.494 Y92.702
X28.586 Y92.751
X28.627 Y92.773
X28.76 Y92.84
X29.642 Y93.283
X29.691 Y93.308
X29.824 Y93.371
X30.622 Y93.748
X30.756 Y93.811
X30.765 Y93.815
X30.889 Y93.871
X31.687 Y94.224
X31.82 Y94.283
X31.953 Y94.339
X32.884 Y94.724
X32.939 Y94.746
X33.017 Y94.778
X33.973 Y95.145
X34.082 Y95.187
X34.215 Y95.236
X35.146 Y95.567
X35.279 Y95.614
X36.284 Y95.943
X36.344 Y95.963
X36.477 Y96.005
X37.408 Y96.285
X37.541 Y96.325
X37.605 Y96.342
X38.606 Y96.616
X38.739 Y96.652
X38.872 Y96.685
X39.803 Y96.915
X39.936 Y96.947
X41.001 Y97.182
X41.134 Y97.21
X42.198 Y97.416
X42.331 Y97.441
X43.396 Y97.62
X43.529 Y97.641
X43.662 Y97.66
X44.593 Y97.792
X44.688 Y97.806
X44.726 Y97.811
X44.859 Y97.827
X45.826 Y97.939
X45.924 Y97.95
X46.057 Y97.963
X47.121 Y98.059
X47.254 Y98.069
X48.319 Y98.138
X48.452 Y98.146
X48.585 Y98.151
X49.516 Y98.187
X49.649 Y98.192
X49.782 Y98.196
X50.847 Y98.209
X50.98 Y98.211
X51.113 Y98.209
X52.177 Y98.196
X52.311 Y98.192
X52.444 Y98.187
X53.375 Y98.152
X53.508 Y98.146
X53.641 Y98.138
X54.706 Y98.069
X54.839 Y98.059
X55.903 Y97.963
X56.036 Y97.95
X56.135 Y97.939
X57.101 Y97.827
X57.234 Y97.811
X57.273 Y97.806
X57.367 Y97.792
X58.298 Y97.66
X58.431 Y97.642
X58.564 Y97.62
X59.629 Y97.441
X59.762 Y97.416
X60.826 Y97.21
X60.959 Y97.182
X62.024 Y96.947
X62.157 Y96.915
X63.088 Y96.685
X63.221 Y96.652
X63.354 Y96.617
X64.355 Y96.342
X64.419 Y96.325
X64.552 Y96.285
X65.483 Y96.005
X65.616 Y95.963
X65.677 Y95.943
X66.681 Y95.614
X66.814 Y95.567
X67.745 Y95.236
X67.878 Y95.187
X67.987 Y95.145
X68.942 Y94.778
X69.021 Y94.746
X69.076 Y94.724
X70.007 Y94.339
X70.14 Y94.283
X71.071 Y93.871
X71.195 Y93.815
X71.204 Y93.811
X71.338 Y93.748
X72.136 Y93.371
X72.269 Y93.308
X72.318 Y93.283
X73.2 Y92.84
X73.333 Y92.773
X73.374 Y92.751
X73.466 Y92.702
X74.265 Y92.276
X74.371 Y92.219
X74.398 Y92.205
X74.531 Y92.129
X75.329 Y91.678
X75.462 Y91.602
X75.541 Y91.554
X76.394 Y91.045
X76.432 Y91.022
X76.527 Y90.962
X77.325 Y90.459
X77.458 Y90.374
X77.483 Y90.357
X77.591 Y90.286
X78.389 Y89.755
X78.48 Y89.692
X79.321 Y89.104
X79.428 Y89.027
X79.454 Y89.008
X80.331 Y88.362
X80.385 Y88.321
X80.518 Y88.218
X81.191 Y87.697
X81.317 Y87.598
X81.359 Y87.564
X82.176 Y86.899
X82.248 Y86.839
X83.046 Y86.157
X83.112 Y86.101
X83.179 Y86.041
X83.854 Y85.436
X83.978 Y85.325
X84.002 Y85.303
X84.776 Y84.575
X84.851 Y84.505
X84.909 Y84.448
X85.574 Y83.792
X85.661 Y83.707
X85.707 Y83.66
X86.434 Y82.909
X86.506 Y82.835
X86.56 Y82.776
X87.174 Y82.111
X87.296 Y81.978
X87.304 Y81.97
X87.415 Y81.845
X87.999 Y81.18
X88.103 Y81.062
X88.115 Y81.047
X88.784 Y80.249
X88.894 Y80.116
X89.531 Y79.318
X89.566 Y79.274
X89.636 Y79.185
X90.242 Y78.387
X90.342 Y78.254
X90.919 Y77.456
X91.015 Y77.323
X91.03 Y77.302
X91.163 Y77.108
X91.564 Y76.525
X91.655 Y76.392
X91.695 Y76.333
X91.744 Y76.259
X92.265 Y75.461
X92.351 Y75.328
X92.36 Y75.312
X92.927 Y74.397
X93.007 Y74.264
X93.475 Y73.466
X93.553 Y73.333
X93.558 Y73.325
X93.628 Y73.2
X94.09 Y72.366
X94.144 Y72.268
X94.214 Y72.135
X94.632 Y71.337
X94.701 Y71.204
X94.755 Y71.096
X95.161 Y70.273
X95.226 Y70.14
X95.287 Y70.01
X95.687 Y69.149
X95.72 Y69.076
X95.779 Y68.943
X96.183 Y68.012
X96.219 Y67.93
X96.24 Y67.879
X96.618 Y66.947
X96.671 Y66.815
X96.722 Y66.682
X97.073 Y65.751
X97.122 Y65.618
X97.447 Y64.687
X97.494 Y64.554
X97.537 Y64.421
X97.837 Y63.49
X97.88 Y63.357
X97.919 Y63.224
X98.194 Y62.293
X98.215 Y62.222
X98.232 Y62.16
X98.518 Y61.096
X98.552 Y60.963
X98.81 Y59.899
X98.84 Y59.766
X99.07 Y58.702
X99.098 Y58.569
X99.3 Y57.505
X99.324 Y57.372
X99.499 Y56.308
X99.521 Y56.175
X99.539 Y56.042
X99.678 Y55.043
X99.687 Y54.978
X99.703 Y54.845
X99.824 Y53.781
X99.837 Y53.648
X99.931 Y52.584
X99.942 Y52.451
X99.944 Y52.421
X100.01 Y51.387
X100.018 Y51.254
X100.024 Y51.121
X100.064 Y50.057
X100.069 Y49.924
X100.071 Y49.791
X100.083 Y48.86
X100.084 Y48.727
Y48.593
X100.081 Y48.327
X100.071 Y47.529
X100.069 Y47.396
X100.065 Y47.263
X100.024 Y46.199
X100.018 Y46.066
X100.01 Y45.933
X99.944 Y44.895
X99.943 Y44.869
X99.932 Y44.736
X99.838 Y43.672
X99.824 Y43.539
X99.809 Y43.406
X99.703 Y42.475
X99.688 Y42.342
X99.678 Y42.273
X99.54 Y41.278
X99.521 Y41.145
X99.5 Y41.012
X99.325 Y39.948
X99.301 Y39.815
X99.099 Y38.751
X99.071 Y38.618
X98.841 Y37.554
X98.811 Y37.421
X98.553 Y36.357
X98.519 Y36.224
X98.233 Y35.16
X98.215 Y35.094
X98.195 Y35.027
X97.92 Y34.096
X97.881 Y33.963
X97.839 Y33.83
X97.539 Y32.899
X97.495 Y32.766
X97.449 Y32.633
X97.123 Y31.702
X97.075 Y31.569
X96.723 Y30.638
X96.673 Y30.505
X96.618 Y30.369
X96.242 Y29.441
X96.219 Y29.386
X96.185 Y29.308
X95.781 Y28.377
X95.722 Y28.244
X95.687 Y28.167
X95.287 Y27.306
X95.228 Y27.18
X95.163 Y27.047
X94.755 Y26.22
X94.704 Y26.116
X94.634 Y25.983
X94.216 Y25.185
X94.146 Y25.052
X94.09 Y24.95
X93.63 Y24.12
X93.558 Y23.991
X93.556 Y23.987
X93.478 Y23.854
X93.01 Y23.056
X92.93 Y22.923
X92.36 Y22.004
X92.353 Y21.992
X92.267 Y21.859
X91.746 Y21.061
X91.695 Y20.983
X91.658 Y20.928
X91.475 Y20.662
X91.109 Y20.13
X91.03 Y20.015
X91.018 Y19.997
X90.922 Y19.864
X90.345 Y19.066
X90.245 Y18.933
X89.638 Y18.135
X89.566 Y18.043
X89.534 Y18.002
X88.897 Y17.204
X88.787 Y17.071
X88.118 Y16.273
X88.103 Y16.255
X88.002 Y16.14
X87.417 Y15.475
X87.304 Y15.347
X87.299 Y15.342
X87.171 Y15.203
X86.563 Y14.544
X86.506 Y14.482
X86.437 Y14.411
X85.707 Y13.657
X85.664 Y13.613
X85.574 Y13.525
X84.909 Y12.87
X84.854 Y12.815
X84.776 Y12.742
X84.005 Y12.017
X83.978 Y11.992
X83.845 Y11.873
X83.179 Y11.277
X83.115 Y11.219
X83.046 Y11.16
X82.248 Y10.478
X82.179 Y10.421
X81.317 Y9.719
X81.194 Y9.623
X80.385 Y8.997
X80.334 Y8.958
X79.431 Y8.293
X79.321 Y8.214
X78.483 Y7.628
X78.389 Y7.563
X77.591 Y7.032
X77.486 Y6.963
X77.458 Y6.944
X77.325 Y6.859
X76.527 Y6.356
X76.434 Y6.298
X76.394 Y6.273
X75.544 Y5.766
X75.462 Y5.717
X75.329 Y5.64
X74.531 Y5.189
X74.398 Y5.114
X74.374 Y5.101
X74.265 Y5.042
X73.466 Y4.616
X73.377 Y4.569
X73.333 Y4.546
X73.2 Y4.478
X72.321 Y4.037
X72.269 Y4.011
X72.136 Y3.947
X71.338 Y3.571
X71.204 Y3.508
X71.197 Y3.505
X71.071 Y3.448
X70.273 Y3.095
X70.14 Y3.036
X70.007 Y2.98
X69.076 Y2.595
X69.024 Y2.574
X68.942 Y2.541
X67.99 Y2.175
X67.878 Y2.132
X67.745 Y2.084
X66.814 Y1.752
X66.681 Y1.706
X65.679 Y1.377
X65.616 Y1.356
X65.483 Y1.315
X64.552 Y1.035
X64.419 Y0.995
X64.357 Y0.978
X63.354 Y0.703
X63.221 Y0.667
X63.088 Y0.634
X62.157 Y0.404
X62.024 Y0.372
X60.959 Y0.138
X60.826 Y0.11
X59.762 Y-0.097
X59.629 Y-0.121
X58.564 Y-0.3
X58.431 Y-0.322
X58.298 Y-0.341
X57.367 Y-0.473
X57.274 Y-0.486
X57.234 Y-0.491
X57.101 Y-0.507
X56.136 Y-0.619
X56.036 Y-0.63
X55.903 Y-0.643
X54.839 Y-0.739
X54.706 Y-0.75
X53.641 Y-0.818
X53.508 Y-0.826
X53.375 Y-0.832
X52.444 Y-0.867
X52.311 Y-0.872
X52.177 Y-0.876
X51.113 Y-0.889
X50.98 Y-0.891
X50.847 Y-0.889
X49.782 Y-0.876
X49.649 Y-0.872
X49.516 Y-0.867
X48.585 Y-0.831
X48.452 Y-0.826
X48.319 Y-0.818
X47.254 Y-0.749
X47.121 Y-0.739
X46.057 Y-0.643
X45.924 Y-0.63
X45.825 Y-0.619
X44.859 Y-0.507
X44.726 Y-0.491
X44.687 Y-0.486
X44.593 Y-0.472
X43.662 Y-0.34
X43.529 Y-0.322
X43.396 Y-0.3
X42.331 Y-0.121
X42.198 Y-0.096
X41.134 Y0.11
X41.001 Y0.138
X39.936 Y0.373
X39.803 Y0.405
X38.872 Y0.635
X38.739 Y0.667
X38.606 Y0.703
X37.604 Y0.978
X37.541 Y0.995
X37.408 Y1.035
X36.477 Y1.315
X36.344 Y1.356
X36.283 Y1.377
X35.279 Y1.706
X35.146 Y1.752
X34.215 Y2.084
X34.082 Y2.132
X33.972 Y2.175
X33.017 Y2.541
X32.937 Y2.574
X32.884 Y2.595
X31.953 Y2.98
X31.82 Y3.037
X30.889 Y3.449
X30.764 Y3.505
X30.756 Y3.508
X30.622 Y3.571
X29.824 Y3.948
X29.691 Y4.011
X29.64 Y4.037
X28.76 Y4.479
X28.627 Y4.546
X28.584 Y4.569
X28.494 Y4.617
X27.695 Y5.043
X27.587 Y5.101
X27.562 Y5.114
X27.429 Y5.19
X26.631 Y5.64
X26.498 Y5.717
X26.417 Y5.766
X25.566 Y6.274
X25.527 Y6.298
X25.433 Y6.356
X24.635 Y6.86
X24.502 Y6.945
X24.475 Y6.963
X24.369 Y7.033
X23.571 Y7.564
X23.477 Y7.628
X22.639 Y8.215
X22.53 Y8.293
X22.506 Y8.31
X21.627 Y8.958
X21.575 Y8.998
X21.442 Y9.101
X20.767 Y9.623
X20.643 Y9.72
X20.599 Y9.756
X19.781 Y10.421
X19.712 Y10.479
X18.914 Y11.161
X18.846 Y11.219
X18.104 Y11.884
X17.982 Y11.993
X17.956 Y12.017
X17.184 Y12.742
X17.107 Y12.815
X17.051 Y12.87
X16.386 Y13.526
X16.297 Y13.613
X16.252 Y13.658
X15.524 Y14.411
X15.454 Y14.483
X15.397 Y14.544
X14.784 Y15.209
X14.661 Y15.342
X14.656 Y15.348
X14.543 Y15.475
X13.958 Y16.14
X13.857 Y16.255
X13.842 Y16.273
X13.174 Y17.071
X13.064 Y17.204
X12.427 Y18.002
X12.394 Y18.043
X12.322 Y18.135
X11.716 Y18.933
X11.616 Y19.066
X11.039 Y19.864
X10.943 Y19.997
X10.93 Y20.015
X10.797 Y20.209
X10.394 Y20.795
X10.303 Y20.928
X10.265 Y20.984
X10.214 Y21.061
X9.693 Y21.859
X9.607 Y21.992
X9.6 Y22.004
X9.031 Y22.923
X8.951 Y23.056
X8.483 Y23.854
X8.405 Y23.987
X8.402 Y23.992
X8.33 Y24.12
X7.87 Y24.95
X7.814 Y25.052
X7.744 Y25.185
X7.326 Y25.983
X7.257 Y26.116
X7.205 Y26.22
X6.797 Y27.047
X6.732 Y27.18
X6.672 Y27.306
X6.273 Y28.168
X6.238 Y28.244
X6.179 Y28.377
X5.775 Y29.308
X5.741 Y29.386
X5.719 Y29.441
X5.341 Y30.372
X5.287 Y30.505
X5.237 Y30.638
X4.886 Y31.569
X4.837 Y31.702
X4.511 Y32.633
X4.465 Y32.766
X4.422 Y32.899
X4.121 Y33.83
X4.079 Y33.963
X4.04 Y34.096
X3.765 Y35.027
X3.745 Y35.094
X3.727 Y35.16
X3.441 Y36.224
X3.407 Y36.357
X3.149 Y37.421
X3.119 Y37.554
X2.889 Y38.618
X2.862 Y38.751
X2.659 Y39.815
X2.635 Y39.948
X2.46 Y41.012
X2.439 Y41.145
X2.42 Y41.278
X2.282 Y42.273
X2.272 Y42.342
X2.257 Y42.475
X2.149 Y43.426
X2.136 Y43.539
X2.122 Y43.672
X2.029 Y44.736
X2.017 Y44.869
X2.016 Y44.896
X1.95 Y45.933
X1.942 Y46.066
X1.936 Y46.199
X1.895 Y47.263
X1.891 Y47.396
X1.889 Y47.529
X1.882 Y48.057
Y48.059
G3 X1.495 Y48.365 I-0.317 J-0.004
G0 Z5.
X1.289 Y47.734
Z4.918
G1 Z-0.119 F200.
X1.296 Z-0.181
X1.316 Y47.735 Z-0.24
X1.35 Z-0.294
X1.394 Y47.736 Z-0.338
X1.447 Z-0.371
X1.507 Y47.737 Z-0.392
X1.569 Y47.738 Z-0.399
G3 X1.882 Y48.059 I-0.004 J0.317
G1 X1.877 Y48.46
X1.876 Y48.593
Y48.727
X1.877 Y48.86
X1.889 Y49.791
X1.891 Y49.924
X1.896 Y50.057
X1.936 Y51.121
X1.942 Y51.254
X1.95 Y51.387
X2.016 Y52.421
X2.018 Y52.451
X2.029 Y52.584
X2.123 Y53.648
X2.136 Y53.781
X2.151 Y53.914
X2.257 Y54.845
X2.273 Y54.978
X2.282 Y55.043
X2.42 Y56.042
X2.439 Y56.175
X2.46 Y56.308
X2.636 Y57.372
X2.66 Y57.505
X2.862 Y58.569
X2.889 Y58.702
X3.119 Y59.766
X3.15 Y59.899
X3.408 Y60.963
X3.442 Y61.096
X3.728 Y62.16
X3.745 Y62.222
X3.766 Y62.293
X4.041 Y63.224
X4.08 Y63.357
X4.123 Y63.49
X4.423 Y64.421
X4.466 Y64.554
X4.513 Y64.687
X4.838 Y65.618
X4.887 Y65.751
X5.238 Y66.682
X5.289 Y66.815
X5.342 Y66.948
X5.72 Y67.879
X5.741 Y67.93
X5.776 Y68.012
X6.181 Y68.943
X6.24 Y69.076
X6.273 Y69.149
X6.672 Y70.011
X6.733 Y70.14
X6.799 Y70.273
X7.205 Y71.097
X7.258 Y71.204
X7.328 Y71.337
X7.745 Y72.135
X7.816 Y72.268
X7.87 Y72.367
X8.332 Y73.2
X8.402 Y73.325
X8.407 Y73.333
X8.484 Y73.466
X8.952 Y74.264
X9.032 Y74.397
X9.6 Y75.313
X9.609 Y75.328
X9.695 Y75.461
X10.216 Y76.259
X10.265 Y76.334
X10.304 Y76.392
X10.398 Y76.528
X10.853 Y77.19
X10.93 Y77.302
X10.945 Y77.323
X11.041 Y77.456
X11.618 Y78.254
X11.718 Y78.387
X12.324 Y79.185
X12.394 Y79.274
X12.429 Y79.318
X13.066 Y80.116
X13.175 Y80.249
X13.733 Y80.914
X13.844 Y81.047
X13.857 Y81.062
X13.96 Y81.18
X14.545 Y81.845
X14.656 Y81.97
X14.663 Y81.978
X14.789 Y82.114
X15.399 Y82.776
X15.454 Y82.835
X15.526 Y82.909
X16.252 Y83.66
X16.299 Y83.707
X16.386 Y83.792
X17.051 Y84.448
X17.109 Y84.505
X17.184 Y84.576
X17.958 Y85.303
X17.982 Y85.326
X18.115 Y85.445
X18.781 Y86.041
X18.848 Y86.101
X18.914 Y86.158
X19.712 Y86.839
X19.783 Y86.899
X20.643 Y87.599
X20.769 Y87.697
X21.575 Y88.321
X21.629 Y88.362
X22.506 Y89.008
X22.531 Y89.027
X22.639 Y89.104
X23.479 Y89.692
X23.571 Y89.755
X24.369 Y90.286
X24.476 Y90.357
X24.502 Y90.374
X24.635 Y90.459
X25.433 Y90.963
X25.528 Y91.022
X25.566 Y91.045
X26.418 Y91.554
X26.498 Y91.602
X26.631 Y91.679
X27.429 Y92.13
X27.562 Y92.205
X27.589 Y92.219
X27.695 Y92.276
X28.494 Y92.702
X28.586 Y92.751
X28.627 Y92.773
X28.76 Y92.84
X29.558 Y93.241
X29.642 Y93.283
X29.691 Y93.308
X29.824 Y93.371
X30.622 Y93.748
X30.756 Y93.811
X30.765 Y93.815
X30.889 Y93.871
X31.687 Y94.224
X31.82 Y94.283
X31.953 Y94.339
X32.884 Y94.724
X32.939 Y94.746
X33.017 Y94.778
X33.973 Y95.145
X34.082 Y95.187
X34.215 Y95.236
X35.146 Y95.567
X35.279 Y95.614
X36.284 Y95.943
X36.344 Y95.963
X36.477 Y96.005
X37.408 Y96.285
X37.541 Y96.325
X37.605 Y96.342
X38.606 Y96.616
X38.739 Y96.652
X38.872 Y96.685
X39.803 Y96.915
X39.936 Y96.947
X41.001 Y97.182
X41.134 Y97.21
X42.198 Y97.416
X42.331 Y97.441
X43.396 Y97.62
X43.529 Y97.641
X43.662 Y97.66
X44.593 Y97.792
X44.688 Y97.806
X44.726 Y97.811
X44.859 Y97.827
X45.826 Y97.939
X45.924 Y97.95
X46.057 Y97.963
X47.121 Y98.059
X47.254 Y98.069
X48.319 Y98.138
X48.452 Y98.146
X48.585 Y98.151
X49.516 Y98.187
X49.649 Y98.192
X49.782 Y98.196
X50.847 Y98.209
X50.98 Y98.211
X51.113 Y98.209
X52.177 Y98.196
X52.311 Y98.192
X52.444 Y98.187
X53.375 Y98.152
X53.508 Y98.146
X53.641 Y98.138
X54.706 Y98.069
X54.839 Y98.059
X55.903 Y97.963
X56.036 Y97.95
X56.135 Y97.939
X57.101 Y97.827
X57.234 Y97.811
X57.273 Y97.806
X57.367 Y97.792
X58.298 Y97.66
X58.431 Y97.642
X58.564 Y97.62
X59.629 Y97.441
X59.762 Y97.416
X60.826 Y97.21
X60.959 Y97.182
X62.024 Y96.947
X62.157 Y96.915
X63.088 Y96.685
X63.221 Y96.652
X63.354 Y96.617
X64.355 Y96.342
X64.419 Y96.325
X64.552 Y96.285
X65.483 Y96.005
X65.616 Y95.963
X65.677 Y95.943
X66.681 Y95.614
X66.814 Y95.567
X67.745 Y95.236
X67.878 Y95.187
X67.987 Y95.145
X68.942 Y94.778
X69.021 Y94.746
X69.076 Y94.724
X70.007 Y94.339
X70.14 Y94.283
X70.294 Y94.214
X71.071 Y93.871
X71.195 Y93.815
X71.204 Y93.811
X71.338 Y93.748
X72.136 Y93.371
X72.269 Y93.308
X72.318 Y93.283
X72.535 Y93.174
X73.2 Y92.84
X73.333 Y92.773
X73.374 Y92.751
X73.466 Y92.702
X74.265 Y92.276
X74.371 Y92.219
X74.398 Y92.205
X74.531 Y92.13
X75.329 Y91.678
X75.462 Y91.602
X75.541 Y91.554
X76.394 Y91.045
X76.432 Y91.022
X76.527 Y90.962
X77.325 Y90.459
X77.458 Y90.374
X77.483 Y90.357
X77.591 Y90.286
X78.389 Y89.755
X78.48 Y89.692
X78.522 Y89.663
X79.321 Y89.104
X79.428 Y89.027
X79.454 Y89.008
X80.331 Y88.362
X80.385 Y88.321
X80.518 Y88.218
X81.191 Y87.697
X81.317 Y87.598
X81.359 Y87.564
X82.176 Y86.899
X82.248 Y86.839
X83.046 Y86.157
X83.112 Y86.101
X83.179 Y86.041
X83.854 Y85.436
X83.978 Y85.325
X84.002 Y85.303
X84.776 Y84.575
X84.851 Y84.505
X84.909 Y84.448
X85.574 Y83.792
X85.661 Y83.707
X85.707 Y83.66
X86.434 Y82.909
X86.506 Y82.835
X86.56 Y82.776
X87.174 Y82.111
X87.296 Y81.978
X87.304 Y81.97
X87.415 Y81.845
X87.999 Y81.18
X88.103 Y81.062
X88.115 Y81.047
X88.784 Y80.249
X88.894 Y80.116
X89.531 Y79.318
X89.566 Y79.274
X89.636 Y79.185
X90.242 Y78.387
X90.342 Y78.254
X90.919 Y77.456
X91.015 Y77.323
X91.03 Y77.302
X91.107 Y77.19
X91.564 Y76.525
X91.655 Y76.392
X91.695 Y76.333
X91.744 Y76.259
X92.265 Y75.461
X92.351 Y75.328
X92.36 Y75.312
X92.927 Y74.397
X93.007 Y74.264
X93.475 Y73.466
X93.553 Y73.333
X93.558 Y73.325
X93.628 Y73.2
X94.09 Y72.367
X94.144 Y72.268
X94.214 Y72.135
X94.632 Y71.337
X94.701 Y71.204
X94.755 Y71.096
X95.161 Y70.273
X95.226 Y70.14
X95.287 Y70.01
X95.687 Y69.149
X95.72 Y69.076
X95.779 Y68.943
X96.183 Y68.012
X96.219 Y67.93
X96.24 Y67.879
X96.618 Y66.947
X96.671 Y66.815
X96.722 Y66.682
X97.073 Y65.751
X97.122 Y65.618
X97.447 Y64.687
X97.494 Y64.554
X97.537 Y64.421
X97.837 Y63.49
X97.88 Y63.357
X97.919 Y63.224
X98.194 Y62.293
X98.215 Y62.222
X98.232 Y62.16
X98.518 Y61.096
X98.552 Y60.963
X98.81 Y59.899
X98.84 Y59.766
X99.07 Y58.702
X99.098 Y58.569
X99.3 Y57.505
X99.324 Y57.372
X99.5 Y56.308
X99.521 Y56.175
X99.539 Y56.042
X99.678 Y55.043
X99.687 Y54.978
X99.703 Y54.845
X99.811 Y53.891
X99.824 Y53.781
X99.837 Y53.648
X99.931 Y52.584
X99.942 Y52.451
X99.944 Y52.421
X100.01 Y51.387
X100.018 Y51.254
X100.024 Y51.121
X100.064 Y50.057
X100.069 Y49.924
X100.071 Y49.791
X100.083 Y48.86
X100.084 Y48.727
Y48.593
X100.083 Y48.46
X100.071 Y47.529
X100.069 Y47.396
X100.065 Y47.263
X100.024 Y46.199
X100.018 Y46.066
X100.01 Y45.933
X99.944 Y44.895
X99.943 Y44.869
X99.932 Y44.736
X99.838 Y43.672
X99.824 Y43.539
X99.809 Y43.406
X99.703 Y42.475
X99.688 Y42.342
X99.678 Y42.273
X99.54 Y41.278
X99.521 Y41.145
X99.5 Y41.012
X99.325 Y39.948
X99.301 Y39.815
X99.099 Y38.751
X99.071 Y38.618
X98.841 Y37.554
X98.811 Y37.421
X98.553 Y36.357
X98.519 Y36.224
X98.233 Y35.16
X98.215 Y35.094
X98.195 Y35.027
X97.92 Y34.096
X97.881 Y33.963
X97.839 Y33.83
X97.539 Y32.899
X97.495 Y32.766
X97.449 Y32.633
X97.123 Y31.702
X97.075 Y31.569
X96.723 Y30.638
X96.673 Y30.505
X96.618 Y30.369
X96.242 Y29.441
X96.219 Y29.386
X96.185 Y29.308
X95.781 Y28.377
X95.722 Y28.244
X95.687 Y28.167
X95.287 Y27.306
X95.228 Y27.18
X95.163 Y27.047
X94.755 Y26.22
X94.704 Y26.116
X94.634 Y25.983
X94.216 Y25.185
X94.146 Y25.052
X94.09 Y24.949
X93.63 Y24.12
X93.558 Y23.991
X93.556 Y23.987
X93.478 Y23.854
X93.01 Y23.056
X92.93 Y22.923
X92.36 Y22.004
X92.353 Y21.992
X92.267 Y21.859
X91.746 Y21.061
X91.695 Y20.983
X91.658 Y20.928
X91.562 Y20.789
X91.109 Y20.13
X91.03 Y20.015
X91.018 Y19.997
X90.922 Y19.864
X90.345 Y19.066
X90.245 Y18.933
X89.638 Y18.135
X89.566 Y18.043
X89.534 Y18.002
X88.897 Y17.204
X88.787 Y17.071
X88.118 Y16.273
X88.103 Y16.255
X88.002 Y16.14
X87.417 Y15.475
X87.304 Y15.347
X87.299 Y15.342
X87.171 Y15.203
X86.563 Y14.544
X86.506 Y14.482
X86.437 Y14.411
X85.707 Y13.657
X85.664 Y13.613
X85.574 Y13.525
X84.909 Y12.87
X84.854 Y12.815
X84.776 Y12.742
X84.005 Y12.017
X83.978 Y11.992
X83.845 Y11.873
X83.179 Y11.277
X83.115 Y11.219
X83.046 Y11.16
X82.248 Y10.478
X82.179 Y10.421
X81.317 Y9.719
X81.194 Y9.623
X80.385 Y8.997
X80.334 Y8.958
X79.454 Y8.31
X79.431 Y8.293
X79.321 Y8.214
X78.483 Y7.628
X78.389 Y7.563
X77.591 Y7.032
X77.486 Y6.963
X77.458 Y6.944
X77.325 Y6.859
X76.527 Y6.356
X76.434 Y6.298
X76.394 Y6.273
X75.544 Y5.766
X75.462 Y5.717
X75.329 Y5.64
X74.531 Y5.189
X74.398 Y5.114
X74.374 Y5.101
X74.265 Y5.042
X73.466 Y4.616
X73.377 Y4.569
X73.333 Y4.546
X73.2 Y4.478
X72.402 Y4.077
X72.321 Y4.037
X72.269 Y4.011
X72.136 Y3.947
X71.338 Y3.571
X71.204 Y3.508
X71.197 Y3.505
X71.071 Y3.448
X70.273 Y3.095
X70.14 Y3.036
X70.007 Y2.98
X69.076 Y2.595
X69.024 Y2.574
X68.942 Y2.541
X67.99 Y2.175
X67.878 Y2.132
X67.745 Y2.084
X66.814 Y1.752
X66.681 Y1.706
X65.679 Y1.377
X65.616 Y1.356
X65.483 Y1.315
X64.552 Y1.035
X64.419 Y0.995
X64.357 Y0.978
X63.354 Y0.703
X63.221 Y0.667
X63.088 Y0.634
X62.157 Y0.404
X62.024 Y0.372
X60.959 Y0.138
X60.826 Y0.11
X59.762 Y-0.097
X59.629 Y-0.121
X58.564 Y-0.3
X58.431 Y-0.322
X58.298 Y-0.341
X57.367 Y-0.473
X57.274 Y-0.486
X57.234 Y-0.491
X57.101 Y-0.507
X56.136 Y-0.619
X56.036 Y-0.63
X55.903 Y-0.643
X54.839 Y-0.739
X54.706 Y-0.75
X53.641 Y-0.818
X53.508 Y-0.826
X53.375 Y-0.832
X52.444 Y-0.867
X52.311 Y-0.872
X52.177 Y-0.876
X51.113 Y-0.889
X50.98 Y-0.891
X50.847 Y-0.889
X49.782 Y-0.876
X49.649 Y-0.872
X49.516 Y-0.867
X48.585 Y-0.831
X48.452 Y-0.826
X48.319 Y-0.818
X47.254 Y-0.749
X47.121 Y-0.739
X46.057 Y-0.643
X45.924 Y-0.63
X45.825 Y-0.619
X44.859 Y-0.507
X44.726 Y-0.491
X44.687 Y-0.486
X44.593 Y-0.472
X43.662 Y-0.34
X43.529 Y-0.322
X43.396 Y-0.3
X42.331 Y-0.121
X42.198 Y-0.096
X41.134 Y0.11
X41.001 Y0.138
X39.936 Y0.373
X39.803 Y0.405
X38.872 Y0.635
X38.739 Y0.667
X38.606 Y0.703
X37.604 Y0.978
X37.541 Y0.995
X37.408 Y1.035
X36.477 Y1.315
X36.344 Y1.356
X36.282 Y1.377
X35.279 Y1.706
X35.146 Y1.752
X34.215 Y2.084
X34.082 Y2.132
X33.971 Y2.175
X33.017 Y2.541
X32.937 Y2.574
X32.884 Y2.595
X31.953 Y2.98
X31.82 Y3.037
X31.664 Y3.106
X30.889 Y3.449
X30.764 Y3.505
X30.756 Y3.508
X30.622 Y3.571
X29.824 Y3.948
X29.691 Y4.011
X29.64 Y4.037
X28.76 Y4.479
X28.627 Y4.546
X28.584 Y4.569
X28.494 Y4.617
X27.695 Y5.043
X27.587 Y5.101
X27.562 Y5.114
X27.429 Y5.189
X26.631 Y5.64
X26.498 Y5.717
X26.417 Y5.766
X25.566 Y6.274
X25.527 Y6.298
X25.433 Y6.356
X24.635 Y6.86
X24.502 Y6.945
X24.475 Y6.963
X24.369 Y7.033
X23.571 Y7.564
X23.477 Y7.628
X23.437 Y7.656
X22.639 Y8.215
X22.53 Y8.293
X22.506 Y8.31
X21.708 Y8.898
X21.627 Y8.958
X21.575 Y8.998
X21.442 Y9.101
X20.767 Y9.623
X20.643 Y9.72
X20.599 Y9.756
X19.781 Y10.421
X19.712 Y10.479
X18.914 Y11.161
X18.846 Y11.219
X18.104 Y11.884
X17.982 Y11.993
X17.956 Y12.017
X17.184 Y12.742
X17.107 Y12.815
X17.051 Y12.87
X16.386 Y13.526
X16.297 Y13.613
X16.252 Y13.658
X15.524 Y14.411
X15.454 Y14.483
X15.397 Y14.544
X14.784 Y15.209
X14.661 Y15.342
X14.656 Y15.348
X14.543 Y15.475
X13.958 Y16.14
X13.857 Y16.255
X13.842 Y16.273
X13.173 Y17.071
X13.064 Y17.204
X12.427 Y18.002
X12.394 Y18.043
X12.322 Y18.135
X11.716 Y18.933
X11.616 Y19.066
X11.039 Y19.864
X10.943 Y19.997
X10.93 Y20.015
X10.851 Y20.13
X10.394 Y20.795
X10.303 Y20.928
X10.265 Y20.984
X10.214 Y21.061
X9.693 Y21.859
X9.607 Y21.992
X9.6 Y22.004
X9.031 Y22.923
X8.951 Y23.056
X8.483 Y23.854
X8.405 Y23.987
X8.402 Y23.992
X8.33 Y24.12
X7.87 Y24.95
X7.814 Y25.052
X7.744 Y25.185
X7.326 Y25.983
X7.257 Y26.116
X7.205 Y26.22
X6.797 Y27.047
X6.732 Y27.18
X6.672 Y27.306
X6.273 Y28.168
X6.238 Y28.244
X6.179 Y28.377
X5.775 Y29.308
X5.741 Y29.386
X5.719 Y29.441
X5.341 Y30.372
X5.287 Y30.505
X5.237 Y30.638
X4.885 Y31.569
X4.837 Y31.702
X4.511 Y32.633
X4.465 Y32.766
X4.422 Y32.899
X4.121 Y33.83
X4.079 Y33.963
X4.04 Y34.096
X3.765 Y35.027
X3.745 Y35.094
X3.727 Y35.16
X3.441 Y36.224
X3.407 Y36.357
X3.149 Y37.421
X3.119 Y37.554
X2.889 Y38.618
X2.862 Y38.751
X2.659 Y39.815
X2.635 Y39.948
X2.46 Y41.012
X2.439 Y41.145
X2.42 Y41.278
X2.282 Y42.273
X2.272 Y42.342
X2.257 Y42.475
X2.149 Y43.425
X2.136 Y43.539
X2.122 Y43.672
X2.028 Y44.736
X2.017 Y44.869
X2.016 Y44.895
X1.95 Y45.933
X1.942 Y46.066
X1.936 Y46.199
X1.895 Y47.263
X1.891 Y47.396
X1.889 Y47.529
X1.882 Y48.057
Y48.059
G3 X1.5 Y48.366 I-0.317 J-0.004
G1 X1.444 Y48.354 Z-0.392
X1.391 Y48.343 Z-0.369
X1.347 Y48.334 Z-0.334
X1.312 Y48.327 Z-0.289
X1.291 Y48.322 Z-0.235
X1.283 Y48.321 Z-0.178
G0 Z5.
X0.633 Y47.726
Z4.818
G1 Z-0.182 F200.
X0.641 Z-0.252
X0.665 Y47.727 Z-0.319
X0.703 Z-0.38
X0.753 Y47.728 Z-0.43
X0.813 Z-0.468
X0.88 Y47.729 Z-0.491
X0.951 Y47.73 Z-0.499
X1.569 Y47.738
G3 X1.882 Y48.059 I-0.004 J0.317
G1 X1.877 Y48.46
X1.876 Y48.593
Y48.727
X1.877 Y48.86
X1.889 Y49.791
X1.891 Y49.924
X1.896 Y50.057
X1.936 Y51.121
X1.942 Y51.254
X1.95 Y51.387
X2.016 Y52.421
X2.018 Y52.451
X2.029 Y52.584
X2.123 Y53.648
X2.136 Y53.781
X2.149 Y53.891
X2.257 Y54.845
X2.273 Y54.978
X2.282 Y55.044
X2.291 Y55.111
X2.42 Y56.042
X2.439 Y56.175
X2.46 Y56.308
X2.636 Y57.372
X2.66 Y57.505
X2.862 Y58.569
X2.889 Y58.702
X2.918 Y58.835
X3.119 Y59.766
X3.15 Y59.899
X3.182 Y60.032
X3.408 Y60.963
X3.442 Y61.096
X3.479 Y61.235
X3.728 Y62.16
X3.745 Y62.222
X3.766 Y62.293
X4.041 Y63.224
X4.08 Y63.357
X4.123 Y63.49
X4.423 Y64.421
X4.466 Y64.554
X4.513 Y64.687
X4.838 Y65.618
X4.887 Y65.751
X5.238 Y66.682
X5.289 Y66.815
X5.342 Y66.948
X5.72 Y67.879
X5.741 Y67.93
X5.776 Y68.012
X6.18 Y68.943
X6.24 Y69.076
X6.273 Y69.149
X6.672 Y70.011
X6.733 Y70.14
X6.799 Y70.273
X7.205 Y71.097
X7.258 Y71.204
X7.328 Y71.337
X7.745 Y72.135
X7.816 Y72.268
X7.87 Y72.367
X8.332 Y73.2
X8.402 Y73.325
X8.407 Y73.333
X8.484 Y73.466
X8.952 Y74.264
X9.032 Y74.397
X9.067 Y74.453
X9.526 Y75.195
X9.6 Y75.313
X9.609 Y75.328
X9.695 Y75.461
X10.216 Y76.259
X10.265 Y76.334
X10.304 Y76.392
X10.398 Y76.528
X10.853 Y77.19
X10.93 Y77.302
X10.945 Y77.323
X11.041 Y77.456
X11.618 Y78.254
X11.718 Y78.387
X12.324 Y79.185
X12.394 Y79.274
X12.428 Y79.318
X13.066 Y80.116
X13.175 Y80.249
X13.733 Y80.914
X13.844 Y81.047
X13.857 Y81.062
X13.96 Y81.18
X14.545 Y81.845
X14.656 Y81.97
X14.663 Y81.978
X14.789 Y82.114
X15.399 Y82.776
X15.454 Y82.835
X15.526 Y82.909
X16.169 Y83.574
X16.252 Y83.66
X16.299 Y83.707
X16.386 Y83.792
X17.051 Y84.448
X17.109 Y84.505
X17.184 Y84.576
X17.958 Y85.303
X17.982 Y85.326
X18.115 Y85.445
X18.781 Y86.041
X18.848 Y86.101
X18.914 Y86.158
X19.047 Y86.271
X19.712 Y86.839
X19.783 Y86.899
X20.643 Y87.599
X20.769 Y87.697
X21.575 Y88.321
X21.629 Y88.362
X22.506 Y89.008
X22.531 Y89.027
X22.639 Y89.104
X23.437 Y89.663
X23.479 Y89.692
X23.571 Y89.755
X24.369 Y90.286
X24.476 Y90.357
X24.502 Y90.374
X24.635 Y90.459
X25.433 Y90.963
X25.528 Y91.022
X25.566 Y91.045
X26.418 Y91.554
X26.498 Y91.602
X26.631 Y91.679
X27.429 Y92.13
X27.562 Y92.205
X27.589 Y92.219
X27.695 Y92.276
X28.494 Y92.702
X28.586 Y92.751
X28.627 Y92.773
X28.76 Y92.84
X29.558 Y93.241
X29.642 Y93.283
X29.691 Y93.308
X29.824 Y93.371
X30.622 Y93.748
X30.756 Y93.811
X30.765 Y93.815
X30.889 Y93.871
X31.687 Y94.224
X31.82 Y94.283
X31.953 Y94.339
X32.884 Y94.724
X32.939 Y94.746
X33.017 Y94.778
X33.973 Y95.145
X34.082 Y95.187
X34.215 Y95.236
X35.146 Y95.567
X35.279 Y95.614
X36.284 Y95.943
X36.344 Y95.963
X36.477 Y96.005
X37.408 Y96.285
X37.541 Y96.325
X37.605 Y96.342
X38.606 Y96.617
X38.739 Y96.652
X38.872 Y96.685
X39.803 Y96.915
X39.936 Y96.947
X41.001 Y97.182
X41.134 Y97.21
X42.198 Y97.416
X42.331 Y97.441
X43.396 Y97.62
X43.529 Y97.641
X43.662 Y97.66
X44.593 Y97.792
X44.688 Y97.806
X44.726 Y97.811
X44.859 Y97.827
X45.825 Y97.939
X45.924 Y97.95
X46.057 Y97.963
X46.988 Y98.047
X47.121 Y98.059
X47.254 Y98.069
X48.319 Y98.138
X48.452 Y98.146
X48.585 Y98.152
X49.516 Y98.187
X49.649 Y98.192
X49.782 Y98.196
X50.847 Y98.209
X50.98 Y98.211
X51.113 Y98.209
X52.177 Y98.196
X52.311 Y98.192
X52.444 Y98.187
X53.375 Y98.152
X53.508 Y98.146
X53.641 Y98.138
X54.706 Y98.069
X54.839 Y98.059
X54.972 Y98.047
X55.903 Y97.963
X56.036 Y97.95
X56.135 Y97.939
X57.101 Y97.827
X57.234 Y97.811
X57.273 Y97.806
X57.367 Y97.792
X58.298 Y97.661
X58.431 Y97.642
X58.564 Y97.62
X59.629 Y97.441
X59.762 Y97.416
X60.826 Y97.21
X60.959 Y97.182
X61.891 Y96.977
X62.024 Y96.947
X62.157 Y96.915
X63.088 Y96.685
X63.221 Y96.652
X63.354 Y96.617
X64.356 Y96.342
X64.419 Y96.325
X64.552 Y96.285
X65.483 Y96.005
X65.616 Y95.963
X65.677 Y95.943
X66.681 Y95.614
X66.814 Y95.567
X67.745 Y95.236
X67.878 Y95.187
X67.987 Y95.145
X68.809 Y94.829
X68.942 Y94.778
X69.021 Y94.746
X69.076 Y94.724
X70.007 Y94.339
X70.14 Y94.283
X70.273 Y94.224
X71.071 Y93.871
X71.195 Y93.815
X71.204 Y93.811
X71.338 Y93.748
X72.136 Y93.371
X72.269 Y93.308
X72.318 Y93.283
X72.402 Y93.241
X73.2 Y92.84
X73.333 Y92.773
X73.374 Y92.751
X73.466 Y92.702
X74.265 Y92.276
X74.371 Y92.219
X74.398 Y92.205
X74.531 Y92.13
X75.329 Y91.679
X75.462 Y91.602
X75.541 Y91.554
X76.394 Y91.045
X76.432 Y91.022
X76.527 Y90.962
X77.325 Y90.459
X77.458 Y90.374
X77.483 Y90.357
X77.591 Y90.286
X78.389 Y89.755
X78.48 Y89.692
X78.522 Y89.663
X79.321 Y89.104
X79.428 Y89.027
X79.454 Y89.008
X79.609 Y88.894
X80.331 Y88.362
X80.385 Y88.321
X80.518 Y88.218
X81.191 Y87.697
X81.317 Y87.598
X81.359 Y87.564
X82.176 Y86.899
X82.248 Y86.839
X83.046 Y86.157
X83.112 Y86.101
X83.179 Y86.041
X83.854 Y85.436
X83.978 Y85.325
X84.002 Y85.303
X84.776 Y84.575
X84.851 Y84.505
X84.909 Y84.448
X85.574 Y83.792
X85.661 Y83.707
X85.707 Y83.66
X86.434 Y82.909
X86.506 Y82.835
X86.56 Y82.776
X87.174 Y82.111
X87.296 Y81.978
X87.304 Y81.97
X87.415 Y81.845
X87.999 Y81.18
X88.103 Y81.062
X88.116 Y81.047
X88.369 Y80.745
X88.784 Y80.249
X88.894 Y80.116
X89.531 Y79.318
X89.566 Y79.274
X89.636 Y79.185
X90.242 Y78.387
X90.342 Y78.254
X90.919 Y77.456
X91.015 Y77.323
X91.03 Y77.302
X91.107 Y77.19
X91.564 Y76.525
X91.655 Y76.392
X91.695 Y76.333
X91.744 Y76.259
X92.265 Y75.461
X92.351 Y75.328
X92.36 Y75.313
X92.893 Y74.453
X92.927 Y74.397
X93.007 Y74.264
X93.475 Y73.466
X93.553 Y73.333
X93.558 Y73.325
X93.628 Y73.2
X94.09 Y72.367
X94.144 Y72.268
X94.214 Y72.135
X94.632 Y71.337
X94.701 Y71.204
X94.755 Y71.096
X95.161 Y70.273
X95.226 Y70.14
X95.287 Y70.01
X95.687 Y69.149
X95.72 Y69.076
X95.779 Y68.943
X96.184 Y68.012
X96.219 Y67.93
X96.24 Y67.879
X96.618 Y66.947
X96.671 Y66.815
X96.722 Y66.682
X97.073 Y65.751
X97.122 Y65.618
X97.447 Y64.687
X97.494 Y64.554
X97.537 Y64.421
X97.837 Y63.49
X97.88 Y63.357
X97.919 Y63.224
X98.194 Y62.293
X98.215 Y62.222
X98.232 Y62.16
X98.482 Y61.229
X98.518 Y61.096
X98.552 Y60.963
X98.778 Y60.032
X98.81 Y59.899
X98.84 Y59.766
X99.042 Y58.835
X99.071 Y58.702
X99.098 Y58.569
X99.3 Y57.505
X99.324 Y57.372
X99.5 Y56.308
X99.521 Y56.175
X99.54 Y56.042
X99.669 Y55.111
X99.678 Y55.043
X99.687 Y54.978
X99.703 Y54.845
X99.811 Y53.891
X99.824 Y53.781
X99.837 Y53.648
X99.931 Y52.584
X99.942 Y52.451
X99.944 Y52.421
X100.01 Y51.387
X100.018 Y51.254
X100.024 Y51.121
X100.064 Y50.057
X100.069 Y49.924
X100.071 Y49.791
X100.083 Y48.86
X100.084 Y48.727
Y48.593
X100.083 Y48.46
X100.071 Y47.529
X100.069 Y47.396
X100.065 Y47.263
X100.024 Y46.199
X100.018 Y46.066
X100.01 Y45.933
X99.944 Y44.895
X99.943 Y44.869
X99.932 Y44.736
X99.838 Y43.672
X99.824 Y43.539
X99.811 Y43.425
X99.704 Y42.475
X99.688 Y42.342
X99.678 Y42.272
X99.651 Y42.076
X99.54 Y41.278
X99.521 Y41.145
X99.5 Y41.012
X99.325 Y39.948
X99.301 Y39.815
X99.099 Y38.751
X99.071 Y38.618
X99.043 Y38.485
X98.841 Y37.554
X98.811 Y37.421
X98.779 Y37.288
X98.553 Y36.357
X98.519 Y36.224
X98.481 Y36.081
X98.233 Y35.16
X98.215 Y35.094
X98.195 Y35.027
X97.92 Y34.096
X97.881 Y33.963
X97.839 Y33.83
X97.539 Y32.899
X97.495 Y32.766
X97.449 Y32.633
X97.123 Y31.702
X97.075 Y31.569
X96.723 Y30.638
X96.673 Y30.505
X96.619 Y30.372
X96.242 Y29.441
X96.219 Y29.386
X96.185 Y29.308
X95.781 Y28.377
X95.722 Y28.244
X95.687 Y28.167
X95.287 Y27.305
X95.228 Y27.18
X95.163 Y27.047
X94.755 Y26.219
X94.704 Y26.116
X94.634 Y25.983
X94.217 Y25.185
X94.146 Y25.052
X94.09 Y24.949
X93.63 Y24.12
X93.558 Y23.991
X93.556 Y23.987
X93.478 Y23.854
X93.01 Y23.056
X92.93 Y22.923
X92.893 Y22.863
X92.436 Y22.125
X92.36 Y22.004
X92.353 Y21.992
X92.267 Y21.859
X91.746 Y21.061
X91.695 Y20.983
X91.658 Y20.928
X91.562 Y20.789
X91.109 Y20.13
X91.03 Y20.015
X91.018 Y19.997
X90.922 Y19.864
X90.345 Y19.066
X90.245 Y18.933
X89.638 Y18.135
X89.566 Y18.043
X89.534 Y18.002
X88.897 Y17.204
X88.787 Y17.071
X88.23 Y16.406
X88.118 Y16.273
X88.103 Y16.255
X88.002 Y16.14
X87.417 Y15.475
X87.304 Y15.347
X87.299 Y15.342
X87.171 Y15.203
X86.563 Y14.544
X86.506 Y14.482
X86.437 Y14.411
X85.794 Y13.746
X85.707 Y13.657
X85.664 Y13.613
X85.574 Y13.525
X84.909 Y12.869
X84.854 Y12.815
X84.776 Y12.742
X84.005 Y12.017
X83.978 Y11.992
X83.857 Y11.884
X83.179 Y11.277
X83.115 Y11.219
X83.046 Y11.16
X82.913 Y11.046
X82.248 Y10.478
X82.179 Y10.421
X81.317 Y9.719
X81.194 Y9.623
X80.385 Y8.997
X80.334 Y8.958
X79.454 Y8.31
X79.431 Y8.293
X79.321 Y8.214
X78.522 Y7.655
X78.483 Y7.628
X78.389 Y7.563
X77.591 Y7.032
X77.486 Y6.963
X77.458 Y6.944
X77.325 Y6.859
X76.527 Y6.356
X76.434 Y6.298
X76.394 Y6.273
X75.544 Y5.766
X75.462 Y5.717
X75.329 Y5.64
X74.531 Y5.189
X74.398 Y5.114
X74.374 Y5.101
X74.265 Y5.042
X73.466 Y4.616
X73.377 Y4.569
X73.333 Y4.546
X73.2 Y4.478
X72.402 Y4.077
X72.321 Y4.037
X72.269 Y4.011
X72.136 Y3.947
X71.338 Y3.571
X71.204 Y3.508
X71.197 Y3.505
X71.071 Y3.448
X70.273 Y3.095
X70.14 Y3.036
X70.007 Y2.98
X69.076 Y2.595
X69.024 Y2.574
X68.942 Y2.541
X67.99 Y2.175
X67.878 Y2.132
X67.745 Y2.084
X66.814 Y1.752
X66.681 Y1.705
X65.679 Y1.377
X65.616 Y1.356
X65.483 Y1.315
X64.552 Y1.034
X64.419 Y0.995
X64.357 Y0.978
X63.354 Y0.703
X63.221 Y0.667
X63.088 Y0.634
X62.157 Y0.404
X62.024 Y0.372
X60.959 Y0.138
X60.826 Y0.11
X59.762 Y-0.097
X59.629 Y-0.122
X58.564 Y-0.3
X58.431 Y-0.322
X58.298 Y-0.341
X57.367 Y-0.473
X57.274 Y-0.486
X57.234 Y-0.491
X57.101 Y-0.507
X56.136 Y-0.619
X56.036 Y-0.63
X55.903 Y-0.643
X54.972 Y-0.727
X54.839 Y-0.739
X54.706 Y-0.75
X53.641 Y-0.818
X53.508 Y-0.826
X53.375 Y-0.832
X52.444 Y-0.867
X52.311 Y-0.872
X52.177 Y-0.876
X51.113 Y-0.889
X50.98 Y-0.891
X50.847 Y-0.889
X49.782 Y-0.876
X49.649 Y-0.872
X49.516 Y-0.867
X48.585 Y-0.832
X48.452 Y-0.826
X48.319 Y-0.818
X47.254 Y-0.749
X47.121 Y-0.739
X46.988 Y-0.727
X46.057 Y-0.643
X45.924 Y-0.63
X45.825 Y-0.619
X44.859 Y-0.507
X44.726 Y-0.491
X44.687 Y-0.486
X44.593 Y-0.472
X43.662 Y-0.341
X43.529 Y-0.322
X43.396 Y-0.3
X42.331 Y-0.121
X42.198 Y-0.096
X41.134 Y0.11
X41.001 Y0.138
X40.069 Y0.343
X39.936 Y0.373
X39.803 Y0.405
X38.872 Y0.634
X38.739 Y0.667
X38.606 Y0.703
X37.604 Y0.978
X37.541 Y0.995
X37.408 Y1.035
X36.477 Y1.315
X36.344 Y1.356
X36.282 Y1.377
X35.279 Y1.706
X35.146 Y1.752
X34.215 Y2.084
X34.082 Y2.132
X33.971 Y2.175
X33.151 Y2.49
X33.017 Y2.541
X32.937 Y2.574
X32.884 Y2.595
X31.953 Y2.98
X31.82 Y3.037
X31.687 Y3.096
X30.889 Y3.449
X30.764 Y3.505
X30.756 Y3.508
X30.622 Y3.571
X29.824 Y3.948
X29.691 Y4.011
X29.64 Y4.037
X29.558 Y4.078
X28.76 Y4.479
X28.627 Y4.546
X28.584 Y4.569
X28.494 Y4.617
X27.695 Y5.043
X27.587 Y5.101
X27.562 Y5.114
X27.429 Y5.189
X26.631 Y5.64
X26.498 Y5.717
X26.417 Y5.766
X25.566 Y6.274
X25.527 Y6.298
X25.433 Y6.356
X24.635 Y6.86
X24.502 Y6.945
X24.475 Y6.963
X24.369 Y7.033
X23.571 Y7.564
X23.477 Y7.628
X23.437 Y7.656
X22.639 Y8.215
X22.53 Y8.293
X22.506 Y8.31
X22.349 Y8.426
X21.708 Y8.898
X21.627 Y8.958
X21.575 Y8.998
X21.442 Y9.101
X20.767 Y9.623
X20.643 Y9.72
X20.599 Y9.756
X19.781 Y10.421
X19.712 Y10.479
X18.914 Y11.161
X18.846 Y11.219
X18.104 Y11.884
X17.982 Y11.993
X17.956 Y12.017
X17.184 Y12.742
X17.107 Y12.815
X17.051 Y12.87
X16.386 Y13.526
X16.297 Y13.613
X16.252 Y13.658
X15.524 Y14.411
X15.454 Y14.483
X15.397 Y14.544
X14.784 Y15.209
X14.656 Y15.348
X14.543 Y15.475
X13.958 Y16.14
X13.857 Y16.255
X13.842 Y16.273
X13.173 Y17.071
X13.064 Y17.204
X12.427 Y18.002
X12.394 Y18.043
X12.322 Y18.135
X11.716 Y18.933
X11.616 Y19.066
X11.039 Y19.864
X10.943 Y19.997
X10.93 Y20.015
X10.851 Y20.13
X10.394 Y20.795
X10.303 Y20.928
X10.265 Y20.984
X10.214 Y21.061
X9.693 Y21.859
X9.607 Y21.992
X9.6 Y22.004
X9.067 Y22.864
X9.031 Y22.923
X8.951 Y23.056
X8.483 Y23.854
X8.405 Y23.987
X8.402 Y23.992
X8.33 Y24.12
X7.87 Y24.95
X7.814 Y25.052
X7.744 Y25.185
X7.326 Y25.983
X7.257 Y26.116
X7.205 Y26.22
X6.797 Y27.047
X6.732 Y27.18
X6.672 Y27.306
X6.273 Y28.168
X6.238 Y28.244
X6.179 Y28.377
X5.775 Y29.308
X5.741 Y29.386
X5.719 Y29.441
X5.341 Y30.372
X5.287 Y30.505
X5.237 Y30.638
X4.936 Y31.436
X4.885 Y31.569
X4.837 Y31.702
X4.511 Y32.633
X4.465 Y32.766
X4.422 Y32.899
X4.121 Y33.83
X4.079 Y33.963
X4.04 Y34.096
X3.765 Y35.027
X3.745 Y35.094
X3.727 Y35.16
X3.477 Y36.091
X3.441 Y36.224
X3.407 Y36.357
X3.181 Y37.288
X3.149 Y37.421
X3.119 Y37.554
X2.917 Y38.485
X2.889 Y38.618
X2.861 Y38.751
X2.659 Y39.815
X2.635 Y39.948
X2.46 Y41.012
X2.439 Y41.145
X2.42 Y41.278
X2.29 Y42.209
X2.282 Y42.273
X2.272 Y42.342
X2.256 Y42.475
X2.149 Y43.425
X2.136 Y43.539
X2.122 Y43.672
X2.028 Y44.736
X2.017 Y44.869
X2.016 Y44.895
X1.95 Y45.933
X1.942 Y46.066
X1.936 Y46.199
X1.895 Y47.263
X1.891 Y47.396
X1.889 Y47.529
X1.882 Y48.056
Y48.059
G3 X1.507 Y48.368 I-0.317 J-0.004
G1 X0.942 Y48.263
X0.873 Y48.251 Z-0.491
X0.807 Y48.238 Z-0.468
X0.747 Y48.227 Z-0.43
X0.698 Y48.218 Z-0.38
X0.661 Y48.211 Z-0.319
X0.638 Y48.207 Z-0.252
X0.63 Y48.206 Z-0.182
G0 Z5.
X0.456 Y47.724
Z4.774
G1 Z-0.225 F200.
X0.464 Z-0.296
X0.487 Z-0.363
X0.525 Y47.725 Z-0.423
X0.575 Z-0.473
X0.635 Y47.726 Z-0.511
X0.702 Y47.727 Z-0.535
X0.773 Y47.728 Z-0.543
X1.569 Y47.738
G3 X1.882 Y48.059 I-0.004 J0.317
G1 X1.877 Y48.46
X1.876 Y48.593
Y48.727
X1.877 Y48.86
X1.889 Y49.791
X1.891 Y49.924
X1.896 Y50.057
X1.936 Y51.121
X1.942 Y51.254
X1.95 Y51.387
X2.016 Y52.422
X2.018 Y52.451
X2.029 Y52.584
X2.123 Y53.648
X2.136 Y53.781
X2.149 Y53.891
X2.257 Y54.845
X2.273 Y54.978
X2.282 Y55.044
X2.291 Y55.111
X2.42 Y56.042
X2.439 Y56.175
X2.46 Y56.308
X2.635 Y57.372
X2.66 Y57.505
X2.862 Y58.569
X2.889 Y58.702
X2.918 Y58.835
X3.119 Y59.766
X3.15 Y59.899
X3.182 Y60.032
X3.408 Y60.963
X3.442 Y61.096
X3.479 Y61.235
X3.692 Y62.027
X3.728 Y62.16
X3.745 Y62.222
X3.766 Y62.293
X4.041 Y63.224
X4.08 Y63.357
X4.123 Y63.49
X4.423 Y64.421
X4.466 Y64.554
X4.513 Y64.687
X4.838 Y65.618
X4.887 Y65.751
X5.238 Y66.682
X5.289 Y66.815
X5.342 Y66.948
X5.666 Y67.746
X5.72 Y67.879
X5.741 Y67.93
X5.776 Y68.012
X6.18 Y68.943
X6.24 Y69.076
X6.273 Y69.149
X6.672 Y70.011
X6.733 Y70.14
X6.799 Y70.273
X7.205 Y71.097
X7.258 Y71.204
X7.328 Y71.337
X7.745 Y72.135
X7.816 Y72.268
X7.87 Y72.367
X8.332 Y73.2
X8.402 Y73.325
X8.407 Y73.333
X8.484 Y73.466
X8.952 Y74.264
X9.032 Y74.397
X9.067 Y74.453
X9.526 Y75.195
X9.6 Y75.313
X9.609 Y75.328
X9.695 Y75.461
X10.216 Y76.259
X10.265 Y76.334
X10.304 Y76.392
X10.398 Y76.528
X10.853 Y77.19
X10.93 Y77.302
X10.945 Y77.323
X11.041 Y77.456
X11.618 Y78.254
X11.717 Y78.387
X12.324 Y79.185
X12.394 Y79.274
X12.428 Y79.318
X13.065 Y80.116
X13.175 Y80.249
X13.733 Y80.914
X13.844 Y81.047
X13.857 Y81.062
X13.96 Y81.18
X14.545 Y81.845
X14.656 Y81.97
X14.663 Y81.978
X14.789 Y82.114
X15.399 Y82.776
X15.454 Y82.835
X15.526 Y82.909
X16.169 Y83.574
X16.252 Y83.66
X16.299 Y83.707
X16.386 Y83.792
X17.051 Y84.448
X17.109 Y84.505
X17.184 Y84.576
X17.317 Y84.701
X17.958 Y85.303
X17.982 Y85.326
X18.115 Y85.445
X18.781 Y86.041
X18.848 Y86.101
X18.914 Y86.158
X19.047 Y86.271
X19.712 Y86.839
X19.783 Y86.899
X20.643 Y87.599
X20.769 Y87.697
X21.575 Y88.321
X21.629 Y88.362
X22.373 Y88.91
X22.531 Y89.027
X22.639 Y89.104
X23.437 Y89.663
X23.479 Y89.692
X23.571 Y89.755
X24.369 Y90.286
X24.476 Y90.357
X24.502 Y90.374
X24.635 Y90.459
X25.433 Y90.963
X25.528 Y91.022
X25.566 Y91.045
X26.418 Y91.554
X26.498 Y91.602
X26.631 Y91.679
X27.429 Y92.13
X27.562 Y92.205
X27.589 Y92.219
X27.695 Y92.276
X28.494 Y92.702
X28.586 Y92.751
X28.627 Y92.773
X28.76 Y92.84
X29.558 Y93.241
X29.642 Y93.283
X29.691 Y93.308
X29.824 Y93.371
X30.622 Y93.748
X30.756 Y93.811
X30.765 Y93.815
X30.889 Y93.871
X31.687 Y94.224
X31.82 Y94.283
X31.953 Y94.339
X32.884 Y94.724
X32.939 Y94.746
X33.017 Y94.778
X33.417 Y94.932
X33.973 Y95.145
X34.082 Y95.187
X34.215 Y95.236
X35.146 Y95.567
X35.279 Y95.614
X36.284 Y95.943
X36.344 Y95.963
X36.477 Y96.005
X37.408 Y96.285
X37.541 Y96.325
X37.605 Y96.342
X38.606 Y96.617
X38.739 Y96.652
X38.872 Y96.685
X39.803 Y96.915
X39.936 Y96.947
X40.868 Y97.152
X41.001 Y97.182
X41.134 Y97.21
X42.198 Y97.416
X42.331 Y97.441
X43.396 Y97.62
X43.529 Y97.641
X43.662 Y97.66
X44.593 Y97.792
X44.688 Y97.806
X44.726 Y97.811
X44.859 Y97.827
X45.825 Y97.939
X45.924 Y97.95
X46.057 Y97.963
X46.988 Y98.047
X47.121 Y98.059
X47.254 Y98.069
X48.319 Y98.138
X48.452 Y98.146
X48.585 Y98.152
X49.516 Y98.187
X49.649 Y98.192
X49.782 Y98.196
X50.847 Y98.209
X50.98 Y98.211
X51.113 Y98.209
X52.177 Y98.196
X52.311 Y98.192
X52.444 Y98.187
X53.375 Y98.152
X53.508 Y98.146
X53.641 Y98.138
X54.706 Y98.07
X54.839 Y98.059
X54.972 Y98.047
X55.903 Y97.963
X56.036 Y97.95
X56.136 Y97.939
X57.101 Y97.827
X57.234 Y97.811
X57.273 Y97.806
X57.367 Y97.792
X58.298 Y97.661
X58.431 Y97.642
X58.564 Y97.62
X59.496 Y97.464
X59.629 Y97.441
X59.762 Y97.416
X60.826 Y97.21
X60.959 Y97.182
X61.891 Y96.977
X62.024 Y96.947
X62.157 Y96.915
X63.088 Y96.685
X63.221 Y96.652
X63.354 Y96.617
X64.356 Y96.342
X64.419 Y96.325
X64.552 Y96.285
X65.483 Y96.005
X65.616 Y95.963
X65.677 Y95.943
X66.548 Y95.658
X66.681 Y95.614
X66.814 Y95.567
X67.745 Y95.236
X67.878 Y95.187
X67.988 Y95.145
X68.809 Y94.829
X68.942 Y94.778
X69.021 Y94.746
X69.076 Y94.724
X70.007 Y94.339
X70.14 Y94.283
X70.273 Y94.224
X71.071 Y93.871
X71.195 Y93.815
X71.204 Y93.811
X71.338 Y93.748
X72.136 Y93.371
X72.269 Y93.308
X72.318 Y93.283
X72.402 Y93.241
X73.2 Y92.84
X73.333 Y92.773
X73.374 Y92.751
X73.466 Y92.702
X74.265 Y92.276
X74.371 Y92.219
X74.398 Y92.205
X74.531 Y92.13
X75.329 Y91.679
X75.462 Y91.602
X75.541 Y91.554
X76.394 Y91.045
X76.432 Y91.022
X76.527 Y90.962
X77.325 Y90.459
X77.458 Y90.374
X77.483 Y90.357
X77.591 Y90.286
X78.389 Y89.755
X78.48 Y89.692
X78.522 Y89.663
X79.321 Y89.104
X79.428 Y89.027
X79.454 Y89.008
X79.609 Y88.894
X80.331 Y88.362
X80.385 Y88.321
X80.518 Y88.218
X81.191 Y87.697
X81.317 Y87.598
X81.359 Y87.564
X81.849 Y87.165
X82.176 Y86.899
X82.248 Y86.839
X83.046 Y86.157
X83.112 Y86.101
X83.179 Y86.041
X83.854 Y85.436
X83.978 Y85.325
X84.002 Y85.303
X84.776 Y84.575
X84.851 Y84.505
X84.909 Y84.448
X85.574 Y83.792
X85.661 Y83.707
X85.707 Y83.66
X86.434 Y82.909
X86.506 Y82.835
X86.561 Y82.776
X87.174 Y82.111
X87.296 Y81.978
X87.304 Y81.97
X87.415 Y81.845
X87.999 Y81.18
X88.103 Y81.062
X88.116 Y81.047
X88.236 Y80.904
X88.784 Y80.249
X88.894 Y80.116
X89.531 Y79.318
X89.566 Y79.274
X89.636 Y79.185
X90.242 Y78.387
X90.342 Y78.254
X90.919 Y77.456
X91.015 Y77.323
X91.03 Y77.302
X91.107 Y77.19
X91.564 Y76.525
X91.655 Y76.392
X91.695 Y76.333
X91.744 Y76.259
X92.265 Y75.461
X92.351 Y75.328
X92.36 Y75.313
X92.893 Y74.453
X92.927 Y74.397
X93.007 Y74.264
X93.475 Y73.466
X93.553 Y73.333
X93.558 Y73.325
X93.628 Y73.2
X94.09 Y72.367
X94.144 Y72.268
X94.214 Y72.135
X94.632 Y71.337
X94.701 Y71.204
X94.755 Y71.096
X95.161 Y70.273
X95.226 Y70.14
X95.287 Y70.01
X95.687 Y69.149
X95.72 Y69.076
X95.779 Y68.943
X96.184 Y68.012
X96.219 Y67.93
X96.24 Y67.879
X96.618 Y66.947
X96.671 Y66.815
X96.722 Y66.682
X97.023 Y65.884
X97.073 Y65.751
X97.122 Y65.618
X97.447 Y64.687
X97.494 Y64.554
X97.537 Y64.421
X97.837 Y63.49
X97.88 Y63.357
X97.919 Y63.224
X98.194 Y62.293
X98.215 Y62.222
X98.232 Y62.16
X98.482 Y61.229
X98.518 Y61.096
X98.552 Y60.963
X98.778 Y60.032
X98.81 Y59.899
X98.84 Y59.766
X99.042 Y58.835
X99.071 Y58.702
X99.098 Y58.569
X99.3 Y57.505
X99.324 Y57.372
X99.5 Y56.308
X99.521 Y56.175
X99.54 Y56.042
X99.669 Y55.111
X99.678 Y55.043
X99.687 Y54.978
X99.703 Y54.845
X99.811 Y53.891
X99.824 Y53.781
X99.837 Y53.648
X99.931 Y52.584
X99.942 Y52.451
X99.944 Y52.422
X100.01 Y51.387
X100.018 Y51.254
X100.024 Y51.121
X100.064 Y50.057
X100.069 Y49.924
X100.071 Y49.791
X100.083 Y48.86
X100.084 Y48.727
Y48.593
X100.083 Y48.46
X100.071 Y47.529
X100.069 Y47.396
X100.065 Y47.263
X100.024 Y46.199
X100.018 Y46.066
X100.01 Y45.933
X99.944 Y44.894
X99.943 Y44.869
X99.932 Y44.736
X99.838 Y43.672
X99.824 Y43.539
X99.811 Y43.425
X99.704 Y42.475
X99.688 Y42.342
X99.678 Y42.272
X99.67 Y42.209
X99.54 Y41.278
X99.521 Y41.145
X99.5 Y41.012
X99.325 Y39.948
X99.301 Y39.815
X99.2 Y39.283
X99.099 Y38.751
X99.071 Y38.618
X99.043 Y38.485
X98.841 Y37.554
X98.811 Y37.421
X98.779 Y37.288
X98.553 Y36.357
X98.519 Y36.224
X98.481 Y36.081
X98.233 Y35.16
X98.215 Y35.094
X98.195 Y35.027
X97.92 Y34.096
X97.881 Y33.963
X97.839 Y33.83
X97.539 Y32.899
X97.495 Y32.766
X97.449 Y32.633
X97.123 Y31.702
X97.075 Y31.569
X96.974 Y31.303
X96.723 Y30.638
X96.673 Y30.505
X96.619 Y30.372
X96.242 Y29.441
X96.219 Y29.386
X96.185 Y29.308
X95.781 Y28.377
X95.722 Y28.244
X95.687 Y28.167
X95.287 Y27.305
X95.228 Y27.18
X95.163 Y27.047
X94.755 Y26.219
X94.704 Y26.116
X94.634 Y25.983
X94.217 Y25.185
X94.146 Y25.052
X94.09 Y24.949
X93.63 Y24.12
X93.558 Y23.991
X93.556 Y23.987
X93.478 Y23.854
X93.01 Y23.056
X92.93 Y22.923
X92.893 Y22.863
X92.436 Y22.125
X92.36 Y22.004
X92.353 Y21.992
X92.267 Y21.859
X91.746 Y21.061
X91.695 Y20.983
X91.658 Y20.928
X91.562 Y20.789
X91.109 Y20.13
X91.03 Y20.015
X91.018 Y19.997
X90.922 Y19.864
X90.345 Y19.066
X90.245 Y18.933
X89.638 Y18.135
X89.566 Y18.043
X89.534 Y18.002
X88.897 Y17.204
X88.787 Y17.071
X88.23 Y16.406
X88.118 Y16.273
X88.103 Y16.255
X88.002 Y16.14
X87.417 Y15.475
X87.304 Y15.347
X87.299 Y15.342
X87.177 Y15.209
X86.563 Y14.544
X86.506 Y14.482
X86.437 Y14.411
X85.794 Y13.746
X85.707 Y13.657
X85.664 Y13.613
X85.574 Y13.525
X84.909 Y12.869
X84.854 Y12.815
X84.776 Y12.742
X84.643 Y12.617
X84.005 Y12.017
X83.978 Y11.992
X83.857 Y11.884
X83.179 Y11.277
X83.115 Y11.219
X83.046 Y11.16
X82.913 Y11.046
X82.248 Y10.478
X82.179 Y10.421
X81.317 Y9.719
X81.194 Y9.623
X80.385 Y8.997
X80.334 Y8.958
X79.587 Y8.408
X79.431 Y8.293
X79.321 Y8.214
X78.522 Y7.655
X78.483 Y7.628
X78.389 Y7.563
X77.591 Y7.032
X77.486 Y6.963
X77.458 Y6.944
X77.325 Y6.859
X76.527 Y6.356
X76.434 Y6.298
X76.394 Y6.273
X75.544 Y5.766
X75.462 Y5.717
X75.329 Y5.64
X74.531 Y5.189
X74.398 Y5.114
X74.374 Y5.101
X74.265 Y5.042
X73.466 Y4.616
X73.377 Y4.569
X73.333 Y4.546
X73.2 Y4.478
X72.402 Y4.077
X72.321 Y4.037
X72.269 Y4.011
X72.136 Y3.947
X71.338 Y3.571
X71.204 Y3.508
X71.197 Y3.505
X71.071 Y3.448
X70.273 Y3.095
X70.14 Y3.036
X70.007 Y2.98
X69.076 Y2.595
X69.024 Y2.574
X68.942 Y2.541
X67.99 Y2.175
X67.878 Y2.132
X67.745 Y2.084
X66.814 Y1.752
X66.681 Y1.705
X65.679 Y1.377
X65.616 Y1.356
X65.483 Y1.315
X64.552 Y1.034
X64.419 Y0.995
X64.357 Y0.978
X63.354 Y0.703
X63.221 Y0.667
X63.088 Y0.634
X62.157 Y0.404
X62.024 Y0.372
X61.092 Y0.167
X60.959 Y0.138
X60.826 Y0.11
X59.762 Y-0.097
X59.629 Y-0.122
X58.564 Y-0.3
X58.431 Y-0.322
X58.298 Y-0.341
X57.367 Y-0.473
X57.274 Y-0.486
X57.234 Y-0.491
X57.101 Y-0.507
X56.136 Y-0.619
X56.036 Y-0.63
X55.903 Y-0.643
X54.972 Y-0.727
X54.839 Y-0.739
X54.706 Y-0.75
X53.641 Y-0.818
X53.508 Y-0.826
X53.375 Y-0.832
X52.444 Y-0.867
X52.311 Y-0.872
X52.177 Y-0.876
X51.113 Y-0.889
X50.98 Y-0.891
X50.847 Y-0.889
X49.782 Y-0.876
X49.649 Y-0.872
X49.516 Y-0.867
X48.585 Y-0.832
X48.452 Y-0.826
X48.319 Y-0.818
X47.254 Y-0.749
X47.121 Y-0.739
X46.988 Y-0.727
X46.057 Y-0.643
X45.924 Y-0.63
X45.825 Y-0.619
X44.859 Y-0.507
X44.726 Y-0.491
X44.687 Y-0.486
X44.593 Y-0.472
X43.662 Y-0.341
X43.529 Y-0.322
X43.396 Y-0.3
X42.464 Y-0.144
X42.331 Y-0.121
X42.198 Y-0.096
X41.134 Y0.11
X41.001 Y0.138
X40.069 Y0.343
X39.936 Y0.373
X39.803 Y0.404
X38.872 Y0.634
X38.739 Y0.667
X38.606 Y0.703
X37.604 Y0.978
X37.541 Y0.995
X37.408 Y1.035
X36.477 Y1.315
X36.344 Y1.356
X36.282 Y1.377
X35.412 Y1.662
X35.279 Y1.706
X35.146 Y1.752
X34.215 Y2.084
X34.082 Y2.132
X33.971 Y2.175
X33.151 Y2.49
X33.017 Y2.541
X32.937 Y2.574
X32.884 Y2.595
X31.953 Y2.98
X31.82 Y3.037
X31.687 Y3.096
X30.889 Y3.449
X30.764 Y3.505
X30.756 Y3.508
X30.622 Y3.571
X29.824 Y3.948
X29.691 Y4.011
X29.64 Y4.037
X29.558 Y4.078
X28.76 Y4.479
X28.627 Y4.546
X28.584 Y4.569
X28.494 Y4.617
X27.695 Y5.043
X27.587 Y5.101
X27.562 Y5.114
X27.429 Y5.189
X26.631 Y5.64
X26.498 Y5.717
X26.417 Y5.766
X25.566 Y6.274
X25.527 Y6.298
X25.433 Y6.356
X24.635 Y6.86
X24.502 Y6.945
X24.475 Y6.963
X24.369 Y7.033
X23.571 Y7.564
X23.477 Y7.628
X23.437 Y7.656
X22.639 Y8.215
X22.53 Y8.293
X22.506 Y8.31
X22.349 Y8.426
X21.708 Y8.898
X21.627 Y8.958
X21.575 Y8.998
X21.442 Y9.101
X20.767 Y9.623
X20.643 Y9.72
X20.599 Y9.756
X19.781 Y10.421
X19.712 Y10.479
X18.914 Y11.161
X18.846 Y11.219
X18.104 Y11.884
X17.982 Y11.993
X17.956 Y12.017
X17.184 Y12.742
X17.107 Y12.815
X17.051 Y12.87
X16.386 Y13.526
X16.297 Y13.613
X16.252 Y13.658
X15.524 Y14.411
X15.454 Y14.483
X15.397 Y14.544
X14.784 Y15.209
X14.656 Y15.348
X14.543 Y15.475
X13.958 Y16.14
X13.857 Y16.255
X13.842 Y16.273
X13.173 Y17.071
X13.064 Y17.204
X12.427 Y18.002
X12.394 Y18.043
X12.322 Y18.135
X11.716 Y18.933
X11.616 Y19.066
X11.039 Y19.864
X10.943 Y19.997
X10.93 Y20.015
X10.851 Y20.13
X10.394 Y20.795
X10.303 Y20.928
X10.265 Y20.984
X10.214 Y21.061
X9.693 Y21.859
X9.607 Y21.992
X9.6 Y22.004
X9.067 Y22.864
X9.031 Y22.923
X8.951 Y23.056
X8.483 Y23.854
X8.405 Y23.987
X8.402 Y23.992
X8.33 Y24.12
X7.87 Y24.95
X7.814 Y25.052
X7.744 Y25.185
X7.326 Y25.983
X7.257 Y26.116
X7.205 Y26.22
X6.797 Y27.047
X6.732 Y27.18
X6.672 Y27.306
X6.273 Y28.168
X6.238 Y28.244
X6.179 Y28.377
X5.775 Y29.308
X5.741 Y29.386
X5.719 Y29.441
X5.341 Y30.372
X5.287 Y30.505
X5.237 Y30.638
X4.936 Y31.436
X4.885 Y31.569
X4.837 Y31.702
X4.511 Y32.633
X4.465 Y32.766
X4.421 Y32.899
X4.121 Y33.83
X4.079 Y33.963
X4.04 Y34.096
X3.765 Y35.027
X3.745 Y35.094
X3.727 Y35.16
X3.477 Y36.091
X3.441 Y36.224
X3.407 Y36.357
X3.181 Y37.288
X3.149 Y37.421
X3.119 Y37.554
X2.917 Y38.485
X2.889 Y38.618
X2.861 Y38.751
X2.681 Y39.7
X2.659 Y39.815
X2.635 Y39.948
X2.46 Y41.012
X2.439 Y41.145
X2.42 Y41.278
X2.29 Y42.209
X2.282 Y42.273
X2.272 Y42.342
X2.256 Y42.475
X2.149 Y43.425
X2.136 Y43.539
X2.122 Y43.672
X2.028 Y44.736
X2.017 Y44.869
X2.016 Y44.895
X1.95 Y45.933
X1.942 Y46.066
X1.936 Y46.199
X1.895 Y47.263
X1.891 Y47.396
X1.889 Y47.529
X1.882 Y48.055
Y48.059
G3 X1.51 Y48.368 I-0.317 J-0.004
G1 X0.765 Y48.237
X0.695 Y48.224 Z-0.535
X0.629 Y48.213 Z-0.511
X0.57 Y48.202 Z-0.473
X0.52 Y48.194 Z-0.423
X0.483 Y48.187 Z-0.363
X0.46 Y48.183 Z-0.296
X0.452 Y48.182 Z-0.225
G0 Z5.
X0.128 Y47.72
Z4.675
G1 Z-0.325 F200.
X0.136 Z-0.396
X0.159 Z-0.463
X0.197 Y47.721 Z-0.523
X0.248 Z-0.573
X0.308 Y47.722 Z-0.611
X0.375 Y47.723 Z-0.635
X0.445 Y47.724 Z-0.643
X1.569 Y47.738
G3 X1.882 Y48.059 I-0.004 J0.317
G1 X1.877 Y48.46
X1.876 Y48.593
Y48.727
X1.877 Y48.86
X1.889 Y49.791
X1.891 Y49.924
X1.896 Y50.057
X1.901 Y50.19
X1.936 Y51.121
X1.942 Y51.254
X1.95 Y51.387
X2.016 Y52.422
X2.018 Y52.451
X2.029 Y52.584
X2.099 Y53.382
X2.123 Y53.648
X2.136 Y53.781
X2.149 Y53.892
X2.257 Y54.845
X2.273 Y54.978
X2.282 Y55.044
X2.291 Y55.111
X2.42 Y56.042
X2.439 Y56.175
X2.46 Y56.308
X2.614 Y57.239
X2.635 Y57.372
X2.66 Y57.505
X2.681 Y57.617
X2.862 Y58.569
X2.889 Y58.702
X2.918 Y58.835
X3.119 Y59.766
X3.15 Y59.899
X3.182 Y60.032
X3.408 Y60.963
X3.442 Y61.096
X3.479 Y61.235
X3.692 Y62.027
X3.728 Y62.16
X3.745 Y62.222
X3.766 Y62.293
X3.805 Y62.426
X4.041 Y63.224
X4.08 Y63.357
X4.122 Y63.49
X4.423 Y64.421
X4.466 Y64.554
X4.513 Y64.687
X4.838 Y65.618
X4.887 Y65.751
X4.937 Y65.884
X5.238 Y66.682
X5.289 Y66.815
X5.342 Y66.948
X5.666 Y67.746
X5.72 Y67.879
X5.741 Y67.93
X5.776 Y68.012
X6.18 Y68.943
X6.24 Y69.076
X6.273 Y69.149
X6.672 Y70.011
X6.733 Y70.14
X6.799 Y70.273
X7.205 Y71.097
X7.258 Y71.204
X7.328 Y71.337
X7.745 Y72.135
X7.816 Y72.268
X7.87 Y72.367
X8.331 Y73.2
X8.402 Y73.325
X8.407 Y73.333
X8.484 Y73.466
X8.952 Y74.264
X9.032 Y74.397
X9.067 Y74.453
X9.526 Y75.195
X9.6 Y75.313
X9.609 Y75.328
X9.695 Y75.461
X10.216 Y76.259
X10.265 Y76.334
X10.304 Y76.392
X10.398 Y76.528
X10.853 Y77.19
X10.93 Y77.302
X10.945 Y77.323
X11.04 Y77.456
X11.596 Y78.223
X11.617 Y78.254
X11.717 Y78.387
X12.324 Y79.185
X12.394 Y79.274
X12.428 Y79.318
X13.065 Y80.116
X13.175 Y80.249
X13.733 Y80.914
X13.844 Y81.047
X13.857 Y81.062
X13.96 Y81.18
X14.545 Y81.845
X14.656 Y81.97
X14.663 Y81.978
X14.789 Y82.114
X15.399 Y82.776
X15.454 Y82.835
X15.526 Y82.909
X15.587 Y82.973
X16.169 Y83.574
X16.252 Y83.66
X16.299 Y83.707
X16.386 Y83.792
X17.051 Y84.448
X17.109 Y84.505
X17.184 Y84.576
X17.25 Y84.638
X17.958 Y85.303
X17.982 Y85.326
X18.105 Y85.436
X18.781 Y86.041
X18.848 Y86.101
X18.914 Y86.158
X19.003 Y86.234
X19.712 Y86.839
X19.783 Y86.899
X20.643 Y87.599
X20.769 Y87.697
X21.575 Y88.321
X21.629 Y88.362
X22.373 Y88.91
X22.531 Y89.027
X22.639 Y89.104
X23.437 Y89.663
X23.479 Y89.692
X23.571 Y89.755
X24.369 Y90.286
X24.476 Y90.357
X24.502 Y90.374
X24.635 Y90.459
X25.317 Y90.889
X25.433 Y90.963
X25.528 Y91.022
X25.566 Y91.045
X26.418 Y91.554
X26.498 Y91.602
X26.631 Y91.679
X27.429 Y92.13
X27.562 Y92.205
X27.589 Y92.219
X27.695 Y92.277
X28.494 Y92.702
X28.586 Y92.751
X28.627 Y92.773
X28.76 Y92.84
X29.558 Y93.241
X29.642 Y93.283
X29.691 Y93.308
X29.824 Y93.371
X30.622 Y93.748
X30.756 Y93.811
X30.765 Y93.815
X30.889 Y93.871
X31.687 Y94.224
X31.82 Y94.283
X31.953 Y94.339
X32.751 Y94.669
X32.884 Y94.724
X32.939 Y94.746
X33.017 Y94.778
X33.151 Y94.829
X33.973 Y95.145
X34.082 Y95.187
X34.215 Y95.236
X35.082 Y95.544
X35.146 Y95.567
X35.279 Y95.614
X35.473 Y95.677
X36.283 Y95.943
X36.344 Y95.963
X36.477 Y96.005
X37.408 Y96.285
X37.541 Y96.325
X37.605 Y96.342
X38.606 Y96.617
X38.739 Y96.652
X38.872 Y96.685
X39.67 Y96.882
X39.803 Y96.915
X39.936 Y96.947
X40.069 Y96.977
X40.868 Y97.152
X41.001 Y97.182
X41.134 Y97.21
X42.148 Y97.407
X42.198 Y97.416
X42.331 Y97.441
X42.464 Y97.464
X43.396 Y97.62
X43.529 Y97.641
X43.662 Y97.66
X44.593 Y97.792
X44.688 Y97.806
X44.726 Y97.811
X44.859 Y97.827
X45.825 Y97.939
X45.924 Y97.95
X46.057 Y97.963
X46.988 Y98.047
X47.121 Y98.059
X47.254 Y98.069
X48.319 Y98.138
X48.452 Y98.146
X48.585 Y98.152
X49.516 Y98.187
X49.649 Y98.192
X49.782 Y98.196
X50.847 Y98.209
X50.98 Y98.211
X51.113 Y98.209
X52.177 Y98.196
X52.311 Y98.192
X52.444 Y98.187
X53.375 Y98.152
X53.508 Y98.146
X53.641 Y98.138
X54.706 Y98.07
X54.839 Y98.059
X54.972 Y98.047
X55.903 Y97.963
X56.036 Y97.95
X56.136 Y97.939
X57.101 Y97.827
X57.234 Y97.811
X57.273 Y97.806
X57.367 Y97.793
X58.298 Y97.661
X58.431 Y97.642
X58.564 Y97.62
X59.496 Y97.464
X59.629 Y97.441
X59.762 Y97.416
X59.813 Y97.407
X60.693 Y97.236
X60.826 Y97.21
X60.959 Y97.182
X61.092 Y97.153
X61.891 Y96.977
X62.024 Y96.947
X62.157 Y96.915
X62.29 Y96.883
X63.088 Y96.685
X63.221 Y96.652
X63.354 Y96.617
X64.356 Y96.342
X64.419 Y96.325
X64.552 Y96.285
X65.483 Y96.005
X65.616 Y95.963
X65.677 Y95.943
X66.548 Y95.658
X66.681 Y95.614
X66.814 Y95.568
X66.878 Y95.544
X67.745 Y95.236
X67.878 Y95.187
X67.988 Y95.145
X68.809 Y94.829
X68.942 Y94.778
X69.021 Y94.746
X69.076 Y94.724
X70.007 Y94.339
X70.14 Y94.283
X70.273 Y94.224
X71.071 Y93.871
X71.195 Y93.815
X71.204 Y93.811
X71.338 Y93.748
X72.136 Y93.371
X72.269 Y93.308
X72.318 Y93.283
X72.402 Y93.241
X73.2 Y92.84
X73.333 Y92.773
X73.374 Y92.751
X73.466 Y92.702
X74.265 Y92.276
X74.371 Y92.219
X74.398 Y92.205
X74.531 Y92.13
X75.329 Y91.679
X75.462 Y91.602
X75.542 Y91.554
X76.394 Y91.045
X76.432 Y91.022
X76.527 Y90.963
X76.66 Y90.879
X77.325 Y90.459
X77.458 Y90.374
X77.483 Y90.357
X77.591 Y90.286
X78.389 Y89.755
X78.48 Y89.692
X78.522 Y89.663
X79.055 Y89.29
X79.321 Y89.104
X79.428 Y89.027
X79.454 Y89.008
X79.587 Y88.91
X80.252 Y88.42
X80.331 Y88.362
X80.385 Y88.321
X80.504 Y88.229
X81.191 Y87.697
X81.317 Y87.598
X81.359 Y87.564
X81.45 Y87.49
X82.176 Y86.899
X82.248 Y86.839
X83.046 Y86.157
X83.112 Y86.101
X83.179 Y86.041
X83.854 Y85.436
X83.978 Y85.325
X84.002 Y85.303
X84.71 Y84.638
X84.776 Y84.575
X84.851 Y84.505
X84.909 Y84.448
X85.574 Y83.792
X85.661 Y83.707
X85.707 Y83.66
X86.373 Y82.972
X86.434 Y82.909
X86.506 Y82.835
X86.561 Y82.776
X87.174 Y82.111
X87.296 Y81.978
X87.304 Y81.97
X87.415 Y81.845
X87.999 Y81.18
X88.103 Y81.062
X88.116 Y81.047
X88.236 Y80.904
X88.784 Y80.249
X88.894 Y80.116
X89.433 Y79.441
X89.531 Y79.318
X89.566 Y79.274
X89.636 Y79.185
X90.242 Y78.387
X90.342 Y78.254
X90.919 Y77.456
X91.015 Y77.323
X91.03 Y77.302
X91.107 Y77.19
X91.564 Y76.525
X91.655 Y76.392
X91.695 Y76.333
X91.744 Y76.259
X92.265 Y75.461
X92.351 Y75.328
X92.36 Y75.313
X92.433 Y75.195
X92.893 Y74.453
X92.927 Y74.397
X93.008 Y74.264
X93.475 Y73.466
X93.553 Y73.333
X93.558 Y73.325
X93.628 Y73.2
X94.09 Y72.367
X94.144 Y72.268
X94.215 Y72.135
X94.632 Y71.337
X94.701 Y71.204
X94.755 Y71.097
X95.161 Y70.273
X95.226 Y70.14
X95.287 Y70.011
X95.687 Y69.149
X95.72 Y69.076
X95.779 Y68.943
X96.126 Y68.145
X96.184 Y68.012
X96.219 Y67.93
X96.24 Y67.879
X96.294 Y67.746
X96.618 Y66.947
X96.671 Y66.815
X96.722 Y66.682
X97.023 Y65.884
X97.073 Y65.751
X97.122 Y65.618
X97.447 Y64.687
X97.494 Y64.554
X97.537 Y64.421
X97.837 Y63.49
X97.88 Y63.357
X97.919 Y63.224
X98.155 Y62.426
X98.194 Y62.293
X98.215 Y62.222
X98.232 Y62.16
X98.268 Y62.027
X98.482 Y61.229
X98.518 Y61.096
X98.552 Y60.963
X98.778 Y60.032
X98.81 Y59.899
X98.841 Y59.766
X99.042 Y58.835
X99.071 Y58.702
X99.098 Y58.569
X99.279 Y57.616
X99.3 Y57.505
X99.324 Y57.372
X99.346 Y57.239
X99.5 Y56.308
X99.521 Y56.175
X99.54 Y56.042
X99.669 Y55.111
X99.678 Y55.043
X99.687 Y54.978
X99.703 Y54.845
X99.811 Y53.892
X99.824 Y53.781
X99.837 Y53.648
X99.92 Y52.717
X99.931 Y52.584
X99.942 Y52.451
X99.944 Y52.422
X100.01 Y51.387
X100.018 Y51.254
X100.024 Y51.121
X100.059 Y50.19
X100.064 Y50.057
X100.069 Y49.924
X100.071 Y49.791
X100.083 Y48.86
X100.084 Y48.727
Y48.593
X100.083 Y48.46
X100.071 Y47.529
X100.069 Y47.396
X100.065 Y47.263
X100.06 Y47.13
X100.024 Y46.199
X100.018 Y46.066
X100.01 Y45.933
X99.944 Y44.894
X99.943 Y44.869
X99.932 Y44.736
X99.92 Y44.603
X99.838 Y43.672
X99.824 Y43.539
X99.811 Y43.424
X99.704 Y42.475
X99.688 Y42.342
X99.678 Y42.272
X99.67 Y42.209
X99.54 Y41.278
X99.521 Y41.145
X99.5 Y41.012
X99.347 Y40.081
X99.325 Y39.948
X99.301 Y39.815
X99.279 Y39.699
X99.099 Y38.751
X99.071 Y38.618
X99.043 Y38.485
X98.842 Y37.554
X98.811 Y37.421
X98.779 Y37.288
X98.553 Y36.357
X98.519 Y36.224
X98.484 Y36.091
X98.269 Y35.293
X98.233 Y35.16
X98.215 Y35.094
X98.195 Y35.027
X98.156 Y34.894
X97.92 Y34.096
X97.881 Y33.963
X97.839 Y33.83
X97.539 Y32.899
X97.495 Y32.766
X97.449 Y32.633
X97.123 Y31.702
X97.075 Y31.569
X97.025 Y31.436
X96.724 Y30.638
X96.673 Y30.505
X96.619 Y30.372
X96.296 Y29.574
X96.242 Y29.441
X96.219 Y29.386
X96.185 Y29.308
X96.128 Y29.175
X95.781 Y28.377
X95.722 Y28.244
X95.687 Y28.167
X95.287 Y27.305
X95.228 Y27.18
X95.163 Y27.047
X94.755 Y26.219
X94.704 Y26.116
X94.634 Y25.983
X94.217 Y25.185
X94.146 Y25.052
X94.09 Y24.949
X93.63 Y24.12
X93.558 Y23.991
X93.556 Y23.987
X93.478 Y23.854
X93.01 Y23.056
X92.93 Y22.923
X92.893 Y22.863
X92.436 Y22.125
X92.36 Y22.004
X92.353 Y21.992
X92.267 Y21.859
X91.746 Y21.061
X91.695 Y20.983
X91.658 Y20.928
X91.567 Y20.795
X91.109 Y20.13
X91.03 Y20.015
X91.018 Y19.997
X90.922 Y19.864
X90.364 Y19.093
X90.345 Y19.066
X90.245 Y18.933
X89.638 Y18.135
X89.566 Y18.043
X89.534 Y18.002
X89.3 Y17.709
X88.897 Y17.204
X88.787 Y17.071
X88.23 Y16.406
X88.118 Y16.273
X88.103 Y16.255
X88.002 Y16.14
X87.417 Y15.475
X87.304 Y15.347
X87.299 Y15.342
X87.177 Y15.209
X86.563 Y14.544
X86.506 Y14.482
X86.437 Y14.411
X86.373 Y14.345
X85.794 Y13.746
X85.707 Y13.657
X85.664 Y13.613
X85.574 Y13.525
X84.909 Y12.869
X84.854 Y12.815
X84.776 Y12.742
X84.713 Y12.682
X84.005 Y12.017
X83.978 Y11.992
X83.857 Y11.884
X83.179 Y11.277
X83.115 Y11.219
X83.046 Y11.16
X82.96 Y11.086
X82.248 Y10.478
X82.179 Y10.421
X81.317 Y9.719
X81.194 Y9.623
X80.385 Y8.997
X80.334 Y8.958
X79.587 Y8.408
X79.431 Y8.293
X79.321 Y8.214
X78.522 Y7.655
X78.483 Y7.628
X78.389 Y7.563
X77.591 Y7.032
X77.486 Y6.963
X77.458 Y6.944
X77.325 Y6.859
X76.646 Y6.431
X76.527 Y6.356
X76.434 Y6.298
X76.394 Y6.273
X75.544 Y5.766
X75.462 Y5.717
X75.329 Y5.64
X74.531 Y5.189
X74.398 Y5.114
X74.374 Y5.101
X74.265 Y5.042
X73.466 Y4.616
X73.377 Y4.569
X73.333 Y4.546
X73.2 Y4.478
X72.402 Y4.077
X72.321 Y4.037
X72.269 Y4.011
X72.136 Y3.947
X71.338 Y3.571
X71.204 Y3.508
X71.197 Y3.505
X71.071 Y3.448
X70.273 Y3.095
X70.14 Y3.036
X70.007 Y2.98
X69.209 Y2.65
X69.076 Y2.595
X69.024 Y2.574
X68.942 Y2.541
X68.809 Y2.49
X67.99 Y2.175
X67.878 Y2.132
X67.745 Y2.083
X66.88 Y1.776
X66.814 Y1.752
X66.681 Y1.705
X66.148 Y1.531
X65.679 Y1.377
X65.616 Y1.356
X65.483 Y1.315
X64.552 Y1.034
X64.419 Y0.995
X64.358 Y0.978
X63.354 Y0.703
X63.221 Y0.667
X63.088 Y0.634
X62.29 Y0.437
X62.157 Y0.404
X62.024 Y0.372
X61.891 Y0.343
X61.092 Y0.167
X60.959 Y0.138
X60.826 Y0.11
X59.814 Y-0.087
X59.762 Y-0.097
X59.629 Y-0.122
X59.496 Y-0.144
X58.697 Y-0.278
X58.564 Y-0.3
X58.431 Y-0.322
X58.298 Y-0.341
X57.367 Y-0.473
X57.274 Y-0.486
X57.234 Y-0.491
X57.101 Y-0.507
X56.137 Y-0.619
X56.036 Y-0.63
X55.903 Y-0.643
X54.972 Y-0.727
X54.839 Y-0.739
X54.706 Y-0.75
X53.641 Y-0.818
X53.508 Y-0.826
X53.375 Y-0.832
X52.444 Y-0.867
X52.311 Y-0.872
X52.177 Y-0.876
X51.246 Y-0.888
X51.113 Y-0.889
X50.98 Y-0.891
X50.847 Y-0.889
X49.782 Y-0.876
X49.649 Y-0.872
X49.516 Y-0.867
X48.585 Y-0.832
X48.452 Y-0.826
X48.319 Y-0.818
X47.254 Y-0.75
X47.121 Y-0.739
X46.988 Y-0.727
X46.057 Y-0.643
X45.924 Y-0.63
X45.824 Y-0.619
X44.859 Y-0.507
X44.726 Y-0.491
X44.687 Y-0.486
X44.593 Y-0.472
X43.662 Y-0.341
X43.529 Y-0.322
X43.396 Y-0.3
X42.464 Y-0.144
X42.331 Y-0.121
X42.198 Y-0.097
X42.147 Y-0.087
X41.267 Y0.084
X41.134 Y0.11
X41.001 Y0.138
X40.868 Y0.167
X40.069 Y0.343
X39.936 Y0.373
X39.803 Y0.404
X39.67 Y0.437
X38.872 Y0.634
X38.739 Y0.667
X38.606 Y0.703
X37.603 Y0.978
X37.541 Y0.995
X37.408 Y1.035
X36.477 Y1.315
X36.344 Y1.356
X36.282 Y1.377
X35.412 Y1.662
X35.279 Y1.706
X35.146 Y1.752
X35.081 Y1.776
X34.215 Y2.084
X34.082 Y2.132
X33.971 Y2.175
X33.151 Y2.49
X33.017 Y2.541
X32.937 Y2.574
X32.884 Y2.595
X31.953 Y2.98
X31.82 Y3.037
X31.687 Y3.095
X30.889 Y3.449
X30.764 Y3.505
X30.756 Y3.508
X30.622 Y3.571
X29.824 Y3.948
X29.691 Y4.011
X29.64 Y4.037
X29.558 Y4.078
X28.76 Y4.479
X28.627 Y4.546
X28.584 Y4.569
X28.494 Y4.617
X27.695 Y5.043
X27.587 Y5.101
X27.562 Y5.114
X27.429 Y5.189
X26.631 Y5.64
X26.498 Y5.717
X26.417 Y5.766
X25.566 Y6.274
X25.527 Y6.298
X25.433 Y6.356
X25.3 Y6.44
X24.635 Y6.86
X24.502 Y6.945
X24.475 Y6.963
X24.369 Y7.033
X23.571 Y7.564
X23.477 Y7.628
X23.437 Y7.656
X22.905 Y8.028
X22.639 Y8.215
X22.53 Y8.293
X22.506 Y8.31
X22.373 Y8.408
X21.708 Y8.898
X21.627 Y8.958
X21.575 Y8.998
X21.442 Y9.101
X20.767 Y9.623
X20.643 Y9.72
X20.599 Y9.756
X20.51 Y9.828
X19.781 Y10.421
X19.712 Y10.479
X18.914 Y11.161
X18.846 Y11.219
X18.104 Y11.884
X17.982 Y11.993
X17.956 Y12.017
X17.248 Y12.682
X17.184 Y12.742
X17.107 Y12.815
X17.051 Y12.87
X16.386 Y13.526
X16.297 Y13.613
X16.252 Y13.658
X15.587 Y14.345
X15.524 Y14.411
X15.454 Y14.483
X15.397 Y14.544
X14.784 Y15.209
X14.656 Y15.348
X14.543 Y15.475
X13.958 Y16.14
X13.857 Y16.255
X13.842 Y16.273
X13.724 Y16.414
X13.192 Y17.049
X13.173 Y17.071
X13.064 Y17.204
X12.527 Y17.876
X12.427 Y18.002
X12.394 Y18.043
X12.322 Y18.135
X11.716 Y18.933
X11.616 Y19.066
X11.039 Y19.864
X10.943 Y19.997
X10.93 Y20.015
X10.851 Y20.13
X10.394 Y20.795
X10.303 Y20.928
X10.265 Y20.984
X10.214 Y21.061
X9.693 Y21.859
X9.607 Y21.992
X9.6 Y22.004
X9.525 Y22.125
X9.067 Y22.864
X9.031 Y22.923
X8.951 Y23.056
X8.483 Y23.854
X8.405 Y23.987
X8.402 Y23.992
X8.33 Y24.12
X7.87 Y24.95
X7.814 Y25.052
X7.744 Y25.185
X7.326 Y25.983
X7.257 Y26.116
X7.205 Y26.22
X6.797 Y27.047
X6.732 Y27.18
X6.672 Y27.306
X6.273 Y28.167
X6.238 Y28.244
X6.179 Y28.377
X5.833 Y29.175
X5.775 Y29.308
X5.741 Y29.386
X5.718 Y29.441
X5.341 Y30.372
X5.287 Y30.505
X5.237 Y30.638
X4.936 Y31.436
X4.885 Y31.569
X4.837 Y31.702
X4.511 Y32.633
X4.465 Y32.766
X4.421 Y32.899
X4.121 Y33.83
X4.079 Y33.963
X4.04 Y34.096
X3.804 Y34.894
X3.765 Y35.027
X3.745 Y35.094
X3.727 Y35.16
X3.691 Y35.293
X3.477 Y36.091
X3.441 Y36.224
X3.407 Y36.357
X3.181 Y37.288
X3.149 Y37.421
X3.119 Y37.554
X2.917 Y38.485
X2.889 Y38.618
X2.861 Y38.751
X2.681 Y39.7
X2.659 Y39.815
X2.635 Y39.948
X2.46 Y41.012
X2.439 Y41.145
X2.42 Y41.278
X2.29 Y42.209
X2.282 Y42.273
X2.272 Y42.342
X2.256 Y42.475
X2.149 Y43.424
X2.136 Y43.539
X2.122 Y43.672
X2.04 Y44.603
X2.028 Y44.736
X2.017 Y44.869
X2.016 Y44.894
X1.95 Y45.933
X1.942 Y46.066
X1.936 Y46.199
X1.9 Y47.13
X1.895 Y47.263
X1.891 Y47.396
X1.889 Y47.529
X1.882 Y48.054
Y48.059
G3 X1.514 Y48.369 I-0.317 J-0.004
G1 X0.436 Y48.195
X0.367 Y48.184 Z-0.635
X0.3 Y48.173 Z-0.611
X0.241 Y48.164 Z-0.573
X0.191 Y48.156 Z-0.523
X0.154 Y48.15 Z-0.463
X0.131 Y48.146 Z-0.396
X0.123 Y48.145 Z-0.325
G0 Z5.
X-0.137 Y47.716
Z4.575
G1 Z-0.425 F200.
X-0.129 Y47.717 Z-0.496
X-0.105 Z-0.563
X-0.067 Z-0.623
X-0.017 Y47.718 Z-0.673
X0.043 Y47.719 Z-0.711
X0.11 Y47.72 Z-0.735
X0.181 Z-0.743
X1.569 Y47.738
G3 X1.882 Y48.059 I-0.004 J0.317
G1 X1.877 Y48.46
X1.876 Y48.593
Y48.727
X1.877 Y48.86
X1.889 Y49.791
X1.891 Y49.924
X1.896 Y50.057
X1.901 Y50.19
X1.936 Y51.121
X1.942 Y51.254
X1.95 Y51.387
X2.016 Y52.423
X2.018 Y52.451
X2.029 Y52.584
X2.04 Y52.717
X2.123 Y53.648
X2.136 Y53.781
X2.149 Y53.892
X2.257 Y54.845
X2.273 Y54.978
X2.282 Y55.044
X2.291 Y55.111
X2.42 Y56.042
X2.439 Y56.175
X2.46 Y56.308
X2.482 Y56.441
X2.613 Y57.239
X2.635 Y57.372
X2.66 Y57.505
X2.681 Y57.617
X2.862 Y58.569
X2.889 Y58.702
X2.918 Y58.835
X3.119 Y59.766
X3.15 Y59.899
X3.182 Y60.032
X3.408 Y60.963
X3.442 Y61.096
X3.477 Y61.229
X3.692 Y62.027
X3.728 Y62.16
X3.745 Y62.222
X3.766 Y62.293
X3.805 Y62.426
X4.041 Y63.224
X4.08 Y63.357
X4.122 Y63.49
X4.422 Y64.421
X4.466 Y64.554
X4.512 Y64.687
X4.81 Y65.537
X4.838 Y65.618
X4.887 Y65.751
X4.937 Y65.884
X5.238 Y66.682
X5.289 Y66.815
X5.342 Y66.948
X5.666 Y67.746
X5.72 Y67.879
X5.741 Y67.93
X5.776 Y68.012
X5.834 Y68.145
X6.18 Y68.943
X6.24 Y69.076
X6.273 Y69.15
X6.672 Y70.011
X6.733 Y70.14
X6.799 Y70.273
X7.205 Y71.097
X7.258 Y71.204
X7.327 Y71.337
X7.745 Y72.135
X7.816 Y72.268
X7.87 Y72.367
X8.331 Y73.2
X8.402 Y73.325
X8.407 Y73.333
X8.484 Y73.466
X8.952 Y74.264
X9.032 Y74.397
X9.067 Y74.454
X9.526 Y75.195
X9.6 Y75.313
X9.609 Y75.328
X9.695 Y75.461
X10.216 Y76.259
X10.265 Y76.334
X10.304 Y76.392
X10.398 Y76.528
X10.853 Y77.19
X10.93 Y77.302
X10.945 Y77.323
X11.04 Y77.456
X11.596 Y78.224
X11.617 Y78.254
X11.717 Y78.387
X12.324 Y79.185
X12.394 Y79.274
X12.428 Y79.318
X12.535 Y79.451
X13.065 Y80.116
X13.175 Y80.249
X13.192 Y80.269
X13.733 Y80.914
X13.844 Y81.047
X13.857 Y81.062
X13.96 Y81.18
X14.545 Y81.845
X14.656 Y81.97
X14.663 Y81.978
X14.789 Y82.114
X15.399 Y82.776
X15.454 Y82.835
X15.526 Y82.909
X15.587 Y82.973
X16.169 Y83.574
X16.252 Y83.66
X16.299 Y83.707
X16.386 Y83.792
X17.051 Y84.448
X17.109 Y84.505
X17.184 Y84.576
X17.25 Y84.638
X17.958 Y85.303
X17.982 Y85.326
X18.105 Y85.436
X18.781 Y86.041
X18.848 Y86.101
X18.914 Y86.158
X19.003 Y86.234
X19.712 Y86.839
X19.783 Y86.899
X20.643 Y87.599
X20.769 Y87.697
X21.575 Y88.321
X21.629 Y88.362
X22.373 Y88.91
X22.531 Y89.027
X22.639 Y89.104
X23.304 Y89.57
X23.437 Y89.663
X23.479 Y89.692
X23.571 Y89.755
X24.369 Y90.286
X24.502 Y90.374
X24.635 Y90.459
X25.317 Y90.889
X25.433 Y90.963
X25.528 Y91.022
X25.566 Y91.045
X26.418 Y91.554
X26.498 Y91.602
X26.631 Y91.679
X27.429 Y92.13
X27.562 Y92.205
X27.589 Y92.219
X27.695 Y92.277
X28.494 Y92.702
X28.586 Y92.751
X28.627 Y92.773
X28.76 Y92.84
X29.558 Y93.241
X29.642 Y93.283
X29.691 Y93.308
X29.824 Y93.371
X30.622 Y93.748
X30.756 Y93.811
X30.765 Y93.815
X30.889 Y93.871
X31.687 Y94.224
X31.82 Y94.283
X31.953 Y94.339
X32.751 Y94.669
X32.884 Y94.724
X32.939 Y94.746
X33.017 Y94.778
X33.151 Y94.829
X33.972 Y95.145
X34.082 Y95.187
X34.215 Y95.236
X35.082 Y95.544
X35.146 Y95.567
X35.279 Y95.614
X35.412 Y95.658
X36.211 Y95.92
X36.283 Y95.943
X36.344 Y95.963
X36.477 Y96.005
X37.408 Y96.285
X37.541 Y96.325
X37.604 Y96.342
X38.576 Y96.608
X38.606 Y96.617
X38.739 Y96.652
X38.872 Y96.685
X39.67 Y96.882
X39.803 Y96.915
X39.936 Y96.947
X40.069 Y96.977
X40.868 Y97.152
X41.001 Y97.182
X41.134 Y97.21
X41.267 Y97.236
X42.147 Y97.407
X42.198 Y97.416
X42.331 Y97.441
X42.464 Y97.464
X43.263 Y97.597
X43.396 Y97.62
X43.529 Y97.641
X43.662 Y97.66
X44.593 Y97.792
X44.688 Y97.806
X44.726 Y97.811
X44.859 Y97.827
X45.825 Y97.939
X45.924 Y97.95
X46.057 Y97.963
X46.988 Y98.047
X47.121 Y98.059
X47.254 Y98.07
X48.186 Y98.129
X48.319 Y98.138
X48.452 Y98.146
X48.585 Y98.152
X49.516 Y98.187
X49.649 Y98.192
X49.782 Y98.196
X50.714 Y98.208
X50.847 Y98.209
X50.98 Y98.211
X51.113 Y98.209
X51.246 Y98.208
X52.177 Y98.196
X52.311 Y98.192
X52.444 Y98.187
X53.375 Y98.152
X53.508 Y98.146
X53.641 Y98.138
X53.774 Y98.129
X54.706 Y98.07
X54.839 Y98.059
X54.972 Y98.047
X55.903 Y97.963
X56.036 Y97.95
X56.136 Y97.939
X57.101 Y97.827
X57.234 Y97.811
X57.273 Y97.806
X57.367 Y97.793
X58.298 Y97.661
X58.431 Y97.642
X58.564 Y97.62
X58.697 Y97.598
X59.496 Y97.464
X59.629 Y97.441
X59.762 Y97.416
X59.813 Y97.407
X60.693 Y97.236
X60.826 Y97.21
X60.959 Y97.182
X61.092 Y97.153
X61.891 Y96.977
X62.024 Y96.947
X62.157 Y96.915
X62.29 Y96.883
X63.088 Y96.686
X63.221 Y96.652
X63.354 Y96.617
X63.384 Y96.608
X64.356 Y96.342
X64.419 Y96.325
X64.552 Y96.285
X65.483 Y96.005
X65.616 Y95.963
X65.677 Y95.943
X65.749 Y95.92
X66.548 Y95.658
X66.681 Y95.614
X66.814 Y95.568
X66.879 Y95.544
X67.745 Y95.236
X67.878 Y95.187
X67.988 Y95.145
X68.809 Y94.83
X68.942 Y94.778
X69.021 Y94.746
X69.076 Y94.724
X69.209 Y94.669
X70.007 Y94.339
X70.14 Y94.283
X70.273 Y94.224
X71.071 Y93.871
X71.195 Y93.815
X71.204 Y93.811
X71.338 Y93.748
X72.136 Y93.371
X72.269 Y93.308
X72.318 Y93.283
X72.402 Y93.241
X73.2 Y92.84
X73.333 Y92.773
X73.374 Y92.751
X73.466 Y92.702
X74.265 Y92.277
X74.371 Y92.219
X74.398 Y92.205
X74.531 Y92.13
X75.329 Y91.679
X75.462 Y91.602
X75.542 Y91.554
X76.394 Y91.045
X76.432 Y91.022
X76.527 Y90.963
X76.643 Y90.889
X77.325 Y90.459
X77.458 Y90.374
X77.483 Y90.357
X77.591 Y90.286
X78.389 Y89.755
X78.48 Y89.692
X78.522 Y89.663
X78.671 Y89.559
X79.321 Y89.104
X79.428 Y89.027
X79.454 Y89.008
X79.587 Y88.91
X80.252 Y88.42
X80.331 Y88.362
X80.385 Y88.321
X80.504 Y88.229
X81.191 Y87.697
X81.317 Y87.598
X81.359 Y87.564
X81.45 Y87.49
X82.176 Y86.899
X82.248 Y86.839
X83.046 Y86.157
X83.112 Y86.101
X83.179 Y86.041
X83.854 Y85.436
X83.978 Y85.325
X84.002 Y85.303
X84.71 Y84.638
X84.776 Y84.575
X84.851 Y84.505
X84.909 Y84.448
X85.574 Y83.792
X85.661 Y83.707
X85.707 Y83.66
X86.373 Y82.972
X86.434 Y82.909
X86.506 Y82.835
X86.561 Y82.776
X87.174 Y82.111
X87.304 Y81.97
X87.415 Y81.845
X87.999 Y81.18
X88.103 Y81.062
X88.116 Y81.047
X88.236 Y80.904
X88.768 Y80.269
X88.784 Y80.249
X88.894 Y80.116
X89.433 Y79.441
X89.531 Y79.318
X89.566 Y79.274
X89.636 Y79.185
X90.231 Y78.401
X90.242 Y78.387
X90.342 Y78.254
X90.364 Y78.223
X90.919 Y77.456
X91.015 Y77.323
X91.03 Y77.302
X91.107 Y77.19
X91.564 Y76.525
X91.655 Y76.392
X91.695 Y76.333
X91.744 Y76.259
X92.265 Y75.461
X92.351 Y75.328
X92.36 Y75.313
X92.433 Y75.195
X92.893 Y74.453
X92.927 Y74.397
X93.008 Y74.264
X93.476 Y73.466
X93.553 Y73.333
X93.558 Y73.325
X93.628 Y73.2
X94.09 Y72.367
X94.144 Y72.268
X94.215 Y72.135
X94.632 Y71.337
X94.701 Y71.204
X94.755 Y71.097
X95.161 Y70.273
X95.226 Y70.14
X95.287 Y70.011
X95.687 Y69.149
X95.72 Y69.076
X95.779 Y68.943
X96.126 Y68.145
X96.184 Y68.012
X96.219 Y67.93
X96.24 Y67.879
X96.294 Y67.746
X96.618 Y66.947
X96.671 Y66.815
X96.722 Y66.682
X97.023 Y65.884
X97.073 Y65.751
X97.122 Y65.618
X97.447 Y64.687
X97.494 Y64.554
X97.537 Y64.421
X97.837 Y63.49
X97.88 Y63.357
X97.919 Y63.224
X98.155 Y62.426
X98.194 Y62.293
X98.215 Y62.222
X98.232 Y62.16
X98.268 Y62.027
X98.482 Y61.229
X98.518 Y61.096
X98.552 Y60.963
X98.778 Y60.032
X98.81 Y59.899
X98.841 Y59.766
X99.042 Y58.835
X99.071 Y58.702
X99.098 Y58.569
X99.279 Y57.616
X99.3 Y57.505
X99.325 Y57.372
X99.346 Y57.239
X99.478 Y56.441
X99.5 Y56.308
X99.521 Y56.175
X99.54 Y56.042
X99.669 Y55.111
X99.678 Y55.043
X99.687 Y54.978
X99.703 Y54.845
X99.811 Y53.892
X99.824 Y53.781
X99.837 Y53.648
X99.92 Y52.717
X99.931 Y52.584
X99.942 Y52.451
X99.944 Y52.423
X100.01 Y51.387
X100.018 Y51.254
X100.024 Y51.121
X100.059 Y50.19
X100.064 Y50.057
X100.069 Y49.924
X100.071 Y49.791
X100.083 Y48.86
X100.084 Y48.727
Y48.593
X100.083 Y48.46
X100.071 Y47.529
X100.069 Y47.396
X100.065 Y47.263
X100.06 Y47.13
X100.024 Y46.199
X100.018 Y46.066
X100.01 Y45.933
X99.944 Y44.893
X99.943 Y44.869
X99.932 Y44.736
X99.92 Y44.603
X99.838 Y43.672
X99.824 Y43.539
X99.811 Y43.424
X99.704 Y42.475
X99.688 Y42.342
X99.678 Y42.272
X99.67 Y42.209
X99.54 Y41.278
X99.521 Y41.145
X99.5 Y41.012
X99.479 Y40.879
X99.347 Y40.081
X99.325 Y39.948
X99.301 Y39.815
X99.279 Y39.699
X99.099 Y38.751
X99.071 Y38.618
X99.043 Y38.485
X98.842 Y37.554
X98.811 Y37.421
X98.779 Y37.288
X98.553 Y36.357
X98.519 Y36.224
X98.484 Y36.091
X98.269 Y35.293
X98.233 Y35.16
X98.215 Y35.094
X98.195 Y35.027
X98.156 Y34.894
X97.92 Y34.096
X97.881 Y33.963
X97.839 Y33.83
X97.539 Y32.899
X97.495 Y32.766
X97.449 Y32.633
X97.15 Y31.779
X97.123 Y31.702
X97.075 Y31.569
X97.025 Y31.436
X96.724 Y30.638
X96.673 Y30.505
X96.619 Y30.372
X96.296 Y29.574
X96.242 Y29.441
X96.219 Y29.386
X96.185 Y29.308
X96.128 Y29.175
X95.781 Y28.377
X95.722 Y28.244
X95.687 Y28.167
X95.287 Y27.305
X95.228 Y27.18
X95.163 Y27.047
X94.755 Y26.219
X94.704 Y26.116
X94.634 Y25.983
X94.217 Y25.185
X94.146 Y25.052
X94.09 Y24.949
X93.631 Y24.12
X93.558 Y23.991
X93.556 Y23.987
X93.478 Y23.854
X93.01 Y23.056
X92.93 Y22.923
X92.893 Y22.863
X92.436 Y22.125
X92.36 Y22.004
X92.353 Y21.992
X92.267 Y21.859
X91.746 Y21.061
X91.695 Y20.983
X91.658 Y20.928
X91.567 Y20.795
X91.109 Y20.13
X91.03 Y20.015
X91.018 Y19.997
X90.922 Y19.864
X90.364 Y19.093
X90.345 Y19.066
X90.245 Y18.933
X89.638 Y18.135
X89.566 Y18.043
X89.534 Y18.002
X89.428 Y17.869
X88.897 Y17.204
X88.787 Y17.071
X88.768 Y17.048
X88.23 Y16.406
X88.118 Y16.273
X88.103 Y16.255
X88.002 Y16.14
X87.418 Y15.475
X87.304 Y15.347
X87.177 Y15.209
X86.563 Y14.544
X86.506 Y14.482
X86.437 Y14.411
X86.373 Y14.345
X85.794 Y13.746
X85.707 Y13.657
X85.664 Y13.613
X85.574 Y13.525
X84.909 Y12.869
X84.854 Y12.815
X84.776 Y12.742
X84.713 Y12.682
X84.005 Y12.017
X83.978 Y11.992
X83.857 Y11.884
X83.179 Y11.277
X83.115 Y11.219
X83.046 Y11.16
X82.96 Y11.086
X82.248 Y10.478
X82.179 Y10.421
X81.317 Y9.719
X81.194 Y9.623
X80.385 Y8.997
X80.334 Y8.958
X79.587 Y8.408
X79.431 Y8.293
X79.321 Y8.214
X78.656 Y7.748
X78.522 Y7.655
X78.483 Y7.628
X78.389 Y7.563
X77.591 Y7.032
X77.458 Y6.944
X77.325 Y6.859
X76.646 Y6.431
X76.527 Y6.356
X76.434 Y6.298
X76.394 Y6.273
X75.544 Y5.766
X75.462 Y5.717
X75.329 Y5.64
X74.531 Y5.189
X74.398 Y5.114
X74.374 Y5.101
X74.265 Y5.042
X73.466 Y4.616
X73.377 Y4.569
X73.333 Y4.546
X73.2 Y4.478
X72.402 Y4.077
X72.321 Y4.037
X72.269 Y4.011
X72.136 Y3.947
X71.338 Y3.571
X71.197 Y3.505
X71.071 Y3.448
X70.273 Y3.095
X70.14 Y3.036
X70.007 Y2.979
X69.209 Y2.65
X69.076 Y2.595
X69.024 Y2.574
X68.942 Y2.541
X68.809 Y2.49
X67.99 Y2.175
